;FLAVOR:Marlin
;TIME:5497
;Filament used: 2.66776m
;Layer height: 0.2
;MINX:50.975
;MINY:36.666
;MINZ:0.2
;MAXX:178.117
;MAXY:194.16
;MAXZ:37
;Generated with Cura_SteamEngine master
M140 S60
M105
M190 S60
M104 S200
M105
M109 S200
M82 ;absolute extrusion mode
; Ender 3 Custom Start G-code
G92 E0 ; Reset Extruder
G28 ; Home all axes
G1 Z2.0 F3000 ; Move Z Axis up little to prevent scratching of Heat Bed
G1 X0.1 Y20 Z0.3 F5000.0 ; Move to start position
G1 X0.1 Y200.0 Z0.3 F1500.0 E15 ; Draw the first line
G1 X0.4 Y200.0 Z0.3 F5000.0 ; Move to side a little
G1 X0.4 Y20 Z0.3 F1500.0 E30 ; Draw the second line
G92 E0 ; Reset Extruder
G1 Z2.0 F3000 ; Move Z Axis up little to prevent scratching of Heat Bed
G1 X5 Y20 Z0.3 F5000.0 ; Move over to prevent blob squish
G92 E0
G92 E0
G1 F1500 E-6.5
;LAYER_COUNT:185
;LAYER:0
M107
G0 F6000 X104.568 Y37.476 Z0.2
;TYPE:SKIRT
G1 F1500 E0
G1 F1200 X105.47 Y37.529 E0.03005
G1 X106.363 Y37.662 E0.06008
G1 X107.241 Y37.873 E0.09012
G1 X108.097 Y38.161 E0.12015
G1 X108.924 Y38.524 E0.15019
G1 X109.716 Y38.958 E0.18023
G1 X110.467 Y39.46 E0.21028
G1 X111.17 Y40.028 E0.24034
G1 X111.819 Y40.654 E0.27033
G1 X112.395 Y41.315 E0.29949
G1 X112.521 Y41.473 E0.30621
G1 X112.775 Y41.806 E0.32014
G1 X113.128 Y42.288 E0.34001
G1 X113.593 Y42.981 E0.36777
G1 X113.801 Y43.32 E0.381
G1 X114.025 Y43.703 E0.39575
G1 X114.176 Y43.975 E0.4061
G1 X114.396 Y44.394 E0.42184
G1 X114.805 Y45.219 E0.45247
G1 X115.831 Y47.328 E0.53047
G1 X117.008 Y49.586 E0.61516
G1 X118.243 Y51.798 E0.69943
G1 X119.534 Y53.963 E0.78327
G1 X120.91 Y56.131 E0.86867
G1 X122.325 Y58.225 E0.95273
G1 X123.789 Y60.266 E1.03627
G1 X125.368 Y62.341 E1.12299
G1 X126.925 Y64.271 E1.20547
G1 X128.57 Y66.195 E1.28966
G1 X130.33 Y68.142 E1.37696
G1 X131.201 Y69.065 E1.41917
G1 X131.791 Y69.679 E1.44749
G1 X132.387 Y70.357 E1.47751
G1 X132.697 Y70.763 E1.4945
G1 X132.894 Y71.035 E1.50567
G1 X133.433 Y71.86 E1.53845
G1 X133.722 Y72.353 E1.55746
G1 X134.274 Y73.44 E1.59801
G1 X134.412 Y73.757 E1.60951
G1 X134.737 Y74.602 E1.63962
G1 X134.849 Y74.938 E1.6514
G1 X135.096 Y75.807 E1.68145
G1 X135.232 Y76.479 E1.70425
G1 X135.71 Y79.335 E1.80056
G1 X136.184 Y81.82 E1.8847
G1 X136.743 Y84.357 E1.97111
G1 X137.345 Y86.766 E2.0537
G1 X138.032 Y89.215 E2.13829
G1 X138.793 Y91.663 E2.22356
G1 X139.608 Y94.041 E2.30717
G1 X140.514 Y96.463 E2.39317
G1 X141.465 Y98.798 E2.47703
G1 X142.487 Y101.117 E2.56132
G1 X143.576 Y103.416 E2.64593
G1 X144.729 Y105.675 E2.73029
G1 X145.949 Y107.913 E2.81506
G1 X147.218 Y110.088 E2.89882
G1 X148.562 Y112.25 E2.98349
G1 X149.981 Y114.397 E3.06908
G1 X151.413 Y116.432 E3.15185
G1 X152.956 Y118.5 E3.23766
G1 X154.507 Y120.461 E3.32082
G1 X156.149 Y122.42 E3.40584
G1 X157.848 Y124.334 E3.49096
G1 X159.579 Y126.178 E3.57508
G1 X161.377 Y127.985 E3.65987
G1 X163.2 Y129.719 E3.74355
G1 X165.109 Y131.432 E3.82886
G1 X167.051 Y133.081 E3.91359
G1 X168.994 Y134.636 E3.99636
G1 X170.835 Y136.031 E4.07319
G1 X171.415 Y136.461 E4.0972
G1 X172.116 Y137.031 E4.12725
G1 X172.763 Y137.66 E4.15727
G1 X173.306 Y138.284 E4.18478
G1 X173.442 Y138.454 E4.19202
G1 X173.715 Y138.812 E4.20699
G1 X174.026 Y139.238 E4.22454
G1 X174.521 Y139.982 E4.25426
G1 X174.935 Y140.668 E4.28091
G1 X175.325 Y141.376 E4.30779
G1 X175.49 Y141.706 E4.32006
G1 X175.703 Y142.16 E4.33674
G1 X175.857 Y142.51 E4.34946
G1 X176.029 Y142.924 E4.36437
G1 X176.151 Y143.238 E4.37558
G1 X176.309 Y143.674 E4.391
G1 X176.43 Y144.033 E4.4036
G1 X176.558 Y144.443 E4.41789
G1 X176.656 Y144.78 E4.42956
G1 X176.782 Y145.253 E4.44584
G1 X176.867 Y145.608 E4.45798
G1 X177.038 Y146.498 E4.48812
G1 X177.194 Y147.558 E4.52376
G1 X177.288 Y148.483 E4.55468
G1 X177.309 Y148.865 E4.56741
G1 X177.318 Y149.776 E4.59771
G1 X177.285 Y150.734 E4.62959
G1 X177.203 Y151.721 E4.66253
G1 X177.097 Y152.522 E4.68941
G1 X176.948 Y153.371 E4.71808
G1 X176.867 Y153.74 E4.73064
G1 X176.761 Y154.174 E4.7455
G1 X176.669 Y154.52 E4.75741
G1 X176.542 Y154.961 E4.77267
G1 X176.435 Y155.301 E4.78453
G1 X176.301 Y155.697 E4.79843
G1 X176.181 Y156.03 E4.8102
G1 X176 Y156.497 E4.82686
G1 X175.867 Y156.816 E4.83836
G1 X175.667 Y157.264 E4.85468
G1 X175.499 Y157.618 E4.86771
G1 X175.329 Y157.96 E4.88041
G1 X175.17 Y158.265 E4.89185
G1 X174.916 Y158.723 E4.90927
G1 X174.733 Y159.034 E4.92127
G1 X174.264 Y159.759 E4.94999
G1 X173.707 Y160.545 E4.98203
G1 X173.153 Y161.258 E5.01206
G1 X172.538 Y161.919 E5.04209
G1 X171.867 Y162.523 E5.07212
G1 X171.144 Y163.065 E5.10217
G1 X170.377 Y163.542 E5.13222
G1 X169.571 Y163.949 E5.16225
G1 X168.732 Y164.282 E5.19227
G1 X167.438 Y164.638 E5.23691
G1 X166.621 Y164.806 E5.26465
G1 X164.025 Y165.374 E5.35304
G1 X161.585 Y165.981 E5.43666
G1 X159.125 Y166.667 E5.52161
G1 X156.712 Y167.415 E5.60563
G1 X154.291 Y168.24 E5.6907
G1 X151.891 Y169.135 E5.77589
G1 X149.577 Y170.074 E5.85895
G1 X147.235 Y171.102 E5.94402
G1 X144.934 Y172.189 E6.02866
G1 X142.675 Y173.338 E6.11296
G1 X140.448 Y174.549 E6.19727
G1 X138.224 Y175.843 E6.28285
G1 X136.093 Y177.163 E6.36623
G1 X133.981 Y178.556 E6.45037
G1 X131.892 Y180.02 E6.53522
G1 X129.85 Y181.54 E6.61989
G1 X127.8 Y183.157 E6.70673
G1 X127.057 Y183.761 E6.73858
G1 X126.331 Y184.299 E6.76863
G1 X125.561 Y184.77 E6.79865
G1 X124.752 Y185.172 E6.8287
G1 X123.521 Y185.624 E6.87231
G1 X122.465 Y185.935 E6.90893
G1 X121.767 Y186.129 E6.93302
G1 X119.372 Y186.868 E7.01639
G1 X116.962 Y187.688 E7.10106
G1 X114.596 Y188.567 E7.18501
G1 X112.215 Y189.53 E7.27043
G1 X109.881 Y190.551 E7.35516
G1 X107.612 Y191.622 E7.43861
G1 X107.29 Y191.784 E7.4506
G1 X106.244 Y192.295 E7.48932
G1 X105.416 Y192.655 E7.51935
G1 X104.559 Y192.94 E7.54939
G1 X103.681 Y193.149 E7.57941
G1 X102.443 Y193.308 E7.62092
G1 X101.991 Y193.338 E7.63599
G1 X101.316 Y193.36 E7.65845
G1 X89.814 Y193.36 E8.04101
G1 X89.127 Y193.35 E8.06386
G1 X88.225 Y193.297 E8.09392
G1 X87.332 Y193.164 E8.12394
G1 X86.454 Y192.953 E8.15398
G1 X85.598 Y192.665 E8.18402
G1 X84.771 Y192.302 E8.21406
G1 X83.979 Y191.868 E8.24409
G1 X83.228 Y191.366 E8.27414
G1 X82.525 Y190.798 E8.3042
G1 X81.876 Y190.172 E8.33419
G1 X81.302 Y189.512 E8.36328
G1 X81.014 Y189.151 E8.37864
G1 X80.535 Y188.5 E8.40552
G1 X80.333 Y188.201 E8.41753
G1 X80.087 Y187.819 E8.43264
G1 X79.891 Y187.499 E8.44512
G1 X79.447 Y186.695 E8.47567
G1 X78.969 Y185.729 E8.51151
G1 X78.592 Y184.869 E8.54274
G1 X78.475 Y184.565 E8.55358
G1 X78.328 Y184.158 E8.56797
G1 X78.205 Y183.793 E8.58078
G1 X78.077 Y183.386 E8.59497
G1 X77.983 Y183.063 E8.60616
G1 X77.856 Y182.584 E8.62264
G1 X77.769 Y182.22 E8.63509
G1 X77.596 Y181.317 E8.66567
G1 X77.44 Y180.244 E8.70173
G1 X77.35 Y179.345 E8.73179
G1 X77.329 Y178.969 E8.74431
G1 X77.32 Y178.035 E8.77538
G1 X77.359 Y176.945 E8.81165
G1 X77.4 Y176.32 E8.83249
G1 X77.489 Y175.429 E8.86227
G1 X77.538 Y175.016 E8.8761
G1 X77.757 Y172.529 E8.95914
G1 X77.911 Y169.97 E9.04441
G1 X77.991 Y167.429 E9.12896
G1 X78 Y164.895 E9.21324
G1 X77.936 Y162.334 E9.29845
G1 X77.802 Y159.829 E9.38188
G1 X77.597 Y157.309 E9.46598
G1 X77.314 Y154.744 E9.55181
G1 X76.965 Y152.235 E9.63606
G1 X76.547 Y149.742 E9.72014
G1 X76.059 Y147.266 E9.80407
G1 X75.494 Y144.78 E9.88886
G1 X74.861 Y142.311 E9.97364
G1 X74.158 Y139.86 E10.05845
G1 X73.39 Y137.445 E10.14273
G1 X72.557 Y135.059 E10.22679
G1 X71.651 Y132.682 E10.3114
G1 X70.68 Y130.342 E10.39566
G1 X69.639 Y128.014 E10.48048
G1 X68.543 Y125.74 E10.56444
G1 X67.361 Y123.455 E10.65001
G1 X66.14 Y121.249 E10.73387
G1 X64.839 Y119.051 E10.81882
G1 X63.498 Y116.923 E10.90248
G1 X62.087 Y114.818 E10.98676
G1 X60.598 Y112.729 E11.07209
G1 X59.069 Y110.705 E11.15646
G1 X57.494 Y108.74 E11.24021
G1 X55.945 Y106.895 E11.32034
G1 X55.619 Y106.485 E11.33776
G1 X55.372 Y106.161 E11.35131
G1 X55.02 Y105.68 E11.37114
G1 X54.557 Y104.99 E11.39877
G1 X54.349 Y104.651 E11.412
G1 X54.125 Y104.268 E11.42676
G1 X53.974 Y103.996 E11.43711
G1 X53.758 Y103.586 E11.45252
G1 X53.583 Y103.234 E11.46559
G1 X53.216 Y102.404 E11.49578
G1 X52.868 Y101.513 E11.52759
G1 X52.552 Y100.571 E11.56064
G1 X52.354 Y99.869 E11.5849
G1 X52.137 Y98.934 E11.61682
G1 X51.997 Y98.168 E11.64272
G1 X51.886 Y97.39 E11.66886
G1 X51.845 Y96.996 E11.68204
G1 X51.806 Y96.509 E11.69829
G1 X51.784 Y96.115 E11.71141
G1 X51.775 Y95.177 E11.74261
G1 X51.814 Y94.1 E11.77846
G1 X51.883 Y93.227 E11.80758
G1 X51.922 Y92.909 E11.81824
G1 X51.996 Y92.409 E11.83505
G1 X52.061 Y92.034 E11.84771
G1 X52.187 Y91.408 E11.86895
G1 X52.32 Y90.864 E11.88757
G1 X52.504 Y90.192 E11.91075
G1 X52.79 Y89.307 E11.94168
G1 X53.095 Y88.493 E11.97059
G1 X53.414 Y87.737 E11.99788
G1 X53.576 Y87.392 E12.01056
G1 X53.781 Y86.98 E12.02587
G1 X53.944 Y86.67 E12.03752
G1 X54.172 Y86.259 E12.05315
G1 X54.349 Y85.957 E12.06479
G1 X54.848 Y85.188 E12.09528
G1 X55.417 Y84.391 E12.12785
G1 X55.973 Y83.68 E12.15787
G1 X56.755 Y82.864 E12.19546
G1 X58.734 Y81.015 E12.28554
G1 X60.528 Y79.242 E12.36944
G1 X62.311 Y77.38 E12.45518
G1 X63.983 Y75.529 E12.53814
G1 X65.667 Y73.557 E12.62439
G1 X67.225 Y71.624 E12.70697
G1 X68.785 Y69.571 E12.79273
G1 X70.259 Y67.514 E12.8769
G1 X71.67 Y65.421 E12.96085
G1 X73.039 Y63.262 E13.04588
G1 X74.341 Y61.075 E13.13053
G1 X75.581 Y58.852 E13.2152
G1 X76.737 Y56.632 E13.29844
G1 X77.859 Y54.321 E13.38389
G1 X78.904 Y52.004 E13.46843
G1 X79.883 Y49.664 E13.55279
G1 X80.982 Y46.776 E13.65557
G1 X81.166 Y46.269 E13.67351
G1 X81.357 Y45.782 E13.69091
G1 X81.486 Y45.476 E13.70195
G1 X81.645 Y45.119 E13.71495
G1 X81.81 Y44.766 E13.72791
G1 X82.026 Y44.331 E13.74406
G1 X82.183 Y44.033 E13.75527
G1 X82.402 Y43.639 E13.77026
G1 X82.585 Y43.326 E13.78232
G1 X83.071 Y42.573 E13.81213
G1 X83.625 Y41.792 E13.84397
G1 X84.179 Y41.079 E13.87401
G1 X84.795 Y40.418 E13.90406
G1 X85.466 Y39.814 E13.93408
G1 X86.188 Y39.272 E13.96411
G1 X86.956 Y38.796 E13.99416
G1 X87.762 Y38.39 E14.02418
G1 X88.602 Y38.056 E14.05425
G1 X89.467 Y37.798 E14.08427
G1 X90.352 Y37.618 E14.11431
G1 X91.314 Y37.513 E14.14649
G1 X91.75 Y37.486 E14.16102
G1 X92.379 Y37.466 E14.18195
G1 X103.881 Y37.466 E14.56451
G1 X104.568 Y37.476 E14.58736
G0 F6000 X104.574 Y37.076
G1 F1200 X105.493 Y37.129 E14.61798
G1 X106.404 Y37.262 E14.6486
G1 X107.3 Y37.474 E14.67923
G1 X108.175 Y37.762 E14.70986
G1 X109.021 Y38.125 E14.74048
G1 X109.832 Y38.561 E14.77111
G1 X110.602 Y39.065 E14.80172
G1 X111.326 Y39.634 E14.83234
G1 X111.998 Y40.263 E14.86296
G1 X112.707 Y41.066 E14.89859
G1 X112.833 Y41.224 E14.90531
G1 X113.098 Y41.57 E14.9198
G1 X113.451 Y42.052 E14.93967
G1 X113.934 Y42.771 E14.96848
G1 X114.142 Y43.11 E14.98171
G1 X114.375 Y43.509 E14.99708
G1 X114.526 Y43.781 E15.00743
G1 X114.754 Y44.216 E15.02376
G1 X115.164 Y45.044 E15.05449
G1 X116.187 Y47.147 E15.13228
G1 X117.354 Y49.385 E15.21622
G1 X118.578 Y51.577 E15.29973
G1 X119.888 Y53.775 E15.38483
G1 X121.23 Y55.889 E15.46811
G1 X122.666 Y58.014 E15.55342
G1 X124.116 Y60.037 E15.6362
G1 X125.651 Y62.053 E15.72048
G1 X127.256 Y64.043 E15.80551
G1 X128.888 Y65.951 E15.88902
G1 X130.611 Y67.858 E15.9745
G1 X131.528 Y68.828 E16.0189
G1 X132.079 Y69.402 E16.04536
G1 X132.688 Y70.092 E16.07597
G1 X133.021 Y70.528 E16.09422
G1 X133.218 Y70.8 E16.10539
G1 X133.778 Y71.657 E16.13944
G1 X134.067 Y72.15 E16.15844
G1 X134.641 Y73.28 E16.2006
G1 X134.779 Y73.597 E16.2121
G1 X135.116 Y74.476 E16.24341
G1 X135.228 Y74.812 E16.25519
G1 X135.481 Y75.697 E16.2858
G1 X135.626 Y76.413 E16.3101
G1 X136.101 Y79.246 E16.40564
G1 X136.58 Y81.758 E16.4907
G1 X137.12 Y84.213 E16.5743
G1 X137.732 Y86.659 E16.65816
G1 X138.423 Y89.126 E16.74338
G1 X139.171 Y91.531 E16.82715
G1 X139.996 Y93.94 E16.91184
G1 X140.883 Y96.309 E16.99597
G1 X141.824 Y98.621 E17.079
G1 X142.849 Y100.947 E17.16354
G1 X143.944 Y103.256 E17.24853
G1 X145.072 Y105.468 E17.33112
G1 X146.295 Y107.711 E17.41609
G1 X147.57 Y109.896 E17.50023
G1 X148.908 Y112.049 E17.58454
G1 X150.282 Y114.127 E17.6674
G1 X151.762 Y116.231 E17.75296
G1 X153.258 Y118.235 E17.83613
G1 X154.826 Y120.218 E17.92022
G1 X156.472 Y122.181 E18.00542
G1 X158.138 Y124.059 E18.08892
G1 X159.855 Y125.888 E18.17236
G1 X161.654 Y127.696 E18.25719
G1 X163.478 Y129.43 E18.34089
G1 X165.371 Y131.13 E18.42552
G1 X167.293 Y132.762 E18.50938
G1 X169.287 Y134.357 E18.59431
G1 X171.031 Y135.679 E18.6671
G1 X171.653 Y136.14 E18.69285
G1 X172.368 Y136.72 E18.72347
G1 X173.03 Y137.359 E18.75407
G1 X173.618 Y138.034 E18.78384
G1 X173.754 Y138.204 E18.79109
G1 X174.038 Y138.576 E18.80665
G1 X174.349 Y139.002 E18.82419
G1 X174.863 Y139.775 E18.85507
G1 X175.277 Y140.461 E18.88172
G1 X175.683 Y141.198 E18.90971
G1 X175.848 Y141.528 E18.92198
G1 X176.069 Y141.999 E18.93928
G1 X176.223 Y142.349 E18.952
G1 X176.401 Y142.779 E18.96748
G1 X176.523 Y143.093 E18.97868
G1 X176.688 Y143.546 E18.99472
G1 X176.809 Y143.905 E19.00732
G1 X176.942 Y144.331 E19.02216
G1 X177.04 Y144.668 E19.03383
G1 X177.171 Y145.16 E19.05077
G1 X177.256 Y145.515 E19.06291
G1 X177.434 Y146.44 E19.09424
G1 X177.59 Y147.5 E19.12987
G1 X177.687 Y148.461 E19.162
G1 X177.708 Y148.843 E19.17472
G1 X177.718 Y149.79 E19.20622
G1 X177.685 Y150.748 E19.23811
G1 X177.599 Y151.774 E19.27235
G1 X177.493 Y152.575 E19.29922
G1 X177.338 Y153.457 E19.32901
G1 X177.257 Y153.826 E19.34157
G1 X177.148 Y154.277 E19.35701
G1 X177.056 Y154.623 E19.36891
G1 X176.923 Y155.081 E19.38478
G1 X176.816 Y155.421 E19.39663
G1 X176.677 Y155.833 E19.41109
G1 X176.557 Y156.166 E19.42287
G1 X176.369 Y156.651 E19.44017
G1 X176.236 Y156.97 E19.45166
G1 X176.028 Y157.436 E19.46864
G1 X175.86 Y157.79 E19.48167
G1 X175.683 Y158.145 E19.49486
G1 X175.524 Y158.45 E19.5063
G1 X175.261 Y158.926 E19.52439
G1 X175.078 Y159.237 E19.53639
G1 X174.591 Y159.99 E19.56622
G1 X174.034 Y160.776 E19.59826
G1 X173.469 Y161.503 E19.62888
G1 X172.844 Y162.179 E19.6595
G1 X172.162 Y162.798 E19.69014
G1 X171.429 Y163.355 E19.72076
G1 X170.651 Y163.847 E19.75137
G1 X169.833 Y164.269 E19.78199
G1 X168.981 Y164.618 E19.81261
G1 X168.102 Y164.893 E19.84324
G1 X167.519 Y165.03 E19.86316
G1 X166.692 Y165.2 E19.89124
G1 X164.101 Y165.767 E19.97946
G1 X161.717 Y166.36 E20.06117
G1 X159.223 Y167.056 E20.14729
G1 X156.844 Y167.793 E20.23012
G1 X154.412 Y168.622 E20.31558
G1 X152.056 Y169.5 E20.39921
G1 X149.709 Y170.452 E20.48345
G1 X147.388 Y171.472 E20.56777
G1 X145.107 Y172.549 E20.65167
G1 X142.868 Y173.687 E20.7352
G1 X140.634 Y174.902 E20.81979
G1 X138.457 Y176.17 E20.90358
G1 X136.303 Y177.504 E20.98785
G1 X134.208 Y178.885 E21.07131
G1 X132.114 Y180.353 E21.15636
G1 X130.108 Y181.846 E21.23953
G1 X128.059 Y183.463 E21.32635
G1 X127.309 Y184.072 E21.35848
G1 X126.57 Y184.62 E21.38908
G1 X125.786 Y185.103 E21.41971
G1 X124.963 Y185.516 E21.45033
G1 X124.107 Y185.855 E21.48096
G1 X123.634 Y186.008 E21.49749
G1 X122.572 Y186.32 E21.53431
G1 X121.887 Y186.51 E21.55795
G1 X119.513 Y187.243 E21.64059
G1 X117.081 Y188.07 E21.72603
G1 X114.748 Y188.937 E21.80881
G1 X112.359 Y189.904 E21.89453
G1 X110.063 Y190.908 E21.97787
G1 X107.785 Y191.983 E22.06165
G1 X107.466 Y192.143 E22.07352
G1 X106.42 Y192.654 E22.11224
G1 X105.576 Y193.022 E22.14287
G1 X104.703 Y193.315 E22.17349
G1 X103.808 Y193.532 E22.20412
G1 X102.469 Y193.707 E22.24904
G1 X102.017 Y193.737 E22.26411
G1 X101.316 Y193.76 E22.28743
G1 X89.808 Y193.76 E22.67019
G1 X89.121 Y193.75 E22.69304
G1 X88.202 Y193.697 E22.72366
G1 X87.291 Y193.564 E22.75428
G1 X86.395 Y193.352 E22.78491
G1 X85.52 Y193.064 E22.81554
G1 X84.674 Y192.701 E22.84616
G1 X83.863 Y192.265 E22.87679
G1 X83.093 Y191.761 E22.9074
G1 X82.369 Y191.192 E22.93802
G1 X81.697 Y190.563 E22.96864
G1 X80.989 Y189.762 E23.00419
G1 X80.701 Y189.401 E23.01955
G1 X80.204 Y188.724 E23.04749
G1 X80.002 Y188.425 E23.05949
G1 X79.746 Y188.028 E23.0752
G1 X79.55 Y187.708 E23.08768
G1 X79.088 Y186.872 E23.11945
G1 X78.61 Y185.906 E23.1553
G1 X78.218 Y185.012 E23.18777
G1 X78.101 Y184.708 E23.1986
G1 X77.949 Y184.286 E23.21352
G1 X77.826 Y183.921 E23.22633
G1 X77.693 Y183.498 E23.24108
G1 X77.599 Y183.175 E23.25227
G1 X77.467 Y182.677 E23.2694
G1 X77.38 Y182.313 E23.28185
G1 X77.2 Y181.374 E23.31365
G1 X77.044 Y180.301 E23.34971
G1 X76.95 Y179.367 E23.38093
G1 X76.929 Y178.991 E23.39346
