;FLAVOR:Marlin
;TIME:2461
;Filament used: 1.01968m
;Layer height: 0.2
;MINX:86.981
;MINY:100.982
;MINZ:0.2
;MAXX:134.026
;MAXY:160.02
;MAXZ:14
;Generated with Cura_SteamEngine master
M140 S60
M105
M190 S60
M104 S200
M105
M109 S200
M82 ;absolute extrusion mode
; Ender 3 Custom Start G-code
G92 E0 ; Reset Extruder
G28 ; Home all axes
G1 Z2.0 F3000 ; Move Z Axis up little to prevent scratching of Heat Bed
G1 X0.1 Y20 Z0.3 F5000.0 ; Move to start position
G1 X0.1 Y200.0 Z0.3 F1500.0 E15 ; Draw the first line
G1 X0.4 Y200.0 Z0.3 F5000.0 ; Move to side a little
G1 X0.4 Y20 Z0.3 F1500.0 E30 ; Draw the second line
G92 E0 ; Reset Extruder
G1 Z2.0 F3000 ; Move Z Axis up little to prevent scratching of Heat Bed
G1 X5 Y20 Z0.3 F5000.0 ; Move over to prevent blob squish
G92 E0
G92 E0
G1 F1500 E-6.5
;LAYER_COUNT:70
;LAYER:0
M107
G0 F6000 X118.925 Y101.839 Z0.2
;TYPE:SKIRT
G1 F1500 E0
G1 F1200 X119.289 Y101.876 E0.01217
G1 X120.296 Y102.03 E0.04605
G1 X120.855 Y102.144 E0.06503
G1 X121.666 Y102.344 E0.09281
G1 X122.082 Y102.465 E0.10722
G1 X122.684 Y102.661 E0.12828
G1 X123.129 Y102.821 E0.144
G1 X123.942 Y103.153 E0.17321
G1 X124.218 Y103.28 E0.18332
G1 X124.793 Y103.567 E0.20469
G1 X124.986 Y103.671 E0.21198
G1 X125.498 Y103.966 E0.23164
G1 X125.795 Y104.149 E0.24324
G1 X126.084 Y104.334 E0.25465
G1 X126.411 Y104.551 E0.26771
G1 X126.951 Y104.935 E0.28974
G1 X127.232 Y105.149 E0.30149
G1 X127.934 Y105.736 E0.33193
G1 X128.272 Y106.045 E0.34716
G1 X129.026 Y106.811 E0.38291
G1 X129.475 Y107.318 E0.40543
G1 X129.926 Y107.863 E0.42896
G1 X130.049 Y108.023 E0.43567
G1 X130.506 Y108.669 E0.46199
G1 X130.772 Y109.077 E0.47819
G1 X131.03 Y109.494 E0.4945
G1 X131.184 Y109.757 E0.50464
G1 X131.671 Y110.697 E0.53985
G1 X131.911 Y111.226 E0.55917
G1 X132.233 Y112.024 E0.58779
G1 X132.383 Y112.446 E0.60269
G1 X132.614 Y113.183 E0.62838
G1 X132.743 Y113.657 E0.64472
G1 X132.969 Y114.698 E0.68015
G1 X133.051 Y115.202 E0.69713
G1 X133.151 Y116.037 E0.7251
G1 X133.196 Y116.607 E0.74412
G1 X133.226 Y117.621 E0.77786
G1 X133.221 Y117.863 E0.78591
G1 X133.193 Y118.434 E0.80492
G1 X133.158 Y118.889 E0.8201
G1 X133.077 Y119.611 E0.84427
G1 X133.005 Y120.094 E0.86051
G1 X132.797 Y121.122 E0.89539
G1 X132.684 Y121.563 E0.91053
G1 X132.551 Y122.034 E0.92681
G1 X132.486 Y122.245 E0.93415
G1 X132.353 Y122.645 E0.94817
G1 X132.103 Y123.343 E0.97283
G1 X131.447 Y125.065 E1.03412
G1 X130.606 Y127.472 E1.11893
G1 X129.837 Y129.892 E1.20338
G1 X129.131 Y132.351 E1.28847
G1 X128.502 Y134.804 E1.3727
G1 X127.933 Y137.309 E1.45814
G1 X127.455 Y139.741 E1.54058
G1 X127.088 Y141.993 E1.61647
G1 X126.902 Y143.034 E1.65164
G1 X126.83 Y143.398 E1.66398
G1 X126.717 Y143.92 E1.68174
G1 X126.578 Y144.495 E1.70142
G1 X126.487 Y144.827 E1.71287
G1 X126.391 Y145.157 E1.7243
G1 X126.28 Y145.513 E1.7367
G1 X126.138 Y145.942 E1.75173
G1 X125.923 Y146.531 E1.77259
G1 X125.691 Y147.11 E1.79333
G1 X125.393 Y147.783 E1.81781
G1 X125.032 Y148.524 E1.84523
G1 X124.646 Y149.241 E1.87231
G1 X124.358 Y149.729 E1.89116
G1 X124.068 Y150.196 E1.90944
G1 X123.853 Y150.521 E1.9224
G1 X123.639 Y150.831 E1.93493
G1 X123.432 Y151.12 E1.94675
G1 X123.189 Y151.447 E1.9603
G1 X122.815 Y151.925 E1.98049
G1 X122.57 Y152.22 E1.99325
G1 X122.361 Y152.462 E2.00388
G1 X122.135 Y152.714 E2.01514
G1 X121.774 Y153.105 E2.03284
G1 X121.278 Y153.607 E2.05631
G1 X120.822 Y154.037 E2.07716
G1 X120.509 Y154.32 E2.09119
G1 X120.267 Y154.53 E2.10185
G1 X119.786 Y154.922 E2.12249
G1 X119.174 Y155.391 E2.14813
G1 X118.54 Y155.84 E2.17397
G1 X118.023 Y156.177 E2.1945
G1 X117.533 Y156.477 E2.21361
G1 X117.183 Y156.678 E2.22703
G1 X116.727 Y156.925 E2.24428
G1 X116.141 Y157.223 E2.26615
G1 X115.489 Y157.526 E2.29006
G1 X114.803 Y157.816 E2.31483
G1 X114.138 Y158.07 E2.33851
G1 X113.747 Y158.204 E2.35225
G1 X113.397 Y158.317 E2.36449
G1 X113.024 Y158.43 E2.37745
G1 X112.392 Y158.603 E2.39924
G1 X112.066 Y158.683 E2.41041
G1 X111.6 Y158.789 E2.4263
G1 X110.937 Y158.917 E2.44876
G1 X110.332 Y159.013 E2.46914
G1 X109.923 Y159.069 E2.48287
G1 X109.625 Y159.104 E2.49285
G1 X109.247 Y159.142 E2.50548
G1 X108.884 Y159.171 E2.51759
G1 X108.528 Y159.193 E2.52946
G1 X108.215 Y159.207 E2.53988
G1 X107.85 Y159.217 E2.55202
G1 X107.512 Y159.22 E2.56326
G1 X107.158 Y159.217 E2.57504
G1 X106.809 Y159.208 E2.58665
G1 X106.438 Y159.191 E2.599
G1 X106.101 Y159.17 E2.61023
G1 X105.739 Y159.141 E2.62231
G1 X105.423 Y159.11 E2.63287
G1 X105.069 Y159.069 E2.64472
G1 X104.657 Y159.014 E2.65855
G1 X104.029 Y158.91 E2.67972
G1 X103.351 Y158.776 E2.70271
G1 X102.889 Y158.674 E2.71844
G1 X102.617 Y158.607 E2.72776
G1 X102.005 Y158.436 E2.7489
G1 X101.179 Y158.177 E2.77769
G1 X100.47 Y157.925 E2.80271
G1 X100.107 Y157.781 E2.8157
G1 X99.731 Y157.623 E2.82927
G1 X99.287 Y157.426 E2.84542
G1 X98.961 Y157.275 E2.85737
G1 X98.7 Y157.148 E2.86703
G1 X98.352 Y156.97 E2.88003
G1 X98.066 Y156.817 E2.89082
G1 X97.516 Y156.506 E2.91183
G1 X96.952 Y156.158 E2.93387
G1 X96.238 Y155.684 E2.96238
G1 X95.617 Y155.237 E2.98783
G1 X95.239 Y154.943 E3.00375
G1 X94.902 Y154.67 E3.01818
G1 X94.559 Y154.379 E3.03314
G1 X94.144 Y154.006 E3.0517
G1 X93.765 Y153.647 E3.06906
G1 X93.397 Y153.281 E3.08632
G1 X93.049 Y152.916 E3.1031
G1 X92.663 Y152.488 E3.12227
G1 X92.303 Y152.065 E3.14074
G1 X92.007 Y151.7 E3.15637
G1 X91.825 Y151.465 E3.16626
G1 X91.591 Y151.15 E3.17931
G1 X91.348 Y150.81 E3.19321
G1 X91.141 Y150.51 E3.20533
G1 X90.902 Y150.149 E3.21973
G1 X90.555 Y149.586 E3.24173
G1 X90.271 Y149.09 E3.26074
G1 X90.068 Y148.718 E3.27483
G1 X89.873 Y148.342 E3.28892
G1 X89.565 Y147.692 E3.31284
G1 X89.256 Y146.977 E3.33875
G1 X89.022 Y146.387 E3.35986
G1 X88.874 Y145.976 E3.37439
G1 X88.727 Y145.535 E3.38985
G1 X88.619 Y145.186 E3.402
G1 X88.522 Y144.853 E3.41354
G1 X88.413 Y144.453 E3.42733
G1 X88.262 Y143.819 E3.44901
G1 X88.113 Y143.092 E3.47369
G1 X87.996 Y142.401 E3.497
G1 X87.925 Y141.872 E3.51475
G1 X87.873 Y141.405 E3.53038
G1 X87.842 Y141.051 E3.5422
G1 X87.818 Y140.718 E3.5533
G1 X87.8 Y140.389 E3.56426
G1 X87.787 Y140.016 E3.57667
G1 X87.781 Y139.684 E3.58772
G1 X87.781 Y139.316 E3.59996
G1 X87.787 Y138.984 E3.611
G1 X87.8 Y138.611 E3.62342
G1 X87.818 Y138.282 E3.63438
G1 X87.842 Y137.949 E3.64548
G1 X87.873 Y137.595 E3.6573
G1 X87.915 Y137.202 E3.67044
G1 X87.967 Y136.792 E3.68419
G1 X88.066 Y136.168 E3.7052
G1 X88.2 Y135.464 E3.72904
G1 X88.359 Y134.763 E3.75295
G1 X88.505 Y134.211 E3.77194
G1 X88.621 Y133.808 E3.78589
G1 X88.731 Y133.452 E3.79828
G1 X88.861 Y133.06 E3.81202
G1 X88.964 Y132.769 E3.82228
G1 X89.199 Y132.165 E3.84384
G1 X89.548 Y131.348 E3.87339
G1 X89.868 Y130.669 E3.89835
G1 X90.063 Y130.292 E3.91247
G1 X90.251 Y129.946 E3.92557
G1 X90.496 Y129.514 E3.94209
G1 X90.829 Y128.967 E3.96339
G1 X91.106 Y128.543 E3.98023
G1 X91.35 Y128.186 E3.99461
G1 X91.642 Y127.778 E4.0113
G1 X92.07 Y127.222 E4.03464
G1 X93.041 Y126.045 E4.08539
G1 X94.707 Y123.974 E4.17379
G1 X96.228 Y121.969 E4.25749
G1 X97.709 Y119.897 E4.3422
G1 X99.131 Y117.785 E4.42689
G1 X100.479 Y115.653 E4.51078
G1 X101.763 Y113.49 E4.59444
G1 X103.434 Y110.455 E4.70968
G1 X103.561 Y110.213 E4.71877
G1 X103.811 Y109.764 E4.73586
G1 X103.99 Y109.461 E4.74757
G1 X104.304 Y108.957 E4.76732
G1 X104.52 Y108.633 E4.78027
G1 X104.751 Y108.3 E4.79375
G1 X105.465 Y107.387 E4.8323
G1 X105.923 Y106.865 E4.85539
G1 X106.721 Y106.051 E4.89331
G1 X107.08 Y105.724 E4.90946
G1 X107.667 Y105.229 E4.935
G1 X107.887 Y105.057 E4.94429
G1 X108.471 Y104.633 E4.96829
G1 X108.857 Y104.373 E4.98377
G1 X109.23 Y104.133 E4.99852
G1 X109.529 Y103.95 E5.01018
G1 X110.325 Y103.511 E5.04041
G1 X110.777 Y103.287 E5.05719
G1 X111.692 Y102.888 E5.09039
G1 X111.985 Y102.777 E5.10081
G1 X112.64 Y102.553 E5.12384
G1 X113.224 Y102.376 E5.14413
G1 X114.048 Y102.164 E5.17243
G1 X114.431 Y102.082 E5.18546
G1 X115.236 Y101.943 E5.21263
G1 X115.639 Y101.89 E5.22615
G1 X116.386 Y101.82 E5.2511
G1 X116.718 Y101.801 E5.26217
G1 X117.297 Y101.782 E5.28143
G1 X117.683 Y101.782 E5.29427
G1 X118.076 Y101.789 E5.30735
G1 X118.925 Y101.839 E5.33563
G0 F6000 X118.966 Y101.441
G1 F1200 X119.33 Y101.478 E5.3478
G1 X120.376 Y101.638 E5.383
G1 X120.935 Y101.752 E5.40197
G1 X121.777 Y101.96 E5.43082
G1 X122.193 Y102.081 E5.44523
G1 X122.819 Y102.284 E5.46712
G1 X123.264 Y102.444 E5.48284
G1 X124.109 Y102.79 E5.51321
G1 X124.385 Y102.917 E5.52332
G1 X124.982 Y103.215 E5.54551
G1 X125.175 Y103.319 E5.5528
G1 X125.708 Y103.626 E5.57326
G1 X126.005 Y103.809 E5.58486
G1 X126.305 Y104.001 E5.59671
G1 X126.632 Y104.218 E5.60976
G1 X127.193 Y104.617 E5.63266
G1 X127.474 Y104.831 E5.64441
G1 X128.204 Y105.441 E5.67605
G1 X128.542 Y105.75 E5.69128
G1 X129.325 Y106.545 E5.72839
G1 X129.774 Y107.052 E5.75092
G1 X130.243 Y107.62 E5.77542
G1 X130.366 Y107.78 E5.78213
G1 X130.842 Y108.451 E5.80949
G1 X131.108 Y108.859 E5.82569
G1 X131.375 Y109.292 E5.84261
G1 X131.529 Y109.555 E5.85275
G1 X132.035 Y110.532 E5.88934
G1 X132.275 Y111.061 E5.90866
G1 X132.61 Y111.89 E5.9384
G1 X132.76 Y112.312 E5.9533
G1 X133 Y113.078 E5.98
G1 X133.129 Y113.552 E5.99634
G1 X133.363 Y114.634 E6.03316
G1 X133.445 Y115.138 E6.05014
G1 X133.55 Y116.006 E6.07922
G1 X133.595 Y116.576 E6.09824
G1 X133.626 Y117.629 E6.13328
G1 X133.621 Y117.871 E6.14133
G1 X133.592 Y118.465 E6.16111
G1 X133.557 Y118.92 E6.17628
G1 X133.472 Y119.67 E6.20139
G1 X133.4 Y120.153 E6.21763
G1 X133.184 Y121.221 E6.25387
G1 X133.071 Y121.662 E6.26901
G1 X132.933 Y122.152 E6.28595
G1 X132.868 Y122.363 E6.29329
G1 X132.731 Y122.779 E6.30786
G1 X132.477 Y123.486 E6.33284
G1 X131.822 Y125.204 E6.394
G1 X130.978 Y127.62 E6.47911
G1 X130.216 Y130.018 E6.5628
G1 X129.517 Y132.455 E6.64712
G1 X128.893 Y134.886 E6.7306
G1 X128.329 Y137.369 E6.81529
G1 X127.848 Y139.821 E6.8984
G1 X127.482 Y142.063 E6.97395
G1 X127.296 Y143.104 E7.00913
G1 X127.221 Y143.483 E7.02198
G1 X127.108 Y144.005 E7.03974
G1 X126.965 Y144.594 E7.0599
G1 X126.871 Y144.939 E7.07179
G1 X126.775 Y145.269 E7.08322
G1 X126.66 Y145.639 E7.09611
G1 X126.518 Y146.068 E7.11114
G1 X126.295 Y146.68 E7.13281
G1 X126.063 Y147.259 E7.15355
G1 X125.752 Y147.958 E7.179
G1 X125.391 Y148.699 E7.20641
G1 X124.991 Y149.444 E7.23454
G1 X124.703 Y149.932 E7.25338
G1 X124.406 Y150.41 E7.2721
G1 X124.182 Y150.748 E7.28559
G1 X123.968 Y151.058 E7.29812
G1 X123.753 Y151.358 E7.31039
G1 X123.51 Y151.685 E7.32394
G1 X123.127 Y152.175 E7.34463
G1 X122.872 Y152.481 E7.35788
G1 X122.663 Y152.723 E7.36851
G1 X122.429 Y152.986 E7.38022
G1 X122.068 Y153.377 E7.39792
G1 X121.552 Y153.898 E7.42231
G1 X121.096 Y154.328 E7.44315
G1 X120.771 Y154.622 E7.45773
G1 X120.529 Y154.832 E7.46839
G1 X120.03 Y155.24 E7.48983
G1 X119.418 Y155.709 E7.51547
G1 X118.758 Y156.175 E7.54234
G1 X118.241 Y156.512 E7.56287
G1 X117.732 Y156.824 E7.58273
G1 X117.382 Y157.025 E7.59615
G1 X116.908 Y157.281 E7.61407
G1 X116.322 Y157.579 E7.63593
G1 X115.644 Y157.894 E7.6608
G1 X114.958 Y158.184 E7.68557
G1 X114.268 Y158.448 E7.71014
G1 X113.877 Y158.582 E7.72389
G1 X113.513 Y158.7 E7.73662
G1 X113.14 Y158.813 E7.74958
G1 X112.494 Y158.99 E7.77186
G1 X112.155 Y159.073 E7.78347
G1 X111.689 Y159.179 E7.79936
G1 X110.999 Y159.312 E7.82273
G1 X110.394 Y159.408 E7.84311
G1 X109.969 Y159.467 E7.85738
G1 X109.671 Y159.502 E7.86736
G1 X109.279 Y159.54 E7.88046
G1 X108.916 Y159.569 E7.89257
G1 X108.546 Y159.592 E7.9049
G1 X108.233 Y159.606 E7.91532
G1 X107.853 Y159.617 E7.92796
G1 X107.515 Y159.62 E7.93921
G1 X107.148 Y159.616 E7.95141
G1 X106.799 Y159.607 E7.96302
G1 X106.413 Y159.59 E7.97588
G1 X106.076 Y159.569 E7.98711
G1 X105.7 Y159.539 E7.99965
G1 X105.384 Y159.508 E8.01021
G1 X105.016 Y159.466 E8.02253
G1 X104.604 Y159.411 E8.03636
G1 X103.952 Y159.303 E8.05834
G1 X103.274 Y159.169 E8.08132
G1 X102.794 Y159.062 E8.09768
G1 X102.522 Y158.995 E8.107
G1 X101.886 Y158.817 E8.12896
G1 X101.06 Y158.558 E8.15776
G1 X100.322 Y158.297 E8.18379
G1 X99.959 Y158.153 E8.19678
G1 X99.569 Y157.989 E8.21085
G1 X99.125 Y157.792 E8.22701
G1 X98.786 Y157.635 E8.23943
G1 X98.525 Y157.508 E8.24909
G1 X98.163 Y157.323 E8.26261
G1 X97.877 Y157.17 E8.2734
G1 X97.317 Y156.853 E8.2948
G1 X96.73 Y156.491 E8.31774
G1 X96.016 Y156.017 E8.34624
G1 X95.371 Y155.553 E8.37267
G1 X94.993 Y155.259 E8.3886
G1 X94.643 Y154.975 E8.40359
G1 X94.3 Y154.684 E8.41855
G1 X93.868 Y154.297 E8.43784
G1 X93.489 Y153.938 E8.4552
G1 X93.107 Y153.557 E8.47315
G1 X92.759 Y153.192 E8.48992
G1 X92.359 Y152.747 E8.50982
G1 X91.999 Y152.324 E8.5283
G1 X91.69 Y151.944 E8.54459
G1 X91.508 Y151.709 E8.55447
G1 X91.265 Y151.383 E8.568
G1 X91.022 Y151.043 E8.5819
G1 X90.807 Y150.731 E8.5945
G1 X90.568 Y150.37 E8.6089
G1 X90.208 Y149.785 E8.63174
G1 X89.924 Y149.289 E8.65075
G1 X89.713 Y148.902 E8.66541
G1 X89.518 Y148.526 E8.6795
G1 X89.198 Y147.851 E8.70435
G1 X88.889 Y147.136 E8.73025
G1 X88.646 Y146.522 E8.75222
G1 X88.498 Y146.111 E8.76675
G1 X88.345 Y145.654 E8.78278
G1 X88.237 Y145.305 E8.79493
G1 X88.136 Y144.958 E8.80695
G1 X88.027 Y144.558 E8.82074
G1 X87.87 Y143.899 E8.84327
G1 X87.721 Y143.172 E8.86795
G1 X87.599 Y142.454 E8.89217
G1 X87.528 Y141.925 E8.90993
G1 X87.474 Y141.44 E8.92616
G1 X87.443 Y141.086 E8.93798
G1 X87.401 Y140.411 E8.96047
G1 X87.387 Y140.024 E8.97335
G1 X87.381 Y139.692 E8.98439
G1 X87.381 Y139.308 E8.99717
G1 X87.387 Y138.976 E9.00821
G1 X87.401 Y138.589 E9.02109
G1 X87.419 Y138.26 E9.03205
G1 X87.443 Y137.914 E9.04358
G1 X87.474 Y137.56 E9.0554
G1 X87.518 Y137.151 E9.06909
G1 X87.57 Y136.741 E9.08283
G1 X87.673 Y136.093 E9.10465
G1 X87.807 Y135.389 E9.12849
G1 X87.972 Y134.661 E9.15332
G1 X88.118 Y134.109 E9.17231
G1 X88.238 Y133.69 E9.18681
G1 X88.348 Y133.334 E9.1992
G1 X88.483 Y132.926 E9.21349
G1 X88.586 Y132.635 E9.22376
G1 X88.831 Y132.008 E9.24615
G1 X89.18 Y131.191 E9.2757
G1 X89.513 Y130.485 E9.30166
G1 X89.708 Y130.108 E9.31578
G1 X89.903 Y129.749 E9.32937
G1 X90.148 Y129.317 E9.34588
G1 X90.494 Y128.749 E9.368
G1 X90.771 Y128.325 E9.38485
G1 X91.025 Y127.953 E9.39983
G1 X91.317 Y127.545 E9.41652
G1 X91.762 Y126.967 E9.44078
G1 X92.742 Y125.78 E9.49198
G1 X94.376 Y123.749 E9.57868
G1 X95.899 Y121.74 E9.66253
G1 X97.384 Y119.663 E9.74745
G1 X98.788 Y117.577 E9.83108
G1 X100.155 Y115.415 E9.91616
G1 X101.42 Y113.285 E9.99855
G1 X103.056 Y110.313 E10.11139
G1 X103.206 Y110.027 E10.12213
G1 X103.467 Y109.56 E10.13992
G1 X103.646 Y109.257 E10.15163
G1 X103.967 Y108.742 E10.17181
G1 X104.191 Y108.405 E10.18527
G1 X104.422 Y108.072 E10.19875
G1 X105.164 Y107.123 E10.23882
G1 X105.622 Y106.601 E10.26192
G1 X106.452 Y105.756 E10.30131
G1 X106.811 Y105.429 E10.31746
G1 X107.42 Y104.914 E10.34399
G1 X107.64 Y104.742 E10.35328
G1 X108.247 Y104.301 E10.37823
G1 X108.633 Y104.041 E10.39371
G1 X109.022 Y103.792 E10.40907
G1 X109.321 Y103.609 E10.42073
G1 X110.147 Y103.152 E10.45213
G1 X110.599 Y102.928 E10.46891
G1 X111.551 Y102.513 E10.50345
G1 X111.844 Y102.402 E10.51387
G1 X112.524 Y102.171 E10.53776
G1 X113.108 Y101.994 E10.55805
G1 X113.964 Y101.773 E10.58746
G1 X114.347 Y101.691 E10.60048
G1 X115.184 Y101.546 E10.62874
G1 X115.587 Y101.493 E10.64226
G1 X116.363 Y101.42 E10.66818
G1 X116.695 Y101.401 E10.67924
G1 X117.289 Y101.382 E10.69901
G1 X117.69 Y101.382 E10.71235
G1 X118.083 Y101.389 E10.72542
G1 X118.966 Y101.441 E10.75484
G0 F6000 X119.006 Y101.043
G1 F1200 X119.37 Y101.08 E10.76701
G1 X120.456 Y101.246 E10.80355
G1 X121.015 Y101.36 E10.82252
G1 X121.889 Y101.576 E10.85247
G1 X122.305 Y101.697 E10.86688
G1 X122.955 Y101.908 E10.88961
G1 X123.4 Y102.068 E10.90533
G1 X124.276 Y102.426 E10.93681
G1 X124.552 Y102.553 E10.94691
G1 X125.172 Y102.862 E10.96995
G1 X125.365 Y102.966 E10.97725
G1 X125.917 Y103.285 E10.99845
G1 X126.214 Y103.468 E11.01005
G1 X126.526 Y103.668 E11.02238
G1 X126.853 Y103.885 E11.03543
G1 X127.436 Y104.299 E11.05922
G1 X127.717 Y104.513 E11.07096
G1 X128.474 Y105.145 E11.10376
G1 X128.812 Y105.454 E11.11899
G1 X129.625 Y106.28 E11.15754
G1 X130.074 Y106.787 E11.18007
G1 X130.56 Y107.376 E11.20547
G1 X130.683 Y107.536 E11.21218
G1 X131.177 Y108.232 E11.24056
G1 X131.443 Y108.64 E11.25676
G1 X131.72 Y109.09 E11.27434
G1 X131.874 Y109.353 E11.28448
G1 X132.399 Y110.366 E11.32242
