;FLAVOR:Marlin
;TIME:8057
;Filament used: 6.4151m
;Layer height: 0.2
;MINX:47
;MINY:89.5
;MINZ:0.2
;MAXX:188
;MAXY:145.5
;MAXZ:24.6
;Generated with Cura_SteamEngine master
M140 S60
M105
M190 S60
M104 S200
M105
M109 S200
M82 ;absolute extrusion mode
; Ender 3 Custom Start G-code
G92 E0 ; Reset Extruder
G28 ; Home all axes
G1 Z2.0 F3000 ; Move Z Axis up little to prevent scratching of Heat Bed
G1 X0.1 Y20 Z0.3 F5000.0 ; Move to start position
G1 X0.1 Y200.0 Z0.3 F1500.0 E15 ; Draw the first line
G1 X0.4 Y200.0 Z0.3 F5000.0 ; Move to side a little
G1 X0.4 Y20 Z0.3 F1500.0 E30 ; Draw the second line
G92 E0 ; Reset Extruder
G1 Z2.0 F3000 ; Move Z Axis up little to prevent scratching of Heat Bed
G1 X5 Y20 Z0.3 F5000.0 ; Move over to prevent blob squish
G92 E0
G92 E0
G1 F1500 E-6.5
;LAYER_COUNT:123
;LAYER:0
M107
G0 F6000 X52.412 Y91.039 Z0.2
;TYPE:SKIRT
G1 F1500 E0
G1 F1200 X53.239 Y90.597 E0.03119
G1 X54.101 Y90.227 E0.06239
G1 X54.991 Y89.931 E0.09358
G1 X55.903 Y89.713 E0.12477
G1 X56.83 Y89.572 E0.15596
G1 X57.701 Y89.513 E0.18499
G1 X58.022 Y89.504 E0.19567
G1 X58.33 Y89.5 E0.20592
G1 X176.293 Y89.5 E4.12939
G1 X177.149 Y89.511 E4.15786
G1 X178.085 Y89.565 E4.18904
G1 X179.013 Y89.697 E4.22022
G1 X179.927 Y89.909 E4.25142
G1 X180.819 Y90.198 E4.28261
G1 X181.684 Y90.561 E4.31381
G1 X182.514 Y90.997 E4.34499
G1 X183.305 Y91.502 E4.37621
G1 X184.049 Y92.073 E4.4074
G1 X184.742 Y92.705 E4.4386
G1 X185.379 Y93.393 E4.46978
G1 X185.954 Y94.134 E4.50098
G1 X186.465 Y94.92 E4.53216
G1 X186.907 Y95.748 E4.56338
G1 X187.276 Y96.61 E4.59456
G1 X187.571 Y97.5 E4.62575
G1 X187.789 Y98.412 E4.65694
G1 X187.929 Y99.34 E4.68815
G1 X187.987 Y100.201 E4.71685
G1 X187.996 Y100.521 E4.7275
G1 X188 Y100.83 E4.73778
G1 X187.999 Y133.9 E5.83769
G1 X187.99 Y134.627 E5.86187
G1 X187.939 Y135.564 E5.89308
G1 X187.807 Y136.492 E5.92426
G1 X187.598 Y137.406 E5.95544
G1 X187.311 Y138.299 E5.98664
G1 X186.949 Y139.165 E6.01786
G1 X186.515 Y139.996 E6.04904
G1 X186.011 Y140.787 E6.08024
G1 X185.442 Y141.532 E6.11142
G1 X184.811 Y142.227 E6.14264
G1 X184.124 Y142.865 E6.17382
G1 X183.385 Y143.442 E6.205
G1 X182.599 Y143.954 E6.2362
G1 X181.773 Y144.397 E6.26738
G1 X180.911 Y144.769 E6.29861
G1 X180.022 Y145.065 E6.32977
G1 X179.11 Y145.285 E6.36097
G1 X178.183 Y145.426 E6.39216
G1 X177.299 Y145.487 E6.42163
G1 X176.978 Y145.496 E6.43231
G1 X176.67 Y145.5 E6.44256
G1 X58.565 Y145.499 E10.37075
G1 X57.867 Y145.49 E10.39396
G1 X56.931 Y145.438 E10.42514
G1 X56.002 Y145.306 E10.45635
G1 X55.088 Y145.096 E10.48754
G1 X54.195 Y144.809 E10.51874
G1 X53.33 Y144.446 E10.54994
G1 X52.499 Y144.012 E10.58112
G1 X51.708 Y143.508 E10.61232
G1 X50.963 Y142.938 E10.64352
G1 X50.269 Y142.307 E10.67471
G1 X49.632 Y141.62 E10.70588
G1 X49.055 Y140.88 E10.73709
G1 X48.543 Y140.094 E10.76829
G1 X48.1 Y139.267 E10.79949
G1 X47.729 Y138.406 E10.83067
G1 X47.433 Y137.516 E10.86187
G1 X47.214 Y136.604 E10.89306
G1 X47.073 Y135.677 E10.92425
G1 X47.013 Y134.788 E10.95389
G1 X47.004 Y134.455 E10.96497
G1 X47 Y134.158 E10.97484
G1 X47.001 Y101.025 E12.07685
G1 X47.01 Y100.36 E12.09897
G1 X47.063 Y99.424 E12.13015
G1 X47.195 Y98.495 E12.16136
G1 X47.406 Y97.581 E12.19256
G1 X47.694 Y96.689 E12.22374
G1 X48.057 Y95.824 E12.25494
G1 X48.492 Y94.993 E12.28614
G1 X48.996 Y94.203 E12.3173
G1 X49.566 Y93.458 E12.3485
G1 X50.198 Y92.764 E12.37972
G1 X50.886 Y92.127 E12.41091
G1 X51.626 Y91.551 E12.4421
G1 X52.412 Y91.039 E12.4733
G0 F6000 X52.791 Y91.282
G1 F1200 X53.611 Y90.864 E12.50391
G1 X54.465 Y90.519 E12.53454
G1 X55.345 Y90.249 E12.56516
G1 X56.245 Y90.057 E12.59577
G1 X57.159 Y89.943 E12.6264
G1 X57.712 Y89.913 E12.64482
G1 X58.033 Y89.904 E12.6555
G1 X58.33 Y89.9 E12.66538
G1 X176.293 Y89.9 E16.58885
G1 X177.143 Y89.911 E16.61712
G1 X178.062 Y89.964 E16.64774
G1 X178.973 Y90.097 E16.67836
G1 X179.869 Y90.308 E16.70897
G1 X180.743 Y90.596 E16.73958
G1 X181.59 Y90.959 E16.77023
G1 X182.401 Y91.394 E16.80084
G1 X183.171 Y91.898 E16.83145
G1 X183.895 Y92.467 E16.86208
G1 X184.567 Y93.097 E16.89271
G1 X185.182 Y93.782 E16.92333
G1 X185.735 Y94.518 E16.95395
G1 X186.222 Y95.299 E16.98456
G1 X186.639 Y96.12 E17.01519
G1 X186.984 Y96.974 E17.04582
G1 X187.253 Y97.854 E17.07643
G1 X187.445 Y98.755 E17.10707
G1 X187.558 Y99.668 E17.13767
G1 X187.587 Y100.212 E17.15579
G1 X187.596 Y100.532 E17.16644
G1 X187.6 Y100.83 E17.17635
G1 X187.599 Y133.895 E18.27609
G1 X187.59 Y134.622 E18.30028
G1 X187.539 Y135.541 E18.33089
G1 X187.408 Y136.453 E18.36153
G1 X187.198 Y137.349 E18.39214
G1 X186.912 Y138.224 E18.42276
G1 X186.551 Y139.071 E18.45338
G1 X186.117 Y139.883 E18.48401
G1 X185.615 Y140.655 E18.51463
G1 X185.047 Y141.38 E18.54527
G1 X184.419 Y142.053 E18.57588
G1 X183.735 Y142.669 E18.6065
G1 X183 Y143.223 E18.63711
G1 X182.22 Y143.712 E18.66773
G1 X181.4 Y144.131 E18.69836
G1 X180.547 Y144.477 E18.72897
G1 X179.667 Y144.748 E18.7596
G1 X178.767 Y144.941 E18.79021
G1 X177.853 Y145.056 E18.82085
G1 X177.288 Y145.087 E18.83967
G1 X176.967 Y145.096 E18.85036
G1 X176.67 Y145.1 E18.86023
G1 X58.57 Y145.099 E22.78826
G1 X57.872 Y145.09 E22.81147
G1 X56.953 Y145.038 E22.84209
G1 X56.042 Y144.907 E22.8727
G1 X55.146 Y144.697 E22.90331
G1 X54.271 Y144.41 E22.93394
G1 X53.424 Y144.048 E22.96457
G1 X52.612 Y143.614 E22.9952
G1 X51.841 Y143.112 E23.0258
G1 X51.116 Y142.544 E23.05643
G1 X50.443 Y141.915 E23.08707
G1 X49.828 Y141.231 E23.11766
G1 X49.274 Y140.496 E23.14827
G1 X48.786 Y139.715 E23.1789
G1 X48.367 Y138.895 E23.20953
G1 X48.021 Y138.042 E23.24015
G1 X47.751 Y137.162 E23.27076
G1 X47.558 Y136.261 E23.30141
G1 X47.444 Y135.348 E23.33201
G1 X47.413 Y134.777 E23.35103
G1 X47.404 Y134.444 E23.36211
G1 X47.4 Y134.158 E23.37163
G1 X47.401 Y101.031 E24.47343
G1 X47.41 Y100.366 E24.49555
G1 X47.462 Y99.446 E24.5262
G1 X47.594 Y98.535 E24.55682
G1 X47.805 Y97.639 E24.58743
G1 X48.092 Y96.764 E24.61806
G1 X48.455 Y95.918 E24.64868
G1 X48.889 Y95.106 E24.6793
G1 X49.392 Y94.335 E24.70992
G1 X49.961 Y93.611 E24.74055
G1 X50.589 Y92.939 E24.77114
G1 X51.274 Y92.323 E24.80178
G1 X52.01 Y91.77 E24.8324
G1 X52.791 Y91.282 E24.86303
G0 F6000 X53.169 Y91.531
G1 F1200 X53.982 Y91.138 E24.89307
G1 X54.827 Y90.818 E24.92312
G1 X55.696 Y90.575 E24.95313
G1 X56.584 Y90.409 E24.98318
G1 X57.723 Y90.313 E25.02119
G1 X58.044 Y90.304 E25.03187
G1 X58.33 Y90.3 E25.04139
G1 X176.293 Y90.3 E28.96485
G1 X177.137 Y90.311 E28.99293
G1 X178.039 Y90.364 E29.02298
G1 X178.932 Y90.496 E29.053
G1 X179.81 Y90.707 E29.08304
G1 X180.666 Y90.995 E29.11308
G1 X181.493 Y91.357 E29.1431
G1 X182.285 Y91.792 E29.17316
G1 X183.036 Y92.294 E29.2032
G1 X183.739 Y92.861 E29.23324
G1 X184.389 Y93.488 E29.26328
G1 X184.981 Y94.17 E29.29332
G1 X185.511 Y94.901 E29.32335
G1 X185.973 Y95.677 E29.35338
G1 X186.366 Y96.49 E29.38342
G1 X186.684 Y97.335 E29.41345
G1 X186.927 Y98.205 E29.44349
G1 X187.092 Y99.093 E29.47353
G1 X187.187 Y100.223 E29.51125
G1 X187.196 Y100.543 E29.5219
G1 X187.2 Y100.83 E29.53144
G1 X187.199 Y133.89 E30.63102
G1 X187.19 Y134.617 E30.6552
G1 X187.139 Y135.519 E30.68525
G1 X187.008 Y136.413 E30.71531
G1 X186.799 Y137.291 E30.74532
G1 X186.513 Y138.148 E30.77537
G1 X186.152 Y138.976 E30.80542
G1 X185.72 Y139.768 E30.83542
G1 X185.219 Y140.52 E30.86548
G1 X184.653 Y141.224 E30.89552
G1 X184.028 Y141.875 E30.92554
G1 X183.347 Y142.469 E30.95559
G1 X182.616 Y143 E30.98564
G1 X181.842 Y143.464 E31.01566
G1 X181.029 Y143.858 E31.04571
G1 X180.185 Y144.178 E31.07573
G1 X179.315 Y144.423 E31.10579
G1 X178.428 Y144.589 E31.1358
G1 X177.277 Y144.687 E31.17422
G1 X176.956 Y144.696 E31.1849
G1 X176.67 Y144.7 E31.19442
G1 X58.575 Y144.699 E35.12227
G1 X57.877 Y144.69 E35.14549
G1 X56.976 Y144.639 E35.17551
G1 X56.082 Y144.507 E35.20556
G1 X55.204 Y144.298 E35.23558
G1 X54.347 Y144.011 E35.26564
G1 X53.52 Y143.65 E35.29565
G1 X52.727 Y143.217 E35.32571
G1 X51.976 Y142.716 E35.35573
G1 X51.272 Y142.15 E35.38578
G1 X50.621 Y141.524 E35.41581
G1 X50.028 Y140.843 E35.44585
G1 X49.498 Y140.112 E35.47588
G1 X49.034 Y139.337 E35.50592
G1 X48.64 Y138.524 E35.53597
G1 X48.32 Y137.68 E35.56599
G1 X48.076 Y136.81 E35.59605
G1 X47.91 Y135.922 E35.62609
G1 X47.813 Y134.767 E35.66464
G1 X47.804 Y134.434 E35.67572
G1 X47.8 Y134.158 E35.6849
G1 X47.801 Y101.036 E36.78655
G1 X47.81 Y100.371 E36.80867
G1 X47.862 Y99.469 E36.83872
G1 X47.994 Y98.576 E36.86874
G1 X48.204 Y97.698 E36.89877
G1 X48.491 Y96.841 E36.92883
G1 X48.853 Y96.014 E36.95885
G1 X49.286 Y95.222 E36.98887
G1 X49.788 Y94.471 E37.01892
G1 X50.355 Y93.767 E37.04898
G1 X50.981 Y93.117 E37.079
G1 X51.662 Y92.524 E37.10903
G1 X52.394 Y91.994 E37.13909
G1 X53.169 Y91.531 E37.16912
G1 F1500 E30.66912
;MESH:Fuss.stl
G0 F6000 X70.085 Y117.127
G0 X71.52 Y117.127
G0 X71.35 Y119.8
;TYPE:WALL-INNER
G1 F1500 E37.16912
G1 F1200 X71.35 Y115.2 E37.32211
G1 X65.9 Y115.2 E37.50338
G1 X65.9 Y119.8 E37.65638
G1 X71.35 Y119.8 E37.83765
G0 F6000 X70.95 Y119.4
;TYPE:WALL-OUTER
G1 F1200 X70.95 Y115.6 E37.96403
G1 X66.3 Y115.6 E38.11869
G1 X66.3 Y119.4 E38.24508
G1 X70.95 Y119.4 E38.39974
G1 F1500 E31.89974
G0 F6000 X71.25 Y119.4
G0 X71.54 Y119.8
G0 X70.097 Y118.547
G0 X164.903 Y118.547
G0 X163.46 Y119.8
G0 X163.65 Y119.8
;TYPE:WALL-INNER
G1 F1500 E38.39974
G1 F1200 X169.1 Y119.8 E38.58101
G1 X169.1 Y115.2 E38.73401
G1 X163.65 Y115.2 E38.91527
G1 X163.65 Y119.8 E39.06827
G0 F6000 X164.05 Y119.4
;TYPE:WALL-OUTER
G1 F1200 X168.7 Y119.4 E39.22293
G1 X168.7 Y115.6 E39.34932
G1 X164.05 Y115.6 E39.50398
G1 X164.05 Y119.4 E39.63037
G1 F1500 E33.13037
G0 F6000 X163.75 Y119.4
G0 X167.173 Y119.97
G0 X167.173 Y118.535
G0 X177.665 Y119.996
G0 X176.19 Y119.996
G0 X176.4 Y133.9
;TYPE:WALL-INNER
G1 F1500 E39.63037
G1 F1200 X58.6 Y133.9 E43.54841
G1 X58.6 Y101.1 E44.63934
G1 X176.4 Y101.1 E48.55739
G1 X176.4 Y133.9 E49.64832
G0 F6000 X176.8 Y134.3
;TYPE:WALL-OUTER
G1 F1200 X58.2 Y134.3 E53.59297
G1 X58.2 Y100.7 E54.71051
G1 X176.8 Y100.7 E58.65516
G1 X176.8 Y134.3 E59.7727
G0 F6000 X176.53 Y134.03
G0 X176.29 Y133.51
G0 X176.01 Y133.51
;TYPE:SKIN
G1 F1200 X58.99 Y133.51 E63.66481
G1 X58.99 Y101.49 E64.7298
G1 X176.01 Y101.49 E68.6219
G1 X176.01 Y133.51 E69.68689
G1 F1500 E63.18689
G0 F6000 X176.29 Y133.51
G0 X176.19 Y119.94
G0 X177.665 Y119.94
G0 X167.847 Y118.547
G0 X169.29 Y119.94
G0 X169.49 Y120.19
G1 F1500 E69.68689
G1 F1200 X169.49 Y114.81 E69.86583
G1 X163.26 Y114.81 E70.07304
G1 X163.26 Y120.19 E70.25198
G1 X169.49 Y120.19 E70.45919
G1 F1500 E63.95919
G0 F6000 X169.21 Y119.94
G0 X163.46 Y119.94
G0 X164.903 Y118.547
G0 X70.097 Y118.547
G0 X71.54 Y119.94
G0 X71.74 Y120.19
G1 F1500 E70.45919
G1 F1200 X71.74 Y114.81 E70.63813
G1 X65.51 Y114.81 E70.84534
G1 X65.51 Y120.19 E71.02428
G1 X71.74 Y120.19 E71.23149
G1 F1500 E64.73149
G0 F6000 X71.46 Y119.94
G0 X69.423 Y119.97
G0 X69.423 Y118.535
G0 X65.704 Y135.165
G0 X65.704 Y133.69
G0 X59.244 Y133.79
G0 X59.244 Y133.349
G1 F1500 E71.23149
G1 F1200 X59.149 Y133.254 E71.23596
G0 F6000 X59.149 Y132.688
G1 F1200 X59.81 Y133.349 E71.26705
G0 F6000 X60.376 Y133.349
G1 F1200 X59.149 Y132.122 E71.32476
G0 F6000 X59.149 Y131.557
G1 F1200 X60.941 Y133.349 E71.40905
G0 F6000 X61.507 Y133.349
G1 F1200 X59.149 Y130.991 E71.51996
G0 F6000 X59.149 Y130.425
G1 F1200 X62.073 Y133.349 E71.6575
G0 F6000 X62.639 Y133.349
G1 F1200 X59.149 Y129.86 E71.82164
G0 F6000 X59.149 Y129.294
G1 F1200 X63.204 Y133.349 E72.01237
G0 F6000 X63.77 Y133.349
G1 F1200 X59.149 Y128.728 E72.22973
G0 F6000 X59.149 Y128.163
G1 F1200 X64.336 Y133.349 E72.47369
G0 F6000 X64.901 Y133.349
G1 F1200 X59.149 Y127.597 E72.74424
G0 F6000 X59.149 Y127.031
G1 F1200 X65.467 Y133.349 E73.04142
G0 F6000 X66.033 Y133.349
G1 F1200 X59.149 Y126.466 E73.3652
G0 F6000 X59.149 Y125.9
G1 F1200 X66.598 Y133.349 E73.71558
G0 F6000 X67.164 Y133.349
G1 F1200 X59.149 Y125.334 E74.09258
G0 F6000 X59.149 Y124.768
G1 F1200 X67.73 Y133.349 E74.4962
G0 F6000 X68.295 Y133.349
G1 F1200 X59.149 Y124.203 E74.9264
G0 F6000 X59.149 Y123.637
G1 F1200 X68.861 Y133.349 E75.38323
G0 F6000 X69.427 Y133.349
G1 F1200 X59.149 Y123.071 E75.86667
G0 F6000 X59.149 Y122.506
G1 F1200 X69.992 Y133.349 E76.37669
G0 F6000 X70.558 Y133.349
G1 F1200 X59.149 Y121.94 E76.91334
G0 F6000 X59.149 Y121.374
G1 F1200 X71.124 Y133.349 E77.4766
G0 F6000 X71.69 Y133.349
G1 F1200 X59.149 Y120.809 E78.06647
G0 F6000 X59.149 Y120.243
G1 F1200 X72.255 Y133.349 E78.68294
G0 F6000 X72.821 Y133.349
G1 F1200 X59.149 Y119.677 E79.32603
G0 F6000 X59.149 Y119.112
G1 F1200 X73.387 Y133.349 E79.99571
G0 F6000 X73.952 Y133.349
G1 F1200 X59.149 Y118.546 E80.692
G0 F6000 X59.149 Y117.98
G1 F1200 X74.518 Y133.349 E81.41491
G0 F6000 X75.084 Y133.349
G1 F1200 X59.149 Y117.415 E82.16442
G0 F6000 X59.149 Y116.849
G1 F1200 X75.649 Y133.349 E82.94053
G0 F6000 X76.215 Y133.349
G1 F1200 X59.149 Y116.283 E83.74326
G0 F6000 X59.149 Y115.718
G1 F1200 X76.781 Y133.349 E84.5726
G0 F6000 X77.346 Y133.349
G1 F1200 X59.149 Y115.152 E85.42853
G0 F6000 X59.149 Y114.586
G1 F1200 X77.912 Y133.349 E86.31108
G0 F6000 X78.478 Y133.349
G1 F1200 X65.478 Y120.349 E86.92256
G0 F6000 X65.35 Y120.221
G1 F1200 X59.149 Y114.02 E87.21424
G0 F6000 X59.149 Y113.455
G1 F1200 X65.35 Y119.655 E87.50589
G0 F6000 X65.35 Y119.09
G1 F1200 X59.149 Y112.889 E87.79757
G0 F6000 X59.149 Y112.323
G1 F1200 X65.35 Y118.524 E88.08924
G0 F6000 X65.35 Y117.958
G1 F1200 X59.149 Y111.758 E88.38089
G0 F6000 X59.149 Y111.192
G1 F1200 X65.35 Y117.393 E88.67257
G0 F6000 X65.35 Y116.827
G1 F1200 X59.149 Y110.626 E88.96425
G0 F6000 X59.149 Y110.061
G1 F1200 X65.35 Y116.261 E89.2559
G0 F6000 X65.35 Y115.696
G1 F1200 X59.149 Y109.495 E89.54757
G0 F6000 X59.149 Y108.929
G1 F1200 X65.35 Y115.13 E89.83925
G0 F6000 X65.434 Y114.648
G1 F1200 X59.149 Y108.364 E90.13485
G0 F6000 X59.149 Y107.798
G1 F1200 X65.999 Y114.648 E90.45706
G0 F6000 X66.565 Y114.648
G1 F1200 X59.149 Y107.232 E90.80588
G0 F6000 X59.149 Y106.667
G1 F1200 X67.131 Y114.648 E91.18131
G0 F6000 X67.696 Y114.648
G1 F1200 X59.149 Y106.101 E91.58333
G0 F6000 X59.149 Y105.535
G1 F1200 X68.262 Y114.648 E92.01198
G0 F6000 X68.828 Y114.648
G1 F1200 X59.149 Y104.97 E92.46723
G0 F6000 X59.149 Y104.404
G1 F1200 X69.394 Y114.648 E92.9491
G0 F6000 X69.959 Y114.648
G1 F1200 X59.149 Y103.838 E93.45757
G0 F6000 X59.149 Y103.272
G1 F1200 X70.525 Y114.648 E93.99266
G0 F6000 X71.091 Y114.648
G1 F1200 X59.149 Y102.707 E94.55435
G0 F6000 X59.149 Y102.141
G1 F1200 X71.656 Y114.648 E95.14264
G0 F6000 X71.9 Y114.892
G1 F1200 X90.357 Y133.349 E96.0108
G0 F6000 X89.791 Y133.349
G1 F1200 X71.9 Y115.457 E96.85236
G0 F6000 X71.9 Y116.023
G1 F1200 X89.226 Y133.349 E97.66733
G0 F6000 X88.66 Y133.349
G1 F1200 X71.9 Y116.589 E98.45566
G0 F6000 X71.9 Y117.154
G1 F1200 X88.094 Y133.349 E99.2174
G0 F6000 X87.529 Y133.349
G1 F1200 X71.9 Y117.72 E99.95254
G0 F6000 X71.9 Y118.286
G1 F1200 X86.963 Y133.349 E100.66106
G0 F6000 X86.397 Y133.349
G1 F1200 X71.9 Y118.851 E101.34298
G0 F6000 X71.9 Y119.417
G1 F1200 X85.832 Y133.349 E101.9983
G0 F6000 X85.266 Y133.349
G1 F1200 X71.9 Y119.983 E102.62699
G0 F6000 X71.7 Y120.349
G1 F1200 X84.7 Y133.349 E103.23847
G0 F6000 X84.135 Y133.349
G1 F1200 X71.134 Y120.349 E103.84998
G0 F6000 X70.569 Y120.349
G1 F1200 X83.569 Y133.349 E104.46146
G0 F6000 X83.003 Y133.349
G1 F1200 X70.003 Y120.349 E105.07294
G0 F6000 X69.437 Y120.349
G1 F1200 X82.438 Y133.349 E105.68444
G0 F6000 X81.872 Y133.349
G1 F1200 X68.872 Y120.349 E106.29592
G0 F6000 X68.306 Y120.349
G1 F1200 X81.306 Y133.349 E106.9074
G0 F6000 X80.74 Y133.349
G1 F1200 X67.74 Y120.349 E107.51888
G0 F6000 X67.175 Y120.349
G1 F1200 X80.175 Y133.349 E108.13036
G0 F6000 X79.609 Y133.349
G1 F1200 X66.609 Y120.349 E108.74184
G0 F6000 X66.043 Y120.349
G1 F1200 X79.043 Y133.349 E109.35332
G0 F6000 X79.043 Y133.79
G0 X90.923 Y133.79
G0 X90.923 Y133.349
G1 F1200 X59.223 Y101.65 E110.84437
G0 F6000 X59.789 Y101.65
G1 F1200 X91.489 Y133.349 E112.33542
G0 F6000 X92.054 Y133.349
G1 F1200 X60.355 Y101.65 E113.82644
G0 F6000 X60.92 Y101.65
G1 F1200 X92.62 Y133.349 E115.31749
G0 F6000 X93.186 Y133.349
G1 F1200 X61.486 Y101.65 E116.80854
G0 F6000 X62.052 Y101.65
G1 F1200 X93.751 Y133.349 E118.29956
G0 F6000 X94.317 Y133.349
