;FLAVOR:Marlin
;TIME:1406
;Filament used: 0.503659m
;Layer height: 0.2
;MINX:91.501
;MINY:91.501
;MINZ:0.2
;MAXX:143.499
;MAXY:143.499
;MAXZ:27.2
;Generated with Cura_SteamEngine master
M140 S60
M105
M190 S60
M104 S200
M105
M109 S200
M82 ;absolute extrusion mode
; Ender 3 Custom Start G-code
G92 E0 ; Reset Extruder
G28 ; Home all axes
G1 Z2.0 F3000 ; Move Z Axis up little to prevent scratching of Heat Bed
G1 X0.1 Y20 Z0.3 F5000.0 ; Move to start position
G1 X0.1 Y200.0 Z0.3 F1500.0 E15 ; Draw the first line
G1 X0.4 Y200.0 Z0.3 F5000.0 ; Move to side a little
G1 X0.4 Y20 Z0.3 F1500.0 E30 ; Draw the second line
G92 E0 ; Reset Extruder
G1 Z2.0 F3000 ; Move Z Axis up little to prevent scratching of Heat Bed
G1 X5 Y20 Z0.3 F5000.0 ; Move over to prevent blob squish
G92 E0
G92 E0
G1 F1500 E-6.5
;LAYER_COUNT:136
;LAYER:0
M107
G0 F6000 X94.699 Y94.765 Z0.2
;TYPE:SKIRT
G1 F1500 E0
G1 F1200 X95.387 Y94.128 E0.02834
G1 X96.127 Y93.552 E0.05669
G1 X96.913 Y93.04 E0.08505
G1 X97.74 Y92.598 E0.1134
G1 X98.602 Y92.228 E0.14175
G1 X99.492 Y91.932 E0.17011
G1 X100.404 Y91.714 E0.19845
G1 X101.331 Y91.573 E0.2268
G1 X102.202 Y91.514 E0.25319
G1 X102.523 Y91.505 E0.2629
G1 X102.831 Y91.501 E0.27221
G1 X131.792 Y91.501 E1.14771
G1 X132.648 Y91.512 E1.17358
G1 X133.584 Y91.566 E1.20193
G1 X134.512 Y91.698 E1.23026
G1 X135.426 Y91.91 E1.25863
G1 X136.318 Y92.199 E1.28697
G1 X137.183 Y92.562 E1.31533
G1 X138.013 Y92.998 E1.34367
G1 X138.804 Y93.503 E1.37204
G1 X139.548 Y94.074 E1.40039
G1 X140.241 Y94.706 E1.42875
G1 X140.878 Y95.394 E1.45709
G1 X141.453 Y96.135 E1.48544
G1 X141.964 Y96.921 E1.51379
G1 X142.406 Y97.749 E1.54216
G1 X142.775 Y98.611 E1.5705
G1 X143.07 Y99.501 E1.59885
G1 X143.288 Y100.413 E1.6272
G1 X143.428 Y101.341 E1.65557
G1 X143.486 Y102.202 E1.68165
G1 X143.495 Y102.522 E1.69133
G1 X143.499 Y102.831 E1.70067
G1 X143.498 Y131.899 E2.5794
G1 X143.489 Y132.626 E2.60138
G1 X143.438 Y133.563 E2.62975
G1 X143.306 Y134.491 E2.65809
G1 X143.097 Y135.405 E2.68643
G1 X142.81 Y136.298 E2.71478
G1 X142.448 Y137.164 E2.74316
G1 X142.014 Y137.995 E2.7715
G1 X141.51 Y138.786 E2.79985
G1 X140.941 Y139.531 E2.82819
G1 X140.31 Y140.226 E2.85657
G1 X139.623 Y140.864 E2.88491
G1 X138.884 Y141.441 E2.91326
G1 X138.098 Y141.953 E2.94161
G1 X137.272 Y142.396 E2.96995
G1 X136.41 Y142.768 E2.99833
G1 X135.521 Y143.064 E3.02665
G1 X134.609 Y143.284 E3.05501
G1 X133.682 Y143.425 E3.08336
G1 X132.798 Y143.486 E3.11015
G1 X132.477 Y143.495 E3.11985
G1 X132.169 Y143.499 E3.12917
G1 X103.066 Y143.498 E4.00895
G1 X102.368 Y143.489 E4.03006
G1 X101.432 Y143.437 E4.0584
G1 X100.503 Y143.305 E4.08676
G1 X99.589 Y143.095 E4.11511
G1 X98.696 Y142.808 E4.14347
G1 X97.831 Y142.445 E4.17183
G1 X97 Y142.011 E4.20017
G1 X96.209 Y141.507 E4.22852
G1 X95.464 Y140.937 E4.25688
G1 X94.77 Y140.306 E4.28523
G1 X94.133 Y139.619 E4.31355
G1 X93.556 Y138.879 E4.34192
G1 X93.044 Y138.093 E4.37028
G1 X92.601 Y137.266 E4.39864
G1 X92.23 Y136.405 E4.42698
G1 X91.934 Y135.515 E4.45533
G1 X91.715 Y134.603 E4.48369
G1 X91.574 Y133.676 E4.51203
G1 X91.514 Y132.787 E4.53897
G1 X91.505 Y132.454 E4.54904
G1 X91.501 Y132.157 E4.55802
G1 X91.502 Y103.026 E5.43865
G1 X91.511 Y102.361 E5.45876
G1 X91.564 Y101.425 E5.4871
G1 X91.696 Y100.496 E5.51547
G1 X91.907 Y99.582 E5.54382
G1 X92.195 Y98.69 E5.57216
G1 X92.558 Y97.825 E5.60052
G1 X92.993 Y96.994 E5.62887
G1 X93.497 Y96.204 E5.6572
G1 X94.067 Y95.459 E5.68556
G1 X94.699 Y94.765 E5.71393
G0 F6000 X95.09 Y94.94
G1 F1200 X95.775 Y94.324 E5.74178
G1 X96.511 Y93.771 E5.76961
G1 X97.292 Y93.283 E5.79745
G1 X98.112 Y92.865 E5.82527
G1 X98.966 Y92.52 E5.85312
G1 X99.846 Y92.25 E5.88094
G1 X100.746 Y92.058 E5.90876
G1 X101.66 Y91.944 E5.93661
G1 X102.213 Y91.914 E5.95335
G1 X102.534 Y91.905 E5.96306
G1 X102.831 Y91.901 E5.97204
G1 X131.792 Y91.901 E6.84753
G1 X132.642 Y91.912 E6.87323
G1 X133.561 Y91.965 E6.90106
G1 X134.472 Y92.098 E6.92889
G1 X135.368 Y92.309 E6.95672
G1 X136.242 Y92.597 E6.98453
G1 X137.089 Y92.96 E7.01239
G1 X137.9 Y93.395 E7.04021
G1 X138.67 Y93.899 E7.06803
G1 X139.394 Y94.468 E7.09587
G1 X140.066 Y95.098 E7.12372
G1 X140.681 Y95.783 E7.15154
G1 X141.234 Y96.519 E7.17937
G1 X141.721 Y97.3 E7.2072
G1 X142.138 Y98.121 E7.23504
G1 X142.483 Y98.975 E7.26288
G1 X142.752 Y99.855 E7.2907
G1 X142.944 Y100.756 E7.31855
G1 X143.057 Y101.669 E7.34636
G1 X143.086 Y102.213 E7.36282
G1 X143.095 Y102.533 E7.3725
G1 X143.099 Y102.831 E7.38151
G1 X143.098 Y131.894 E8.26009
G1 X143.089 Y132.621 E8.28207
G1 X143.038 Y133.54 E8.30989
G1 X142.907 Y134.452 E8.33775
G1 X142.697 Y135.348 E8.36557
G1 X142.411 Y136.223 E8.39339
G1 X142.05 Y137.07 E8.42123
G1 X141.616 Y137.882 E8.44906
G1 X141.114 Y138.654 E8.4769
G1 X140.546 Y139.379 E8.50474
G1 X139.918 Y140.052 E8.53257
G1 X139.234 Y140.668 E8.56039
G1 X138.499 Y141.222 E8.58822
G1 X137.719 Y141.711 E8.61605
G1 X136.899 Y142.13 E8.64389
G1 X136.046 Y142.476 E8.67171
G1 X135.166 Y142.747 E8.69955
G1 X134.266 Y142.94 E8.72737
G1 X133.352 Y143.055 E8.75522
G1 X132.787 Y143.086 E8.77233
G1 X132.466 Y143.095 E8.78204
G1 X132.169 Y143.099 E8.79101
G1 X103.071 Y143.098 E9.67065
G1 X102.373 Y143.089 E9.69175
G1 X101.454 Y143.037 E9.71958
G1 X100.543 Y142.906 E9.7474
G1 X99.647 Y142.696 E9.77522
G1 X98.772 Y142.409 E9.80306
G1 X97.925 Y142.047 E9.83091
G1 X97.113 Y141.613 E9.85874
G1 X96.342 Y141.111 E9.88655
G1 X95.617 Y140.543 E9.91439
G1 X94.944 Y139.914 E9.94224
G1 X94.329 Y139.23 E9.97005
G1 X93.775 Y138.495 E9.99787
G1 X93.287 Y137.714 E10.02571
G1 X92.868 Y136.894 E10.05355
G1 X92.522 Y136.041 E10.08138
G1 X92.252 Y135.161 E10.1092
G1 X92.059 Y134.26 E10.13706
G1 X91.945 Y133.347 E10.16487
G1 X91.914 Y132.776 E10.18216
G1 X91.905 Y132.443 E10.19223
G1 X91.901 Y132.157 E10.20088
G1 X91.902 Y103.032 E11.08133
G1 X91.911 Y102.367 E11.10143
G1 X91.963 Y101.447 E11.12929
G1 X92.095 Y100.536 E11.15712
G1 X92.306 Y99.64 E11.18494
G1 X92.593 Y98.765 E11.21278
G1 X92.956 Y97.919 E11.24061
G1 X93.39 Y97.107 E11.26844
G1 X93.893 Y96.336 E11.29627
G1 X94.462 Y95.612 E11.32411
G1 X95.09 Y94.94 E11.35191
G0 F6000 X95.482 Y95.118
G1 F1200 X96.163 Y94.525 E11.37921
G1 X96.895 Y93.995 E11.40653
G1 X97.67 Y93.532 E11.43382
G1 X98.483 Y93.139 E11.46112
G1 X99.328 Y92.819 E11.48844
G1 X100.197 Y92.576 E11.51571
G1 X101.085 Y92.41 E11.54302
G1 X102.224 Y92.314 E11.57758
G1 X102.545 Y92.305 E11.58728
G1 X102.831 Y92.301 E11.59593
G1 X131.792 Y92.301 E12.47143
G1 X132.636 Y92.312 E12.49694
G1 X133.538 Y92.365 E12.52426
G1 X134.431 Y92.497 E12.55155
G1 X135.309 Y92.708 E12.57884
G1 X136.165 Y92.996 E12.60615
G1 X136.992 Y93.358 E12.63344
G1 X137.784 Y93.793 E12.66075
G1 X138.535 Y94.295 E12.68806
G1 X139.238 Y94.862 E12.71536
G1 X139.888 Y95.489 E12.74266
G1 X140.48 Y96.171 E12.76997
G1 X141.01 Y96.902 E12.79726
G1 X141.472 Y97.678 E12.82456
G1 X141.865 Y98.491 E12.85186
G1 X142.183 Y99.336 E12.87915
G1 X142.426 Y100.206 E12.90646
G1 X142.591 Y101.094 E12.93376
G1 X142.686 Y102.224 E12.96805
G1 X142.695 Y102.544 E12.97772
G1 X142.699 Y102.831 E12.9864
G1 X142.698 Y131.889 E13.86483
G1 X142.689 Y132.616 E13.88681
G1 X142.638 Y133.518 E13.91412
G1 X142.507 Y134.412 E13.94143
G1 X142.298 Y135.29 E13.96871
G1 X142.012 Y136.147 E13.99603
G1 X141.651 Y136.975 E14.02333
G1 X141.219 Y137.767 E14.05061
G1 X140.718 Y138.519 E14.07792
G1 X140.152 Y139.223 E14.10523
G1 X139.527 Y139.874 E14.13251
G1 X138.846 Y140.468 E14.15983
G1 X138.115 Y140.999 E14.18714
G1 X137.341 Y141.463 E14.21442
G1 X136.528 Y141.857 E14.24173
G1 X135.684 Y142.177 E14.26902
G1 X134.814 Y142.422 E14.29634
G1 X133.927 Y142.588 E14.32362
G1 X132.776 Y142.686 E14.35854
G1 X132.455 Y142.695 E14.36825
G1 X132.169 Y142.699 E14.3769
G1 X103.076 Y142.698 E15.25638
G1 X102.378 Y142.689 E15.27748
G1 X101.477 Y142.638 E15.30477
G1 X100.583 Y142.506 E15.33208
G1 X99.705 Y142.297 E15.35937
G1 X98.848 Y142.01 E15.38669
G1 X98.021 Y141.649 E15.41397
G1 X97.228 Y141.216 E15.44128
G1 X96.477 Y140.715 E15.46857
G1 X95.773 Y140.149 E15.49588
G1 X95.122 Y139.523 E15.52318
G1 X94.529 Y138.842 E15.55048
G1 X93.999 Y138.111 E15.57777
G1 X93.535 Y137.336 E15.60508
G1 X93.141 Y136.523 E15.63239
G1 X92.821 Y135.679 E15.65968
G1 X92.577 Y134.809 E15.68699
G1 X92.411 Y133.921 E15.7143
G1 X92.314 Y132.766 E15.74934
G1 X92.305 Y132.433 E15.75941
G1 X92.301 Y132.157 E15.76776
G1 X92.302 Y103.037 E16.64806
G1 X92.311 Y102.372 E16.66816
G1 X92.363 Y101.47 E16.69548
G1 X92.495 Y100.577 E16.72276
G1 X92.705 Y99.699 E16.75006
G1 X92.992 Y98.842 E16.77738
G1 X93.354 Y98.015 E16.80467
G1 X93.787 Y97.223 E16.83195
G1 X94.289 Y96.472 E16.85926
G1 X94.856 Y95.768 E16.88659
G1 X95.482 Y95.118 E16.91387
G1 F1500 E10.41387
;MESH:cube.stl
G0 F6000 X102.821 Y101.836
G0 X102.821 Y102.821
G0 X132.117 Y102.883
G0 X132.159 Y132.159
G0 X132.299 Y132.299
;TYPE:WALL-OUTER
G1 F1500 E16.91387
G1 F1200 X102.701 Y132.299 E17.80862
G1 X102.701 Y102.701 E18.70337
G1 X132.299 Y102.701 E19.59812
G1 X132.299 Y132.299 E20.49288
;TIME_ELAPSED:40.448373
;LAYER:1
M106 S85
;MESH:cube.stl
G0 F7500 X132.299 Y132.299 Z0.4
;TYPE:WALL-OUTER
G1 F710.4 X102.701 Y132.299 E21.38763
G1 X102.701 Y102.701 E22.28238
G1 X132.299 Y102.701 E23.17713
G1 X132.299 Y132.299 E24.07188
;TIME_ELAPSED:50.565547
;LAYER:2
M106 S170
;MESH:cube.stl
G0 F9000 X132.299 Y132.299 Z0.6
;TYPE:WALL-OUTER
G1 F710.4 X102.701 Y132.299 E24.96663
G1 X102.701 Y102.701 E25.86138
G1 X132.299 Y102.701 E26.75614
G1 X132.299 Y132.299 E27.65089
;TIME_ELAPSED:60.682721
;LAYER:3
M106 S255
;MESH:cube.stl
G0 F9000 X132.299 Y132.299 Z0.8
;TYPE:WALL-OUTER
G1 F710.4 X102.701 Y132.299 E28.54564
G1 X102.701 Y102.701 E29.44039
G1 X132.299 Y102.701 E30.33514
G1 X132.299 Y132.299 E31.22989
;TIME_ELAPSED:70.799896
;LAYER:4
;MESH:cube.stl
G0 F9000 X132.299 Y132.299 Z1
;TYPE:WALL-OUTER
G1 F710.4 X102.701 Y132.299 E32.12465
G1 X102.701 Y102.701 E33.0194
G1 X132.299 Y102.701 E33.91415
G1 X132.299 Y132.299 E34.8089
;TIME_ELAPSED:80.917070
;LAYER:5
;MESH:cube.stl
G0 F9000 X132.299 Y132.299 Z1.2
;TYPE:WALL-OUTER
G1 F710.4 X102.701 Y132.299 E35.70365
G1 X102.701 Y102.701 E36.5984
G1 X132.299 Y102.701 E37.49316
G1 X132.299 Y132.299 E38.38791
;TIME_ELAPSED:91.034244
;LAYER:6
;MESH:cube.stl
G0 F9000 X132.299 Y132.299 Z1.4
;TYPE:WALL-OUTER
G1 F710.4 X102.701 Y132.299 E39.28266
G1 X102.701 Y102.701 E40.17741
G1 X132.299 Y102.701 E41.07216
G1 X132.299 Y132.299 E41.96691
;TIME_ELAPSED:101.151418
;LAYER:7
;MESH:cube.stl
G0 F9000 X132.299 Y132.299 Z1.6
;TYPE:WALL-OUTER
G1 F710.4 X102.701 Y132.299 E42.86166
G1 X102.701 Y102.701 E43.75642
G1 X132.299 Y102.701 E44.65117
G1 X132.299 Y132.299 E45.54592
;TIME_ELAPSED:111.268593
;LAYER:8
;MESH:cube.stl
G0 F9000 X132.299 Y132.299 Z1.8
;TYPE:WALL-OUTER
G1 F710.4 X102.701 Y132.299 E46.44067
G1 X102.701 Y102.701 E47.33542
G1 X132.299 Y102.701 E48.23017
G1 X132.299 Y132.299 E49.12493
;TIME_ELAPSED:121.385767
;LAYER:9
;MESH:cube.stl
G0 F9000 X132.299 Y132.299 Z2
;TYPE:WALL-OUTER
G1 F710.4 X102.701 Y132.299 E50.01968
G1 X102.701 Y102.701 E50.91443
G1 X132.299 Y102.701 E51.80918
G1 X132.299 Y132.299 E52.70393
;TIME_ELAPSED:131.502941
;LAYER:10
;MESH:cube.stl
G0 F9000 X132.299 Y132.299 Z2.2
;TYPE:WALL-OUTER
G1 F710.4 X102.701 Y132.299 E53.59868
G1 X102.701 Y102.701 E54.49344
G1 X132.299 Y102.701 E55.38819
G1 X132.299 Y132.299 E56.28294
;TIME_ELAPSED:141.620115
;LAYER:11
;MESH:cube.stl
G0 F9000 X132.299 Y132.299 Z2.4
;TYPE:WALL-OUTER
G1 F710.4 X102.701 Y132.299 E57.17769
G1 X102.701 Y102.701 E58.07244
G1 X132.299 Y102.701 E58.96719
G1 X132.299 Y132.299 E59.86194
;TIME_ELAPSED:151.737289
;LAYER:12
;MESH:cube.stl
G0 F9000 X132.299 Y132.299 Z2.6
;TYPE:WALL-OUTER
G1 F710.4 X102.701 Y132.299 E60.7567
G1 X102.701 Y102.701 E61.65145
G1 X132.299 Y102.701 E62.5462
G1 X132.299 Y132.299 E63.44095
;TIME_ELAPSED:161.854464
;LAYER:13
;MESH:cube.stl
G0 F9000 X132.299 Y132.299 Z2.8
;TYPE:WALL-OUTER
G1 F710.4 X102.701 Y132.299 E64.3357
G1 X102.701 Y102.701 E65.23045
G1 X132.299 Y102.701 E66.12521
G1 X132.299 Y132.299 E67.01996
;TIME_ELAPSED:171.971638
;LAYER:14
;MESH:cube.stl
G0 F9000 X132.299 Y132.299 Z3
;TYPE:WALL-OUTER
G1 F710.4 X102.701 Y132.299 E67.91471
G1 X102.701 Y102.701 E68.80946
G1 X132.299 Y102.701 E69.70421
G1 X132.299 Y132.299 E70.59896
;TIME_ELAPSED:182.088812
;LAYER:15
;MESH:cube.stl
G0 F9000 X132.299 Y132.299 Z3.2
;TYPE:WALL-OUTER
G1 F710.4 X102.701 Y132.299 E71.49372
G1 X102.701 Y102.701 E72.38847
G1 X132.299 Y102.701 E73.28322
G1 X132.299 Y132.299 E74.17797
;TIME_ELAPSED:192.205986
;LAYER:16
;MESH:cube.stl
G0 F9000 X132.299 Y132.299 Z3.4
;TYPE:WALL-OUTER
G1 F710.4 X102.701 Y132.299 E75.07272
G1 X102.701 Y102.701 E75.96747
G1 X132.299 Y102.701 E76.86223
G1 X132.299 Y132.299 E77.75698
;TIME_ELAPSED:202.323161
;LAYER:17
;MESH:cube.stl
G0 F9000 X132.299 Y132.299 Z3.6
;TYPE:WALL-OUTER
G1 F710.4 X102.701 Y132.299 E78.65173
G1 X102.701 Y102.701 E79.54648
G1 X132.299 Y102.701 E80.44123
G1 X132.299 Y132.299 E81.33598
;TIME_ELAPSED:212.440335
;LAYER:18
;MESH:cube.stl
G0 F9000 X132.299 Y132.299 Z3.8
;TYPE:WALL-OUTER
G1 F710.4 X102.701 Y132.299 E82.23073
G1 X102.701 Y102.701 E83.12549
G1 X132.299 Y102.701 E84.02024
G1 X132.299 Y132.299 E84.91499
;TIME_ELAPSED:222.557509
;LAYER:19
;MESH:cube.stl
G0 F9000 X132.299 Y132.299 Z4
;TYPE:WALL-OUTER
G1 F710.4 X102.701 Y132.299 E85.80974
G1 X102.701 Y102.701 E86.70449
G1 X132.299 Y102.701 E87.59924
G1 X132.299 Y132.299 E88.494
;TIME_ELAPSED:232.674683
;LAYER:20
;MESH:cube.stl
G0 F9000 X132.299 Y132.299 Z4.2
;TYPE:WALL-OUTER
G1 F710.4 X102.701 Y132.299 E89.38875
G1 X102.701 Y102.701 E90.2835
G1 X132.299 Y102.701 E91.17825
G1 X132.299 Y132.299 E92.073
;TIME_ELAPSED:242.791857
;LAYER:21
;MESH:cube.stl
G0 F9000 X132.299 Y132.299 Z4.4
;TYPE:WALL-OUTER
G1 F710.4 X102.701 Y132.299 E92.96775
G1 X102.701 Y102.701 E93.86251
G1 X132.299 Y102.701 E94.75726
G1 X132.299 Y132.299 E95.65201
;TIME_ELAPSED:252.909032
;LAYER:22
;MESH:cube.stl
G0 F9000 X132.299 Y132.299 Z4.6
;TYPE:WALL-OUTER
G1 F710.4 X102.701 Y132.299 E96.54676
G1 X102.701 Y102.701 E97.44151
G1 X132.299 Y102.701 E98.33626
G1 X132.299 Y132.299 E99.23101
;TIME_ELAPSED:263.026206
;LAYER:23
;MESH:cube.stl
G0 F9000 X132.299 Y132.299 Z4.8
;TYPE:WALL-OUTER
G1 F710.4 X102.701 Y132.299 E100.12577
G1 X102.701 Y102.701 E101.02052
G1 X132.299 Y102.701 E101.91527
G1 X132.299 Y132.299 E102.81002
;TIME_ELAPSED:273.143380
;LAYER:24
;MESH:cube.stl
G0 F9000 X132.299 Y132.299 Z5
;TYPE:WALL-OUTER
G1 F710.4 X102.701 Y132.299 E103.70477
G1 X102.701 Y102.701 E104.59952
G1 X132.299 Y102.701 E105.49428
G1 X132.299 Y132.299 E106.38903
;TIME_ELAPSED:283.260554
;LAYER:25
;MESH:cube.stl
G0 F9000 X132.299 Y132.299 Z5.2
;TYPE:WALL-OUTER
G1 F710.4 X102.701 Y132.299 E107.28378
G1 X102.701 Y102.701 E108.17853
G1 X132.299 Y102.701 E109.07328
G1 X132.299 Y132.299 E109.96803
;TIME_ELAPSED:293.377729
;LAYER:26
;MESH:cube.stl
G0 F9000 X132.299 Y132.299 Z5.4
;TYPE:WALL-OUTER
G1 F710.4 X102.701 Y132.299 E110.86279
G1 X102.701 Y102.701 E111.75754
G1 X132.299 Y102.701 E112.65229
G1 X132.299 Y132.299 E113.54704
;TIME_ELAPSED:303.494903
;LAYER:27
;MESH:cube.stl
G0 F9000 X132.299 Y132.299 Z5.6
;TYPE:WALL-OUTER
G1 F710.4 X102.701 Y132.299 E114.44179
G1 X102.701 Y102.701 E115.33654
G1 X132.299 Y102.701 E116.23129
G1 X132.299 Y132.299 E117.12605
;TIME_ELAPSED:313.612077
;LAYER:28
;MESH:cube.stl
G0 F9000 X132.299 Y132.299 Z5.8
;TYPE:WALL-OUTER
G1 F710.4 X102.701 Y132.299 E118.0208
G1 X102.701 Y102.701 E118.91555
G1 X132.299 Y102.701 E119.8103
G1 X132.299 Y132.299 E120.70505
;TIME_ELAPSED:323.729251
;LAYER:29
;MESH:cube.stl
G0 F9000 X132.299 Y132.299 Z6
;TYPE:WALL-OUTER
G1 F710.4 X102.701 Y132.299 E121.5998
G1 X102.701 Y102.701 E122.49456
G1 X132.299 Y102.701 E123.38931
G1 X132.299 Y132.299 E124.28406
;TIME_ELAPSED:333.846425
;LAYER:30
;MESH:cube.stl
G0 F9000 X132.299 Y132.299 Z6.2
;TYPE:WALL-OUTER
G1 F710.4 X102.701 Y132.299 E125.17881
G1 X102.701 Y102.701 E126.07356
G1 X132.299 Y102.701 E126.96831
G1 X132.299 Y132.299 E127.86307
;TIME_ELAPSED:343.963600
;LAYER:31
;MESH:cube.stl
G0 F9000 X132.299 Y132.299 Z6.4
;TYPE:WALL-OUTER
G1 F710.4 X102.701 Y132.299 E128.75782
G1 X102.701 Y102.701 E129.65257
