;FLAVOR:Marlin
;TIME:371
;Filament used: 0.223118m
;Layer height: 0.2
;MINX:8.265
;MINY:15.303
;MINZ:0.2
;MAXX:226.463
;MAXY:226.046
;MAXZ:0.2
;Generated with Cura_SteamEngine master
M140 S60
M105
M190 S60
M104 S200
M105
M109 S200
M82 ;absolute extrusion mode
; Ender 3 Custom Start G-code
G92 E0 ; Reset Extruder
G28 ; Home all axes
G1 Z2.0 F3000 ; Move Z Axis up little to prevent scratching of Heat Bed
G1 X0.1 Y20 Z0.3 F5000.0 ; Move to start position
G1 X0.1 Y200.0 Z0.3 F1500.0 E15 ; Draw the first line
G1 X0.4 Y200.0 Z0.3 F5000.0 ; Move to side a little
G1 X0.4 Y20 Z0.3 F1500.0 E30 ; Draw the second line
G92 E0 ; Reset Extruder
G1 Z2.0 F3000 ; Move Z Axis up little to prevent scratching of Heat Bed
G1 X5 Y20 Z0.3 F5000.0 ; Move over to prevent blob squish
G92 E0
G92 E0
G1 F1500 E-6.5
;LAYER_COUNT:1
;LAYER:0
M107
G0 F6000 X206.274 Y16.129 Z0.2
;TYPE:SKIRT
G1 F1500 E0
G1 F1200 X206.688 Y16.154 E0.01379
G1 X207.239 Y16.202 E0.03219
G1 X207.914 Y16.28 E0.05479
G1 X208.157 Y16.314 E0.06295
G1 X208.551 Y16.377 E0.07622
G1 X209.101 Y16.476 E0.09481
G1 X209.741 Y16.613 E0.11658
G1 X210.425 Y16.782 E0.14001
G1 X211.074 Y16.965 E0.16244
G1 X211.548 Y17.116 E0.17899
G1 X211.893 Y17.233 E0.1911
G1 X212.253 Y17.362 E0.20382
G1 X212.8 Y17.573 E0.22332
G1 X213.107 Y17.702 E0.2344
G1 X213.783 Y18.002 E0.259
G1 X214.076 Y18.141 E0.26978
G1 X214.629 Y18.422 E0.29041
G1 X214.903 Y18.57 E0.30077
G1 X215.352 Y18.822 E0.3179
G1 X215.883 Y19.142 E0.33852
G1 X216.414 Y19.484 E0.35952
G1 X216.772 Y19.725 E0.37388
G1 X217.02 Y19.9 E0.38397
G1 X217.489 Y20.248 E0.4034
G1 X217.727 Y20.435 E0.41346
G1 X218.164 Y20.788 E0.43215
G1 X218.657 Y21.213 E0.4538
G1 X219.077 Y21.599 E0.47277
G1 X219.387 Y21.897 E0.48707
G1 X219.79 Y22.305 E0.50615
G1 X220.035 Y22.564 E0.518
G1 X220.289 Y22.842 E0.53053
G1 X220.491 Y23.072 E0.54071
G1 X220.706 Y23.325 E0.55175
G1 X220.928 Y23.595 E0.56338
G1 X221.131 Y23.85 E0.57422
G1 X221.352 Y24.137 E0.58627
G1 X221.725 Y24.648 E0.60731
G1 X221.908 Y24.913 E0.61802
G1 X222.296 Y25.503 E0.64151
G1 X222.447 Y25.746 E0.65102
G1 X222.627 Y26.049 E0.66274
G1 X222.87 Y26.472 E0.67897
G1 X223.171 Y27.03 E0.70006
G1 X223.418 Y27.534 E0.71872
G1 X223.777 Y28.322 E0.74753
G1 X224.057 Y29.001 E0.77195
G1 X224.217 Y29.432 E0.78724
G1 X224.337 Y29.773 E0.79927
G1 X224.452 Y30.12 E0.81143
G1 X224.56 Y30.465 E0.82345
G1 X224.651 Y30.776 E0.83423
G1 X224.741 Y31.105 E0.84557
G1 X224.829 Y31.448 E0.85735
G1 X224.906 Y31.77 E0.86836
G1 X224.986 Y32.13 E0.88063
G1 X225.1 Y32.723 E0.90071
G1 X225.201 Y33.351 E0.92187
G1 X225.261 Y33.786 E0.93647
G1 X225.314 Y34.239 E0.95164
G1 X225.369 Y34.883 E0.97314
G1 X225.401 Y35.485 E0.99319
G1 X225.418 Y36.093 E1.01342
G1 X225.413 Y36.744 E1.03507
G1 X225.403 Y37.052 E1.04532
G1 X225.376 Y37.598 E1.06351
G1 X225.322 Y38.253 E1.08537
G1 X225.26 Y38.795 E1.10351
G1 X225.209 Y39.175 E1.11626
G1 X225.142 Y39.614 E1.13103
G1 X225.038 Y40.187 E1.1504
G1 X224.929 Y40.702 E1.16791
G1 X224.836 Y41.101 E1.18154
G1 X224.756 Y41.416 E1.19235
G1 X224.654 Y41.787 E1.20514
G1 X224.54 Y42.174 E1.21856
G1 X224.354 Y42.755 E1.23885
G1 X224.234 Y43.1 E1.251
G1 X224.082 Y43.511 E1.26558
G1 X223.842 Y44.103 E1.28682
G1 X223.517 Y44.837 E1.31352
G1 X223.206 Y45.476 E1.33716
G1 X222.987 Y45.89 E1.35274
G1 X222.695 Y46.413 E1.37266
G1 X222.521 Y46.704 E1.38394
G1 X222.239 Y47.16 E1.40177
G1 X221.891 Y47.685 E1.42272
G1 X221.543 Y48.177 E1.44276
G1 X221.17 Y48.677 E1.46351
G1 X220.934 Y48.975 E1.47615
G1 X220.699 Y49.26 E1.48844
G1 X220.46 Y49.539 E1.50066
G1 X220.063 Y49.981 E1.52042
G1 X219.819 Y50.241 E1.53228
G1 X219.547 Y50.52 E1.54524
G1 X219.101 Y50.954 E1.56593
G1 X218.838 Y51.199 E1.57789
G1 X218.567 Y51.443 E1.59002
G1 X218.177 Y51.781 E1.60718
G1 X216.208 Y53.537 E1.69493
G1 X214.376 Y55.265 E1.77869
G1 X212.561 Y57.078 E1.86402
G1 X210.852 Y58.882 E1.94667
G1 X209.128 Y60.811 E2.03272
G1 X207.489 Y62.751 E2.11719
G1 X205.907 Y64.735 E2.20159
G1 X204.381 Y66.765 E2.28605
G1 X202.925 Y68.818 E2.36977
G1 X201.507 Y70.945 E2.45479
G1 X200.163 Y73.09 E2.53898
G1 X198.867 Y75.293 E2.62399
G1 X197.646 Y77.508 E2.70811
G1 X196.483 Y79.771 E2.79274
G1 X195.396 Y82.04 E2.87642
G1 X194.346 Y84.402 E2.96239
G1 X193.386 Y86.732 E3.04621
G1 X192.492 Y89.101 E3.13043
G1 X191.65 Y91.527 E3.21584
G1 X190.897 Y93.916 E3.29915
G1 X190.199 Y96.373 E3.3841
G1 X189.579 Y98.812 E3.4678
G1 X189.008 Y101.35 E3.55433
G1 X188.537 Y103.785 E3.63682
G1 X188.119 Y106.318 E3.72221
G1 X187.774 Y108.84 E3.80687
G1 X187.504 Y111.346 E3.8907
G1 X187.305 Y113.865 E3.97474
G1 X187.173 Y116.441 E4.06053
G1 X187.117 Y118.937 E4.14357
G1 X187.132 Y121.507 E4.22905
G1 X187.218 Y124.039 E4.31332
G1 X187.376 Y126.568 E4.3976
G1 X187.605 Y129.085 E4.48166
G1 X187.908 Y131.618 E4.56651
G1 X188.283 Y134.149 E4.65161
G1 X188.726 Y136.644 E4.73589
G1 X189.235 Y139.112 E4.8197
G1 X189.815 Y141.566 E4.90357
G1 X190.478 Y144.056 E4.98927
G1 X191.197 Y146.478 E5.0733
G1 X191.982 Y148.871 E5.15707
G1 X192.852 Y151.293 E5.24266
G1 X193.778 Y153.654 E5.32702
G1 X194.778 Y156.008 E5.41208
G1 X195.826 Y158.294 E5.49572
G1 X196.948 Y160.566 E5.58
G1 X198.133 Y162.806 E5.66429
G1 X199.403 Y165.052 E5.75011
G1 X200.701 Y167.202 E5.83364
G1 X202.07 Y169.329 E5.91777
G1 X203.511 Y171.439 E6.00275
G1 X204.998 Y173.485 E6.08688
G1 X206.556 Y175.508 E6.1718
G1 X208.168 Y177.483 E6.25659
G1 X209.816 Y179.389 E6.3404
G1 X211.54 Y181.273 E6.42534
G1 X213.299 Y183.088 E6.5094
G1 X215.142 Y184.888 E6.59509
G1 X217.009 Y186.607 E6.67949
G1 X218.063 Y187.537 E6.72625
G1 X219.038 Y188.39 E6.76933
G1 X219.358 Y188.686 E6.78383
G1 X219.788 Y189.108 E6.80387
G1 X220.251 Y189.59 E6.8261
G1 X220.562 Y189.929 E6.8414
G1 X220.741 Y190.133 E6.85043
G1 X221.164 Y190.639 E6.87236
G1 X221.378 Y190.906 E6.88374
G1 X221.602 Y191.197 E6.89596
G1 X221.974 Y191.707 E6.91695
G1 X222.338 Y192.244 E6.93853
G1 X222.526 Y192.536 E6.95008
G1 X222.733 Y192.87 E6.96315
G1 X222.917 Y193.179 E6.97511
G1 X223.235 Y193.744 E6.99668
G1 X223.401 Y194.056 E7.00843
G1 X223.68 Y194.622 E7.02942
G1 X224.025 Y195.38 E7.05712
G1 X224.311 Y196.075 E7.08212
G1 X224.47 Y196.506 E7.09739
G1 X224.582 Y196.827 E7.1087
G1 X224.697 Y197.174 E7.12086
G1 X224.805 Y197.519 E7.13289
G1 X224.896 Y197.83 E7.14366
G1 X224.986 Y198.159 E7.15501
G1 X225.074 Y198.502 E7.16679
G1 X225.151 Y198.824 E7.1778
G1 X225.231 Y199.184 E7.19006
G1 X225.345 Y199.777 E7.21015
G1 X225.446 Y200.405 E7.2313
G1 X225.506 Y200.84 E7.24591
G1 X225.557 Y201.276 E7.26051
G1 X225.61 Y201.899 E7.2813
G1 X225.644 Y202.515 E7.30182
G1 X225.663 Y203.141 E7.32265
G1 X225.658 Y203.794 E7.34437
G1 X225.648 Y204.103 E7.35466
G1 X225.622 Y204.632 E7.37227
G1 X225.571 Y205.26 E7.39323
G1 X225.512 Y205.79 E7.41096
G1 X225.456 Y206.213 E7.42516
G1 X225.379 Y206.713 E7.44198
G1 X225.274 Y207.288 E7.46142
G1 X225.171 Y207.771 E7.47785
G1 X225.081 Y208.155 E7.49097
G1 X225.001 Y208.47 E7.50178
G1 X224.899 Y208.842 E7.51461
G1 X224.679 Y209.571 E7.53993
G1 X224.609 Y209.783 E7.54736
G1 X224.497 Y210.103 E7.55864
G1 X224.321 Y210.582 E7.57561
G1 X224.059 Y211.226 E7.59873
G1 X223.747 Y211.924 E7.62416
G1 X223.448 Y212.538 E7.64688
G1 X223.227 Y212.955 E7.66257
G1 X222.929 Y213.485 E7.6828
G1 X222.762 Y213.764 E7.69361
G1 X222.483 Y214.215 E7.71125
G1 X222.139 Y214.735 E7.73199
G1 X221.785 Y215.236 E7.75239
G1 X221.407 Y215.742 E7.7734
G1 X221.2 Y216.002 E7.78445
G1 X220.956 Y216.299 E7.79724
G1 X220.704 Y216.594 E7.81014
G1 X220.315 Y217.028 E7.82952
G1 X220.064 Y217.296 E7.84174
G1 X219.783 Y217.584 E7.85512
G1 X219.559 Y217.805 E7.86559
G1 X219.055 Y218.279 E7.8886
G1 X218.556 Y218.715 E7.91064
G1 X217.924 Y219.231 E7.93777
G1 X217.402 Y219.63 E7.95963
G1 X217.066 Y219.87 E7.97336
G1 X216.725 Y220.103 E7.9871
G1 X216.302 Y220.38 E8.00391
G1 X215.818 Y220.678 E8.02282
G1 X215.382 Y220.93 E8.03957
G1 X214.999 Y221.141 E8.05411
G1 X214.66 Y221.318 E8.06683
G1 X214.337 Y221.479 E8.07884
G1 X213.952 Y221.663 E8.09303
G1 X213.587 Y221.829 E8.10636
G1 X212.882 Y222.123 E8.13177
G1 X212.483 Y222.274 E8.14596
G1 X212.068 Y222.422 E8.16061
G1 X211.552 Y222.593 E8.17869
G1 X211.239 Y222.688 E8.18957
G1 X210.737 Y222.831 E8.20693
G1 X210.127 Y222.984 E8.22785
G1 X209.47 Y223.128 E8.25022
G1 X208.822 Y223.249 E8.27215
G1 X208.205 Y223.343 E8.2929
G1 X207.511 Y223.424 E8.31614
G1 X206.775 Y223.485 E8.34071
G1 X206.069 Y223.519 E8.36422
G1 X205.469 Y223.527 E8.38417
G1 X205.066 Y223.524 E8.39758
G1 X204.469 Y223.504 E8.41745
G1 X204.162 Y223.486 E8.42767
G1 X203.833 Y223.461 E8.43865
G1 X203.416 Y223.423 E8.45258
G1 X202.779 Y223.348 E8.47391
G1 X202.427 Y223.297 E8.48574
G1 X201.775 Y223.187 E8.50773
G1 X201.475 Y223.129 E8.51789
G1 X201.101 Y223.049 E8.53061
G1 X200.46 Y222.895 E8.55254
G1 X200.146 Y222.812 E8.56334
G1 X199.774 Y222.706 E8.57621
G1 X199.112 Y222.499 E8.59928
G1 X198.551 Y222.304 E8.61903
G1 X198.228 Y222.183 E8.6305
G1 X197.867 Y222.04 E8.64342
G1 X197.523 Y221.896 E8.65582
G1 X197.221 Y221.764 E8.66678
G1 X196.941 Y221.636 E8.67702
G1 X196.632 Y221.488 E8.68842
G1 X196.04 Y221.188 E8.71049
G1 X195.733 Y221.023 E8.72208
G1 X195.172 Y220.702 E8.74358
G1 X194.871 Y220.518 E8.75532
G1 X194.26 Y220.126 E8.77946
G1 X194.065 Y219.994 E8.78729
G1 X193.773 Y219.788 E8.79918
G1 X193.363 Y219.489 E8.81606
G1 X192.91 Y219.139 E8.8351
G1 X192.501 Y218.804 E8.85268
G1 X192.159 Y218.511 E8.86766
G1 X191.785 Y218.176 E8.88436
G1 X191.293 Y217.705 E8.90701
G1 X190.792 Y217.192 E8.93086
G1 X190.328 Y216.684 E8.95375
G1 X189.963 Y216.256 E8.97245
G1 X189.74 Y215.985 E8.98413
G1 X188.8 Y214.8 E9.03443
G1 X188.51 Y214.421 E9.05031
G1 X186.901 Y212.44 E9.13519
G1 X185.257 Y210.528 E9.21906
G1 X183.556 Y208.659 E9.30311
G1 X181.765 Y206.802 E9.38892
G1 X179.963 Y205.033 E9.47291
G1 X178.11 Y203.318 E9.55689
G1 X176.21 Y201.656 E9.64085
G1 X174.218 Y200.007 E9.72686
G1 X172.223 Y198.451 E9.81101
G1 X170.208 Y196.969 E9.8942
G1 X168.083 Y195.498 E9.98016
G1 X165.967 Y194.116 E10.06422
G1 X163.806 Y192.795 E10.14846
G1 X161.629 Y191.545 E10.23195
G1 X159.357 Y190.325 E10.31773
G1 X157.089 Y189.188 E10.40211
G1 X154.804 Y188.123 E10.48596
G1 X152.437 Y187.1 E10.57172
G1 X150.105 Y186.168 E10.65525
G1 X147.719 Y185.296 E10.73974
G1 X145.292 Y184.484 E10.82486
G1 X142.879 Y183.75 E10.90875
G1 X140.43 Y183.082 E10.99318
G1 X137.975 Y182.485 E11.07721
G1 X135.441 Y181.945 E11.16339
G1 X132.974 Y181.493 E11.24681
G1 X130.48 Y181.108 E11.33074
G1 X127.943 Y180.788 E11.41579
G1 X125.435 Y180.545 E11.4996
G1 X122.895 Y180.371 E11.58427
G1 X120.33 Y180.267 E11.66966
G1 X117.831 Y180.237 E11.75278
G1 X115.271 Y180.279 E11.83794
G1 X112.719 Y180.393 E11.9229
G1 X110.213 Y180.576 E12.00647
G1 X107.674 Y180.833 E12.09135
G1 X105.15 Y181.162 E12.17601
G1 X102.641 Y181.562 E12.26052
G1 X100.156 Y182.029 E12.34461
G1 X97.671 Y182.57 E12.4292
G1 X95.209 Y183.179 E12.51356
G1 X92.781 Y183.853 E12.59736
G1 X90.33 Y184.608 E12.68267
G1 X87.905 Y185.432 E12.76785
G1 X85.554 Y186.306 E12.85127
G1 X83.186 Y187.263 E12.93622
G1 X80.863 Y188.279 E13.02055
G1 X78.552 Y189.368 E13.10552
G1 X76.304 Y190.507 E13.18934
G1 X74.074 Y191.717 E13.27373
G1 X71.861 Y193.001 E13.35882
G1 X69.711 Y194.329 E13.44287
G1 X67.593 Y195.723 E13.52721
G1 X65.514 Y197.177 E13.61159
G1 X63.455 Y198.706 E13.69689
G1 X61.468 Y200.269 E13.78097
G1 X59.524 Y201.891 E13.86518
G1 X57.625 Y203.568 E13.94944
G1 X55.739 Y205.329 E14.03527
G1 X53.986 Y207.065 E14.11732
G1 X52.184 Y208.953 E14.20413
G1 X50.51 Y210.806 E14.28719
G1 X48.83 Y212.776 E14.3733
G1 X47.269 Y214.718 E14.45617
G1 X45.193 Y217.448 E14.57024
G1 X44.955 Y217.749 E14.583
G1 X44.771 Y217.973 E14.59265
G1 X44.537 Y218.248 E14.60466
G1 X44.214 Y218.614 E14.62089
G1 X43.833 Y219.023 E14.63948
G1 X43.44 Y219.422 E14.65811
G1 X43.11 Y219.742 E14.6734
G1 X42.82 Y220.011 E14.68655
G1 X42.384 Y220.393 E14.70583
G1 X41.875 Y220.814 E14.7278
G1 X41.499 Y221.11 E14.74372
G1 X40.813 Y221.613 E14.77201
G1 X40.504 Y221.823 E14.78444
G1 X40.188 Y222.03 E14.797
G1 X39.877 Y222.226 E14.80923
G1 X39.49 Y222.46 E14.82427
G1 X38.992 Y222.743 E14.84332
G1 X38.434 Y223.039 E14.86433
G1 X37.829 Y223.337 E14.88676
G1 X37.527 Y223.475 E14.89781
G1 X37.193 Y223.621 E14.90993
G1 X36.856 Y223.761 E14.92207
G1 X36.403 Y223.94 E14.93827
G1 X35.785 Y224.162 E14.96011
G1 X35.174 Y224.359 E14.98146
G1 X34.554 Y224.541 E15.00295
G1 X34.02 Y224.679 E15.0213
G1 X33.715 Y224.751 E15.03172
G1 X33.398 Y224.82 E15.04251
G1 X32.984 Y224.901 E15.05654
G1 X32.549 Y224.977 E15.07123
G1 X31.928 Y225.07 E15.09211
G1 X31.597 Y225.112 E15.10321
G1 X31.305 Y225.144 E15.11298
G1 X30.966 Y225.176 E15.12431
G1 X30.663 Y225.199 E15.13441
G1 X30.31 Y225.219 E15.14617
G1 X29.799 Y225.24 E15.16318
G1 X29.125 Y225.246 E15.1856
G1 X28.365 Y225.227 E15.21089
G1 X27.687 Y225.187 E15.23348
G1 X27.099 Y225.133 E15.25312
G1 X26.446 Y225.052 E15.275
G1 X25.849 Y224.958 E15.2951
G1 X25.242 Y224.847 E15.31563
G1 X24.871 Y224.767 E15.32825
G1 X24.231 Y224.613 E15.35014
G1 X23.918 Y224.53 E15.36091
G1 X23.571 Y224.432 E15.37291
G1 X23.271 Y224.341 E15.38333
G1 X22.936 Y224.233 E15.39504
G1 X22.485 Y224.079 E15.41089
G1 X21.959 Y223.883 E15.42956
G1 X21.484 Y223.691 E15.4466
G1 X21.084 Y223.519 E15.46108
G1 X20.609 Y223.303 E15.47844
G1 X20.017 Y223.01 E15.50041
G1 X19.522 Y222.745 E15.51908
G1 X19.174 Y222.55 E15.53235
G1 X18.857 Y222.364 E15.54457
G1 X18.364 Y222.059 E15.56386
G1 X18.098 Y221.885 E15.57443
G1 X17.804 Y221.686 E15.58624
G1 X17.524 Y221.49 E15.5976
G1 X17.275 Y221.309 E15.60784
G1 X16.987 Y221.091 E15.61986
G1 X16.624 Y220.807 E15.63519
G1 X16.173 Y220.437 E15.65459
G1 X15.928 Y220.225 E15.66536
G1 X15.669 Y219.993 E15.67693
G1 X15.409 Y219.751 E15.68874
G1 X15.155 Y219.507 E15.70046
G1 X14.918 Y219.272 E15.71156
G1 X14.645 Y218.992 E15.72456
G1 X14.218 Y218.526 E15.74559
G1 X13.704 Y217.929 E15.77179
G1 X13.3 Y217.428 E15.79319
G1 X13.039 Y217.083 E15.80758
G1 X12.777 Y216.72 E15.82247
G1 X12.317 Y216.045 E15.84964
G1 X12.202 Y215.867 E15.85669
G1 X11.982 Y215.512 E15.87058
G1 X11.692 Y215.012 E15.8898
G1 X11.464 Y214.601 E15.90544
G1 X11.143 Y213.973 E15.9289
G1 X10.819 Y213.28 E15.95434
G1 X10.561 Y212.679 E15.97609
G1 X10.357 Y212.158 E15.9947
G1 X10.132 Y211.522 E16.01714
G1 X9.905 Y210.806 E16.04212
G1 X9.728 Y210.178 E16.06382
G1 X9.603 Y209.674 E16.08109
G1 X9.51 Y209.265 E16.09505
G1 X9.458 Y209.011 E16.10367
G1 X9.393 Y208.663 E16.11544
G1 X9.303 Y208.13 E16.13342
G1 X9.217 Y207.499 E16.1546
G1 X9.152 Y206.881 E16.17527
G1 X9.119 Y206.494 E16.18819
G1 X9.095 Y206.135 E16.20016
G1 X9.075 Y205.716 E16.21411
G1 X9.067 Y205.403 E16.22452
G1 X9.065 Y204.987 E16.23836
G1 X9.072 Y204.526 E16.25369
G1 X9.093 Y204.006 E16.271
G1 X9.117 Y203.644 E16.28307
G1 X9.148 Y203.282 E16.29515
G1 X9.209 Y202.685 E16.31511
G1 X9.296 Y202.036 E16.33689
G1 X9.385 Y201.505 E16.3548
G1 X9.506 Y200.881 E16.37594
G1 X9.584 Y200.532 E16.38783
G1 X9.684 Y200.116 E16.40207
G1 X9.84 Y199.54 E16.42191
G1 X10.052 Y198.841 E16.44621
G1 X10.296 Y198.131 E16.47118
G1 X10.542 Y197.493 E16.49392
G1 X10.812 Y196.858 E16.51687
G1 X11.109 Y196.22 E16.54028
G1 X11.408 Y195.629 E16.56231
G1 X11.663 Y195.163 E16.57997
G1 X11.852 Y194.832 E16.59265
G1 X12.003 Y194.579 E16.60245
G1 X12.328 Y194.063 E16.62273
G1 X12.543 Y193.74 E16.63564
G1 X12.951 Y193.158 E16.65928
G1 X13.104 Y192.95 E16.66787
G1 X13.342 Y192.639 E16.68089
G1 X13.522 Y192.413 E16.6905
G1 X13.74 Y192.149 E16.70189
G1 X14.105 Y191.721 E16.7206
G1 X14.567 Y191.215 E16.74339
G1 X15.056 Y190.714 E16.76667
G1 X15.532 Y190.257 E16.78862
G1 X15.902 Y189.924 E16.80518
G1 X16.178 Y189.685 E16.81732
G1 X16.91 Y189.072 E16.84908
G1 X18.914 Y187.346 E16.93704
G1 X20.768 Y185.656 E17.02048
G1 X22.622 Y183.868 E17.10615
G1 X24.374 Y182.079 E17.18943
G1 X26.119 Y180.194 E17.27487
G1 X27.783 Y178.29 E17.35897
G1 X29.404 Y176.326 E17.44367
G1 X30.97 Y174.317 E17.52839
G1 X32.47 Y172.275 E17.61267
G1 X33.918 Y170.183 E17.69729
G1 X35.306 Y168.052 E17.78187
G1 X36.614 Y165.911 E17.86532
G1 X37.892 Y163.681 E17.95081
G1 X39.08 Y161.464 E18.03447
G1 X40.215 Y159.197 E18.11879
