;FLAVOR:Marlin
;TIME:5379
;Filament used: 3.12314m
;Layer height: 0.2
;MINX:62.011
;MINY:66.957
;MINZ:0.2
;MAXX:157.989
;MAXY:153.043
;MAXZ:20
;Generated with Cura_SteamEngine master
M140 S60
M105
M190 S60
M104 S200
M105
M109 S200
M82 ;absolute extrusion mode
; Ender 3 Custom Start G-code
G92 E0 ; Reset Extruder
G28 ; Home all axes
G1 Z2.0 F3000 ; Move Z Axis up little to prevent scratching of Heat Bed
G1 X0.1 Y20 Z0.3 F5000.0 ; Move to start position
G1 X0.1 Y200.0 Z0.3 F1500.0 E15 ; Draw the first line
G1 X0.4 Y200.0 Z0.3 F5000.0 ; Move to side a little
G1 X0.4 Y20 Z0.3 F1500.0 E30 ; Draw the second line
G92 E0 ; Reset Extruder
G1 Z2.0 F3000 ; Move Z Axis up little to prevent scratching of Heat Bed
G1 X5 Y20 Z0.3 F5000.0 ; Move over to prevent blob squish
G92 E0
G92 E0
G1 F1500 E-6.5
;LAYER_COUNT:100
;LAYER:0
M107
G0 F6000 X83.148 Y70.816 Z0.2
;TYPE:SKIRT
G1 F1500 E0
G1 F1200 X83.787 Y70.13 E0.03118
G1 X84.483 Y69.501 E0.06238
G1 X85.229 Y68.934 E0.09355
G1 X86.022 Y68.432 E0.12476
G1 X86.854 Y67.999 E0.15596
G1 X87.72 Y67.639 E0.18715
G1 X88.613 Y67.354 E0.21833
G1 X89.528 Y67.146 E0.24954
G1 X90.457 Y67.017 E0.28074
G1 X91.346 Y66.968 E0.31035
G1 X92.033 Y66.958 E0.3332
G1 X127.793 Y66.957 E1.52258
G1 X127.95 Y66.958 E1.5278
G1 X128.651 Y66.968 E1.55112
G1 X129.587 Y67.021 E1.5823
G1 X130.516 Y67.154 E1.61352
G1 X131.429 Y67.366 E1.64469
G1 X132.322 Y67.654 E1.6759
G1 X133.186 Y68.018 E1.70708
G1 X134.017 Y68.454 E1.73829
G1 X134.807 Y68.959 E1.76948
G1 X135.551 Y69.529 E1.80065
G1 X136.244 Y70.161 E1.83185
G1 X136.881 Y70.85 E1.86306
G1 X137.457 Y71.59 E1.89425
G1 X137.933 Y72.319 E1.92321
G1 X138.286 Y72.909 E1.94607
G1 X138.373 Y73.057 E1.95178
G1 X156.203 Y103.94 E3.13785
G1 X156.59 Y104.63 E3.16417
G1 X157.012 Y105.467 E3.19534
G1 X157.362 Y106.337 E3.22653
G1 X157.636 Y107.234 E3.25773
G1 X157.833 Y108.151 E3.28892
G1 X157.951 Y109.082 E3.32014
G1 X157.989 Y110.019 E3.35133
G1 X157.947 Y110.956 E3.38252
G1 X157.826 Y111.886 E3.41372
G1 X157.626 Y112.802 E3.4449
G1 X157.348 Y113.698 E3.4761
G1 X156.995 Y114.567 E3.5073
G1 X156.598 Y115.351 E3.53653
G1 X156.193 Y116.076 E3.56415
G1 X138.308 Y147.054 E4.75387
G1 X137.96 Y147.64 E4.77654
G1 X137.447 Y148.425 E4.80773
G1 X136.869 Y149.164 E4.83893
G1 X136.231 Y149.85 E4.87009
G1 X135.536 Y150.48 E4.90129
G1 X134.882 Y150.984 E4.92876
G1 X134.096 Y151.496 E4.95995
G1 X133.269 Y151.939 E4.99116
G1 X132.408 Y152.311 E5.02235
G1 X131.518 Y152.607 E5.05355
G1 X130.607 Y152.827 E5.08472
G1 X129.679 Y152.968 E5.11594
G1 X128.65 Y153.032 E5.15023
G1 X127.969 Y153.042 E5.17288
G1 X92.207 Y153.043 E6.36233
G1 X92.05 Y153.042 E6.36756
G1 X91.349 Y153.032 E6.39087
G1 X90.413 Y152.979 E6.42205
G1 X89.484 Y152.846 E6.45327
G1 X88.571 Y152.634 E6.48444
G1 X87.678 Y152.346 E6.51565
G1 X86.814 Y151.982 E6.54683
G1 X85.983 Y151.546 E6.57805
G1 X85.193 Y151.041 E6.60923
G1 X84.449 Y150.471 E6.6404
G1 X83.756 Y149.839 E6.6716
G1 X83.119 Y149.15 E6.70281
G1 X82.543 Y148.41 E6.734
G1 X82.06 Y147.669 E6.76342
G1 X81.619 Y146.928 E6.7921
G1 X63.797 Y116.06 E7.9776
G1 X63.406 Y115.362 E8.00421
G1 X62.984 Y114.524 E8.03542
G1 X62.635 Y113.654 E8.0666
G1 X62.362 Y112.757 E8.09778
G1 X62.166 Y111.839 E8.129
G1 X62.049 Y110.909 E8.16018
G1 X62.011 Y109.972 E8.19137
G1 X62.054 Y109.035 E8.22257
G1 X62.176 Y108.105 E8.25377
G1 X62.377 Y107.189 E8.28496
G1 X62.655 Y106.293 E8.31616
G1 X63.008 Y105.425 E8.34732
G1 X63.413 Y104.628 E8.37706
G1 X63.808 Y103.924 E8.40391
G1 X81.709 Y72.92 E9.59465
G1 X82.055 Y72.339 E9.61714
G1 X82.569 Y71.554 E9.64835
G1 X83.148 Y70.816 E9.67954
G0 F6000 X83.473 Y71.05
G1 F1200 X84.104 Y70.38 E9.71016
G1 X84.79 Y69.766 E9.74078
G1 X85.527 Y69.214 E9.7714
G1 X86.309 Y68.728 E9.80203
G1 X87.131 Y68.312 E9.83267
G1 X87.985 Y67.969 E9.86328
G1 X88.866 Y67.701 E9.8939
G1 X89.766 Y67.511 E9.9245
G1 X90.68 Y67.399 E9.95513
G1 X91.352 Y67.368 E9.9775
G1 X92.039 Y67.358 E10.00035
G1 X127.793 Y67.357 E11.18954
G1 X128.645 Y67.368 E11.21788
G1 X129.564 Y67.421 E11.24849
G1 X130.475 Y67.554 E11.27911
G1 X131.371 Y67.765 E11.30973
G1 X132.246 Y68.053 E11.34037
G1 X133.092 Y68.416 E11.37099
G1 X133.903 Y68.851 E11.4016
G1 X134.674 Y69.355 E11.43223
G1 X135.398 Y69.924 E11.46286
G1 X136.07 Y70.553 E11.49347
G1 X136.685 Y71.238 E11.52409
G1 X137.238 Y71.974 E11.55471
G1 X137.59 Y72.525 E11.57646
G1 X138.027 Y73.257 E11.60481
G1 X155.857 Y104.14 E12.79089
G1 X156.241 Y104.825 E12.817
G1 X156.655 Y105.647 E12.84762
G1 X156.996 Y106.502 E12.87823
G1 X157.262 Y107.384 E12.90887
G1 X157.45 Y108.285 E12.93948
G1 X157.559 Y109.199 E12.9701
G1 X157.588 Y110.119 E13.00071
G1 X157.538 Y111.039 E13.03136
G1 X157.408 Y111.95 E13.06197
G1 X157.199 Y112.847 E13.0926
G1 X156.913 Y113.722 E13.12322
G1 X156.553 Y114.569 E13.15383
G1 X156.249 Y115.157 E13.17584
G1 X155.927 Y115.735 E13.19785
G1 X155.847 Y115.876 E13.20324
G1 X138.03 Y146.737 E14.38846
G1 X137.616 Y147.435 E14.41546
G1 X137.112 Y148.206 E14.44609
G1 X136.543 Y148.93 E14.47672
G1 X135.913 Y149.601 E14.50733
G1 X135.228 Y150.216 E14.53795
G1 X134.649 Y150.659 E14.5622
G1 X133.877 Y151.161 E14.59283
G1 X133.065 Y151.594 E14.62343
G1 X132.218 Y151.955 E14.65406
G1 X131.343 Y152.241 E14.68467
G1 X130.447 Y152.45 E14.71528
G1 X129.535 Y152.581 E14.74592
G1 X128.644 Y152.632 E14.7756
G1 X127.963 Y152.642 E14.79826
G1 X92.207 Y152.643 E15.98751
G1 X91.355 Y152.632 E16.01585
G1 X90.436 Y152.579 E16.04646
G1 X89.525 Y152.446 E16.07708
G1 X88.629 Y152.235 E16.1077
G1 X87.754 Y151.947 E16.13834
G1 X86.908 Y151.584 E16.16896
G1 X86.097 Y151.149 E16.19957
G1 X85.326 Y150.645 E16.2302
G1 X84.602 Y150.076 E16.26083
G1 X83.93 Y149.447 E16.29144
G1 X83.315 Y148.762 E16.32206
G1 X82.762 Y148.026 E16.35268
G1 X82.403 Y147.465 E16.37483
G1 X82.042 Y146.86 E16.39827
G1 X64.143 Y115.86 E17.58886
G1 X63.755 Y115.167 E17.61527
G1 X63.342 Y114.344 E17.6459
G1 X63.001 Y113.489 E17.67651
G1 X62.736 Y112.607 E17.70714
G1 X62.549 Y111.706 E17.73775
G1 X62.441 Y110.792 E17.76836
G1 X62.412 Y109.872 E17.79898
G1 X62.463 Y108.952 E17.82962
G1 X62.594 Y108.041 E17.86023
G1 X62.803 Y107.144 E17.89087
G1 X63.09 Y106.269 E17.9215
G1 X63.451 Y105.423 E17.95209
G1 X63.762 Y104.823 E17.97457
G1 X64.154 Y104.124 E18.00122
G1 X81.98 Y73.248 E19.18702
G1 X82.399 Y72.543 E19.2143
G1 X82.904 Y71.774 E19.2449
G1 X83.473 Y71.05 E19.27553
G0 F6000 X83.799 Y71.285
G1 F1200 X84.42 Y70.63 E19.30555
G1 X85.097 Y70.032 E19.33559
G1 X85.824 Y69.496 E19.36563
G1 X86.596 Y69.027 E19.39568
G1 X87.406 Y68.627 E19.42572
G1 X88.248 Y68.301 E19.45575
G1 X89.116 Y68.051 E19.4858
G1 X90.002 Y67.878 E19.51582
G1 X90.9 Y67.785 E19.54585
G1 X91.358 Y67.768 E19.56109
G1 X92.193 Y67.757 E19.58887
G1 X127.793 Y67.757 E20.77293
G1 X128.639 Y67.768 E20.80107
G1 X129.541 Y67.821 E20.83112
G1 X130.434 Y67.953 E20.86115
G1 X131.313 Y68.164 E20.89121
G1 X132.169 Y68.452 E20.92125
G1 X132.996 Y68.814 E20.95128
G1 X133.788 Y69.248 E20.98132
G1 X134.538 Y69.751 E21.01135
G1 X135.241 Y70.318 E21.04139
G1 X135.891 Y70.944 E21.0714
G1 X136.484 Y71.626 E21.10146
G1 X137.247 Y72.73 E21.1461
G1 X137.6 Y73.32 E21.16897
G1 X155.58 Y104.462 E22.36499
G1 X155.892 Y105.02 E22.38626
G1 X156.297 Y105.827 E22.41629
G1 X156.63 Y106.667 E22.44634
G1 X156.887 Y107.533 E22.47639
G1 X157.066 Y108.418 E22.50642
G1 X157.166 Y109.315 E22.53644
G1 X157.187 Y110.218 E22.56648
G1 X157.127 Y111.119 E22.59651
G1 X156.988 Y112.012 E22.62657
G1 X156.771 Y112.888 E22.65659
G1 X156.477 Y113.742 E22.68663
G1 X155.9 Y114.962 E22.73152
G1 X155.501 Y115.676 E22.75872
G1 X137.684 Y146.537 E23.94394
G1 X137.272 Y147.231 E23.97079
G1 X136.777 Y147.987 E24.00084
G1 X136.217 Y148.695 E24.03086
G1 X135.597 Y149.351 E24.06089
G1 X134.921 Y149.95 E24.09093
G1 X134.417 Y150.333 E24.11198
G1 X133.659 Y150.825 E24.14204
G1 X132.861 Y151.248 E24.17208
G1 X132.029 Y151.599 E24.20211
G1 X131.169 Y151.874 E24.23214
G1 X130.288 Y152.073 E24.26218
G1 X129.393 Y152.193 E24.29222
G1 X128.638 Y152.232 E24.31736
G1 X127.807 Y152.243 E24.345
G1 X92.062 Y152.242 E25.53389
G1 X91.361 Y152.232 E25.5572
G1 X90.459 Y152.179 E25.58726
G1 X89.566 Y152.047 E25.61728
G1 X88.687 Y151.836 E25.64735
G1 X87.831 Y151.548 E25.67739
G1 X87.004 Y151.186 E25.70741
G1 X86.212 Y150.752 E25.73745
G1 X85.462 Y150.249 E25.76748
G1 X84.759 Y149.682 E25.79752
G1 X84.109 Y149.056 E25.82754
G1 X83.516 Y148.374 E25.8576
G1 X82.987 Y147.642 E25.88764
G1 X82.747 Y147.26 E25.90264
G1 X82.386 Y146.655 E25.92607
G1 X64.416 Y115.531 E27.12142
G1 X64.104 Y114.972 E27.14271
G1 X63.7 Y114.165 E27.17272
G1 X63.368 Y113.325 E27.20277
G1 X63.112 Y112.459 E27.2328
G1 X62.933 Y111.574 E27.26283
G1 X62.833 Y110.676 E27.29288
G1 X62.814 Y109.773 E27.32293
G1 X62.874 Y108.872 E27.35296
G1 X63.013 Y107.98 E27.38299
G1 X63.231 Y107.103 E27.41304
G1 X63.526 Y106.25 E27.44306
G1 X63.895 Y105.425 E27.47312
G1 X64.111 Y105.019 E27.48842
G1 X64.501 Y104.324 E27.51492
G1 X82.396 Y73.329 E28.7053
G1 X82.742 Y72.748 E28.72779
G1 X83.238 Y71.993 E28.75784
G1 X83.799 Y71.285 E28.78788
G1 F1500 E22.28788
;MESH:Catan_Player_Build_Stand.stl
G0 F6000 X90.803 Y77.836
G0 X91.741 Y78.377
G0 X128.053 Y78.733
G0 X146.105 Y110
G0 X128.154 Y141.443
;TYPE:WALL-INNER
G1 F1500 E28.78788
G1 F1200 X91.846 Y141.443 E29.99549
G1 X73.692 Y110 E31.20308
G1 X91.846 Y78.557 E32.41067
G1 X128.154 Y78.557 E33.61828
G1 X146.308 Y110 E34.82587
G1 X128.154 Y141.443 E36.03346
G0 F6000 X128.385 Y141.843
;TYPE:WALL-OUTER
G1 F1200 X91.615 Y141.843 E37.25644
G1 X73.231 Y110 E38.47937
G1 X91.615 Y78.157 E39.70231
G1 X128.385 Y78.157 E40.92529
G1 X146.769 Y110 E42.14822
G1 X128.385 Y141.843 E43.37116
G0 F6000 X128.114 Y141.432
G0 X127.929 Y141.053
;TYPE:SKIN
G1 F1200 X92.071 Y141.053 E44.5638
G1 X74.143 Y110 E45.7564
G1 X92.071 Y78.947 E46.949
G1 X127.929 Y78.947 E48.14164
G1 X145.857 Y110 E49.33424
G1 X127.929 Y141.053 E50.52684
G1 F1500 E44.02684
G0 F6000 X128.17 Y141.194
G0 X128.105 Y141.234
G0 X92.242 Y141.333
G0 X92.242 Y140.891
G1 F1500 E50.52684
G1 F1200 X92.052 Y140.701 E50.53577
G0 F6000 X92.808 Y140.891
G1 F1200 X91.279 Y139.362 E50.60769
G0 F6000 X90.898 Y139.581
G0 X90.126 Y138.244
G0 X90.507 Y138.025
G1 F1200 X93.374 Y140.891 E50.74252
G0 F6000 X93.939 Y140.891
G1 F1200 X89.734 Y136.686 E50.94031
G0 F6000 X89.353 Y136.905
G0 X88.581 Y135.568
G0 X88.962 Y135.348
G1 F1200 X94.505 Y140.891 E51.20104
G0 F6000 X95.071 Y140.891
G1 F1200 X88.189 Y134.01 E51.52473
G0 F6000 X87.808 Y134.229
G0 X87.035 Y132.89
G0 X87.416 Y132.671
G1 F1200 X95.636 Y140.891 E51.91137
G0 F6000 X96.202 Y140.891
G1 F1200 X86.644 Y131.333 E52.36095
G0 F6000 X86.263 Y131.553
G0 X85.49 Y130.214
G0 X85.871 Y129.995
G1 F1200 X96.768 Y140.891 E52.87349
G0 F6000 X97.333 Y140.891
G1 F1200 X85.099 Y128.657 E53.44894
G0 F6000 X84.718 Y128.877
G0 X83.945 Y127.538
G0 X84.326 Y127.318
G1 F1200 X97.899 Y140.891 E54.08737
G0 F6000 X98.465 Y140.891
G1 F1200 X83.554 Y125.98 E54.78874
G0 F6000 X83.173 Y126.2
G0 X82.4 Y124.862
G0 X82.781 Y124.642
G1 F1200 X99.031 Y140.891 E55.55306
G0 F6000 X99.596 Y140.891
G1 F1200 X82.008 Y123.303 E56.38035
G0 F6000 X81.627 Y123.523
G0 X80.855 Y122.185
G0 X81.236 Y121.966
G1 F1200 X100.162 Y140.891 E57.27055
G0 F6000 X100.728 Y140.891
G1 F1200 X80.463 Y120.627 E58.22373
G0 F6000 X80.082 Y120.847
G0 X79.31 Y119.509
G0 X79.691 Y119.289
G1 F1200 X101.293 Y140.891 E59.23982
G0 F6000 X101.859 Y140.891
G1 F1200 X78.918 Y117.951 E60.31887
G0 F6000 X78.537 Y118.17
G0 X77.765 Y116.833
G0 X78.146 Y116.613
G1 F1200 X102.425 Y140.891 E61.46085
G0 F6000 X102.99 Y140.891
G1 F1200 X77.373 Y115.274 E62.6658
G0 F6000 X76.992 Y115.494
G0 X76.219 Y114.155
G0 X76.6 Y113.936
G1 F1200 X103.556 Y140.891 E63.9337
G0 F6000 X104.122 Y140.891
G1 F1200 X75.828 Y112.598 E65.26454
G0 F6000 X75.447 Y112.818
G0 X74.674 Y111.479
G0 X75.055 Y111.259
G1 F1200 X104.687 Y140.891 E66.65834
G0 F6000 X105.253 Y140.891
G1 F1200 X74.339 Y109.977 E68.11244
G0 F6000 X74.546 Y109.619
G1 F1200 X105.819 Y140.891 E69.5834
G0 F6000 X106.384 Y140.891
G1 F1200 X74.753 Y109.26 E71.07123
G0 F6000 X74.961 Y108.902
G1 F1200 X106.95 Y140.891 E72.57589
G0 F6000 X107.516 Y140.891
G1 F1200 X75.168 Y108.543 E74.09744
G0 F6000 X75.374 Y108.184
G1 F1200 X108.081 Y140.891 E75.63588
G0 F6000 X108.647 Y140.891
G1 F1200 X75.581 Y107.826 E77.19118
G0 F6000 X75.789 Y107.467
G1 F1200 X109.213 Y140.891 E78.76334
G0 F6000 X109.779 Y140.891
G1 F1200 X75.996 Y107.108 E80.35239
G0 F6000 X76.203 Y106.75
G1 F1200 X110.344 Y140.891 E81.95828
G0 F6000 X110.91 Y140.891
G1 F1200 X76.409 Y106.391 E83.58108
G0 F6000 X76.617 Y106.032
G1 F1200 X111.476 Y140.891 E85.22074
G0 F6000 X112.041 Y140.891
G1 F1200 X76.824 Y105.674 E86.87724
G0 F6000 X77.031 Y105.315
G1 F1200 X112.607 Y140.891 E88.55062
G0 F6000 X113.173 Y140.891
G1 F1200 X77.238 Y104.957 E90.24087
G0 F6000 X77.445 Y104.598
G1 F1200 X113.738 Y140.891 E91.94798
G0 F6000 X114.304 Y140.891
G1 F1200 X77.652 Y104.239 E93.67198
G0 F6000 X77.859 Y103.881
G1 F1200 X114.87 Y140.891 E95.41284
G0 F6000 X115.435 Y140.891
G1 F1200 X78.066 Y103.522 E97.17057
G0 F6000 X78.273 Y103.164
G1 F1200 X116.001 Y140.891 E98.94515
G0 F6000 X116.567 Y140.891
G1 F1200 X78.48 Y102.804 E100.73665
G0 F6000 X78.687 Y102.446
G1 F1200 X117.132 Y140.891 E102.54498
G0 F6000 X117.698 Y140.891
G1 F1200 X78.894 Y102.087 E104.3702
G0 F6000 X79.101 Y101.729
G1 F1200 X118.264 Y140.891 E106.21229
G0 F6000 X118.83 Y140.891
G1 F1200 X79.309 Y101.37 E108.07123
G0 F6000 X79.516 Y101.012
G1 F1200 X119.395 Y140.891 E109.94702
G0 F6000 X119.961 Y140.891
G1 F1200 X79.722 Y100.653 E111.83972
G0 F6000 X79.929 Y100.294
G1 F1200 X120.527 Y140.891 E113.7493
G0 F6000 X121.092 Y140.891
G1 F1200 X80.137 Y99.936 E115.67569
G0 F6000 X80.344 Y99.577
G1 F1200 X121.658 Y140.891 E117.61898
G0 F6000 X122.224 Y140.891
G1 F1200 X80.551 Y99.219 E119.57913
G0 F6000 X80.757 Y98.859
G1 F1200 X122.789 Y140.891 E121.55618
G0 F6000 X123.355 Y140.891
G1 F1200 X80.965 Y98.501 E123.55008
G0 F6000 X81.172 Y98.142
G1 F1200 X123.921 Y140.891 E125.56086
G0 F6000 X124.486 Y140.891
G1 F1200 X81.379 Y97.784 E127.58848
G0 F6000 X81.586 Y97.425
G1 F1200 X125.052 Y140.891 E129.63299
G0 F6000 X125.618 Y140.891
G1 F1200 X81.793 Y97.066 E131.69438
G0 F6000 X82 Y96.708
G1 F1200 X126.183 Y140.891 E133.77261
G0 F6000 X126.749 Y140.891
G1 F1200 X82.207 Y96.349 E135.86773
G0 F6000 X82.414 Y95.991
G1 F1200 X127.315 Y140.891 E137.97972
G0 F6000 X127.853 Y140.864
G1 F1200 X82.621 Y95.632 E140.10729
G0 F6000 X82.828 Y95.273
G1 F1200 X128.06 Y140.505 E142.23486
G0 F6000 X128.267 Y140.147
G1 F1200 X83.035 Y94.914 E144.36246
G0 F6000 X83.242 Y94.556
G1 F1200 X128.474 Y139.788 E146.49004
G0 F6000 X128.681 Y139.429
G1 F1200 X83.449 Y94.197 E148.61761
G0 F6000 X83.657 Y93.839
G1 F1200 X128.888 Y139.07 E150.74514
G0 F6000 X129.095 Y138.712
G1 F1200 X83.863 Y93.48 E152.87271
G0 F6000 X84.07 Y93.121
G1 F1200 X129.302 Y138.353 E155.00029
G0 F6000 X129.51 Y137.995
G1 F1200 X84.277 Y92.763 E157.12789
G0 F6000 X84.485 Y92.404
G1 F1200 X129.716 Y137.636 E159.25544
G0 F6000 X129.923 Y137.277
G1 F1200 X84.692 Y92.046 E161.38297
G0 F6000 X84.899 Y91.687
G1 F1200 X130.13 Y136.919 E163.51052
G0 F6000 X130.338 Y136.56
G1 F1200 X85.105 Y91.328 E165.63811
G0 F6000 X85.313 Y90.969
G1 F1200 X130.545 Y136.202 E167.76571
G0 F6000 X130.752 Y135.843
G1 F1200 X85.52 Y90.611 E169.89329
G0 F6000 X85.727 Y90.252
G1 F1200 X130.959 Y135.484 E172.02086
G0 F6000 X131.166 Y135.125
G1 F1200 X85.934 Y89.894 E174.14841
G0 F6000 X86.141 Y89.535
G1 F1200 X131.373 Y134.767 E176.27599
G0 F6000 X131.58 Y134.408
G1 F1200 X86.348 Y89.176 E178.40356
G0 F6000 X86.555 Y88.818
G1 F1200 X131.787 Y134.05 E180.53114
G0 F6000 X131.994 Y133.691
G1 F1200 X86.762 Y88.459 E182.65871
G0 F6000 X86.969 Y88.101
G1 F1200 X132.201 Y133.332 E184.78626
G0 F6000 X132.408 Y132.974
G1 F1200 X87.176 Y87.742 E186.91384
G0 F6000 X87.383 Y87.383
G1 F1200 X132.615 Y132.615 E189.04141
G0 F6000 X132.822 Y132.257
G1 F1200 X87.59 Y87.025 E191.16899
G0 F6000 X87.797 Y86.666
G1 F1200 X133.029 Y131.898 E193.29656
G0 F6000 X133.236 Y131.539
G1 F1200 X88.005 Y86.308 E195.42409
G0 F6000 X88.211 Y85.948
