;FLAVOR:Marlin
;TIME:47424
;Filament used: 45.795m
;Layer height: 0.2
;MINX:29
;MINY:54
;MINZ:0.2
;MAXX:191
;MAXY:166
;MAXZ:30
;Generated with Cura_SteamEngine master
M140 S60
M105
M190 S60
M104 S200
M105
M109 S200
M82 ;absolute extrusion mode
; Ender 3 Custom Start G-code
G92 E0 ; Reset Extruder
G28 ; Home all axes
G1 Z2.0 F3000 ; Move Z Axis up little to prevent scratching of Heat Bed
G1 X0.1 Y20 Z0.3 F5000.0 ; Move to start position
G1 X0.1 Y200.0 Z0.3 F1500.0 E15 ; Draw the first line
G1 X0.4 Y200.0 Z0.3 F5000.0 ; Move to side a little
G1 X0.4 Y20 Z0.3 F1500.0 E30 ; Draw the second line
G92 E0 ; Reset Extruder
G1 Z2.0 F3000 ; Move Z Axis up little to prevent scratching of Heat Bed
G1 X5 Y20 Z0.3 F5000.0 ; Move over to prevent blob squish
G92 E0
G92 E0
G1 F1500 E-6.5
;LAYER_COUNT:150
;LAYER:0
M107
G0 F6000 X34.412 Y55.539 Z0.2
;TYPE:SKIRT
G1 F1500 E0
G1 F1200 X35.239 Y55.097 E0.03119
G1 X36.101 Y54.727 E0.06239
G1 X36.991 Y54.431 E0.09358
G1 X37.903 Y54.213 E0.12477
G1 X38.83 Y54.072 E0.15596
G1 X39.701 Y54.013 E0.18499
G1 X40.022 Y54.004 E0.19567
G1 X40.33 Y54 E0.20592
G1 X179.293 Y54 E4.82785
G1 X179.451 Y54.001 E4.8331
G1 X180.149 Y54.011 E4.85632
G1 X181.085 Y54.065 E4.8875
G1 X182.013 Y54.197 E4.91868
G1 X182.927 Y54.409 E4.94989
G1 X183.819 Y54.698 E4.98107
G1 X184.684 Y55.061 E5.01227
G1 X185.514 Y55.497 E5.04346
G1 X186.305 Y56.002 E5.07467
G1 X187.049 Y56.573 E5.10586
G1 X187.742 Y57.205 E5.13706
G1 X188.379 Y57.893 E5.16824
G1 X188.954 Y58.634 E5.19944
G1 X189.465 Y59.42 E5.23062
G1 X189.907 Y60.248 E5.26184
G1 X190.276 Y61.11 E5.29303
G1 X190.571 Y62 E5.32421
G1 X190.789 Y62.912 E5.3554
G1 X190.929 Y63.84 E5.38661
G1 X190.987 Y64.701 E5.41531
G1 X190.996 Y65.021 E5.42596
G1 X191 Y65.33 E5.43624
G1 X191 Y154.264 E8.3942
G1 X190.99 Y155.127 E8.4229
G1 X190.939 Y156.064 E8.45411
G1 X190.807 Y156.992 E8.48529
G1 X190.598 Y157.906 E8.51647
G1 X190.311 Y158.799 E8.54767
G1 X189.949 Y159.665 E8.57889
G1 X189.515 Y160.496 E8.61007
G1 X189.011 Y161.287 E8.64127
G1 X188.442 Y162.032 E8.67245
G1 X187.811 Y162.727 E8.70367
G1 X187.124 Y163.365 E8.73485
G1 X186.385 Y163.942 E8.76604
G1 X185.599 Y164.454 E8.79724
G1 X184.773 Y164.897 E8.82841
G1 X183.911 Y165.269 E8.85964
G1 X183.022 Y165.565 E8.8908
G1 X182.11 Y165.785 E8.922
G1 X181.183 Y165.926 E8.95319
G1 X180.299 Y165.987 E8.98266
G1 X179.978 Y165.996 E8.99334
G1 X179.67 Y166 E9.00359
G1 X40.707 Y166 E13.62552
G1 X39.867 Y165.99 E13.65346
G1 X38.931 Y165.938 E13.68464
G1 X38.002 Y165.806 E13.71584
G1 X37.088 Y165.596 E13.74704
G1 X36.195 Y165.309 E13.77823
G1 X35.33 Y164.946 E13.80943
G1 X34.499 Y164.512 E13.84062
G1 X33.708 Y164.008 E13.87181
G1 X32.963 Y163.438 E13.90301
G1 X32.269 Y162.807 E13.93421
G1 X31.632 Y162.12 E13.96537
G1 X31.055 Y161.38 E13.99658
G1 X30.543 Y160.594 E14.02778
G1 X30.1 Y159.767 E14.05898
G1 X29.729 Y158.906 E14.09017
G1 X29.433 Y158.016 E14.12136
G1 X29.214 Y157.104 E14.15256
G1 X29.073 Y156.177 E14.18374
G1 X29.013 Y155.288 E14.21338
G1 X29.004 Y154.955 E14.22446
G1 X29 Y154.658 E14.23434
G1 X29 Y65.674 E17.19396
G1 X29.01 Y64.86 E17.22103
G1 X29.063 Y63.924 E17.25221
G1 X29.195 Y62.995 E17.28342
G1 X29.406 Y62.081 E17.31462
G1 X29.694 Y61.189 E17.3458
G1 X30.057 Y60.324 E17.377
G1 X30.492 Y59.493 E17.4082
G1 X30.996 Y58.703 E17.43936
G1 X31.566 Y57.958 E17.47056
G1 X32.198 Y57.264 E17.50178
G1 X32.886 Y56.627 E17.53297
G1 X33.626 Y56.051 E17.56416
G1 X34.412 Y55.539 E17.59536
G0 F6000 X34.791 Y55.782
G1 F1200 X35.611 Y55.364 E17.62597
G1 X36.465 Y55.019 E17.6566
G1 X37.345 Y54.749 E17.68722
G1 X38.245 Y54.557 E17.71783
G1 X39.159 Y54.443 E17.74846
G1 X39.712 Y54.413 E17.76688
G1 X40.033 Y54.404 E17.77756
G1 X40.33 Y54.4 E17.78744
G1 X179.293 Y54.4 E22.40937
G1 X180.143 Y54.411 E22.43764
G1 X181.062 Y54.464 E22.46826
G1 X181.973 Y54.597 E22.49888
G1 X182.869 Y54.808 E22.5295
G1 X183.743 Y55.096 E22.56011
G1 X184.59 Y55.459 E22.59076
G1 X185.401 Y55.894 E22.62136
G1 X186.171 Y56.398 E22.65197
G1 X186.895 Y56.967 E22.6826
G1 X187.567 Y57.597 E22.71324
G1 X188.182 Y58.282 E22.74386
G1 X188.735 Y59.018 E22.77447
G1 X189.222 Y59.799 E22.80509
G1 X189.639 Y60.62 E22.83571
G1 X189.984 Y61.474 E22.86635
G1 X190.253 Y62.354 E22.89695
G1 X190.445 Y63.255 E22.92759
G1 X190.558 Y64.168 E22.95819
G1 X190.587 Y64.712 E22.97631
G1 X190.596 Y65.032 E22.98696
G1 X190.6 Y65.33 E22.99687
G1 X190.6 Y154.264 E25.95483
G1 X190.59 Y155.122 E25.98337
G1 X190.539 Y156.041 E26.01398
G1 X190.408 Y156.953 E26.04463
G1 X190.198 Y157.849 E26.07523
G1 X189.912 Y158.724 E26.10585
G1 X189.551 Y159.571 E26.13648
G1 X189.117 Y160.383 E26.1671
G1 X188.615 Y161.155 E26.19773
G1 X188.047 Y161.88 E26.22836
G1 X187.419 Y162.553 E26.25897
G1 X186.735 Y163.169 E26.28959
G1 X186 Y163.723 E26.3202
G1 X185.22 Y164.212 E26.35082
G1 X184.4 Y164.631 E26.38145
G1 X183.547 Y164.977 E26.41207
G1 X182.667 Y165.248 E26.44269
G1 X181.767 Y165.441 E26.47331
G1 X180.853 Y165.556 E26.50395
G1 X180.288 Y165.587 E26.52277
G1 X179.967 Y165.596 E26.53345
G1 X179.67 Y165.6 E26.54333
G1 X40.707 Y165.6 E31.16525
G1 X39.872 Y165.59 E31.19303
G1 X38.953 Y165.538 E31.22364
G1 X38.042 Y165.407 E31.25425
G1 X37.146 Y165.197 E31.28486
G1 X36.271 Y164.91 E31.31549
G1 X35.424 Y164.548 E31.34613
G1 X34.612 Y164.114 E31.37675
G1 X33.841 Y163.612 E31.40735
G1 X33.116 Y163.044 E31.43798
G1 X32.443 Y162.415 E31.46862
G1 X31.828 Y161.731 E31.49922
G1 X31.274 Y160.996 E31.52983
G1 X30.786 Y160.215 E31.56046
G1 X30.367 Y159.395 E31.59109
G1 X30.021 Y158.542 E31.6217
G1 X29.751 Y157.662 E31.65232
G1 X29.558 Y156.761 E31.68296
G1 X29.444 Y155.848 E31.71357
G1 X29.413 Y155.277 E31.73259
G1 X29.404 Y154.944 E31.74367
G1 X29.4 Y154.658 E31.75318
G1 X29.4 Y65.674 E34.7128
G1 X29.41 Y64.866 E34.73968
G1 X29.462 Y63.946 E34.77032
G1 X29.594 Y63.035 E34.80094
G1 X29.805 Y62.139 E34.83156
G1 X30.092 Y61.264 E34.86218
G1 X30.455 Y60.418 E34.8928
G1 X30.889 Y59.606 E34.92343
G1 X31.392 Y58.835 E34.95404
G1 X31.961 Y58.111 E34.98467
G1 X32.589 Y57.439 E35.01526
G1 X33.274 Y56.823 E35.0459
G1 X34.01 Y56.27 E35.07652
G1 X34.791 Y55.782 E35.10715
G0 F6000 X35.169 Y56.031
G1 F1200 X35.982 Y55.638 E35.13719
G1 X36.827 Y55.318 E35.16724
G1 X37.696 Y55.075 E35.19725
G1 X38.584 Y54.909 E35.2273
G1 X39.723 Y54.813 E35.26532
G1 X40.044 Y54.804 E35.276
G1 X40.33 Y54.8 E35.28551
G1 X179.293 Y54.8 E39.90744
G1 X180.137 Y54.811 E39.93551
G1 X181.039 Y54.864 E39.96556
G1 X181.932 Y54.996 E39.99559
G1 X182.81 Y55.207 E40.02562
G1 X183.666 Y55.495 E40.05566
G1 X184.493 Y55.857 E40.08569
G1 X185.285 Y56.292 E40.11574
G1 X186.036 Y56.794 E40.14579
G1 X186.739 Y57.361 E40.17583
G1 X187.389 Y57.988 E40.20586
G1 X187.981 Y58.67 E40.2359
G1 X188.511 Y59.401 E40.26593
G1 X188.973 Y60.177 E40.29597
G1 X189.366 Y60.99 E40.326
G1 X189.684 Y61.835 E40.35603
G1 X189.927 Y62.705 E40.38608
G1 X190.092 Y63.593 E40.41612
G1 X190.187 Y64.723 E40.45383
G1 X190.196 Y65.043 E40.46448
G1 X190.2 Y65.33 E40.47403
G1 X190.2 Y154.264 E43.43198
G1 X190.19 Y155.117 E43.46036
G1 X190.139 Y156.019 E43.49041
G1 X190.008 Y156.913 E43.52046
G1 X189.799 Y157.791 E43.55048
G1 X189.513 Y158.648 E43.58053
G1 X189.152 Y159.476 E43.61057
G1 X188.72 Y160.268 E43.64057
G1 X188.219 Y161.02 E43.67063
G1 X187.653 Y161.724 E43.70067
G1 X187.028 Y162.375 E43.73069
G1 X186.347 Y162.969 E43.76074
G1 X185.616 Y163.5 E43.79079
G1 X184.842 Y163.964 E43.82081
G1 X184.029 Y164.358 E43.85086
G1 X183.185 Y164.678 E43.88088
G1 X182.315 Y164.923 E43.91094
G1 X181.428 Y165.089 E43.94096
G1 X180.277 Y165.187 E43.97938
G1 X179.956 Y165.196 E43.99006
G1 X179.67 Y165.2 E43.99957
G1 X40.707 Y165.2 E48.6215
G1 X39.877 Y165.19 E48.64911
G1 X38.976 Y165.139 E48.67912
G1 X38.082 Y165.007 E48.70918
G1 X37.204 Y164.798 E48.7392
G1 X36.347 Y164.511 E48.76926
G1 X35.52 Y164.15 E48.79927
G1 X34.727 Y163.717 E48.82932
G1 X33.976 Y163.216 E48.85935
G1 X33.272 Y162.65 E48.88939
G1 X32.621 Y162.024 E48.91943
G1 X32.028 Y161.343 E48.94946
G1 X31.498 Y160.612 E48.9795
G1 X31.034 Y159.837 E49.00954
G1 X30.64 Y159.024 E49.03959
G1 X30.32 Y158.18 E49.06961
G1 X30.076 Y157.31 E49.09966
G1 X29.91 Y156.422 E49.12971
G1 X29.813 Y155.267 E49.16826
G1 X29.804 Y154.934 E49.17934
G1 X29.8 Y154.658 E49.18852
G1 X29.8 Y65.674 E52.14814
G1 X29.81 Y64.871 E52.17485
G1 X29.862 Y63.969 E52.2049
G1 X29.994 Y63.076 E52.23492
G1 X30.204 Y62.198 E52.26495
G1 X30.491 Y61.341 E52.29501
G1 X30.853 Y60.514 E52.32504
G1 X31.286 Y59.722 E52.35506
G1 X31.788 Y58.971 E52.3851
G1 X32.355 Y58.267 E52.41517
G1 X32.981 Y57.617 E52.44518
G1 X33.662 Y57.024 E52.47522
G1 X34.394 Y56.494 E52.50527
G1 X35.169 Y56.031 E52.5353
G1 F1500 E46.0353
;MESH:pillar_thing.stl
G0 F6000 X40.81 Y64.335
G0 X40.81 Y65.81
G0 X40.782 Y154.218
G0 X179.4 Y154.4
;TYPE:WALL-INNER
G1 F1500 E52.5353
G1 F1200 X40.6 Y154.4 E57.15181
G1 X40.6 Y65.6 E60.10531
G1 X179.4 Y65.6 E64.72181
G1 X179.4 Y154.4 E67.67531
G0 F6000 X179.8 Y154.8
;TYPE:WALL-OUTER
G1 F1200 X40.2 Y154.8 E72.31843
G1 X40.2 Y65.2 E75.29854
G1 X179.8 Y65.2 E79.94165
G1 X179.8 Y154.8 E82.92176
G0 F6000 X179.53 Y154.53
G0 X179.29 Y154.01
G0 X179.01 Y154.01
;TYPE:SKIN
G1 F1200 X40.99 Y154.01 E87.51232
G1 X40.99 Y65.99 E90.43988
G1 X179.01 Y65.99 E95.03044
G1 X179.01 Y154.01 E97.958
G1 F1500 E91.458
G0 F6000 X179.29 Y154.01
G0 X179.29 Y66.277
G0 X178.849 Y66.277
G1 F1500 E97.958
G1 F1200 X178.721 Y66.15 E97.964
G0 F6000 X178.156 Y66.15
G1 F1200 X178.849 Y66.843 E97.9966
G0 F6000 X178.849 Y67.409
G1 F1200 X177.59 Y66.15 E98.05581
G0 F6000 X177.024 Y66.15
G1 F1200 X178.849 Y67.974 E98.14163
G0 F6000 X178.849 Y68.54
G1 F1200 X176.459 Y66.15 E98.25405
G0 F6000 X175.893 Y66.15
G1 F1200 X178.849 Y69.106 E98.39309
G0 F6000 X178.849 Y69.671
G1 F1200 X175.327 Y66.15 E98.55873
G0 F6000 X174.762 Y66.15
G1 F1200 X178.849 Y70.237 E98.75097
G0 F6000 X178.849 Y70.803
G1 F1200 X174.196 Y66.15 E98.96984
G0 F6000 X173.63 Y66.15
G1 F1200 X178.849 Y71.368 E99.2153
G0 F6000 X178.849 Y71.934
G1 F1200 X173.065 Y66.15 E99.48736
G0 F6000 X172.499 Y66.15
G1 F1200 X178.849 Y72.5 E99.78604
G0 F6000 X178.849 Y73.066
G1 F1200 X171.933 Y66.15 E100.11135
G0 F6000 X171.368 Y66.15
G1 F1200 X178.849 Y73.631 E100.46324
G0 F6000 X178.849 Y74.197
G1 F1200 X170.802 Y66.15 E100.84174
G0 F6000 X170.236 Y66.15
G1 F1200 X178.849 Y74.763 E101.24687
G0 F6000 X178.849 Y75.328
G1 F1200 X169.67 Y66.15 E101.6786
G0 F6000 X169.105 Y66.15
G1 F1200 X178.849 Y75.894 E102.13693
G0 F6000 X178.849 Y76.46
G1 F1200 X168.539 Y66.15 E102.62188
G0 F6000 X167.973 Y66.15
G1 F1200 X178.849 Y77.025 E103.13343
G0 F6000 X178.849 Y77.591
G1 F1200 X167.408 Y66.15 E103.67158
G0 F6000 X166.842 Y66.15
G1 F1200 X178.849 Y78.157 E104.23635
G0 F6000 X178.849 Y78.722
G1 F1200 X166.276 Y66.15 E104.82772
G0 F6000 X165.711 Y66.15
G1 F1200 X178.849 Y79.288 E105.44569
G0 F6000 X178.849 Y79.854
G1 F1200 X165.145 Y66.15 E106.09029
G0 F6000 X164.579 Y66.15
G1 F1200 X178.849 Y80.419 E106.76148
G0 F6000 X178.849 Y80.985
G1 F1200 X164.014 Y66.15 E107.45927
G0 F6000 X163.448 Y66.15
G1 F1200 X178.849 Y81.551 E108.18369
G0 F6000 X178.849 Y82.117
G1 F1200 X162.882 Y66.15 E108.93473
G0 F6000 X162.317 Y66.15
G1 F1200 X178.849 Y82.682 E109.71234
G0 F6000 X178.849 Y83.248
G1 F1200 X161.751 Y66.15 E110.51658
G0 F6000 X161.185 Y66.15
G1 F1200 X178.849 Y83.814 E111.34744
G0 F6000 X178.849 Y84.379
G1 F1200 X160.62 Y66.15 E112.20488
G0 F6000 X160.054 Y66.15
G1 F1200 X178.849 Y84.945 E113.08894
G0 F6000 X178.849 Y85.511
G1 F1200 X159.488 Y66.15 E113.99962
G0 F6000 X158.922 Y66.15
G1 F1200 X178.849 Y86.076 E114.9369
G0 F6000 X178.849 Y86.642
G1 F1200 X158.357 Y66.15 E115.90078
G0 F6000 X157.791 Y66.15
G1 F1200 X178.849 Y87.208 E116.89128
G0 F6000 X178.849 Y87.773
G1 F1200 X157.225 Y66.15 E117.90839
G0 F6000 X156.66 Y66.15
G1 F1200 X178.849 Y88.339 E118.95209
G0 F6000 X178.849 Y88.905
G1 F1200 X156.094 Y66.15 E120.02242
G0 F6000 X155.528 Y66.15
G1 F1200 X178.849 Y89.47 E121.11934
G0 F6000 X178.849 Y90.036
G1 F1200 X154.963 Y66.15 E122.24286
G0 F6000 X154.397 Y66.15
G1 F1200 X178.849 Y90.602 E123.39301
G0 F6000 X178.849 Y91.167
G1 F1200 X153.831 Y66.15 E124.56976
G0 F6000 X153.266 Y66.15
G1 F1200 X178.849 Y91.733 E125.7731
G0 F6000 X178.849 Y92.299
G1 F1200 X152.7 Y66.15 E127.00307
G0 F6000 X152.134 Y66.15
G1 F1200 X178.849 Y92.865 E128.25966
G0 F6000 X178.849 Y93.43
G1 F1200 X151.569 Y66.15 E129.54283
G0 F6000 X151.003 Y66.15
G1 F1200 X178.849 Y93.996 E130.85262
G0 F6000 X178.849 Y94.562
G1 F1200 X150.437 Y66.15 E132.18904
G0 F6000 X149.871 Y66.15
G1 F1200 X178.849 Y95.127 E133.55205
G0 F6000 X178.849 Y95.693
G1 F1200 X149.306 Y66.15 E134.94166
G0 F6000 X148.74 Y66.15
G1 F1200 X178.849 Y96.259 E136.3579
G0 F6000 X178.849 Y96.824
G1 F1200 X148.174 Y66.15 E137.80073
G0 F6000 X147.609 Y66.15
G1 F1200 X178.849 Y97.39 E139.27016
G0 F6000 X178.849 Y97.956
G1 F1200 X147.043 Y66.15 E140.76622
G0 F6000 X146.477 Y66.15
G1 F1200 X178.849 Y98.521 E142.28888
G0 F6000 X178.849 Y99.087
G1 F1200 X145.912 Y66.15 E143.83813
G0 F6000 X145.346 Y66.15
G1 F1200 X178.849 Y99.653 E145.41401
G0 F6000 X178.849 Y100.218
G1 F1200 X144.78 Y66.15 E147.01649
G0 F6000 X144.215 Y66.15
G1 F1200 X178.849 Y100.784 E148.64557
G0 F6000 X178.849 Y101.35
G1 F1200 X143.649 Y66.15 E150.30127
G0 F6000 X143.083 Y66.15
G1 F1200 X178.849 Y101.916 E151.98359
G0 F6000 X178.849 Y102.481
G1 F1200 X142.518 Y66.15 E153.69249
G0 F6000 X141.952 Y66.15
G1 F1200 X178.849 Y103.047 E155.42801
G0 F6000 X178.849 Y103.613
G1 F1200 X141.386 Y66.15 E157.19015
G0 F6000 X140.821 Y66.15
G1 F1200 X178.849 Y104.178 E158.97887
G0 F6000 X178.849 Y104.744
G1 F1200 X140.255 Y66.15 E160.79422
G0 F6000 X139.689 Y66.15
G1 F1200 X178.849 Y105.31 E162.63618
G0 F6000 X178.849 Y105.875
G1 F1200 X139.123 Y66.15 E164.50475
G0 F6000 X138.558 Y66.15
G1 F1200 X178.849 Y106.441 E166.39992
G0 F6000 X178.849 Y107.007
G1 F1200 X137.992 Y66.15 E168.3217
G0 F6000 X137.426 Y66.15
G1 F1200 X178.849 Y107.572 E170.27009
G0 F6000 X178.849 Y108.138
G1 F1200 X136.861 Y66.15 E172.24508
G0 F6000 X136.295 Y66.15
G1 F1200 X178.849 Y108.704 E174.24669
G0 F6000 X178.849 Y109.269
G1 F1200 X135.729 Y66.15 E176.2749
G0 F6000 X135.164 Y66.15
G1 F1200 X178.849 Y109.835 E178.3297
G0 F6000 X178.849 Y110.401
G1 F1200 X134.598 Y66.15 E180.41114
G0 F6000 X134.032 Y66.15
G1 F1200 X178.849 Y110.966 E182.51917
G0 F6000 X178.849 Y111.532
G1 F1200 X133.467 Y66.15 E184.6538
G0 F6000 X132.901 Y66.15
G1 F1200 X178.849 Y112.098 E186.81505
G0 F6000 X178.849 Y112.664
G1 F1200 X132.335 Y66.15 E189.00293
G0 F6000 X131.77 Y66.15
G1 F1200 X178.849 Y113.229 E191.21738
G0 F6000 X178.849 Y113.795
G1 F1200 X131.204 Y66.15 E193.45845
G0 F6000 X130.638 Y66.15
G1 F1200 X178.849 Y114.361 E195.72615
G0 F6000 X178.849 Y114.926
G1 F1200 X130.072 Y66.15 E198.02045
G0 F6000 X129.507 Y66.15
G1 F1200 X178.849 Y115.492 E200.34134
G0 F6000 X178.849 Y116.058
G1 F1200 X128.941 Y66.15 E202.68886
G0 F6000 X128.375 Y66.15
G1 F1200 X178.849 Y116.623 E205.06298
G0 F6000 X178.849 Y117.189
G1 F1200 X127.81 Y66.15 E207.4637
G0 F6000 X127.244 Y66.15
G1 F1200 X178.849 Y117.755 E209.89104
G0 F6000 X178.849 Y118.32
G1 F1200 X126.678 Y66.15 E212.34498
G0 F6000 X126.113 Y66.15
G1 F1200 X178.849 Y118.886 E214.82552
G0 F6000 X178.849 Y119.452
G1 F1200 X125.547 Y66.15 E217.33268
G0 F6000 X124.981 Y66.15
G1 F1200 X178.849 Y120.017 E219.86645
G0 F6000 X178.849 Y120.583
G1 F1200 X124.416 Y66.15 E222.42681
G0 F6000 X123.85 Y66.15
G1 F1200 X178.849 Y121.149 E225.01379
G0 F6000 X178.849 Y121.714
G1 F1200 X123.284 Y66.15 E227.62738
G0 F6000 X122.719 Y66.15
G1 F1200 X178.849 Y122.28 E230.26756
G0 F6000 X178.849 Y122.846
G1 F1200 X122.153 Y66.15 E232.93436
G0 F6000 X121.587 Y66.15
G1 F1200 X178.849 Y123.412 E235.62779
G0 F6000 X178.849 Y123.977
G1 F1200 X121.022 Y66.15 E238.3478
G0 F6000 X120.456 Y66.15
G1 F1200 X178.849 Y124.543 E241.09443
G0 F6000 X178.849 Y125.109
G1 F1200 X119.89 Y66.15 E243.86768
G0 F6000 X119.324 Y66.15
G1 F1200 X178.849 Y125.674 E246.66753
G0 F6000 X178.849 Y126.24
G1 F1200 X118.759 Y66.15 E249.49398
G0 F6000 X118.193 Y66.15
G1 F1200 X178.849 Y126.806 E252.34705
G0 F6000 X178.849 Y127.371
G1 F1200 X117.627 Y66.15 E255.22672
