;FLAVOR:Marlin
;TIME:6914
;Filament used: 4.02494m
;Layer height: 0.2
;MINX:71.844
;MINY:67.978
;MINZ:0.2
;MAXX:167.749
;MAXY:154.064
;MAXZ:6.2
;Generated with Cura_SteamEngine master
M140 S60
M105
M190 S60
M104 S200
M105
M109 S200
M82 ;absolute extrusion mode
; Ender 3 Custom Start G-code
G92 E0 ; Reset Extruder
G28 ; Home all axes
G1 Z2.0 F3000 ; Move Z Axis up little to prevent scratching of Heat Bed
G1 X0.1 Y20 Z0.3 F5000.0 ; Move to start position
G1 X0.1 Y200.0 Z0.3 F1500.0 E15 ; Draw the first line
G1 X0.4 Y200.0 Z0.3 F5000.0 ; Move to side a little
G1 X0.4 Y20 Z0.3 F1500.0 E30 ; Draw the second line
G92 E0 ; Reset Extruder
G1 Z2.0 F3000 ; Move Z Axis up little to prevent scratching of Heat Bed
G1 X5 Y20 Z0.3 F5000.0 ; Move over to prevent blob squish
G92 E0
G92 E0
G1 F1500 E-6.5
;LAYER_COUNT:31
;LAYER:0
M107
G0 F6000 X92.355 Y72.586 Z0.2
;TYPE:SKIRT
G1 F1500 E0
G1 F1200 X92.933 Y71.848 E0.03118
G1 X93.572 Y71.161 E0.06238
G1 X94.267 Y70.531 E0.09358
G1 X95.013 Y69.963 E0.12477
G1 X95.805 Y69.46 E0.15597
G1 X96.636 Y69.027 E0.18714
G1 X97.502 Y68.665 E0.21836
G1 X98.395 Y68.379 E0.24955
G1 X99.309 Y68.171 E0.28072
G1 X100.238 Y68.04 E0.31193
G1 X101.135 Y67.99 E0.34181
G1 X101.869 Y67.979 E0.36622
G1 X102.041 Y67.978 E0.37195
G1 X137.7 Y68 E1.55797
G1 X138.409 Y68.01 E1.58155
G1 X139.345 Y68.063 E1.61273
G1 X140.274 Y68.196 E1.64395
G1 X141.188 Y68.407 E1.67515
G1 X142.08 Y68.696 E1.70633
G1 X142.945 Y69.059 E1.73753
G1 X143.775 Y69.495 E1.76872
G1 X144.566 Y70 E1.79993
G1 X145.31 Y70.57 E1.8311
G1 X146.003 Y71.202 E1.8623
G1 X146.64 Y71.89 E1.89348
G1 X147.216 Y72.631 E1.9247
G1 X147.694 Y73.362 E1.95375
G1 X148.032 Y73.927 E1.97565
G1 X165.963 Y104.982 E3.16835
G1 X166.35 Y105.672 E3.19467
G1 X166.772 Y106.509 E3.22584
G1 X167.122 Y107.379 E3.25703
G1 X167.396 Y108.276 E3.28823
G1 X167.593 Y109.193 E3.31942
G1 X167.711 Y110.124 E3.35064
G1 X167.749 Y111.043 E3.38123
G1 X167.709 Y111.98 E3.41242
G1 X167.589 Y112.91 E3.44361
G1 X167.391 Y113.827 E3.47481
G1 X167.115 Y114.723 E3.50599
G1 X166.764 Y115.593 E3.5372
G1 X166.353 Y116.405 E3.56747
G1 X165.943 Y117.138 E3.5954
G1 X148.104 Y148.074 E4.78315
G1 X147.75 Y148.67 E4.80621
G1 X147.237 Y149.456 E4.83742
G1 X146.659 Y150.194 E4.8686
G1 X146.02 Y150.881 E4.89981
G1 X145.325 Y151.511 E4.93101
G1 X144.579 Y152.079 E4.96219
G1 X143.787 Y152.582 E4.9934
G1 X142.956 Y153.015 E5.02456
G1 X142.09 Y153.377 E5.05578
G1 X141.197 Y153.663 E5.08697
G1 X140.283 Y153.871 E5.11815
G1 X139.354 Y154.002 E5.14935
G1 X138.457 Y154.052 E5.17923
G1 X137.722 Y154.063 E5.20368
G1 X137.55 Y154.064 E5.2094
G1 X101.889 Y154.042 E6.39549
G1 X101.199 Y154.032 E6.41844
G1 X100.262 Y153.978 E6.44966
G1 X99.334 Y153.845 E6.48084
G1 X98.42 Y153.633 E6.51205
G1 X97.528 Y153.345 E6.54322
G1 X96.663 Y152.981 E6.57444
G1 X96.069 Y152.678 E6.59662
G1 X96.038 Y152.661 E6.59779
G1 X95.235 Y152.175 E6.62901
G1 X94.477 Y151.623 E6.6602
G1 X93.769 Y151.008 E6.69139
G1 X93.116 Y150.336 E6.72256
G1 X92.522 Y149.609 E6.75378
G1 X91.876 Y148.644 E6.7924
G1 X91.458 Y147.94 E6.81964
G1 X73.63 Y117.06 E8.00559
G1 X73.547 Y116.914 E8.01117
G1 X73.235 Y116.354 E8.03249
G1 X72.814 Y115.516 E8.06369
G1 X72.465 Y114.645 E8.0949
G1 X72.193 Y113.748 E8.12607
G1 X71.997 Y112.83 E8.15729
G1 X71.881 Y111.9 E8.18846
G1 X71.844 Y110.962 E8.21969
G1 X71.887 Y110.026 E8.25085
G1 X72.01 Y109.096 E8.28205
G1 X72.212 Y108.18 E8.31325
G1 X72.491 Y107.284 E8.34446
G1 X72.845 Y106.416 E8.37564
G1 X73.231 Y105.654 E8.40405
G1 X73.642 Y104.917 E8.43212
G1 X91.488 Y73.968 E9.62036
G1 X91.842 Y73.372 E9.64341
G1 X92.355 Y72.586 E9.67463
G0 F6000 X92.69 Y72.805
G1 F1200 X93.259 Y72.082 E9.70523
G1 X93.889 Y71.41 E9.73587
G1 X94.575 Y70.796 E9.76649
G1 X95.311 Y70.243 E9.79711
G1 X96.093 Y69.756 E9.82775
G1 X96.913 Y69.339 E9.85835
G1 X97.767 Y68.995 E9.88897
G1 X98.648 Y68.726 E9.91961
G1 X99.548 Y68.535 E9.95021
G1 X100.462 Y68.422 E9.98084
G1 X101.141 Y68.39 E10.00345
G1 X101.875 Y68.379 E10.02786
G1 X102.04 Y68.378 E10.03335
G1 X137.694 Y68.4 E11.21921
G1 X138.403 Y68.41 E11.24279
G1 X139.323 Y68.463 E11.27344
G1 X140.234 Y68.596 E11.30406
G1 X141.13 Y68.807 E11.33468
G1 X142.004 Y69.095 E11.36529
G1 X142.85 Y69.457 E11.39589
G1 X143.662 Y69.892 E11.42653
G1 X144.433 Y70.396 E11.45717
G1 X145.157 Y70.965 E11.48779
G1 X145.829 Y71.594 E11.51841
G1 X146.443 Y72.279 E11.549
G1 X146.997 Y73.015 E11.57964
G1 X147.351 Y73.567 E11.60145
G1 X147.689 Y74.132 E11.62335
G1 X165.617 Y105.182 E12.81586
G1 X166.001 Y105.867 E12.84198
G1 X166.415 Y106.689 E12.87259
G1 X166.756 Y107.544 E12.90321
G1 X167.022 Y108.426 E12.93385
G1 X167.21 Y109.327 E12.96446
G1 X167.319 Y110.241 E12.99508
G1 X167.349 Y111.043 E13.02177
G1 X167.309 Y111.963 E13.0524
G1 X167.189 Y112.876 E13.08303
G1 X166.991 Y113.775 E13.11365
G1 X166.715 Y114.653 E13.14426
G1 X166.364 Y115.504 E13.17487
G1 X166.004 Y116.21 E13.20123
G1 X165.597 Y116.938 E13.22897
G1 X147.76 Y147.87 E14.41657
G1 X147.406 Y148.466 E14.43963
G1 X146.902 Y149.237 E14.47027
G1 X146.333 Y149.96 E14.50087
G1 X145.703 Y150.632 E14.5315
G1 X145.017 Y151.246 E14.56212
G1 X144.281 Y151.799 E14.59274
G1 X143.499 Y152.286 E14.62338
G1 X142.679 Y152.703 E14.65398
G1 X141.825 Y153.047 E14.6846
G1 X140.944 Y153.316 E14.71524
G1 X140.044 Y153.507 E14.74584
G1 X139.13 Y153.62 E14.77647
G1 X138.451 Y153.652 E14.79908
G1 X137.716 Y153.663 E14.82353
G1 X137.551 Y153.664 E14.82902
G1 X101.894 Y153.642 E16.01498
G1 X101.204 Y153.632 E16.03793
G1 X100.285 Y153.579 E16.06854
G1 X99.374 Y153.446 E16.09917
G1 X98.478 Y153.234 E16.12979
G1 X97.604 Y152.946 E16.1604
G1 X96.758 Y152.583 E16.19102
G1 X96.23 Y152.31 E16.21079
G1 X95.443 Y151.833 E16.24139
G1 X94.7 Y151.289 E16.27202
G1 X94.007 Y150.683 E16.30264
G1 X93.37 Y150.019 E16.33324
G1 X92.792 Y149.302 E16.36388
G1 X92.219 Y148.439 E16.39833
G1 X91.804 Y147.74 E16.42537
G1 X73.976 Y116.86 E17.61132
G1 X73.896 Y116.719 E17.61671
G1 X73.584 Y116.159 E17.63803
G1 X73.171 Y115.336 E17.66866
G1 X72.832 Y114.48 E17.69928
G1 X72.567 Y113.599 E17.72988
G1 X72.381 Y112.697 E17.76051
G1 X72.273 Y111.783 E17.79112
G1 X72.245 Y110.862 E17.82177
G1 X72.297 Y109.943 E17.85239
G1 X72.428 Y109.032 E17.883
G1 X72.638 Y108.136 E17.91361
G1 X72.925 Y107.261 E17.94423
G1 X73.287 Y106.414 E17.97487
G1 X73.58 Y105.848 E17.99607
G1 X73.907 Y105.26 E18.01845
G1 X73.988 Y105.117 E18.02391
G1 X91.832 Y74.172 E19.212
G1 X92.186 Y73.576 E19.23506
G1 X92.69 Y72.805 E19.2657
G0 F6000 X93.025 Y73.025
G1 F1200 X93.585 Y72.316 E19.29575
G1 X94.206 Y71.66 E19.32579
G1 X94.882 Y71.061 E19.35583
G1 X95.608 Y70.525 E19.38585
G1 X96.379 Y70.054 E19.4159
G1 X97.189 Y69.654 E19.44594
G1 X98.031 Y69.327 E19.47598
G1 X98.898 Y69.076 E19.50601
G1 X99.784 Y68.902 E19.53604
G1 X100.683 Y68.808 E19.5661
G1 X101.147 Y68.79 E19.58154
G1 X101.881 Y68.779 E19.60596
G1 X102.04 Y68.778 E19.61125
G1 X137.689 Y68.8 E20.79694
G1 X138.398 Y68.81 E20.82052
G1 X139.299 Y68.863 E20.85054
G1 X140.193 Y68.995 E20.8806
G1 X141.071 Y69.206 E20.91063
G1 X141.927 Y69.493 E20.94066
G1 X142.754 Y69.855 E20.97069
G1 X143.546 Y70.289 E21.00073
G1 X144.297 Y70.792 E21.03079
G1 X145 Y71.358 E21.06081
G1 X145.65 Y71.985 E21.09085
G1 X146.243 Y72.667 E21.1209
G1 X147.007 Y73.773 E21.16561
G1 X147.425 Y74.474 E21.19276
G1 X165.34 Y105.504 E22.38448
G1 X165.652 Y106.062 E22.40574
G1 X166.057 Y106.869 E22.43577
G1 X166.39 Y107.709 E22.46583
G1 X166.647 Y108.575 E22.49587
G1 X166.826 Y109.46 E22.5259
G1 X166.926 Y110.357 E22.55592
G1 X166.949 Y111.043 E22.57875
G1 X166.909 Y111.945 E22.60878
G1 X166.789 Y112.84 E22.63882
G1 X166.591 Y113.721 E22.66885
G1 X166.316 Y114.581 E22.69888
G1 X165.965 Y115.414 E22.72894
G1 X165.655 Y116.015 E22.75144
G1 X165.25 Y116.738 E22.779
G1 X147.416 Y147.666 E23.96643
G1 X147.062 Y148.262 E23.98949
G1 X146.567 Y149.017 E24.01952
G1 X146.007 Y149.726 E24.04957
G1 X145.386 Y150.382 E24.07961
G1 X144.71 Y150.981 E24.10965
G1 X143.984 Y151.517 E24.13967
G1 X143.213 Y151.988 E24.16972
G1 X142.403 Y152.388 E24.19976
G1 X141.561 Y152.715 E24.22981
G1 X140.694 Y152.966 E24.25983
G1 X139.808 Y153.14 E24.28986
G1 X138.909 Y153.234 E24.31992
G1 X138.445 Y153.252 E24.33537
G1 X137.71 Y153.263 E24.35982
G1 X137.551 Y153.264 E24.3651
G1 X101.9 Y153.242 E25.55086
G1 X101.21 Y153.232 E25.57381
G1 X100.309 Y153.179 E25.60383
G1 X99.415 Y153.046 E25.63389
G1 X98.537 Y152.835 E25.66393
G1 X97.681 Y152.547 E25.69397
G1 X96.454 Y151.976 E25.73898
G1 X96.423 Y151.959 E25.74016
G1 X95.651 Y151.491 E25.77018
G1 X94.923 Y150.955 E25.80025
G1 X94.246 Y150.358 E25.83027
G1 X93.624 Y149.703 E25.86032
G1 X93.063 Y148.995 E25.89036
G1 X92.563 Y148.235 E25.92062
G1 X92.15 Y147.54 E25.94751
G1 X74.322 Y116.66 E27.13346
G1 X73.934 Y115.964 E27.15996
G1 X73.529 Y115.157 E27.18999
G1 X73.198 Y114.317 E27.22002
G1 X72.943 Y113.45 E27.25008
G1 X72.765 Y112.565 E27.2801
G1 X72.666 Y111.667 E27.31015
G1 X72.647 Y110.764 E27.34019
G1 X72.708 Y109.863 E27.37023
G1 X72.848 Y108.971 E27.40026
G1 X73.066 Y108.095 E27.43029
G1 X73.362 Y107.241 E27.46035
G1 X73.93 Y106.043 E27.50445
G1 X74.335 Y105.317 E27.5321
G1 X92.176 Y74.376 E28.72002
G1 X92.53 Y73.78 E28.74308
G1 X93.025 Y73.025 E28.7731
G1 F1500 E22.2731
;MESH:Catan_-_Wheat3.stl
G0 F6000 X100.599 Y78.858
G0 X101.537 Y79.398
G0 X83.729 Y111.001
G0 X101.679 Y142.443
;TYPE:WALL-INNER
G1 F1500 E28.7731
G1 F1200 X83.526 Y111.001 E29.98065
G1 X101.643 Y79.578 E31.18705
G1 X137.914 Y79.599 E32.39343
G1 X156.067 Y111.041 E33.60097
G1 X137.949 Y142.464 E34.80739
G1 X101.679 Y142.443 E36.01373
G0 F6000 X101.448 Y142.843
;TYPE:WALL-OUTER
G1 F1200 X83.064 Y111 E37.23667
G1 X101.411 Y79.178 E38.45839
G1 X138.145 Y79.199 E39.68016
G1 X156.529 Y111.042 E40.9031
G1 X138.181 Y142.864 E42.12483
G1 X101.448 Y142.843 E43.34658
G0 F6000 X101.72 Y142.433
G0 X101.904 Y142.053
;TYPE:SKIN
G1 F1200 X83.977 Y111.001 E44.53913
G1 X101.868 Y79.968 E45.73054
G1 X137.689 Y79.989 E46.92195
G1 X155.616 Y111.041 E48.1145
G1 X137.724 Y142.074 E49.30593
G1 X101.904 Y142.053 E50.4973
G0 F6000 X102.294 Y141.892
G1 F1200 X101.587 Y141.185 E50.53056
G0 F6000 X101.206 Y141.403
G0 X101.78 Y142.267
G0 X102.858 Y142.333
G0 X102.859 Y141.892
G1 F1200 X100.815 Y139.847 E50.62673
G0 F6000 X100.434 Y140.065
G0 X99.662 Y138.727
G0 X100.042 Y138.509
G1 F1200 X103.426 Y141.892 E50.78588
G0 F6000 X103.992 Y141.892
G1 F1200 X99.27 Y137.17 E51.00798
G0 F6000 X98.889 Y137.389
G0 X98.117 Y136.051
G0 X98.497 Y135.833
G1 F1200 X104.558 Y141.893 E51.29305
G0 F6000 X105.124 Y141.893
G1 F1200 X97.724 Y134.494 E51.6411
G0 F6000 X97.344 Y134.712
G0 X96.571 Y133.374
G0 X96.952 Y133.155
G1 F1200 X105.69 Y141.894 E52.05213
G0 F6000 X106.256 Y141.894
G1 F1200 X96.179 Y131.818 E52.5261
G0 F6000 X95.799 Y132.036
G0 X95.026 Y130.698
G0 X95.407 Y130.479
G1 F1200 X106.821 Y141.894 E53.06301
G0 F6000 X107.388 Y141.895
G1 F1200 X94.634 Y129.141 E53.66291
G0 F6000 X94.253 Y129.359
G0 X93.481 Y128.022
G0 X93.862 Y127.803
G1 F1200 X107.953 Y141.895 E54.32574
G0 F6000 X108.52 Y141.895
G1 F1200 X93.089 Y126.464 E55.05156
G0 F6000 X92.708 Y126.683
G0 X91.935 Y125.344
G0 X92.316 Y125.126
G1 F1200 X109.086 Y141.895 E55.84035
G0 F6000 X109.652 Y141.896
G1 F1200 X91.544 Y123.788 E56.69209
G0 F6000 X91.163 Y124.007
G0 X90.39 Y122.668
G0 X90.771 Y122.449
G1 F1200 X110.218 Y141.896 E57.60682
G0 F6000 X110.784 Y141.897
G1 F1200 X89.998 Y121.111 E58.58453
G0 F6000 X89.617 Y121.329
G0 X88.845 Y119.992
G0 X89.226 Y119.773
G1 F1200 X111.35 Y141.897 E59.62517
G0 F6000 X111.916 Y141.897
G1 F1200 X88.453 Y118.434 E60.7288
G0 F6000 X88.072 Y118.653
G0 X87.3 Y117.315
G0 X87.681 Y117.096
G1 F1200 X112.482 Y141.897 E61.89537
G0 F6000 X113.047 Y141.897
G1 F1200 X86.908 Y115.758 E63.12486
G0 F6000 X86.527 Y115.977
G0 X85.754 Y114.638
G0 X86.135 Y114.419
G1 F1200 X113.614 Y141.898 E64.41739
G0 F6000 X114.18 Y141.898
G1 F1200 X85.363 Y113.081 E65.77286
G0 F6000 X84.982 Y113.3
G0 X84.209 Y111.962
G0 X84.59 Y111.743
G1 F1200 X114.746 Y141.899 E67.1913
G0 F6000 X115.312 Y141.899
G1 F1200 X84.253 Y110.841 E68.6522
G0 F6000 X84.46 Y110.481
G1 F1200 X115.878 Y141.9 E70.13003
G0 F6000 X116.444 Y141.9
G1 F1200 X84.667 Y110.123 E71.62472
G0 F6000 X84.874 Y109.764
G1 F1200 X117.01 Y141.9 E73.1363
G0 F6000 X117.576 Y141.9
G1 F1200 X85.081 Y109.405 E74.66476
G0 F6000 X85.287 Y109.046
G1 F1200 X118.142 Y141.901 E76.21016
G0 F6000 X118.708 Y141.901
G1 F1200 X85.494 Y108.687 E77.77245
G0 F6000 X85.701 Y108.328
G1 F1200 X119.274 Y141.902 E79.35164
G0 F6000 X119.84 Y141.902
G1 F1200 X85.908 Y107.97 E80.9477
G0 F6000 X86.114 Y107.611
G1 F1200 X120.406 Y141.902 E82.56067
G0 F6000 X120.972 Y141.902
G1 F1200 X86.322 Y107.252 E84.1905
G0 F6000 X86.529 Y106.894
G1 F1200 X121.538 Y141.902 E85.83719
G0 F6000 X122.104 Y141.903
G1 F1200 X86.735 Y106.534 E87.50084
G0 F6000 X86.943 Y106.176
G1 F1200 X122.67 Y141.903 E89.18133
G0 F6000 X123.236 Y141.904
G1 F1200 X87.149 Y105.817 E90.87875
G0 F6000 X87.356 Y105.458
G1 F1200 X123.802 Y141.904 E92.59306
G0 F6000 X124.368 Y141.905
G1 F1200 X87.563 Y105.099 E94.32427
G0 F6000 X87.77 Y104.74
G1 F1200 X124.934 Y141.905 E96.07238
G0 F6000 X125.5 Y141.905
G1 F1200 X87.976 Y104.381 E97.83739
G0 F6000 X88.183 Y104.023
G1 F1200 X126.066 Y141.905 E99.61927
G0 F6000 X126.632 Y141.906
G1 F1200 X88.39 Y103.663 E101.41808
G0 F6000 X88.597 Y103.305
G1 F1200 X127.198 Y141.906 E103.23375
G0 F6000 X127.764 Y141.906
G1 F1200 X88.804 Y102.946 E105.06631
G0 F6000 X89.011 Y102.587
G1 F1200 X128.33 Y141.907 E106.91578
G0 F6000 X128.896 Y141.907
G1 F1200 X89.218 Y102.229 E108.78211
G0 F6000 X89.424 Y101.87
G1 F1200 X129.462 Y141.907 E110.66535
G0 F6000 X130.028 Y141.907
G1 F1200 X89.632 Y101.511 E112.56546
G0 F6000 X89.838 Y101.152
G1 F1200 X130.594 Y141.908 E114.48249
G0 F6000 X131.16 Y141.908
G1 F1200 X90.045 Y100.793 E116.41642
G0 F6000 X90.252 Y100.434
G1 F1200 X131.726 Y141.909 E118.36725
G0 F6000 X132.292 Y141.909
G1 F1200 X90.459 Y100.076 E120.33495
G0 F6000 X90.665 Y99.716
G1 F1200 X132.859 Y141.909 E122.3196
G0 F6000 X133.424 Y141.909
G1 F1200 X90.873 Y99.358 E124.32107
G0 F6000 X91.079 Y98.999
G1 F1200 X133.991 Y141.91 E126.33949
G0 F6000 X134.556 Y141.91
G1 F1200 X91.286 Y98.64 E128.37478
G0 F6000 X91.493 Y98.281
G1 F1200 X135.122 Y141.91 E130.42696
G0 F6000 X135.688 Y141.911
G1 F1200 X91.7 Y97.922 E132.49604
G0 F6000 X91.906 Y97.563
G1 F1200 X136.254 Y141.911 E134.58203
G0 F6000 X136.82 Y141.912
G1 F1200 X92.114 Y97.205 E136.68489
G0 F6000 X92.321 Y96.846
G1 F1200 X137.386 Y141.912 E138.80463
G0 F6000 X137.75 Y141.709
G1 F1200 X92.527 Y96.487 E140.93176
G0 F6000 X92.734 Y96.129
G1 F1200 X137.956 Y141.35 E143.05884
G0 F6000 X138.163 Y140.992
G1 F1200 X92.941 Y95.769 E145.18597
G0 F6000 X93.148 Y95.411
G1 F1200 X138.37 Y140.632 E147.31305
G0 F6000 X138.577 Y140.274
G1 F1200 X93.355 Y95.052 E149.44015
G0 F6000 X93.562 Y94.693
G1 F1200 X138.783 Y139.915 E151.56724
G0 F6000 X138.991 Y139.556
G1 F1200 X93.768 Y94.334 E153.69436
G0 F6000 X93.975 Y93.975
G1 F1200 X139.197 Y139.197 E155.82147
G0 F6000 X139.404 Y138.839
G1 F1200 X94.182 Y93.616 E157.94859
G0 F6000 X94.389 Y93.258
G1 F1200 X139.611 Y138.48 E160.0757
G0 F6000 X139.818 Y138.121
G1 F1200 X94.596 Y92.898 E162.20283
G0 F6000 X94.803 Y92.54
G1 F1200 X140.025 Y137.762 E164.32993
G0 F6000 X140.232 Y137.403
G1 F1200 X95.01 Y92.181 E166.45704
G0 F6000 X95.216 Y91.822
G1 F1200 X140.439 Y137.045 E168.58419
G0 F6000 X140.645 Y136.685
G1 F1200 X95.424 Y91.464 E170.71124
G0 F6000 X95.63 Y91.105
G1 F1200 X140.852 Y136.327 E172.83835
G0 F6000 X141.059 Y135.968
G1 F1200 X95.837 Y90.746 E174.96545
G0 F6000 X96.044 Y90.387
G1 F1200 X141.266 Y135.609 E177.09256
G0 F6000 X141.473 Y135.251
G1 F1200 X96.251 Y90.028 E179.21968
G0 F6000 X96.457 Y89.669
G1 F1200 X141.68 Y134.891 E181.34681
G0 F6000 X141.887 Y134.533
G1 F1200 X96.665 Y89.311 E183.47392
G0 F6000 X96.871 Y88.951
G1 F1200 X142.093 Y134.174 E185.60104
G0 F6000 X142.3 Y133.815
G1 F1200 X97.078 Y88.593 E187.72815
G0 F6000 X97.285 Y88.234
G1 F1200 X142.507 Y133.456 E189.85525
G0 F6000 X142.714 Y133.098
G1 F1200 X97.492 Y87.875 E191.98238
G0 F6000 X97.698 Y87.516
