;FLAVOR:Marlin
;TIME:5353
;Filament used: 3.33784m
;Layer height: 0.2
;MINX:62.047
;MINY:66.928
;MINZ:0.2
;MAXX:157.953
;MAXY:153.014
;MAXZ:13.6
;Generated with Cura_SteamEngine master
M140 S60
M105
M190 S60
M104 S200
M105
M109 S200
M82 ;absolute extrusion mode
; Ender 3 Custom Start G-code
G92 E0 ; Reset Extruder
G28 ; Home all axes
G1 Z2.0 F3000 ; Move Z Axis up little to prevent scratching of Heat Bed
G1 X0.1 Y20 Z0.3 F5000.0 ; Move to start position
G1 X0.1 Y200.0 Z0.3 F1500.0 E15 ; Draw the first line
G1 X0.4 Y200.0 Z0.3 F5000.0 ; Move to side a little
G1 X0.4 Y20 Z0.3 F1500.0 E30 ; Draw the second line
G92 E0 ; Reset Extruder
G1 Z2.0 F3000 ; Move Z Axis up little to prevent scratching of Heat Bed
G1 X5 Y20 Z0.3 F5000.0 ; Move over to prevent blob squish
G92 E0
G92 E0
G1 F1500 E-6.5
;LAYER_COUNT:68
;LAYER:0
M107
G0 F6000 X83.137 Y70.797 Z0.2
;TYPE:SKIRT
G1 F1500 E0
G1 F1200 X83.776 Y70.11 E0.03121
G1 X84.471 Y69.48 E0.06241
G1 X85.217 Y68.912 E0.09359
G1 X86.009 Y68.409 E0.1248
G1 X86.841 Y67.976 E0.15599
G1 X87.706 Y67.615 E0.18717
G1 X88.6 Y67.329 E0.21839
G1 X89.514 Y67.12 E0.24957
G1 X90.443 Y66.99 E0.28077
G1 X91.339 Y66.94 E0.31062
G1 X92.076 Y66.929 E0.33513
G1 X92.247 Y66.928 E0.34082
G1 X127.903 Y66.95 E1.52674
G1 X128.613 Y66.96 E1.55036
G1 X129.549 Y67.013 E1.58154
G1 X130.478 Y67.146 E1.61276
G1 X131.391 Y67.357 E1.64392
G1 X132.284 Y67.646 E1.67514
G1 X133.148 Y68.009 E1.70631
G1 X133.979 Y68.445 E1.73752
G1 X134.769 Y68.95 E1.76871
G1 X135.514 Y69.52 E1.79991
G1 X136.207 Y70.152 E1.8311
G1 X136.844 Y70.84 E1.86229
G1 X137.42 Y71.581 E1.8935
G1 X137.931 Y72.367 E1.92469
G1 X137.949 Y72.4 E1.92594
G1 X138.256 Y72.914 E1.94585
G1 X138.341 Y73.059 E1.95144
G1 X156.215 Y104.017 E3.1404
G1 X156.549 Y104.613 E3.16313
G1 X156.972 Y105.45 E3.19432
G1 X157.322 Y106.32 E3.22551
G1 X157.597 Y107.217 E3.25671
G1 X157.795 Y108.134 E3.28792
G1 X157.914 Y109.064 E3.3191
G1 X157.953 Y110.001 E3.35029
G1 X157.912 Y110.938 E3.38149
G1 X157.792 Y111.868 E3.41268
G1 X157.592 Y112.785 E3.44389
G1 X157.316 Y113.681 E3.47507
G1 X156.964 Y114.55 E3.50626
G1 X156.562 Y115.345 E3.53589
G1 X156.216 Y115.966 E3.55953
G1 X156.136 Y116.107 E3.56492
G1 X138.308 Y147.024 E4.75194
G1 X137.954 Y147.62 E4.775
G1 X137.441 Y148.406 E4.80622
G1 X136.863 Y149.144 E4.83739
G1 X136.224 Y149.831 E4.8686
G1 X135.529 Y150.461 E4.8998
G1 X134.783 Y151.029 E4.93099
G1 X133.991 Y151.532 E4.96219
G1 X133.16 Y151.965 E4.99336
G1 X132.294 Y152.327 E5.02458
G1 X131.401 Y152.613 E5.05576
G1 X130.487 Y152.821 E5.08694
G1 X129.558 Y152.952 E5.11814
G1 X128.661 Y153.002 E5.14803
G1 X127.926 Y153.013 E5.17247
G1 X127.754 Y153.014 E5.1782
G1 X92.092 Y152.992 E6.36432
G1 X91.402 Y152.982 E6.38727
G1 X90.465 Y152.928 E6.41849
G1 X89.537 Y152.795 E6.44967
G1 X88.623 Y152.583 E6.48087
G1 X87.731 Y152.295 E6.51205
G1 X86.866 Y151.931 E6.54326
G1 X85.852 Y151.386 E6.58155
G1 X85.824 Y151.369 E6.58264
G1 X85.044 Y150.848 E6.61384
G1 X84.311 Y150.263 E6.64503
G1 X83.63 Y149.618 E6.67623
G1 X83.007 Y148.917 E6.70742
G1 X82.446 Y148.165 E6.73863
G1 X82.088 Y147.604 E6.76076
G1 X81.613 Y146.806 E6.79165
G1 X63.776 Y115.907 E7.9783
G1 X63.451 Y115.327 E8.00041
G1 X63.028 Y114.49 E8.0316
G1 X62.677 Y113.62 E8.06281
G1 X62.402 Y112.724 E8.09398
G1 X62.205 Y111.807 E8.12517
G1 X62.086 Y110.876 E8.15639
G1 X62.047 Y109.939 E8.18758
G1 X62.088 Y109.002 E8.21878
G1 X62.208 Y108.072 E8.24997
G1 X62.408 Y107.156 E8.28115
G1 X62.684 Y106.26 E8.31233
G1 X63.037 Y105.39 E8.34356
G1 X63.442 Y104.589 E8.37341
G1 X63.873 Y103.819 E8.40276
G1 X81.721 Y72.867 E9.59112
G1 X82.046 Y72.32 E9.61228
G1 X82.559 Y71.535 E9.64347
G1 X83.137 Y70.797 E9.67465
G0 F6000 X83.463 Y71.031
G1 F1200 X84.093 Y70.359 E9.70529
G1 X84.779 Y69.745 E9.73591
G1 X85.515 Y69.192 E9.76653
G1 X86.297 Y68.706 E9.79715
G1 X87.118 Y68.289 E9.82778
G1 X87.972 Y67.945 E9.8584
G1 X88.852 Y67.676 E9.88901
G1 X89.753 Y67.484 E9.91965
G1 X90.667 Y67.372 E9.95027
G1 X91.345 Y67.34 E9.97285
G1 X92.082 Y67.329 E9.99737
G1 X92.246 Y67.328 E10.00282
G1 X127.897 Y67.35 E11.18858
G1 X128.607 Y67.36 E11.21219
G1 X129.526 Y67.413 E11.24281
G1 X130.437 Y67.545 E11.27343
G1 X131.334 Y67.757 E11.30408
G1 X132.208 Y68.045 E11.33469
G1 X133.054 Y68.407 E11.3653
G1 X133.866 Y68.842 E11.39593
G1 X134.636 Y69.346 E11.42654
G1 X135.36 Y69.914 E11.45715
G1 X136.032 Y70.544 E11.48779
G1 X136.647 Y71.229 E11.51841
G1 X137.2 Y71.965 E11.54902
G1 X137.55 Y72.525 E11.57099
G1 X137.555 Y72.522 E11.57118
G1 X137.995 Y73.259 E11.59973
G1 X155.866 Y104.213 E12.78853
G1 X156.2 Y104.809 E12.81125
G1 X156.615 Y105.631 E12.84188
G1 X156.957 Y106.486 E12.87251
G1 X157.223 Y107.367 E12.90312
G1 X157.412 Y108.268 E12.93374
G1 X157.522 Y109.182 E12.96436
G1 X157.552 Y110.102 E12.99497
G1 X157.503 Y111.022 E13.02561
G1 X157.374 Y111.933 E13.05622
G1 X157.166 Y112.83 E13.08684
G1 X156.881 Y113.705 E13.11745
G1 X156.521 Y114.553 E13.14809
G1 X156.213 Y115.15 E13.17043
G1 X155.79 Y115.907 E13.19928
G1 X137.964 Y146.82 E14.38615
G1 X137.61 Y147.416 E14.4092
G1 X137.106 Y148.187 E14.43984
G1 X136.537 Y148.91 E14.47044
G1 X135.907 Y149.582 E14.50108
G1 X135.221 Y150.196 E14.5317
G1 X134.485 Y150.749 E14.56232
G1 X133.703 Y151.236 E14.59296
G1 X132.883 Y151.653 E14.62355
G1 X132.029 Y151.997 E14.65418
G1 X131.148 Y152.266 E14.68481
G1 X130.248 Y152.457 E14.71541
G1 X129.334 Y152.57 E14.74605
G1 X128.655 Y152.602 E14.76865
G1 X127.92 Y152.613 E14.7931
G1 X127.755 Y152.614 E14.79859
G1 X92.097 Y152.592 E15.98458
G1 X91.407 Y152.582 E16.00753
G1 X90.488 Y152.529 E16.03815
G1 X89.577 Y152.396 E16.06877
G1 X88.681 Y152.184 E16.0994
G1 X87.807 Y151.896 E16.13
G1 X86.961 Y151.533 E16.16062
G1 X86.06 Y151.044 E16.19472
G1 X86.032 Y151.027 E16.19581
G1 X85.266 Y150.515 E16.22645
G1 X84.548 Y149.939 E16.25707
G1 X83.883 Y149.303 E16.28767
G1 X83.275 Y148.612 E16.31829
G1 X82.729 Y147.87 E16.34893
G1 X82.431 Y147.399 E16.36746
G1 X81.959 Y146.606 E16.39816
G1 X64.125 Y115.712 E17.58461
G1 X63.8 Y115.132 E17.60673
G1 X63.385 Y114.31 E17.63735
G1 X63.043 Y113.455 E17.66798
G1 X62.777 Y112.574 E17.69859
G1 X62.588 Y111.673 E17.72921
G1 X62.478 Y110.758 E17.75986
G1 X62.448 Y109.838 E17.79048
G1 X62.497 Y108.919 E17.82109
G1 X62.627 Y108.007 E17.85173
G1 X62.834 Y107.111 E17.88231
G1 X63.119 Y106.235 E17.91295
G1 X63.479 Y105.388 E17.94356
G1 X63.791 Y104.784 E17.96617
G1 X64.219 Y104.019 E17.99533
G1 X81.995 Y73.191 E19.17892
G1 X82.39 Y72.525 E19.20467
G1 X82.894 Y71.754 E19.23531
G1 X83.463 Y71.031 E19.26591
G0 F6000 X83.789 Y71.265
G1 F1200 X84.41 Y70.609 E19.29595
G1 X85.086 Y70.01 E19.32599
G1 X85.812 Y69.474 E19.35601
G1 X86.584 Y69.004 E19.38607
G1 X87.393 Y68.604 E19.41609
G1 X88.235 Y68.277 E19.44613
G1 X89.103 Y68.025 E19.47619
G1 X89.989 Y67.852 E19.50622
G1 X90.887 Y67.758 E19.53625
G1 X91.351 Y67.74 E19.55169
G1 X92.088 Y67.729 E19.57621
G1 X92.246 Y67.728 E19.58146
G1 X127.892 Y67.75 E20.76705
G1 X128.602 Y67.76 E20.79067
G1 X129.503 Y67.813 E20.82069
G1 X130.397 Y67.945 E20.85075
G1 X131.275 Y68.156 E20.88078
G1 X132.131 Y68.443 E20.91081
G1 X132.958 Y68.805 E20.94083
G1 X133.75 Y69.239 E20.97087
G1 X134.501 Y69.742 E21.00094
G1 X135.204 Y70.308 E21.03095
G1 X135.854 Y70.935 E21.06099
G1 X136.446 Y71.617 E21.09103
G1 X136.976 Y72.348 E21.12106
G1 X137.205 Y72.731 E21.1359
G1 X137.212 Y72.727 E21.13617
G1 X137.569 Y73.324 E21.15931
G1 X155.452 Y104.295 E22.34879
G1 X155.851 Y105.005 E22.37588
G1 X156.257 Y105.811 E22.4059
G1 X156.59 Y106.65 E22.43592
G1 X156.848 Y107.516 E22.46598
G1 X157.028 Y108.401 E22.49601
G1 X157.129 Y109.298 E22.52604
G1 X157.151 Y110.201 E22.55608
G1 X157.092 Y111.102 E22.58611
G1 X156.954 Y111.995 E22.61616
G1 X156.738 Y112.872 E22.64621
G1 X156.445 Y113.726 E22.67624
G1 X156.077 Y114.551 E22.70628
G1 X155.863 Y114.956 E22.72152
G1 X155.517 Y115.577 E22.74516
G1 X137.62 Y146.616 E23.93684
G1 X137.266 Y147.212 E23.9599
G1 X136.771 Y147.967 E23.98992
G1 X136.211 Y148.676 E24.01997
G1 X135.59 Y149.332 E24.05002
G1 X134.914 Y149.931 E24.08006
G1 X134.188 Y150.467 E24.11007
G1 X133.417 Y150.938 E24.14012
G1 X132.607 Y151.338 E24.17017
G1 X131.765 Y151.665 E24.20021
G1 X130.898 Y151.916 E24.23023
G1 X130.012 Y152.09 E24.26026
G1 X129.113 Y152.184 E24.29033
G1 X128.649 Y152.202 E24.30577
G1 X127.914 Y152.213 E24.33022
G1 X127.755 Y152.214 E24.33551
G1 X92.103 Y152.192 E25.5213
G1 X91.413 Y152.182 E25.54425
G1 X90.512 Y152.129 E25.57427
G1 X89.618 Y151.996 E25.60433
G1 X88.74 Y151.785 E25.63437
G1 X87.884 Y151.497 E25.66441
G1 X87.057 Y151.135 E25.69443
G1 X86.267 Y150.702 E25.7244
G1 X86.239 Y150.685 E25.72548
G1 X85.489 Y150.182 E25.75552
G1 X84.786 Y149.616 E25.78554
G1 X84.136 Y148.989 E25.81558
G1 X83.544 Y148.307 E25.84561
G1 X82.775 Y147.194 E25.89061
G1 X82.305 Y146.406 E25.92113
G1 X64.538 Y115.63 E27.10307
G1 X64.149 Y114.936 E27.12953
G1 X63.743 Y114.129 E27.15958
G1 X63.409 Y113.29 E27.18961
G1 X63.152 Y112.425 E27.21962
G1 X62.972 Y111.54 E27.24966
G1 X62.871 Y110.642 E27.27972
G1 X62.849 Y109.739 E27.30976
G1 X62.908 Y108.838 E27.33979
G1 X63.046 Y107.946 E27.36981
G1 X63.262 Y107.069 E27.39985
G1 X63.556 Y106.215 E27.42989
G1 X63.923 Y105.39 E27.45993
G1 X64.141 Y104.979 E27.4754
G1 X64.566 Y104.219 E27.50436
G1 X82.409 Y73.276 E28.69238
G1 X82.734 Y72.729 E28.71354
G1 X83.229 Y71.974 E28.74357
G1 X83.789 Y71.265 E28.77362
G1 F1500 E22.27362
;MESH:Catan_-_Wheat1.stl
G0 F6000 X90.803 Y77.808
G0 X91.741 Y78.348
G0 X73.932 Y109.95
G0 X91.983 Y141.217
G0 X128.153 Y141.414
;TYPE:WALL-INNER
G1 F1500 E28.77362
G1 F1200 X91.882 Y141.393 E29.98
G1 X73.729 Y109.95 E31.18757
G1 X91.847 Y78.528 E32.39396
G1 X128.117 Y78.549 E33.6003
G1 X146.271 Y109.991 E34.80786
G1 X128.153 Y141.414 E36.01428
G0 F6000 X128.385 Y141.814
;TYPE:WALL-OUTER
G1 F1200 X91.651 Y141.793 E37.23606
G1 X73.267 Y109.949 E38.45902
G1 X91.615 Y78.128 E39.68073
G1 X128.348 Y78.149 E40.90247
G1 X146.733 Y109.992 E42.12543
G1 X128.385 Y141.814 E43.34716
G0 F6000 X128.114 Y141.404
G0 X127.928 Y141.024
;TYPE:SKIN
G1 F1200 X92.107 Y141.003 E44.53857
G1 X74.18 Y109.95 E45.73115
G1 X92.072 Y78.918 E46.92255
G1 X127.892 Y78.939 E48.11393
G1 X145.82 Y109.991 E49.30649
G1 X127.928 Y141.024 E50.49792
G1 F1500 E43.99792
G0 F6000 X127.927 Y141.303
G0 X92.757 Y141.283
G0 X92.758 Y140.842
G1 F1500 E50.49792
G1 F1200 X91.433 Y139.517 E50.56024
G0 F6000 X91.053 Y139.735
G0 X90.28 Y138.396
G0 X90.66 Y138.178
G1 F1200 X93.324 Y140.842 E50.68555
G0 F6000 X93.891 Y140.842
G1 F1200 X89.888 Y136.84 E50.87381
G0 F6000 X89.507 Y137.058
G0 X88.735 Y135.72
G0 X89.115 Y135.502
G1 F1200 X94.456 Y140.842 E51.12501
G0 F6000 X95.023 Y140.843
G1 F1200 X88.343 Y134.164 E51.4392
G0 F6000 X87.962 Y134.382
G0 X87.189 Y133.043
G0 X87.57 Y132.825
G1 F1200 X95.588 Y140.843 E51.81634
G0 F6000 X96.155 Y140.844
G1 F1200 X86.798 Y131.487 E52.25646
G0 F6000 X86.417 Y131.705
G0 X85.644 Y130.367
G0 X86.025 Y130.149
G1 F1200 X96.72 Y140.844 E52.75952
G0 F6000 X97.287 Y140.845
G1 F1200 X85.253 Y128.811 E53.32557
G0 F6000 X84.872 Y129.029
G0 X84.099 Y127.69
G0 X84.48 Y127.472
G1 F1200 X97.852 Y140.845 E53.95457
G0 F6000 X98.419 Y140.845
G1 F1200 X83.708 Y126.135 E54.64651
G0 F6000 X83.327 Y126.353
G0 X82.554 Y125.014
G0 X82.935 Y124.796
G1 F1200 X98.985 Y140.845 E55.40142
G0 F6000 X99.551 Y140.846
G1 F1200 X82.163 Y123.458 E56.2193
G0 F6000 X81.782 Y123.677
G0 X81.009 Y122.338
G0 X81.39 Y122.12
G1 F1200 X100.117 Y140.846 E57.10014
G0 F6000 X100.683 Y140.847
G1 F1200 X80.618 Y120.782 E58.04394
G0 F6000 X80.237 Y121.001
G0 X79.464 Y119.662
G0 X79.845 Y119.443
G1 F1200 X101.249 Y140.847 E59.05071
G0 F6000 X101.815 Y140.847
G1 F1200 X79.072 Y118.105 E60.12045
G0 F6000 X78.691 Y118.323
G0 X77.919 Y116.985
G0 X78.3 Y116.767
G1 F1200 X102.381 Y140.847 E61.25313
G0 F6000 X102.947 Y140.848
G1 F1200 X77.527 Y115.428 E62.4488
G0 F6000 X77.146 Y115.646
G0 X76.374 Y114.309
G0 X76.755 Y114.09
G1 F1200 X103.513 Y140.848 E63.70742
G0 F6000 X104.079 Y140.849
G1 F1200 X75.982 Y112.752 E65.02901
G0 F6000 X75.601 Y112.97
G0 X74.829 Y111.633
G0 X75.21 Y111.414
G1 F1200 X104.645 Y140.849 E66.41355
G0 F6000 X105.211 Y140.849
G1 F1200 X74.437 Y110.076 E67.86104
G0 F6000 X74.551 Y109.624
G1 F1200 X105.777 Y140.85 E69.32981
G0 F6000 X106.343 Y140.85
G1 F1200 X74.758 Y109.265 E70.81548
G0 F6000 X74.965 Y108.906
G1 F1200 X106.909 Y140.85 E72.31802
G0 F6000 X107.475 Y140.85
G1 F1200 X75.172 Y108.547 E73.83746
G0 F6000 X75.378 Y108.188
G1 F1200 X108.041 Y140.851 E75.37382
G0 F6000 X108.607 Y140.851
G1 F1200 X75.586 Y107.83 E76.92703
G0 F6000 X75.793 Y107.471
G1 F1200 X109.173 Y140.852 E78.49715
G0 F6000 X109.739 Y140.852
G1 F1200 X75.999 Y107.112 E80.08417
G0 F6000 X76.207 Y106.754
G1 F1200 X110.305 Y140.852 E81.68804
G0 F6000 X110.871 Y140.852
G1 F1200 X76.413 Y106.394 E83.30884
G0 F6000 X76.62 Y106.036
G1 F1200 X111.437 Y140.853 E84.94652
G0 F6000 X112.003 Y140.853
G1 F1200 X76.827 Y105.677 E86.60109
G0 F6000 X77.034 Y105.318
G1 F1200 X112.569 Y140.854 E88.27257
G0 F6000 X113.135 Y140.854
G1 F1200 X77.241 Y104.96 E89.96092
G0 F6000 X77.447 Y104.6
G1 F1200 X113.702 Y140.854 E91.66622
G0 F6000 X114.267 Y140.854
G1 F1200 X77.655 Y104.242 E93.38834
G0 F6000 X77.861 Y103.883
G1 F1200 X114.834 Y140.855 E95.12741
G0 F6000 X115.399 Y140.855
G1 F1200 X78.068 Y103.524 E96.88334
G0 F6000 X78.275 Y103.165
G1 F1200 X115.966 Y140.856 E98.65621
G0 F6000 X116.531 Y140.856
G1 F1200 X78.482 Y102.806 E100.44594
G0 F6000 X78.688 Y102.447
G1 F1200 X117.097 Y140.856 E102.25259
G0 F6000 X117.663 Y140.857
G1 F1200 X78.896 Y102.089 E104.07609
G0 F6000 X79.103 Y101.73
G1 F1200 X118.229 Y140.857 E105.91648
G0 F6000 X118.796 Y140.857
G1 F1200 X79.309 Y101.371 E107.77381
G0 F6000 X79.516 Y101.013
G1 F1200 X119.361 Y140.857 E109.64797
G0 F6000 X119.928 Y140.858
G1 F1200 X79.723 Y100.653 E111.53909
G0 F6000 X79.93 Y100.295
G1 F1200 X120.493 Y140.858 E113.44705
G0 F6000 X121.06 Y140.859
G1 F1200 X80.137 Y99.936 E115.37194
G0 F6000 X80.344 Y99.577
G1 F1200 X121.625 Y140.859 E117.3137
G0 F6000 X122.192 Y140.859
G1 F1200 X80.55 Y99.218 E119.27238
G0 F6000 X80.757 Y98.859
G1 F1200 X122.757 Y140.859 E121.24793
G0 F6000 X123.324 Y140.86
G1 F1200 X80.965 Y98.501 E123.24037
G0 F6000 X81.171 Y98.142
G1 F1200 X123.89 Y140.86 E125.24972
G0 F6000 X124.456 Y140.861
G1 F1200 X81.378 Y97.783 E127.27598
G0 F6000 X81.585 Y97.424
G1 F1200 X125.022 Y140.861 E129.31912
G0 F6000 X125.588 Y140.862
G1 F1200 X81.792 Y97.065 E131.37917
G0 F6000 X81.998 Y96.706
G1 F1200 X126.154 Y140.862 E133.45614
G0 F6000 X126.72 Y140.862
G1 F1200 X82.206 Y96.348 E135.54994
G0 F6000 X82.412 Y95.989
G1 F1200 X127.286 Y140.862 E137.66065
G0 F6000 X127.842 Y140.852
G1 F1200 X82.619 Y95.63 E139.78778
G0 F6000 X82.826 Y95.272
G1 F1200 X128.049 Y140.494 E141.91491
G0 F6000 X128.255 Y140.135
G1 F1200 X83.033 Y94.912 E144.04203
G0 F6000 X83.24 Y94.554
G1 F1200 X128.462 Y139.776 E146.16914
G0 F6000 X128.669 Y139.417
G1 F1200 X83.447 Y94.195 E148.29624
G0 F6000 X83.654 Y93.836
G1 F1200 X128.876 Y139.058 E150.42335
G0 F6000 X129.083 Y138.7
G1 F1200 X83.86 Y93.477 E152.5505
G0 F6000 X84.067 Y93.118
G1 F1200 X129.29 Y138.341 E154.67765
G0 F6000 X129.497 Y137.982
G1 F1200 X84.275 Y92.76 E156.80475
G0 F6000 X84.481 Y92.401
G1 F1200 X129.703 Y137.623 E158.93186
G0 F6000 X129.911 Y137.264
G1 F1200 X84.688 Y92.042 E161.05898
G0 F6000 X84.895 Y91.683
G1 F1200 X130.117 Y136.905 E163.18609
G0 F6000 X130.324 Y136.547
G1 F1200 X85.102 Y91.324 E165.31322
G0 F6000 X85.308 Y90.965
G1 F1200 X130.531 Y136.188 E167.44037
G0 F6000 X130.738 Y135.829
G1 F1200 X85.516 Y90.607 E169.56747
G0 F6000 X85.722 Y90.248
G1 F1200 X130.945 Y135.471 E171.69462
G0 F6000 X131.152 Y135.111
G1 F1200 X85.929 Y89.889 E173.82175
G0 F6000 X86.136 Y89.531
G1 F1200 X131.359 Y134.753 E175.94888
G0 F6000 X131.565 Y134.394
G1 F1200 X86.343 Y89.171 E178.07601
G0 F6000 X86.55 Y88.813
G1 F1200 X131.772 Y134.035 E180.20311
G0 F6000 X131.979 Y133.676
G1 F1200 X86.757 Y88.454 E182.33022
G0 F6000 X86.964 Y88.095
G1 F1200 X132.186 Y133.317 E184.45732
G0 F6000 X132.393 Y132.958
G1 F1200 X87.17 Y87.736 E186.58445
G0 F6000 X87.377 Y87.377
