;FLAVOR:Marlin
;TIME:5429
;Filament used: 3.53848m
;Layer height: 0.2
;MINX:66.974
;MINY:62.019
;MINZ:0.2
;MAXX:153.052
;MAXY:157.904
;MAXZ:5.2
;Generated with Cura_SteamEngine master
M140 S60
M105
M190 S60
M104 S200
M105
M109 S200
M82 ;absolute extrusion mode
; Ender 3 Custom Start G-code
G92 E0 ; Reset Extruder
G28 ; Home all axes
G1 Z2.0 F3000 ; Move Z Axis up little to prevent scratching of Heat Bed
G1 X0.1 Y20 Z0.3 F5000.0 ; Move to start position
G1 X0.1 Y200.0 Z0.3 F1500.0 E15 ; Draw the first line
G1 X0.4 Y200.0 Z0.3 F5000.0 ; Move to side a little
G1 X0.4 Y20 Z0.3 F1500.0 E30 ; Draw the second line
G92 E0 ; Reset Extruder
G1 Z2.0 F3000 ; Move Z Axis up little to prevent scratching of Heat Bed
G1 X5 Y20 Z0.3 F5000.0 ; Move over to prevent blob squish
G92 E0
G92 E0
G1 F1500 E-6.5
;LAYER_COUNT:26
;LAYER:0
M107
G0 F6000 X70.873 Y83.08 Z0.2
;TYPE:SKIRT
G1 F1500 E0
G1 F1200 X71.613 Y82.504 E0.03119
G1 X72.335 Y82.033 E0.05986
G1 X72.975 Y81.65 E0.08467
G1 X73.129 Y81.56 E0.0906
G1 X104.077 Y63.716 E1.27878
G1 X104.609 Y63.419 E1.29904
G1 X105.447 Y62.998 E1.33023
G1 X105.977 Y62.775 E1.34936
G1 X106.864 Y62.469 E1.38057
G1 X107.773 Y62.241 E1.41174
G1 X108.699 Y62.09 E1.44294
G1 X109.634 Y62.019 E1.47413
G1 X110.572 Y62.028 E1.50533
G1 X111.506 Y62.117 E1.53654
G1 X112.428 Y62.285 E1.56771
G1 X113.333 Y62.531 E1.5989
G1 X114.214 Y62.853 E1.6301
G1 X115.359 Y63.407 E1.6724
G1 X115.963 Y63.744 E1.69541
G1 X116.102 Y63.823 E1.70073
G1 X147.093 Y81.713 E2.89091
G1 X147.644 Y82.041 E2.91223
G1 X148.779 Y82.817 E2.95796
G1 X149.494 Y83.424 E2.98916
G1 X150.155 Y84.089 E3.02034
G1 X150.757 Y84.809 E3.05156
G1 X151.295 Y85.577 E3.08275
G1 X151.766 Y86.388 E3.11394
G1 X152.166 Y87.236 E3.14513
G1 X152.492 Y88.116 E3.17634
G1 X152.743 Y89.019 E3.20751
G1 X152.915 Y89.941 E3.23871
G1 X153.025 Y91.34 E3.28538
G1 X153.035 Y92.029 E3.3083
G1 X153.052 Y127.773 E4.49715
G1 X153.043 Y128.57 E4.52366
G1 X152.992 Y129.506 E4.55484
G1 X152.861 Y130.435 E4.58604
G1 X152.714 Y131.112 E4.60908
G1 X152.448 Y132.011 E4.64027
G1 X152.106 Y132.885 E4.67148
G1 X151.691 Y133.726 E4.70267
G1 X151.206 Y134.529 E4.73387
G1 X150.654 Y135.287 E4.76506
G1 X150.04 Y135.996 E4.79626
G1 X149.368 Y136.65 E4.82745
G1 X148.642 Y137.244 E4.85864
G1 X147.669 Y137.896 E4.8976
G1 X146.987 Y138.302 E4.924
G1 X116.013 Y156.163 E6.11321
G1 X115.385 Y156.513 E6.13712
G1 X114.547 Y156.934 E6.16831
G1 X113.676 Y157.282 E6.19951
G1 X112.779 Y157.555 E6.23069
G1 X111.862 Y157.75 E6.26188
G1 X110.931 Y157.867 E6.29308
G1 X109.994 Y157.904 E6.32427
G1 X109.057 Y157.861 E6.35547
G1 X108.127 Y157.738 E6.38667
G1 X107.211 Y157.537 E6.41786
G1 X106.316 Y157.258 E6.44904
G1 X105.447 Y156.904 E6.48025
G1 X104.671 Y156.51 E6.5092
G1 X103.9 Y156.079 E6.53858
G1 X73.106 Y138.304 E7.72117
G1 X72.369 Y137.866 E7.74969
G1 X71.585 Y137.352 E7.78087
G1 X70.847 Y136.773 E7.81206
G1 X70.161 Y136.133 E7.84327
G1 X69.532 Y135.437 E7.87447
G1 X68.965 Y134.69 E7.90566
G1 X68.464 Y133.898 E7.93683
G1 X68.031 Y133.065 E7.96806
G1 X67.672 Y132.199 E7.99924
G1 X67.387 Y131.306 E8.03042
G1 X67.18 Y130.391 E8.06162
G1 X67.018 Y129.027 E8.1073
G1 X66.999 Y128.523 E8.12408
G1 X66.99 Y127.903 E8.1447
G1 X66.974 Y92.145 E9.33402
G1 X66.975 Y91.975 E9.33967
G1 X66.985 Y91.307 E9.36189
G1 X67.039 Y90.371 E9.39308
G1 X67.173 Y89.443 E9.42426
G1 X67.385 Y88.529 E9.45547
G1 X67.674 Y87.637 E9.48665
G1 X68.038 Y86.773 E9.51784
G1 X68.475 Y85.943 E9.54904
G1 X68.98 Y85.153 E9.58022
G1 X69.551 Y84.409 E9.61141
G1 X70.184 Y83.716 E9.64263
G1 X70.873 Y83.08 E9.67382
G0 F6000 X71.261 Y83.277
G1 F1200 X71.998 Y82.724 E9.70446
G1 X72.541 Y82.376 E9.72592
G1 X73.181 Y81.993 E9.75072
G1 X73.329 Y81.906 E9.75643
G1 X104.144 Y64.138 E10.93951
G1 X104.804 Y63.769 E10.96466
G1 X105.627 Y63.355 E10.99531
G1 X106.123 Y63.147 E11.01319
G1 X106.994 Y62.848 E11.04382
G1 X107.887 Y62.625 E11.07444
G1 X108.796 Y62.481 E11.10505
G1 X109.715 Y62.417 E11.13569
G1 X110.635 Y62.432 E11.16629
G1 X111.551 Y62.527 E11.19692
G1 X112.455 Y62.701 E11.22754
G1 X113.341 Y62.953 E11.25818
G1 X114.201 Y63.281 E11.28879
G1 X115.164 Y63.756 E11.3245
G1 X115.768 Y64.093 E11.34751
G1 X146.888 Y82.057 E12.54264
G1 X147.439 Y82.385 E12.56396
G1 X148.534 Y83.133 E12.60807
G1 X149.235 Y83.729 E12.63867
G1 X149.882 Y84.384 E12.66929
G1 X150.47 Y85.093 E12.69993
G1 X150.994 Y85.849 E12.73052
G1 X151.451 Y86.649 E12.76117
G1 X151.836 Y87.485 E12.79178
G1 X152.148 Y88.351 E12.8224
G1 X152.383 Y89.242 E12.85304
G1 X152.54 Y90.149 E12.88366
G1 X152.625 Y91.346 E12.92357
G1 X152.636 Y92.184 E12.95145
G1 X152.652 Y127.773 E14.13514
G1 X152.643 Y128.565 E14.16148
G1 X152.592 Y129.484 E14.1921
G1 X152.461 Y130.395 E14.22271
G1 X152.326 Y131.015 E14.24381
G1 X152.064 Y131.898 E14.27445
G1 X151.726 Y132.754 E14.30506
G1 X151.316 Y133.578 E14.33567
G1 X150.835 Y134.363 E14.36629
G1 X150.288 Y135.104 E14.39692
G1 X149.679 Y135.795 E14.42756
G1 X149.013 Y136.43 E14.45817
G1 X148.294 Y137.004 E14.48876
G1 X147.464 Y137.552 E14.52185
G1 X146.655 Y138.033 E14.55315
G1 X115.953 Y155.737 E15.73191
G1 X115.19 Y156.163 E15.76098
G1 X114.367 Y156.576 E15.7916
G1 X113.512 Y156.916 E15.82221
G1 X112.63 Y157.18 E15.85283
G1 X111.728 Y157.367 E15.88347
G1 X110.814 Y157.475 E15.91408
G1 X109.894 Y157.503 E15.94469
G1 X108.975 Y157.451 E15.97531
G1 X108.063 Y157.32 E16.00595
G1 X107.167 Y157.11 E16.03656
G1 X106.292 Y156.823 E16.06719
G1 X105.446 Y156.461 E16.09779
G1 X104.866 Y156.161 E16.11951
G1 X104.235 Y155.809 E16.14354
G1 X73.306 Y137.957 E17.33131
G1 X72.574 Y137.522 E17.35963
G1 X71.804 Y137.017 E17.39025
G1 X71.081 Y136.447 E17.42088
G1 X70.411 Y135.816 E17.45149
G1 X69.797 Y135.13 E17.48211
G1 X69.246 Y134.393 E17.51271
G1 X68.76 Y133.61 E17.54337
G1 X68.345 Y132.789 E17.57396
G1 X68.002 Y131.935 E17.60457
G1 X67.734 Y131.054 E17.6352
G1 X67.544 Y130.153 E17.66583
G1 X67.417 Y129.005 E17.70424
G1 X67.414 Y128.951 E17.70604
G1 X67.399 Y128.517 E17.72048
G1 X67.39 Y127.897 E17.74111
G1 X67.374 Y92.145 E18.93022
G1 X67.375 Y91.981 E18.93568
G1 X67.385 Y91.313 E18.9579
G1 X67.439 Y90.394 E18.98852
G1 X67.572 Y89.483 E19.01914
G1 X67.784 Y88.587 E19.04976
G1 X68.073 Y87.713 E19.08038
G1 X68.436 Y86.867 E19.111
G1 X68.872 Y86.056 E19.14162
G1 X69.376 Y85.286 E19.17223
G1 X69.945 Y84.562 E19.20286
G1 X70.575 Y83.891 E19.23347
G1 X71.261 Y83.277 E19.26409
G0 F6000 X71.649 Y83.478
G1 F1200 X72.746 Y82.72 E19.30844
G1 X73.386 Y82.337 E19.33325
G1 X73.529 Y82.253 E19.33877
G1 X104.467 Y64.415 E20.52656
G1 X104.999 Y64.118 E20.54682
G1 X105.806 Y63.713 E20.57685
G1 X106.269 Y63.519 E20.59355
G1 X107.124 Y63.227 E20.6236
G1 X108.001 Y63.011 E20.65364
G1 X108.893 Y62.873 E20.68366
G1 X109.794 Y62.815 E20.71369
G1 X110.697 Y62.837 E20.74373
G1 X111.595 Y62.939 E20.77379
G1 X112.479 Y63.119 E20.8038
G1 X113.345 Y63.377 E20.83385
G1 X114.184 Y63.711 E20.86389
G1 X114.969 Y64.106 E20.89312
G1 X115.702 Y64.516 E20.92105
G1 X146.683 Y82.4 E22.11084
G1 X147.234 Y82.728 E22.13217
G1 X148.288 Y83.449 E22.17464
G1 X148.976 Y84.034 E22.20468
G1 X149.609 Y84.678 E22.23471
G1 X150.183 Y85.376 E22.26477
G1 X150.692 Y86.121 E22.29478
G1 X151.134 Y86.909 E22.32483
G1 X151.505 Y87.732 E22.35486
G1 X151.801 Y88.586 E22.38492
G1 X152.02 Y89.462 E22.41495
G1 X152.161 Y90.354 E22.44499
G1 X152.225 Y91.352 E22.47825
G1 X152.236 Y92.184 E22.50593
G1 X152.252 Y127.773 E23.68962
G1 X152.243 Y128.56 E23.7158
G1 X152.192 Y129.462 E23.74585
G1 X152.062 Y130.355 E23.77586
G1 X151.937 Y130.918 E23.79504
G1 X151.68 Y131.783 E23.82506
G1 X151.347 Y132.623 E23.85511
G1 X150.941 Y133.43 E23.88516
G1 X150.465 Y134.197 E23.91518
G1 X149.923 Y134.92 E23.94523
G1 X149.319 Y135.591 E23.97526
G1 X148.658 Y136.207 E24.00531
G1 X147.946 Y136.762 E24.03534
G1 X147.26 Y137.209 E24.06257
G1 X146.578 Y137.615 E24.08897
G1 X115.624 Y155.464 E25.2774
G1 X114.996 Y155.814 E25.30132
G1 X114.188 Y156.218 E25.33136
G1 X113.348 Y156.549 E25.36139
G1 X112.482 Y156.805 E25.39143
G1 X111.596 Y156.983 E25.42148
G1 X110.699 Y157.082 E25.4515
G1 X109.796 Y157.101 E25.48154
G1 X108.895 Y157.041 E25.51157
G1 X108.003 Y156.9 E25.54161
G1 X107.126 Y156.682 E25.57167
G1 X106.273 Y156.387 E25.60169
G1 X105.061 Y155.812 E25.6463
G1 X104.43 Y155.46 E25.67034
G1 X73.506 Y137.611 E26.8579
G1 X72.779 Y137.179 E26.88603
G1 X72.024 Y136.682 E26.9161
G1 X71.317 Y136.121 E26.94611
G1 X70.661 Y135.5 E26.97616
G1 X70.064 Y134.823 E27.00618
G1 X69.528 Y134.096 E27.03622
G1 X69.059 Y133.324 E27.06626
G1 X68.66 Y132.514 E27.0963
G1 X68.334 Y131.672 E27.12633
G1 X68.084 Y130.804 E27.15637
G1 X67.912 Y129.917 E27.18642
G1 X67.817 Y128.983 E27.21765
G1 X67.799 Y128.511 E27.23336
G1 X67.79 Y127.891 E27.25398
G1 X67.774 Y92.145 E28.4429
G1 X67.775 Y91.987 E28.44815
G1 X67.785 Y91.319 E28.47037
G1 X67.839 Y90.418 E28.50039
G1 X67.972 Y89.525 E28.53042
G1 X68.183 Y88.647 E28.56046
G1 X68.471 Y87.791 E28.5905
G1 X68.834 Y86.964 E28.62054
G1 X69.269 Y86.172 E28.65059
G1 X69.772 Y85.422 E28.68063
G1 X70.339 Y84.719 E28.71066
G1 X70.967 Y84.07 E28.7407
G1 X71.649 Y83.478 E28.77074
G1 F1500 E22.27074
;MESH:Catan_-_Wheat2.stl
G0 F6000 X77.853 Y90.768
G0 X78.394 Y91.705
G0 X78.766 Y127.976
G0 X110.029 Y146.223
;TYPE:WALL-INNER
G1 F1500 E28.77074
G1 F1200 X78.59 Y128.077 E29.97808
G1 X78.574 Y91.811 E31.18429
G1 X109.997 Y73.693 E32.39071
G1 X141.436 Y91.84 E33.59807
G1 X141.451 Y126.602 E34.75426
G1 X141.453 Y128.104 E34.80421
G1 X110.029 Y146.223 E36.01067
G0 F6000 X110.03 Y146.685
;TYPE:WALL-OUTER
G1 F1200 X78.191 Y128.308 E37.23338
G1 X78.189 Y127.744 E37.25214
G1 X78.19 Y127.403 E37.26348
G1 X78.174 Y91.579 E38.45499
G1 X109.996 Y73.231 E39.67672
G1 X141.836 Y91.609 E40.89948
G1 X141.851 Y126.602 E42.06335
G1 X141.853 Y128.336 E42.12102
G1 X110.03 Y146.685 E43.3428
G0 F6000 X110.002 Y146.194
G0 X110.029 Y145.772
;TYPE:SKIN
G1 F1200 X78.98 Y127.852 E44.53515
G1 X78.964 Y92.036 E45.72639
G1 X109.997 Y74.144 E46.91782
G1 X141.046 Y92.065 E48.11018
G1 X141.061 Y126.602 E49.25889
G1 X141.063 Y127.879 E49.30136
G1 X110.029 Y145.772 E50.49283
G1 F1500 E43.99283
G0 F6000 X109.889 Y146.014
G0 X78.766 Y127.976
G0 X78.699 Y127.222
G0 X79.139 Y127.222
G1 F1500 E50.49283
G1 F1200 X80.407 Y128.49 E50.55248
G0 F6000 X80.187 Y128.871
G0 X81.525 Y129.643
G0 X81.745 Y129.262
G1 F1200 X79.139 Y126.656 E50.67505
G0 F6000 X79.138 Y126.09
G1 F1200 X83.082 Y130.034 E50.86057
G0 F6000 X82.862 Y130.415
G0 X84.2 Y131.187
G0 X84.42 Y130.806
G1 F1200 X79.138 Y125.524 E51.10902
G0 F6000 X79.138 Y124.959
G1 F1200 X85.757 Y131.578 E51.42035
G0 F6000 X85.537 Y131.959
G0 X86.875 Y132.731
G0 X87.095 Y132.35
G1 F1200 X79.137 Y124.392 E51.79467
G0 F6000 X79.137 Y123.827
G1 F1200 X88.433 Y133.122 E52.23191
G0 F6000 X88.213 Y133.503
G0 X89.551 Y134.275
G0 X89.771 Y133.894
G1 F1200 X79.137 Y123.261 E52.73207
G0 F6000 X79.137 Y122.695
G1 F1200 X91.109 Y134.667 E53.2952
G0 F6000 X90.889 Y135.047
G0 X92.227 Y135.82
G0 X92.447 Y135.439
G1 F1200 X79.137 Y122.129 E53.92126
G0 F6000 X79.137 Y121.563
G1 F1200 X93.784 Y136.211 E54.61023
G0 F6000 X93.564 Y136.591
G0 X94.902 Y137.363
G0 X95.122 Y136.982
G1 F1200 X79.136 Y120.997 E55.36214
G0 F6000 X79.136 Y120.431
G1 F1200 X96.459 Y137.755 E56.17699
G0 F6000 X96.239 Y138.135
G0 X97.577 Y138.907
G0 X97.797 Y138.527
G1 F1200 X79.135 Y119.865 E57.05479
G0 F6000 X79.135 Y119.299
G1 F1200 X99.135 Y139.299 E57.99553
G0 F6000 X98.915 Y139.68
G0 X100.253 Y140.452
G0 X100.473 Y140.071
G1 F1200 X79.135 Y118.733 E58.9992
G0 F6000 X79.135 Y118.167
G1 F1200 X101.811 Y140.843 E60.06581
G0 F6000 X101.591 Y141.224
G0 X102.929 Y141.996
G0 X103.149 Y141.615
G1 F1200 X79.135 Y117.601 E61.19536
G0 F6000 X79.135 Y117.036
G1 F1200 X104.486 Y142.387 E62.38779
G0 F6000 X104.266 Y142.768
G0 X105.604 Y143.54
G0 X105.824 Y143.159
G1 F1200 X79.134 Y116.469 E63.64321
G0 F6000 X79.134 Y115.903
G1 F1200 X107.162 Y143.931 E64.96156
G0 F6000 X106.942 Y144.312
G0 X108.279 Y145.084
G0 X108.499 Y144.703
G1 F1200 X79.133 Y115.337 E66.34284
G0 F6000 X79.133 Y114.771
G1 F1200 X109.837 Y145.475 E67.78707
G0 F6000 X110.336 Y145.408
G1 F1200 X79.133 Y114.206 E69.25474
G0 F6000 X79.133 Y113.639
G1 F1200 X110.694 Y145.201 E70.73929
G0 F6000 X111.053 Y144.995
G1 F1200 X79.133 Y113.074 E72.24074
G0 F6000 X79.133 Y112.508
G1 F1200 X111.412 Y144.787 E73.75904
G0 F6000 X111.77 Y144.58
G1 F1200 X79.132 Y111.942 E75.29423
G0 F6000 X79.132 Y111.376
G1 F1200 X112.13 Y144.374 E76.84636
G0 F6000 X112.488 Y144.167
G1 F1200 X79.132 Y110.81 E78.41534
G0 F6000 X79.131 Y110.244
G1 F1200 X112.847 Y143.96 E80.00124
G0 F6000 X113.206 Y143.753
G1 F1200 X79.131 Y109.678 E81.60402
G0 F6000 X79.13 Y109.112
G1 F1200 X113.565 Y143.546 E83.22372
G0 F6000 X113.924 Y143.339
G1 F1200 X79.13 Y108.546 E84.8603
G0 F6000 X79.13 Y107.98
G1 F1200 X114.283 Y143.133 E86.51379
G0 F6000 X114.641 Y142.926
G1 F1200 X79.13 Y107.414 E88.18414
G0 F6000 X79.13 Y106.848
G1 F1200 X115 Y142.718 E89.87135
G0 F6000 X115.359 Y142.512
G1 F1200 X79.13 Y106.283 E91.57545
G0 F6000 X79.129 Y105.716
G1 F1200 X115.718 Y142.305 E93.29649
G0 F6000 X116.077 Y142.098
G1 F1200 X79.129 Y105.151 E95.03439
G0 F6000 X79.129 Y104.585
G1 F1200 X116.435 Y141.891 E96.78915
G0 F6000 X116.794 Y141.685
G1 F1200 X79.128 Y104.018 E98.56086
G0 F6000 X79.128 Y103.453
G1 F1200 X117.153 Y141.477 E100.34942
G0 F6000 X117.512 Y141.271
G1 F1200 X79.128 Y102.886 E102.15491
G0 F6000 X79.128 Y102.321
G1 F1200 X117.871 Y141.064 E103.97726
G0 F6000 X118.229 Y140.857
G1 F1200 X79.128 Y101.755 E105.81647
G0 F6000 X79.127 Y101.189
G1 F1200 X118.588 Y140.65 E107.6726
G0 F6000 X118.947 Y140.443
G1 F1200 X79.127 Y100.623 E109.54561
G0 F6000 X79.127 Y100.057
G1 F1200 X119.306 Y140.236 E111.43551
G0 F6000 X119.665 Y140.029
G1 F1200 X79.126 Y99.491 E113.34231
G0 F6000 X79.126 Y98.925
G1 F1200 X120.024 Y139.823 E115.26603
G0 F6000 X120.382 Y139.616
G1 F1200 X79.126 Y98.359 E117.20661
G0 F6000 X79.125 Y97.793
G1 F1200 X120.742 Y139.409 E119.16412
G0 F6000 X121.1 Y139.202
G1 F1200 X79.125 Y97.227 E121.1385
G0 F6000 X79.125 Y96.661
G1 F1200 X121.459 Y138.995 E123.12976
G0 F6000 X121.818 Y138.788
G1 F1200 X79.125 Y96.095 E125.13791
G0 F6000 X79.125 Y95.53
G1 F1200 X122.176 Y138.581 E127.16289
G0 F6000 X122.535 Y138.375
G1 F1200 X79.124 Y94.963 E129.20484
G0 F6000 X79.124 Y94.398
G1 F1200 X122.894 Y138.167 E131.26362
G0 F6000 X123.253 Y137.961
G1 F1200 X79.124 Y93.832 E133.33931
G0 F6000 X79.123 Y93.265
G1 F1200 X123.612 Y137.754 E135.43194
G0 F6000 X123.971 Y137.547
G1 F1200 X79.123 Y92.7 E137.54143
G0 F6000 X79.123 Y92.134
G1 F1200 X124.329 Y137.34 E139.66778
G0 F6000 X124.689 Y137.134
G1 F1200 X79.478 Y91.923 E141.79437
G0 F6000 X79.837 Y91.716
G1 F1200 X125.047 Y136.926 E143.92091
G0 F6000 X125.406 Y136.719
G1 F1200 X80.196 Y91.51 E146.04742
G0 F6000 X80.555 Y91.303
G1 F1200 X125.765 Y136.513 E148.17396
G0 F6000 X126.123 Y136.306
G1 F1200 X80.913 Y91.095 E150.30053
G0 F6000 X81.272 Y90.889
G1 F1200 X126.483 Y136.099 E152.42709
G0 F6000 X126.841 Y135.892
G1 F1200 X81.631 Y90.682 E154.55363
G0 F6000 X81.99 Y90.475
G1 F1200 X127.2 Y135.686 E156.68019
G0 F6000 X127.559 Y135.478
G1 F1200 X82.348 Y90.268 E158.80676
G0 F6000 X82.708 Y90.062
G1 F1200 X127.918 Y135.272 E160.9333
G0 F6000 X128.276 Y135.065
G1 F1200 X83.066 Y89.854 E163.05986
G0 F6000 X83.425 Y89.648
G1 F1200 X128.635 Y134.857 E165.18638
G0 F6000 X128.994 Y134.651
G1 F1200 X83.784 Y89.441 E167.31292
G0 F6000 X84.142 Y89.234
G1 F1200 X129.353 Y134.444 E169.43948
G0 F6000 X129.712 Y134.237
G1 F1200 X84.502 Y89.027 E171.56602
G0 F6000 X84.86 Y88.82
G1 F1200 X130.07 Y134.03 E173.69256
G0 F6000 X130.43 Y133.824
G1 F1200 X85.219 Y88.613 E175.81914
G0 F6000 X85.578 Y88.406
G1 F1200 X130.788 Y133.617 E177.94571
G0 F6000 X131.147 Y133.41
G1 F1200 X85.937 Y88.2 E180.07225
G0 F6000 X86.296 Y87.993
G1 F1200 X131.506 Y133.203 E182.19879
G0 F6000 X131.864 Y132.996
G1 F1200 X86.655 Y87.786 E184.3253
G0 F6000 X87.013 Y87.579
G1 F1200 X132.224 Y132.789 E186.45187
G0 F6000 X132.582 Y132.582
G1 F1200 X87.372 Y87.372 E188.57841
G0 F6000 X87.731 Y87.165
G1 F1200 X132.941 Y132.376 E190.70497
G0 F6000 X133.3 Y132.168
