;FLAVOR:Marlin
;TIME:4985
;Filament used: 3.26481m
;Layer height: 0.2
;MINX:67.034
;MINY:62.013
;MINZ:0.2
;MAXX:153.035
;MAXY:157.987
;MAXZ:5.6
;Generated with Cura_SteamEngine master
M140 S60
M105
M190 S60
M104 S200
M105
M109 S200
M82 ;absolute extrusion mode
; Ender 3 Custom Start G-code
G92 E0 ; Reset Extruder
G28 ; Home all axes
G1 Z2.0 F3000 ; Move Z Axis up little to prevent scratching of Heat Bed
G1 X0.1 Y20 Z0.3 F5000.0 ; Move to start position
G1 X0.1 Y200.0 Z0.3 F1500.0 E15 ; Draw the first line
G1 X0.4 Y200.0 Z0.3 F5000.0 ; Move to side a little
G1 X0.4 Y20 Z0.3 F1500.0 E30 ; Draw the second line
G92 E0 ; Reset Extruder
G1 Z2.0 F3000 ; Move Z Axis up little to prevent scratching of Heat Bed
G1 X5 Y20 Z0.3 F5000.0 ; Move over to prevent blob squish
G92 E0
G92 E0
G1 F1500 E-6.5
;LAYER_COUNT:28
;LAYER:0
M107
G0 F6000 X70.927 Y83.119 Z0.2
;TYPE:SKIRT
G1 F1500 E0
G1 F1200 X71.667 Y82.543 E0.03119
G1 X72.4 Y82.064 E0.06031
G1 X73.014 Y81.697 E0.08411
G1 X104.06 Y63.749 E1.27683
G1 X104.677 Y63.405 E1.30033
G1 X105.515 Y62.984 E1.33152
G1 X106.386 Y62.636 E1.36272
G1 X107.283 Y62.362 E1.39391
G1 X108.2 Y62.167 E1.42509
G1 X109.131 Y62.05 E1.4563
G1 X110.068 Y62.013 E1.48749
G1 X111.005 Y62.056 E1.51869
G1 X111.935 Y62.178 E1.54989
G1 X112.851 Y62.38 E1.58109
G1 X113.746 Y62.658 E1.61226
G1 X114.615 Y63.012 E1.64347
G1 X115.393 Y63.407 E1.67249
G1 X116.223 Y63.871 E1.70411
G1 X147.069 Y81.705 E2.88919
G1 X147.671 Y82.065 E2.91251
G1 X148.454 Y82.581 E2.9437
G1 X149.191 Y83.161 E2.9749
G1 X149.876 Y83.801 E3.00608
G1 X150.504 Y84.498 E3.03728
G1 X151.07 Y85.246 E3.06848
G1 X151.57 Y86.039 E3.09966
G1 X152.001 Y86.872 E3.13085
G1 X152.36 Y87.739 E3.16207
G1 X152.643 Y88.633 E3.19325
G1 X152.849 Y89.548 E3.22445
G1 X152.977 Y90.477 E3.25564
G1 X153.024 Y91.348 E3.28465
G1 X153.034 Y92.043 E3.30777
G1 X153.035 Y127.769 E4.49602
G1 X153.024 Y128.647 E4.52523
G1 X152.971 Y129.583 E4.55641
G1 X152.839 Y130.511 E4.58758
G1 X152.628 Y131.425 E4.61878
G1 X152.339 Y132.318 E4.65
G1 X151.976 Y133.182 E4.68117
G1 X151.541 Y134.013 E4.71237
G1 X151.036 Y134.804 E4.74358
G1 X150.466 Y135.548 E4.77475
G1 X149.835 Y136.242 E4.80595
G1 X149.146 Y136.879 E4.83716
G1 X148.406 Y137.455 E4.86835
G1 X147.678 Y137.928 E4.89723
G1 X147.62 Y137.966 E4.89953
G1 X147.595 Y137.979 E4.90047
G1 X147.082 Y138.287 E4.92037
G1 X146.931 Y138.376 E4.9262
G1 X116.035 Y156.237 E6.11316
G1 X115.395 Y156.594 E6.13754
G1 X114.557 Y157.015 E6.16873
G1 X113.686 Y157.364 E6.19994
G1 X112.789 Y157.637 E6.23112
G1 X111.872 Y157.833 E6.26231
G1 X110.941 Y157.95 E6.29352
G1 X110.004 Y157.987 E6.32471
G1 X109.067 Y157.944 E6.35591
G1 X108.137 Y157.822 E6.3871
G1 X107.221 Y157.621 E6.41829
G1 X106.326 Y157.342 E6.44947
G1 X105.457 Y156.989 E6.48067
G1 X104.672 Y156.591 E6.50994
G1 X103.997 Y156.214 E6.53566
G1 X73.026 Y138.31 E7.7255
G1 X72.409 Y137.942 E7.74939
G1 X71.625 Y137.428 E7.78057
G1 X70.887 Y136.849 E7.81177
G1 X70.202 Y136.209 E7.84295
G1 X69.573 Y135.513 E7.87415
G1 X69.006 Y134.766 E7.90534
G1 X68.505 Y133.973 E7.93654
G1 X68.073 Y133.14 E7.96775
G1 X67.714 Y132.274 E7.99893
G1 X67.429 Y131.38 E8.03014
G1 X67.222 Y130.466 E8.06131
G1 X67.093 Y129.537 E8.09251
G1 X67.045 Y128.647 E8.12215
G1 X67.034 Y127.769 E8.15135
G1 X67.035 Y92.05 E9.33937
G1 X67.045 Y91.349 E9.36269
G1 X67.098 Y90.413 E9.39387
G1 X67.231 Y89.484 E9.42509
G1 X67.443 Y88.571 E9.45626
G1 X67.731 Y87.678 E9.48747
G1 X68.095 Y86.814 E9.51865
G1 X68.531 Y85.983 E9.54986
G1 X69.036 Y85.193 E9.58105
G1 X69.606 Y84.449 E9.61222
G1 X70.238 Y83.756 E9.64342
G1 X70.927 Y83.119 E9.67463
G0 F6000 X71.315 Y83.315
G1 F1200 X72.051 Y82.762 E9.70525
G1 X72.606 Y82.407 E9.72716
G1 X73.22 Y82.04 E9.75095
G1 X104.112 Y64.18 E10.93778
G1 X104.872 Y63.755 E10.96674
G1 X105.695 Y63.342 E10.99737
G1 X106.551 Y63.002 E11.028
G1 X107.432 Y62.737 E11.0586
G1 X108.334 Y62.55 E11.08924
G1 X109.248 Y62.442 E11.11985
G1 X110.168 Y62.414 E11.15047
G1 X111.088 Y62.465 E11.18111
G1 X111.999 Y62.597 E11.21173
G1 X112.895 Y62.806 E11.24233
G1 X113.77 Y63.093 E11.27296
G1 X114.617 Y63.455 E11.30359
G1 X115.198 Y63.756 E11.32536
G1 X116.022 Y64.217 E11.35676
G1 X146.728 Y81.969 E12.53644
G1 X147.465 Y82.409 E12.56499
G1 X148.234 Y82.915 E12.5956
G1 X148.956 Y83.486 E12.62622
G1 X149.626 Y84.118 E12.65685
G1 X150.238 Y84.805 E12.68746
G1 X150.789 Y85.543 E12.71809
G1 X151.273 Y86.326 E12.7487
G1 X151.688 Y87.148 E12.77933
G1 X152.029 Y88.003 E12.80995
G1 X152.296 Y88.884 E12.84056
G1 X152.484 Y89.786 E12.87121
G1 X152.594 Y90.7 E12.90183
G1 X152.624 Y91.353 E12.92357
G1 X152.635 Y92.201 E12.95178
G1 X152.634 Y127.915 E14.13963
G1 X152.624 Y128.641 E14.16378
G1 X152.571 Y129.56 E14.1944
G1 X152.439 Y130.471 E14.22501
G1 X152.228 Y131.367 E14.25563
G1 X151.941 Y132.242 E14.28626
G1 X151.578 Y133.088 E14.31688
G1 X151.144 Y133.9 E14.3475
G1 X150.64 Y134.671 E14.37814
G1 X150.072 Y135.395 E14.40874
G1 X149.443 Y136.067 E14.43936
G1 X148.758 Y136.682 E14.46997
G1 X148.022 Y137.236 E14.50061
G1 X147.47 Y137.58 E14.52225
G1 X147.473 Y137.586 E14.52247
G1 X146.876 Y137.944 E14.54562
G1 X146.73 Y138.03 E14.55126
G1 X115.981 Y155.807 E15.73259
G1 X115.2 Y156.244 E15.76236
G1 X114.377 Y156.657 E15.79298
G1 X113.522 Y156.998 E15.8236
G1 X112.64 Y157.262 E15.85422
G1 X111.738 Y157.449 E15.88486
G1 X110.824 Y157.558 E15.91547
G1 X109.904 Y157.586 E15.94609
G1 X108.985 Y157.535 E15.9767
G1 X108.073 Y157.404 E16.00734
G1 X107.177 Y157.194 E16.03795
G1 X106.302 Y156.908 E16.06857
G1 X105.455 Y156.546 E16.09921
G1 X104.867 Y156.241 E16.12124
G1 X104.056 Y155.787 E16.15215
G1 X73.231 Y137.967 E17.33639
G1 X72.614 Y137.599 E17.36028
G1 X71.845 Y137.093 E17.3909
G1 X71.122 Y136.523 E17.42152
G1 X70.452 Y135.892 E17.45213
G1 X69.838 Y135.205 E17.48278
G1 X69.287 Y134.468 E17.51338
G1 X68.802 Y133.686 E17.54399
G1 X68.386 Y132.864 E17.57463
G1 X68.044 Y132.009 E17.60526
G1 X67.776 Y131.128 E17.63589
G1 X67.587 Y130.228 E17.66647
G1 X67.476 Y129.314 E17.6971
G1 X67.445 Y128.641 E17.7195
G1 X67.434 Y127.769 E17.74851
G1 X67.435 Y92.056 E18.93633
G1 X67.445 Y91.355 E18.95965
G1 X67.498 Y90.436 E18.99026
G1 X67.631 Y89.525 E19.02088
G1 X67.842 Y88.629 E19.0515
G1 X68.13 Y87.754 E19.08214
G1 X68.493 Y86.908 E19.11276
G1 X68.928 Y86.097 E19.14337
G1 X69.432 Y85.326 E19.174
G1 X70.001 Y84.602 E19.20463
G1 X70.63 Y83.93 E19.23524
G1 X71.315 Y83.315 E19.26586
G0 F6000 X71.703 Y83.516
G1 F1200 X72.811 Y82.751 E19.31065
G1 X73.553 Y82.308 E19.33939
G1 X104.312 Y64.526 E20.52109
G1 X105.067 Y64.104 E20.54986
G1 X105.874 Y63.7 E20.57987
G1 X106.715 Y63.368 E20.60995
G1 X107.581 Y63.112 E20.63998
G1 X108.466 Y62.934 E20.67001
G1 X109.364 Y62.835 E20.70006
G1 X110.267 Y62.816 E20.7301
G1 X111.168 Y62.876 E20.76013
G1 X112.06 Y63.016 E20.79016
G1 X112.936 Y63.235 E20.82019
G1 X113.79 Y63.53 E20.85024
G1 X115.003 Y64.105 E20.89489
G1 X115.686 Y64.486 E20.9209
G1 X146.658 Y82.392 E22.1108
G1 X147.26 Y82.752 E22.13413
G1 X148.014 Y83.249 E22.16417
G1 X148.721 Y83.811 E22.19421
G1 X149.375 Y84.434 E22.22425
G1 X149.972 Y85.112 E22.2543
G1 X150.506 Y85.84 E22.28433
G1 X150.974 Y86.612 E22.31435
G1 X151.372 Y87.423 E22.3444
G1 X151.697 Y88.266 E22.37445
G1 X151.945 Y89.134 E22.40447
G1 X152.116 Y90.021 E22.43452
G1 X152.224 Y91.359 E22.47917
G1 X152.235 Y92.201 E22.50717
G1 X152.234 Y127.909 E23.69483
G1 X152.224 Y128.635 E23.71898
G1 X152.172 Y129.537 E23.74903
G1 X152.04 Y130.43 E23.77905
G1 X151.829 Y131.309 E23.80912
G1 X151.542 Y132.165 E23.83914
G1 X151.18 Y132.992 E23.86917
G1 X150.746 Y133.784 E23.89921
G1 X150.244 Y134.535 E23.92925
G1 X149.678 Y135.239 E23.9593
G1 X149.051 Y135.889 E23.98934
G1 X148.37 Y136.482 E24.01937
G1 X147.638 Y137.011 E24.04941
G1 X147.263 Y137.235 E24.06394
G1 X147.268 Y137.243 E24.06425
G1 X146.671 Y137.601 E24.0874
G1 X115.645 Y155.538 E25.27937
G1 X115.005 Y155.895 E25.30375
G1 X114.198 Y156.299 E25.33376
G1 X113.357 Y156.631 E25.36384
G1 X112.491 Y156.887 E25.39387
G1 X111.606 Y157.065 E25.4239
G1 X110.708 Y157.165 E25.45395
G1 X109.806 Y157.184 E25.48396
G1 X108.905 Y157.124 E25.51399
G1 X108.012 Y156.984 E25.54405
G1 X107.136 Y156.766 E25.57408
G1 X106.282 Y156.471 E25.60413
G1 X105.062 Y155.892 E25.64905
G1 X104.256 Y155.441 E25.67976
G1 X73.556 Y137.694 E26.85918
G1 X72.819 Y137.255 E26.88772
G1 X72.065 Y136.759 E26.91773
G1 X71.357 Y136.197 E26.9478
G1 X70.702 Y135.576 E26.97782
G1 X70.105 Y134.899 E27.00784
G1 X69.569 Y134.171 E27.03791
G1 X69.1 Y133.399 E27.06795
G1 X68.702 Y132.589 E27.09797
G1 X68.376 Y131.747 E27.128
G1 X68.126 Y130.879 E27.15804
G1 X67.954 Y129.992 E27.1881
G1 X67.862 Y129.094 E27.21812
G1 X67.845 Y128.635 E27.2334
G1 X67.834 Y127.769 E27.2622
G1 X67.835 Y92.062 E28.44982
G1 X67.845 Y91.361 E28.47314
G1 X67.898 Y90.459 E28.50319
G1 X68.03 Y89.566 E28.53322
G1 X68.241 Y88.687 E28.56328
G1 X68.529 Y87.831 E28.59332
G1 X68.891 Y87.004 E28.62335
G1 X69.325 Y86.212 E28.65338
G1 X69.828 Y85.462 E28.68342
G1 X70.395 Y84.759 E28.71346
G1 X71.021 Y84.109 E28.74347
G1 X71.703 Y83.516 E28.77353
G1 F1500 E22.27353
;MESH:Catan_-_Wheat4.stl
G0 F6000 X77.911 Y90.804
G0 X78.454 Y91.741
G0 X78.81 Y128.053
G0 X110.035 Y146.307
;TYPE:WALL-INNER
G1 F1500 E28.77353
G1 F1200 X78.634 Y128.155 E29.97988
G1 X78.634 Y91.845 E31.18756
G1 X110.035 Y73.693 E32.3939
G1 X141.435 Y91.845 E33.60022
G1 X141.435 Y128.155 E34.8079
G1 X110.035 Y146.307 E36.01422
G0 F6000 X110.035 Y146.769
;TYPE:WALL-OUTER
G1 F1200 X78.234 Y128.385 E37.23594
G1 X78.234 Y91.615 E38.45892
G1 X110.035 Y73.231 E39.68065
G1 X141.835 Y91.615 E40.90234
G1 X141.835 Y128.385 E42.12532
G1 X110.035 Y146.769 E43.34702
G0 F6000 X110.006 Y146.278
G0 X110.035 Y145.857
;TYPE:SKIN
G1 F1200 X79.024 Y127.931 E44.53837
G1 X79.024 Y92.069 E45.73115
G1 X110.035 Y74.143 E46.9225
G1 X141.045 Y92.069 E48.11383
G1 X141.045 Y127.931 E49.30661
G1 X110.035 Y145.857 E50.49793
G1 F1500 E43.99793
G0 F6000 X109.895 Y146.098
G0 X78.81 Y128.053
G0 X78.744 Y127.267
G0 X79.183 Y127.267
G1 F1500 E50.49793
G1 F1200 X80.537 Y128.62 E50.5616
G0 F6000 X80.316 Y129
G0 X81.657 Y129.775
G0 X81.878 Y129.395
G1 F1200 X79.183 Y126.701 E50.68834
G0 F6000 X79.183 Y126.135
G1 F1200 X83.218 Y130.17 E50.87813
G0 F6000 X82.997 Y130.55
G0 X84.338 Y131.325
G0 X84.559 Y130.945
G1 F1200 X79.183 Y125.57 E51.13098
G0 F6000 X79.183 Y125.004
G1 F1200 X85.9 Y131.72 E51.4469
G0 F6000 X85.679 Y132.1
G0 X87.02 Y132.875
G0 X87.24 Y132.495
G1 F1200 X79.183 Y124.438 E51.82588
G0 F6000 X79.183 Y123.873
G1 F1200 X88.581 Y133.27 E52.26791
G0 F6000 X88.36 Y133.65
G0 X89.701 Y134.425
G0 X89.922 Y134.045
G1 F1200 X79.183 Y123.307 E52.77301
G0 F6000 X79.183 Y122.741
G1 F1200 X91.262 Y134.82 E53.34117
G0 F6000 X91.042 Y135.2
G0 X92.382 Y135.975
G0 X92.603 Y135.595
G1 F1200 X79.183 Y122.176 E53.97239
G0 F6000 X79.183 Y121.61
G1 F1200 X93.944 Y136.37 E54.66667
G0 F6000 X93.723 Y136.75
G0 X95.064 Y137.524
G0 X95.284 Y137.145
G1 F1200 X79.183 Y121.044 E55.42402
G0 F6000 X79.183 Y120.478
G1 F1200 X96.624 Y137.919 E56.24439
G0 F6000 X96.403 Y138.299
G0 X97.744 Y139.074
G0 X97.965 Y138.694
G1 F1200 X79.183 Y119.913 E57.12781
G0 F6000 X79.183 Y119.347
G1 F1200 X99.306 Y139.469 E58.07431
G0 F6000 X99.085 Y139.849
G0 X100.425 Y140.624
G0 X100.646 Y140.244
G1 F1200 X79.183 Y118.781 E59.08387
G0 F6000 X79.183 Y118.216
G1 F1200 X101.987 Y141.019 E60.15647
G0 F6000 X101.766 Y141.399
G0 X103.107 Y142.174
G0 X103.328 Y141.794
G1 F1200 X79.183 Y117.65 E61.29216
G0 F6000 X79.183 Y117.084
G1 F1200 X104.668 Y142.569 E62.49089
G0 F6000 X104.447 Y142.949
G0 X105.788 Y143.724
G0 X106.009 Y143.344
G1 F1200 X79.183 Y116.519 E63.75268
G0 F6000 X79.183 Y115.953
G1 F1200 X107.35 Y144.119 E65.07755
G0 F6000 X107.129 Y144.499
G0 X108.469 Y145.274
G0 X108.69 Y144.894
G1 F1200 X79.183 Y115.387 E66.46547
G0 F6000 X79.183 Y114.822
G1 F1200 X110.031 Y145.669 E67.91644
G0 F6000 X110.392 Y145.464
G1 F1200 X79.183 Y114.256 E69.38439
G0 F6000 X79.183 Y113.69
G1 F1200 X110.75 Y145.257 E70.86921
G0 F6000 X111.109 Y145.05
G1 F1200 X79.183 Y113.125 E72.37088
G0 F6000 X79.183 Y112.559
G1 F1200 X111.467 Y144.843 E73.88942
G0 F6000 X111.826 Y144.635
G1 F1200 X79.183 Y111.993 E75.42483
G0 F6000 X79.183 Y111.428
G1 F1200 X112.184 Y144.428 E76.97707
G0 F6000 X112.543 Y144.221
G1 F1200 X79.183 Y110.862 E78.5462
G0 F6000 X79.183 Y110.296
G1 F1200 X112.901 Y144.014 E80.13219
G0 F6000 X113.26 Y143.807
G1 F1200 X79.183 Y109.73 E81.73507
G0 F6000 X79.183 Y109.165
G1 F1200 X113.618 Y143.599 E83.35476
G0 F6000 X113.977 Y143.392
G1 F1200 X79.183 Y108.599 E84.99134
G0 F6000 X79.183 Y108.033
G1 F1200 X114.335 Y143.185 E86.64478
G0 F6000 X114.694 Y142.978
G1 F1200 X79.183 Y107.468 E88.31509
G0 F6000 X79.183 Y106.902
G1 F1200 X115.052 Y142.771 E90.00225
G0 F6000 X115.411 Y142.564
G1 F1200 X79.183 Y106.336 E91.70631
G0 F6000 X79.183 Y105.771
G1 F1200 X115.768 Y142.356 E93.42715
G0 F6000 X116.127 Y142.148
G1 F1200 X79.183 Y105.205 E95.16486
G0 F6000 X79.183 Y104.639
G1 F1200 X116.485 Y141.941 E96.91944
G0 F6000 X116.844 Y141.734
G1 F1200 X79.183 Y104.074 E98.69087
G0 F6000 X79.183 Y103.508
G1 F1200 X117.202 Y141.527 E100.47917
G0 F6000 X117.561 Y141.32
G1 F1200 X79.183 Y102.942 E102.28435
G0 F6000 X79.183 Y102.377
G1 F1200 X117.919 Y141.113 E104.10637
G0 F6000 X118.278 Y140.905
G1 F1200 X79.183 Y101.811 E105.94526
G0 F6000 X79.183 Y101.245
G1 F1200 X118.636 Y140.698 E107.80101
G0 F6000 X118.995 Y140.491
G1 F1200 X79.183 Y100.679 E109.67364
G0 F6000 X79.183 Y100.114
G1 F1200 X119.353 Y140.284 E111.56311
G0 F6000 X119.712 Y140.077
G1 F1200 X79.183 Y99.548 E113.46947
G0 F6000 X79.183 Y98.982
G1 F1200 X120.07 Y139.869 E115.39267
G0 F6000 X120.429 Y139.662
G1 F1200 X79.183 Y98.417 E117.33274
G0 F6000 X79.183 Y97.851
G1 F1200 X120.787 Y139.455 E119.28966
G0 F6000 X121.146 Y139.248
G1 F1200 X79.183 Y97.285 E121.26347
G0 F6000 X79.183 Y96.72
G1 F1200 X121.504 Y139.041 E123.25412
G0 F6000 X121.863 Y138.834
G1 F1200 X79.183 Y96.154 E125.26166
G0 F6000 X79.183 Y95.588
G1 F1200 X122.221 Y138.626 E127.28603
G0 F6000 X122.58 Y138.419
G1 F1200 X79.183 Y95.023 E129.32727
G0 F6000 X79.183 Y94.457
G1 F1200 X122.938 Y138.211 E131.38535
G0 F6000 X123.296 Y138.004
G1 F1200 X79.183 Y93.891 E133.46029
G0 F6000 X79.183 Y93.326
G1 F1200 X123.655 Y137.797 E135.55209
G0 F6000 X124.013 Y137.59
G1 F1200 X79.183 Y92.76 E137.66076
G0 F6000 X79.183 Y92.194
G1 F1200 X124.372 Y137.383 E139.78631
G0 F6000 X124.73 Y137.175
G1 F1200 X79.521 Y91.966 E141.9128
G0 F6000 X79.879 Y91.759
G1 F1200 X125.089 Y136.968 E144.03932
G0 F6000 X125.447 Y136.761
G1 F1200 X80.238 Y91.551 E146.16584
G0 F6000 X80.596 Y91.344
G1 F1200 X125.806 Y136.554 E148.29237
G0 F6000 X126.164 Y136.347
G1 F1200 X80.955 Y91.137 E150.41889
G0 F6000 X81.313 Y90.93
G1 F1200 X126.523 Y136.139 E152.54541
G0 F6000 X126.881 Y135.932
G1 F1200 X81.672 Y90.723 E154.6719
G0 F6000 X82.03 Y90.516
G1 F1200 X127.24 Y135.725 E156.79842
G0 F6000 X127.598 Y135.518
G1 F1200 X82.389 Y90.308 E158.92493
G0 F6000 X82.747 Y90.101
G1 F1200 X127.957 Y135.311 E161.05147
G0 F6000 X128.315 Y135.104
G1 F1200 X83.106 Y89.894 E163.17799
G0 F6000 X83.464 Y89.687
G1 F1200 X128.674 Y134.896 E165.30451
G0 F6000 X129.032 Y134.689
G1 F1200 X83.823 Y89.48 E167.431
G0 F6000 X84.181 Y89.272
G1 F1200 X129.391 Y134.482 E169.55754
G0 F6000 X129.749 Y134.275
G1 F1200 X84.539 Y89.065 E171.68408
G0 F6000 X84.898 Y88.857
G1 F1200 X130.108 Y134.068 E173.81064
G0 F6000 X130.466 Y133.86
G1 F1200 X85.256 Y88.65 E175.93718
G0 F6000 X85.615 Y88.443
G1 F1200 X130.824 Y133.653 E178.0637
G0 F6000 X131.183 Y133.445
G1 F1200 X85.973 Y88.236 E180.19021
G0 F6000 X86.332 Y88.029
G1 F1200 X131.541 Y133.238 E182.31671
G0 F6000 X131.9 Y133.031
G1 F1200 X86.69 Y87.821 E184.44325
G0 F6000 X87.049 Y87.614
G1 F1200 X132.258 Y132.824 E186.56976
G0 F6000 X132.617 Y132.617
G1 F1200 X87.407 Y87.407 E188.6963
G0 F6000 X87.766 Y87.2
G1 F1200 X132.975 Y132.409 E190.82279
G0 F6000 X133.334 Y132.202
G1 F1200 X88.124 Y86.993 E192.94931
G0 F6000 X88.483 Y86.786
G1 F1200 X133.692 Y131.995 E195.0758
G0 F6000 X134.051 Y131.788
G1 F1200 X88.841 Y86.578 E197.20234
G0 F6000 X89.2 Y86.371
