;FLAVOR:Marlin
;TIME:2004
;Filament used: 1.34311m
;Layer height: 0.2
;MINX:62.211
;MINY:86.761
;MINZ:0.2
;MAXX:157.79
;MAXY:133.29
;MAXZ:10
;Generated with Cura_SteamEngine master
M140 S60
M105
M190 S60
M104 S200
M105
M109 S200
M82 ;absolute extrusion mode
; Ender 3 Custom Start G-code
G92 E0 ; Reset Extruder
G28 ; Home all axes
G1 Z2.0 F3000 ; Move Z Axis up little to prevent scratching of Heat Bed
G1 X0.1 Y20 Z0.3 F5000.0 ; Move to start position
G1 X0.1 Y200.0 Z0.3 F1500.0 E15 ; Draw the first line
G1 X0.4 Y200.0 Z0.3 F5000.0 ; Move to side a little
G1 X0.4 Y20 Z0.3 F1500.0 E30 ; Draw the second line
G92 E0 ; Reset Extruder
G1 Z2.0 F3000 ; Move Z Axis up little to prevent scratching of Heat Bed
G1 X5 Y20 Z0.3 F5000.0 ; Move over to prevent blob squish
G92 E0
G92 E0
G1 F1500 E-6.5
;LAYER_COUNT:50
;LAYER:0
M107
G0 F6000 X67.545 Y100.113 Z0.2
;TYPE:SKIRT
G1 F1500 E0
G1 F1200 X68.325 Y99.592 E0.0312
G1 X69.115 Y99.156 E0.06121
G1 X69.461 Y98.983 E0.07408
G1 X70.317 Y98.6 E0.10527
G1 X71.265 Y98.272 E0.13863
G1 X71.475 Y98.21 E0.14591
G1 X72.633 Y97.935 E0.1855
G1 X72.81 Y97.903 E0.19148
G1 X73.332 Y97.822 E0.20905
G1 X75.983 Y97.473 E0.29799
G1 X78.447 Y97.078 E0.38098
G1 X80.964 Y96.601 E0.46619
G1 X83.419 Y96.063 E0.54978
G1 X85.854 Y95.456 E0.63325
G1 X88.255 Y94.785 E0.71617
G1 X90.681 Y94.034 E0.80063
G1 X93.07 Y93.217 E0.88461
G1 X95.397 Y92.35 E0.9672
G1 X97.732 Y91.403 E1.05101
G1 X100.059 Y90.381 E1.13554
G1 X102.319 Y89.312 E1.21869
G1 X103.751 Y88.582 E1.27215
G1 X103.979 Y88.478 E1.28049
G1 X104.991 Y87.96 E1.3183
G1 X105.843 Y87.569 E1.34948
G1 X106.726 Y87.252 E1.38069
G1 X107.632 Y87.011 E1.41187
G1 X108.556 Y86.848 E1.44307
G1 X109.49 Y86.765 E1.47426
G1 X110.428 Y86.761 E1.50546
G1 X111.363 Y86.838 E1.53666
G1 X112.288 Y86.993 E1.56786
G1 X113.196 Y87.227 E1.59904
G1 X114.081 Y87.538 E1.63024
G1 X114.747 Y87.83 E1.65443
G1 X115.066 Y87.987 E1.66626
G1 X117.334 Y89.15 E1.75103
G1 X119.634 Y90.248 E1.8358
G1 X121.964 Y91.28 E1.92056
G1 X124.259 Y92.222 E2.00307
G1 X126.606 Y93.107 E2.08649
G1 X129.008 Y93.936 E2.17101
G1 X131.377 Y94.681 E2.25361
G1 X133.82 Y95.371 E2.33804
G1 X136.21 Y95.976 E2.42004
G1 X138.716 Y96.536 E2.50544
G1 X141.211 Y97.017 E2.58996
G1 X143.641 Y97.417 E2.67187
G1 X145.777 Y97.696 E2.74351
G1 X146.868 Y97.849 E2.78016
G1 X148.079 Y98.089 E2.82122
G1 X148.393 Y98.172 E2.83202
G1 X148.606 Y98.232 E2.83938
G1 X149.497 Y98.525 E2.87058
G1 X150.323 Y98.875 E2.90041
G1 X150.524 Y98.97 E2.90781
G1 X150.777 Y99.093 E2.91716
G1 X151.598 Y99.548 E2.94838
G1 X152.085 Y99.864 E2.96769
G1 X152.401 Y100.081 E2.98044
G1 X153.151 Y100.645 E3.01165
G1 X153.991 Y101.41 E3.04944
G1 X154.191 Y101.612 E3.0589
G1 X154.822 Y102.306 E3.09009
G1 X155.275 Y102.888 E3.11462
G1 X155.503 Y103.209 E3.12772
G1 X155.629 Y103.393 E3.13514
G1 X156.328 Y104.563 E3.18047
G1 X156.36 Y104.625 E3.18279
G1 X156.606 Y105.134 E3.20159
G1 X156.692 Y105.324 E3.20853
G1 X157.042 Y106.194 E3.23972
G1 X157.256 Y106.868 E3.26324
G1 X157.349 Y107.197 E3.27461
G1 X157.566 Y108.109 E3.30579
G1 X157.723 Y109.242 E3.34383
G1 X157.749 Y109.543 E3.35388
G1 X157.79 Y110.48 E3.38508
G1 X157.776 Y111.039 E3.40367
G1 X157.771 Y111.139 E3.407
G1 X157.733 Y111.654 E3.42418
G1 X157.712 Y111.87 E3.4314
G1 X157.582 Y112.799 E3.4626
G1 X157.405 Y113.592 E3.48962
G1 X157.333 Y113.867 E3.49908
G1 X157.245 Y114.185 E3.51005
G1 X156.944 Y115.073 E3.54124
G1 X156.735 Y115.577 E3.55938
G1 X156.646 Y115.777 E3.56666
G1 X156.228 Y116.617 E3.59787
G1 X155.844 Y117.261 E3.62281
G1 X155.636 Y117.584 E3.63559
G1 X155.095 Y118.35 E3.66678
G1 X154.329 Y119.24 E3.70583
G1 X154.144 Y119.433 E3.71473
G1 X153.467 Y120.082 E3.74592
G1 X152.727 Y120.677 E3.7775
G1 X152.408 Y120.912 E3.79068
G1 X151.63 Y121.436 E3.82188
G1 X150.803 Y121.895 E3.85333
G1 X150.444 Y122.069 E3.8666
G1 X150.249 Y122.159 E3.87375
G1 X149.381 Y122.515 E3.90495
G1 X148.716 Y122.732 E3.92822
G1 X148.438 Y122.813 E3.93785
G1 X147.919 Y122.95 E3.9557
G1 X147.781 Y122.983 E3.96042
G1 X147.427 Y123.062 E3.97248
G1 X146.782 Y123.193 E3.99437
G1 X146.078 Y123.326 E4.0182
G1 X144.066 Y123.73 E4.08646
G1 X141.429 Y124.326 E4.17638
G1 X138.985 Y124.952 E4.26029
G1 X136.542 Y125.653 E4.34482
G1 X134.172 Y126.406 E4.42753
G1 X131.775 Y127.243 E4.51198
G1 X129.211 Y128.223 E4.60327
G1 X128.499 Y128.512 E4.62883
G1 X124.707 Y130.066 E4.76513
G1 X123.881 Y130.396 E4.79472
G1 X123.571 Y130.516 E4.80577
G1 X122.669 Y130.858 E4.83786
G1 X122.392 Y130.959 E4.84767
G1 X121.082 Y131.416 E4.89381
G1 X120.75 Y131.526 E4.90544
G1 X120.536 Y131.593 E4.9129
G1 X120.236 Y131.692 E4.92341
G1 X119.96 Y131.779 E4.93303
G1 X119.581 Y131.893 E4.9462
G1 X119.168 Y132.008 E4.96046
G1 X119.099 Y132.026 E4.96283
G1 X118.731 Y132.13 E4.97555
G1 X118.435 Y132.209 E4.98574
G1 X117.89 Y132.347 E5.00444
G1 X117.588 Y132.42 E5.01477
G1 X116.894 Y132.575 E5.03842
G1 X116.631 Y132.63 E5.04736
G1 X116.257 Y132.704 E5.06004
G1 X115.838 Y132.778 E5.07419
G1 X115.71 Y132.798 E5.0785
G1 X115.645 Y132.81 E5.0807
G1 X115.269 Y132.872 E5.09337
G1 X114.405 Y132.998 E5.12241
G1 X114.097 Y133.038 E5.13274
G1 X113.781 Y133.075 E5.14333
G1 X113.524 Y133.102 E5.15192
G1 X112.688 Y133.18 E5.17985
G1 X112.392 Y133.204 E5.18972
G1 X111.984 Y133.231 E5.20332
G1 X111.697 Y133.246 E5.21288
G1 X110.971 Y133.275 E5.23705
G1 X110.648 Y133.283 E5.24779
G1 X109.986 Y133.29 E5.26981
G1 X109.733 Y133.29 E5.27823
G1 X109.332 Y133.285 E5.29157
G1 X109.025 Y133.277 E5.30178
G1 X108.232 Y133.245 E5.32818
G1 X107.958 Y133.231 E5.3373
G1 X107.484 Y133.2 E5.3531
G1 X107.169 Y133.174 E5.36362
G1 X106.565 Y133.117 E5.38379
G1 X106.274 Y133.086 E5.39353
G1 X105.639 Y133.009 E5.4148
G1 X105.319 Y132.965 E5.42555
G1 X104.684 Y132.869 E5.44691
G1 X104.375 Y132.818 E5.45732
G1 X103.793 Y132.713 E5.47699
G1 X103.506 Y132.658 E5.48671
G1 X102.905 Y132.533 E5.50713
G1 X102.577 Y132.459 E5.51831
G1 X101.948 Y132.308 E5.53983
G1 X101.666 Y132.236 E5.54951
G1 X100.872 Y132.023 E5.57685
G1 X100.628 Y131.955 E5.58527
G1 X100.396 Y131.887 E5.59332
G1 X100.027 Y131.772 E5.60617
G1 X98.037 Y131.112 E5.6759
G1 X97.602 Y130.957 E5.69126
G1 X96.424 Y130.51 E5.73317
G1 X95.369 Y130.094 E5.77089
G1 X94.549 Y129.763 E5.8003
G1 X93.075 Y129.156 E5.85332
G1 X92.962 Y129.108 E5.8574
G1 X92.051 Y128.733 E5.89017
G1 X91.218 Y128.396 E5.92006
G1 X88.727 Y127.428 E6.00894
G1 X86.431 Y126.609 E6.09002
G1 X84.028 Y125.829 E6.17405
G1 X81.596 Y125.113 E6.25837
G1 X79.142 Y124.467 E6.34277
G1 X77.46 Y124.067 E6.40028
G1 X77.367 Y124.046 E6.40345
G1 X74.812 Y123.502 E6.49033
G1 X72.568 Y123.057 E6.56642
G1 X71.9 Y122.902 E6.58923
G1 X71.582 Y122.818 E6.60017
G1 X70.686 Y122.54 E6.63137
G1 X69.777 Y122.169 E6.66403
G1 X69.487 Y122.035 E6.67465
G1 X68.653 Y121.605 E6.70586
G1 X68.16 Y121.306 E6.72504
G1 X68.093 Y121.263 E6.72769
G1 X67.556 Y120.896 E6.74932
G1 X67.368 Y120.759 E6.75706
G1 X66.634 Y120.175 E6.78825
G1 X66.068 Y119.647 E6.814
G1 X65.854 Y119.433 E6.82406
G1 X65.22 Y118.742 E6.85525
G1 X64.65 Y118.005 E6.88624
G1 X64.469 Y117.749 E6.89667
G1 X63.961 Y116.961 E6.92785
G1 X63.479 Y116.043 E6.96234
G1 X63.35 Y115.766 E6.9725
G1 X62.991 Y114.9 E7.00368
G1 X62.747 Y114.15 E7.02991
G1 X62.684 Y113.93 E7.03753
G1 X62.587 Y113.568 E7.04999
G1 X62.394 Y112.65 E7.08119
G1 X62.306 Y111.994 E7.10321
G1 X62.269 Y111.64 E7.11504
G1 X62.211 Y110.704 E7.14623
G1 X62.233 Y109.765 E7.17747
G1 X62.238 Y109.69 E7.17997
G1 X62.264 Y109.379 E7.19035
G1 X62.286 Y109.148 E7.19807
G1 X62.414 Y108.219 E7.22926
G1 X62.595 Y107.404 E7.25703
G1 X62.661 Y107.152 E7.26569
G1 X63.029 Y106.006 E7.30573
G1 X63.078 Y105.878 E7.31029
G1 X63.397 Y105.13 E7.33733
G1 X63.492 Y104.928 E7.34476
G1 X63.927 Y104.097 E7.37595
G1 X64.391 Y103.363 E7.40484
G1 X64.52 Y103.176 E7.41239
G1 X65.097 Y102.413 E7.44421
G1 X65.202 Y102.286 E7.44969
G1 X65.951 Y101.468 E7.48658
G1 X66.112 Y101.309 E7.49411
G1 X66.806 Y100.679 E7.52528
G1 X67.352 Y100.254 E7.54829
G1 X67.545 Y100.113 E7.55624
G0 F6000 X67.781 Y100.436
G1 F1200 X68.547 Y99.926 E7.58685
G1 X69.294 Y99.514 E7.61522
G1 X69.64 Y99.341 E7.62809
G1 X70.48 Y98.965 E7.6587
G1 X71.379 Y98.656 E7.69032
G1 X71.589 Y98.594 E7.6976
G1 X72.704 Y98.329 E7.73572
G1 X72.881 Y98.297 E7.7417
G1 X73.384 Y98.219 E7.75863
G1 X76.026 Y97.871 E7.84726
G1 X78.519 Y97.471 E7.93124
G1 X81.057 Y96.99 E8.01716
G1 X83.53 Y96.448 E8.10136
G1 X85.92 Y95.853 E8.18328
G1 X88.377 Y95.166 E8.26814
G1 X90.792 Y94.418 E8.35222
G1 X93.179 Y93.602 E8.43613
G1 X95.58 Y92.708 E8.52134
G1 X97.907 Y91.764 E8.60486
G1 X100.213 Y90.752 E8.68862
G1 X102.465 Y89.686 E8.77149
G1 X103.932 Y88.938 E8.82626
G1 X104.163 Y88.832 E8.83471
G1 X105.173 Y88.316 E8.87244
G1 X106.01 Y87.933 E8.90305
G1 X106.877 Y87.624 E8.93366
G1 X107.768 Y87.391 E8.9643
G1 X108.676 Y87.236 E8.99493
G1 X109.593 Y87.161 E9.02553
G1 X110.514 Y87.165 E9.05617
G1 X111.431 Y87.25 E9.0868
G1 X112.337 Y87.414 E9.11742
G1 X113.225 Y87.655 E9.14802
G1 X114.089 Y87.973 E9.17864
G1 X114.574 Y88.19 E9.19632
G1 X114.883 Y88.343 E9.20779
G1 X117.157 Y89.509 E9.29278
G1 X119.465 Y90.611 E9.37785
G1 X121.799 Y91.645 E9.46275
G1 X124.103 Y92.59 E9.54558
G1 X126.483 Y93.487 E9.63018
G1 X128.852 Y94.306 E9.71354
G1 X131.295 Y95.073 E9.79871
G1 X133.718 Y95.759 E9.88247
G1 X136.131 Y96.369 E9.96525
G1 X138.625 Y96.926 E10.05024
G1 X141.141 Y97.412 E10.13547
G1 X143.581 Y97.813 E10.21771
G1 X145.721 Y98.092 E10.28949
G1 X146.812 Y98.245 E10.32614
G1 X147.98 Y98.476 E10.36574
G1 X148.284 Y98.557 E10.3762
G1 X148.497 Y98.617 E10.38356
G1 X149.372 Y98.905 E10.4142
G1 X150.153 Y99.236 E10.44241
G1 X150.354 Y99.331 E10.44981
G1 X150.598 Y99.451 E10.45885
G1 X151.403 Y99.898 E10.48947
G1 X151.859 Y100.194 E10.50756
G1 X152.175 Y100.411 E10.52031
G1 X152.91 Y100.965 E10.55092
G1 X153.707 Y101.691 E10.58678
G1 X153.907 Y101.893 E10.59623
G1 X154.525 Y102.575 E10.62684
G1 X154.952 Y103.123 E10.64995
G1 X155.005 Y103.196 E10.65295
G1 X155.173 Y103.435 E10.66267
G1 X155.299 Y103.619 E10.67008
G1 X155.972 Y104.746 E10.71374
G1 X156.004 Y104.808 E10.71606
G1 X156.242 Y105.299 E10.73421
G1 X156.328 Y105.489 E10.74115
G1 X156.671 Y106.343 E10.77176
G1 X156.871 Y106.977 E10.79387
G1 X156.964 Y107.306 E10.80524
G1 X157.176 Y108.202 E10.83586
G1 X157.325 Y109.277 E10.87196
G1 X157.351 Y109.578 E10.88201
G1 X157.39 Y110.498 E10.91263
G1 X157.377 Y111.019 E10.92997
G1 X157.372 Y111.119 E10.9333
G1 X157.335 Y111.616 E10.94987
G1 X157.314 Y111.832 E10.95709
G1 X157.185 Y112.743 E10.9877
G1 X157.018 Y113.491 E11.01319
G1 X156.946 Y113.766 E11.02264
G1 X156.861 Y114.073 E11.03324
G1 X156.565 Y114.945 E11.06386
G1 X156.369 Y115.415 E11.0808
G1 X156.28 Y115.615 E11.08808
G1 X155.87 Y116.439 E11.11869
G1 X155.508 Y117.044 E11.14214
G1 X155.3 Y117.367 E11.15492
G1 X154.768 Y118.119 E11.18556
G1 X154.04 Y118.963 E11.22263
G1 X153.855 Y119.156 E11.23152
G1 X153.19 Y119.792 E11.26213
G1 X152.49 Y120.355 E11.29201
G1 X152.171 Y120.59 E11.30518
G1 X151.407 Y121.104 E11.33581
G1 X150.624 Y121.537 E11.36557
G1 X150.276 Y121.705 E11.37842
G1 X150.081 Y121.795 E11.38557
G1 X149.229 Y122.145 E11.4162
G1 X148.604 Y122.348 E11.43806
G1 X148.326 Y122.429 E11.44769
G1 X147.826 Y122.561 E11.46489
G1 X147.688 Y122.594 E11.46961
G1 X147.347 Y122.67 E11.48123
G1 X146.708 Y122.8 E11.50292
G1 X146.004 Y122.933 E11.52675
G1 X144.013 Y123.333 E11.59429
G1 X143.863 Y123.365 E11.59939
G1 X141.313 Y123.942 E11.68635
G1 X138.872 Y124.568 E11.77016
G1 X136.458 Y125.26 E11.85369
G1 X134.024 Y126.034 E11.93864
G1 X131.666 Y126.856 E12.02169
G1 X129.033 Y127.864 E12.11547
G1 X128.384 Y128.127 E12.13876
G1 X124.558 Y129.695 E12.27628
G1 X123.737 Y130.023 E12.30569
G1 X123.429 Y130.142 E12.31667
G1 X122.527 Y130.484 E12.34875
G1 X122.261 Y130.581 E12.35817
G1 X120.951 Y131.038 E12.40432
G1 X120.63 Y131.145 E12.41557
G1 X120.376 Y131.225 E12.42443
G1 X120.111 Y131.312 E12.4337
G1 X119.845 Y131.396 E12.44298
G1 X119.466 Y131.51 E12.45615
G1 X119.068 Y131.621 E12.46989
G1 X118.976 Y131.645 E12.47305
G1 X118.622 Y131.745 E12.48529
G1 X118.337 Y131.822 E12.4951
G1 X117.792 Y131.96 E12.5138
G1 X117.501 Y132.029 E12.52375
G1 X116.807 Y132.184 E12.5474
G1 X116.553 Y132.237 E12.55603
G1 X116.179 Y132.311 E12.56871
G1 X115.775 Y132.383 E12.58236
G1 X115.212 Y132.476 E12.60134
G1 X114.348 Y132.602 E12.63038
G1 X114.051 Y132.641 E12.64034
G1 X113.735 Y132.678 E12.65093
G1 X113.487 Y132.704 E12.65922
G1 X112.651 Y132.782 E12.68715
G1 X112.366 Y132.805 E12.69666
G1 X111.958 Y132.832 E12.71026
G1 X111.681 Y132.847 E12.71948
G1 X110.955 Y132.876 E12.74365
G1 X110.644 Y132.883 E12.754
G1 X109.982 Y132.89 E12.77601
G1 X109.738 Y132.89 E12.78413
G1 X109.337 Y132.885 E12.79747
G1 X109.042 Y132.877 E12.80728
G1 X108.249 Y132.845 E12.83368
G1 X107.984 Y132.831 E12.84251
G1 X107.51 Y132.8 E12.85831
G1 X107.206 Y132.776 E12.86845
G1 X106.602 Y132.719 E12.88863
G1 X106.322 Y132.689 E12.89799
G1 X105.687 Y132.612 E12.91927
G1 X105.378 Y132.57 E12.92964
G1 X104.743 Y132.474 E12.951
G1 X104.446 Y132.425 E12.96101
G1 X103.864 Y132.32 E12.98068
G1 X103.588 Y132.266 E12.99004
G1 X102.987 Y132.141 E13.01045
G1 X102.671 Y132.07 E13.02122
G1 X102.042 Y131.919 E13.04274
G1 X101.77 Y131.85 E13.05207
G1 X100.976 Y131.637 E13.07942
G1 X100.741 Y131.571 E13.08753
G1 X100.509 Y131.503 E13.09557
G1 X100.153 Y131.392 E13.10798
G1 X98.163 Y130.732 E13.17771
G1 X97.744 Y130.583 E13.1925
G1 X96.571 Y130.138 E13.23423
G1 X95.518 Y129.723 E13.27187
G1 X94.702 Y129.393 E13.30115
G1 X93.228 Y128.786 E13.35417
G1 X93.149 Y128.752 E13.35703
G1 X92.201 Y128.362 E13.39112
G1 X91.365 Y128.023 E13.42113
G1 X88.901 Y127.066 E13.50905
G1 X86.541 Y126.225 E13.59237
G1 X84.127 Y125.441 E13.67679
G1 X81.705 Y124.728 E13.76077
G1 X79.259 Y124.084 E13.84489
G1 X77.475 Y123.66 E13.90588
G1 X74.825 Y123.096 E13.996
G1 X72.646 Y122.664 E14.06988
G1 X72.002 Y122.515 E14.09187
G1 X71.684 Y122.431 E14.10281
G1 X70.805 Y122.158 E14.13342
G1 X69.945 Y121.805 E14.16434
G1 X69.655 Y121.671 E14.17496
G1 X68.837 Y121.249 E14.20558
G1 X68.376 Y120.97 E14.2235
G1 X68.309 Y120.927 E14.22615
G1 X67.791 Y120.573 E14.24702
G1 X67.603 Y120.436 E14.25475
G1 X66.883 Y119.862 E14.28538
G1 X66.351 Y119.364 E14.30962
G1 X66.137 Y119.15 E14.31968
G1 X65.515 Y118.472 E14.35028
G1 X64.977 Y117.774 E14.3796
G1 X64.796 Y117.518 E14.39002
G1 X64.297 Y116.744 E14.42065
G1 X63.842 Y115.874 E14.45331
G1 X63.713 Y115.597 E14.46347
G1 X63.361 Y114.746 E14.4941
G1 X63.132 Y114.04 E14.51879
G1 X63.069 Y113.82 E14.5264
G1 X62.974 Y113.469 E14.53849
G1 X62.786 Y112.568 E14.56911
G1 X62.703 Y111.953 E14.58975
G1 X62.666 Y111.599 E14.60158
G1 X62.611 Y110.68 E14.6322
G1 X62.632 Y109.792 E14.66175
G1 X62.662 Y109.417 E14.67426
G1 X62.684 Y109.186 E14.68198
G1 X62.811 Y108.274 E14.7126
G1 X62.982 Y107.505 E14.73881
G1 X63.048 Y107.253 E14.74747
G1 X63.403 Y106.149 E14.78604
G1 X63.452 Y106.021 E14.7906
G1 X63.759 Y105.3 E14.81666
G1 X63.854 Y105.098 E14.82409
G1 X64.281 Y104.283 E14.85469
G1 X64.721 Y103.59 E14.88199
G1 X64.85 Y103.403 E14.88955
G1 X65.406 Y102.668 E14.9202
G1 X65.511 Y102.541 E14.92568
G1 X66.232 Y101.753 E14.96121
G1 X66.393 Y101.594 E14.96873
G1 X67.075 Y100.976 E14.99934
G1 X67.588 Y100.577 E15.02096
G1 X67.781 Y100.436 E15.02891
G0 F6000 X68.017 Y100.759
G1 F1200 X68.769 Y100.259 E15.05894
G1 X69.472 Y99.872 E15.08564
G1 X69.818 Y99.699 E15.0985
G1 X70.643 Y99.331 E15.12855
G1 X71.492 Y99.039 E15.15841
G1 X71.702 Y98.977 E15.16569
G1 X72.775 Y98.723 E15.20237
G1 X72.952 Y98.691 E15.20835
G1 X73.436 Y98.615 E15.22464
G1 X76.105 Y98.264 E15.31418
G1 X78.585 Y97.866 E15.39772
G1 X81.107 Y97.388 E15.4831
G1 X83.648 Y96.831 E15.56962
G1 X86.02 Y96.24 E15.65092
G1 X88.488 Y95.55 E15.73615
G1 X90.934 Y94.793 E15.82132
G1 X93.311 Y93.98 E15.90487
G1 X95.704 Y93.089 E15.9898
G1 X98.069 Y92.13 E16.07468
G1 X100.366 Y91.121 E16.15813
G1 X102.68 Y90.026 E16.24327
G1 X104.114 Y89.295 E16.29681
G1 X104.324 Y89.199 E16.30449
G1 X105.355 Y88.672 E16.343
G1 X106.177 Y88.297 E16.37305
G1 X107.028 Y87.996 E16.40307
G1 X107.903 Y87.771 E16.43312
G1 X108.794 Y87.625 E16.46315
G1 X109.695 Y87.558 E16.4932
