;FLAVOR:Marlin
;TIME:2482
;Filament used: 1.99801m
;Layer height: 0.2
;MINX:86.588
;MINY:47.107
;MINZ:0.2
;MAXX:154.824
;MAXY:158.436
;MAXZ:4
;Generated with Cura_SteamEngine master
M140 S60
M105
M190 S60
M104 S200
M105
M109 S200
M82 ;absolute extrusion mode
; Ender 3 Custom Start G-code
G92 E0 ; Reset Extruder
G28 ; Home all axes
G1 Z2.0 F3000 ; Move Z Axis up little to prevent scratching of Heat Bed
G1 X0.1 Y20 Z0.3 F5000.0 ; Move to start position
G1 X0.1 Y200.0 Z0.3 F1500.0 E15 ; Draw the first line
G1 X0.4 Y200.0 Z0.3 F5000.0 ; Move to side a little
G1 X0.4 Y20 Z0.3 F1500.0 E30 ; Draw the second line
G92 E0 ; Reset Extruder
G1 Z2.0 F3000 ; Move Z Axis up little to prevent scratching of Heat Bed
G1 X5 Y20 Z0.3 F5000.0 ; Move over to prevent blob squish
G92 E0
G92 E0
G1 F2400 E-4
;LAYER_COUNT:20
;LAYER:0
M107
M204 S500
G0 F7500 X97.983 Y53.907 Z0.2
M204 S550
;TYPE:SKIRT
G1 F2400 E0
G1 F1500 X98.343 Y53.303 E0.02126
G1 X98.857 Y52.519 E0.0496
G1 X99.436 Y51.781 E0.07795
G1 X100.076 Y51.095 E0.10631
G1 X100.772 Y50.466 E0.13467
G1 X101.519 Y49.899 E0.16302
G1 X102.56 Y49.259 E0.19996
G1 X103.609 Y48.693 E0.236
G1 X104.247 Y48.361 E0.25774
G1 X105.097 Y47.964 E0.2861
G1 X105.977 Y47.641 E0.31444
G1 X106.882 Y47.394 E0.3428
G1 X107.805 Y47.225 E0.37116
G1 X109.151 Y47.12 E0.41198
G1 X110.018 Y47.108 E0.43819
G1 X131.622 Y47.107 E1.09128
G1 X132.482 Y47.118 E1.11728
G1 X133.419 Y47.171 E1.14565
G1 X134.347 Y47.304 E1.17399
G1 X135.261 Y47.516 E1.20236
G1 X136.153 Y47.804 E1.23069
G1 X137.018 Y48.168 E1.25906
G1 X137.848 Y48.604 E1.2874
G1 X138.639 Y49.109 E1.31577
G1 X139.383 Y49.679 E1.34411
G1 X140.076 Y50.311 E1.37246
G1 X140.713 Y50.999 E1.4008
G1 X141.289 Y51.74 E1.42918
G1 X141.763 Y52.465 E1.45536
G1 X142.167 Y53.143 E1.47922
G1 X153.093 Y72.07 E2.13988
G1 X153.429 Y72.672 E2.16072
G1 X153.851 Y73.51 E2.18908
G1 X154.2 Y74.38 E2.21742
G1 X154.473 Y75.277 E2.24576
G1 X154.669 Y76.195 E2.27414
G1 X154.786 Y77.125 E2.30248
G1 X154.824 Y78.062 E2.33083
G1 X154.781 Y78.999 E2.35918
G1 X154.659 Y79.929 E2.38754
G1 X154.558 Y80.436 E2.40316
G1 X154.473 Y80.805 E2.41461
G1 X153.9 Y83.127 E2.48691
G1 X153.364 Y85.595 E2.56326
G1 X152.898 Y88.082 E2.63975
G1 X152.507 Y90.547 E2.7152
G1 X152.181 Y93.066 E2.79198
G1 X151.931 Y95.544 E2.86727
G1 X151.747 Y98.079 E2.94411
G1 X151.638 Y100.551 E3.01891
G1 X151.597 Y103.116 E3.09646
G1 X151.629 Y105.607 E3.17177
G1 X151.731 Y108.127 E3.24801
G1 X151.905 Y110.643 E3.32425
G1 X152.151 Y113.154 E3.40052
G1 X152.464 Y115.629 E3.47594
G1 X152.856 Y118.152 E3.55312
G1 X153.305 Y120.596 E3.62824
G1 X153.825 Y123.029 E3.70345
G1 X154.048 Y123.948 E3.73204
G1 X154.299 Y125.036 E3.7658
G1 X154.471 Y125.958 E3.79415
G1 X154.564 Y126.892 E3.82252
G1 X154.576 Y127.839 E3.85115
G1 X154.559 Y128.362 E3.86697
G1 X154.494 Y129.829 E3.91136
G1 X154.413 Y130.763 E3.93971
G1 X154.315 Y131.378 E3.95853
G1 X154.273 Y131.601 E3.96539
G1 X154.06 Y132.514 E3.99373
G1 X153.77 Y133.406 E4.02209
G1 X153.406 Y134.27 E4.05043
G1 X153.048 Y134.961 E4.07396
G1 X152.704 Y135.572 E4.09515
G1 X143.445 Y151.609 E4.65495
G1 X143.065 Y152.246 E4.67738
G1 X142.55 Y153.031 E4.70576
G1 X141.971 Y153.768 E4.73409
G1 X141.331 Y154.454 E4.76245
G1 X140.635 Y155.082 E4.79079
G1 X139.888 Y155.649 E4.81914
G1 X138.859 Y156.282 E4.85566
G1 X137.851 Y156.827 E4.8903
G1 X137.173 Y157.18 E4.91341
G1 X136.323 Y157.577 E4.94177
G1 X135.443 Y157.9 E4.97011
G1 X134.235 Y158.212 E5.00782
G1 X133.309 Y158.357 E5.03616
G1 X132.238 Y158.425 E5.0686
G1 X131.392 Y158.436 E5.09418
G1 X109.624 Y158.436 E5.75223
G1 X108.958 Y158.426 E5.77236
G1 X108.022 Y158.372 E5.8007
G1 X107.093 Y158.238 E5.82908
G1 X106.18 Y158.026 E5.85741
G1 X105.288 Y157.737 E5.88576
G1 X104.423 Y157.372 E5.91414
G1 X103.464 Y156.859 E5.94702
G1 X103.409 Y156.826 E5.94896
G1 X102.626 Y156.31 E5.97731
G1 X101.89 Y155.729 E6.00565
G1 X101.206 Y155.087 E6.03401
G1 X100.579 Y154.389 E6.06237
G1 X100.014 Y153.641 E6.09071
G1 X99.622 Y153.031 E6.11263
G1 X99.138 Y152.217 E6.14126
G1 X88.292 Y133.427 E6.79712
G1 X87.973 Y132.853 E6.81697
G1 X87.553 Y132.015 E6.84531
G1 X87.206 Y131.144 E6.87365
G1 X86.934 Y130.246 E6.90202
G1 X86.739 Y129.329 E6.93036
G1 X86.624 Y128.398 E6.95872
G1 X86.588 Y127.461 E6.98706
G1 X86.632 Y126.524 E7.01542
G1 X86.756 Y125.594 E7.04378
G1 X86.871 Y125.031 E7.06115
G1 X86.938 Y124.744 E7.07006
G1 X87.52 Y122.384 E7.14354
G1 X88.052 Y119.931 E7.21942
G1 X88.524 Y117.417 E7.29675
G1 X88.907 Y114.986 E7.37114
G1 X89.231 Y112.485 E7.44738
G1 X89.486 Y109.95 E7.5244
G1 X89.666 Y107.457 E7.59996
G1 X89.775 Y104.972 E7.67516
G1 X89.815 Y102.412 E7.75256
G1 X89.783 Y99.924 E7.82777
G1 X89.68 Y97.402 E7.90408
G1 X89.504 Y94.875 E7.98065
G1 X89.258 Y92.359 E8.05708
G1 X88.948 Y89.911 E8.13167
G1 X88.558 Y87.399 E8.20852
G1 X88.098 Y84.909 E8.28507
G1 X87.582 Y82.495 E8.35969
G1 X87.362 Y81.588 E8.3879
G1 X87.11 Y80.49 E8.42196
G1 X86.939 Y79.567 E8.45034
G1 X86.848 Y78.634 E8.47867
G1 X86.835 Y77.749 E8.50543
G1 X86.85 Y77.244 E8.5207
G1 X86.9 Y76.163 E8.55342
G1 X86.919 Y75.648 E8.569
G1 X86.993 Y74.713 E8.59735
G1 X87.147 Y73.788 E8.6257
G1 X87.379 Y72.879 E8.65406
G1 X87.687 Y71.993 E8.68241
G1 X88.206 Y70.873 E8.71973
G1 X88.418 Y70.481 E8.7332
G1 X88.641 Y70.086 E8.74692
G1 X97.983 Y53.907 E9.31169
M204 S500
G0 F7500 X98.252 Y54.239
M204 S550
G1 F1500 X98.687 Y53.508 E9.3374
G1 X99.192 Y52.738 E9.36524
G1 X99.762 Y52.015 E9.39307
G1 X100.393 Y51.345 E9.42089
G1 X101.079 Y50.731 E9.44872
G1 X101.816 Y50.18 E9.47654
G1 X102.75 Y49.611 E9.5096
G1 X103.794 Y49.048 E9.54546
G1 X104.432 Y48.716 E9.5672
G1 X105.266 Y48.327 E9.59502
G1 X106.131 Y48.012 E9.62285
G1 X107.02 Y47.773 E9.65068
G1 X107.927 Y47.612 E9.67853
G1 X109.157 Y47.52 E9.71582
G1 X110.019 Y47.508 E9.74188
G1 X131.623 Y47.507 E10.39497
G1 X132.477 Y47.518 E10.42079
G1 X133.396 Y47.571 E10.44861
G1 X134.307 Y47.704 E10.47645
G1 X135.203 Y47.915 E10.50427
G1 X136.077 Y48.203 E10.53209
G1 X136.924 Y48.566 E10.55995
G1 X137.735 Y49.001 E10.58777
G1 X138.506 Y49.505 E10.61562
G1 X139.23 Y50.073 E10.64343
G1 X139.902 Y50.703 E10.67128
G1 X140.516 Y51.388 E10.69909
G1 X141.069 Y52.124 E10.72692
G1 X141.42 Y52.671 E10.74657
G1 X141.821 Y53.343 E10.77022
G1 X152.744 Y72.265 E11.4307
G1 X153.08 Y72.867 E11.45154
G1 X153.493 Y73.69 E11.47938
G1 X153.834 Y74.545 E11.50721
G1 X154.099 Y75.427 E11.53505
G1 X154.286 Y76.328 E11.56287
G1 X154.394 Y77.242 E11.59069
G1 X154.423 Y78.162 E11.61851
G1 X154.372 Y79.082 E11.64637
G1 X154.168 Y80.349 E11.68516
G1 X154.085 Y80.709 E11.69633
G1 X153.508 Y83.044 E11.76904
G1 X152.973 Y85.509 E11.84529
G1 X152.502 Y88.023 E11.92261
G1 X152.109 Y90.499 E11.9984
G1 X151.784 Y93.011 E12.07497
G1 X151.532 Y95.511 E12.15093
G1 X151.349 Y98.032 E12.22734
G1 X151.238 Y100.564 E12.30396
G1 X151.197 Y103.115 E12.38109
G1 X151.229 Y105.628 E12.45706
G1 X151.331 Y108.137 E12.53297
G1 X151.507 Y110.674 E12.60985
G1 X151.754 Y113.206 E12.68675
G1 X152.07 Y115.704 E12.76287
G1 X152.454 Y118.179 E12.83859
G1 X152.915 Y120.68 E12.91546
G1 X153.44 Y123.142 E12.99156
G1 X153.659 Y124.038 E13.01945
G1 X153.91 Y125.126 E13.0532
G1 X154.078 Y126.031 E13.08103
G1 X154.166 Y126.948 E13.10888
G1 X154.176 Y127.827 E13.13545
G1 X154.16 Y128.344 E13.15109
G1 X154.095 Y129.811 E13.19548
G1 X154.014 Y130.728 E13.22331
G1 X153.922 Y131.304 E13.24094
G1 X153.88 Y131.527 E13.2478
G1 X153.67 Y132.423 E13.27562
G1 X153.384 Y133.298 E13.30345
G1 X153.022 Y134.145 E13.33129
G1 X152.7 Y134.765 E13.35241
G1 X152.357 Y135.372 E13.37349
G1 X143.101 Y151.405 E13.93314
G1 X142.721 Y152.042 E13.95556
G1 X142.216 Y152.811 E13.98337
G1 X141.645 Y153.534 E14.01123
G1 X141.014 Y154.204 E14.03905
G1 X140.328 Y154.817 E14.06686
G1 X139.59 Y155.368 E14.0947
G1 X138.668 Y155.931 E14.12736
G1 X137.821 Y156.39 E14.15648
G1 X136.988 Y156.825 E14.18489
G1 X136.154 Y157.214 E14.21271
G1 X135.289 Y157.53 E14.24055
G1 X134.157 Y157.82 E14.27587
G1 X133.247 Y157.961 E14.30371
G1 X132.232 Y158.025 E14.33446
G1 X131.391 Y158.036 E14.35988
G1 X109.63 Y158.036 E15.01772
G1 X108.964 Y158.026 E15.03786
G1 X108.045 Y157.972 E15.06569
G1 X107.134 Y157.839 E15.09352
G1 X106.238 Y157.627 E15.12135
G1 X105.364 Y157.338 E15.14918
G1 X104.518 Y156.974 E15.17702
G1 X103.669 Y156.516 E15.20618
G1 X103.614 Y156.483 E15.20812
G1 X102.846 Y155.976 E15.23594
G1 X102.125 Y155.404 E15.26376
G1 X101.456 Y154.771 E15.29161
G1 X100.845 Y154.083 E15.31942
G1 X100.295 Y153.344 E15.34727
G1 X99.966 Y152.826 E15.36582
G1 X99.484 Y152.017 E15.39429
G1 X88.727 Y133.384 E16.04469
G1 X88.323 Y132.659 E16.06978
G1 X87.911 Y131.836 E16.09761
G1 X87.572 Y130.98 E16.12544
G1 X87.309 Y130.098 E16.15326
G1 X87.123 Y129.196 E16.1811
G1 X87.016 Y128.281 E16.20895
G1 X86.989 Y127.361 E16.23678
G1 X87.042 Y126.442 E16.2646
G1 X87.261 Y125.121 E16.30508
G1 X87.327 Y124.84 E16.31381
G1 X87.904 Y122.5 E16.38667
G1 X88.444 Y120.011 E16.46366
G1 X88.918 Y117.488 E16.54126
G1 X89.306 Y115.023 E16.6167
G1 X89.627 Y112.544 E16.69227
G1 X89.884 Y109.983 E16.77007
G1 X90.064 Y107.505 E16.84518
G1 X90.175 Y104.96 E16.92219
G1 X90.215 Y102.413 E16.9992
G1 X90.183 Y99.903 E17.07508
G1 X90.08 Y97.394 E17.15099
G1 X89.903 Y94.842 E17.22832
G1 X89.658 Y92.341 E17.30429
G1 X89.335 Y89.795 E17.38187
G1 X88.953 Y87.336 E17.4571
G1 X88.496 Y84.858 E17.53327
G1 X87.968 Y82.388 E17.60963
G1 X87.752 Y81.498 E17.63732
G1 X87.5 Y80.4 E17.67137
G1 X87.333 Y79.495 E17.69919
G1 X87.245 Y78.578 E17.72704
G1 X87.234 Y77.759 E17.7518
G1 X87.249 Y77.262 E17.76683
G1 X87.304 Y76.078 E17.80266
G1 X87.319 Y75.663 E17.81522
G1 X87.393 Y74.745 E17.84306
G1 X87.545 Y73.837 E17.87089
G1 X87.776 Y72.946 E17.89871
G1 X88.084 Y72.078 E17.92656
G1 X88.559 Y71.061 E17.96049
G1 X88.767 Y70.677 E17.97369
G1 X88.987 Y70.286 E17.98725
G1 X98.252 Y54.239 E18.54741
M204 S500
G0 F7500 X98.67 Y54.317
M204 S550
G1 F1500 X99.03 Y53.713 E18.56866
G1 X99.527 Y52.958 E18.59599
G1 X100.088 Y52.251 E18.62327
G1 X100.709 Y51.595 E18.65058
G1 X101.386 Y50.998 E18.67787
G1 X102.113 Y50.462 E18.70517
G1 X102.94 Y49.963 E18.73437
G1 X103.835 Y49.479 E18.76513
G1 X104.617 Y49.071 E18.79179
G1 X105.435 Y48.69 E18.81907
G1 X106.285 Y48.383 E18.84639
G1 X107.158 Y48.152 E18.87369
G1 X108.048 Y47.999 E18.90099
G1 X109.163 Y47.92 E18.93478
G1 X110.019 Y47.908 E18.96066
G1 X131.623 Y47.907 E19.61375
G1 X132.471 Y47.918 E19.63939
G1 X133.373 Y47.971 E19.6667
G1 X134.266 Y48.103 E19.69399
G1 X135.144 Y48.314 E19.72129
G1 X136 Y48.602 E19.74859
G1 X136.827 Y48.964 E19.77588
G1 X137.619 Y49.398 E19.80319
G1 X138.37 Y49.9 E19.83049
G1 X139.073 Y50.467 E19.8578
G1 X139.723 Y51.094 E19.8851
G1 X140.315 Y51.776 E19.9124
G1 X141.077 Y52.876 E19.95285
G1 X141.475 Y53.543 E19.97633
G1 X152.395 Y72.46 E20.63664
G1 X152.731 Y73.062 E20.65748
G1 X153.135 Y73.869 E20.68476
G1 X153.467 Y74.709 E20.71206
G1 X153.723 Y75.575 E20.73936
G1 X153.902 Y76.46 E20.76666
G1 X154.002 Y77.358 E20.79397
G1 X154.021 Y78.261 E20.82128
G1 X153.961 Y79.162 E20.84857
G1 X153.778 Y80.261 E20.88225
G1 X153.696 Y80.613 E20.89318
G1 X153.123 Y82.935 E20.96548
G1 X152.575 Y85.456 E21.04347
G1 X152.113 Y87.923 E21.11934
G1 X151.717 Y90.417 E21.19568
G1 X151.384 Y92.991 E21.27414
G1 X151.133 Y95.478 E21.34971
G1 X150.949 Y98.021 E21.42678
G1 X150.838 Y100.539 E21.50298
G1 X150.797 Y103.113 E21.5808
G1 X150.829 Y105.614 E21.65641
G1 X150.933 Y108.183 E21.73414
G1 X151.108 Y110.705 E21.81056
G1 X151.357 Y113.259 E21.88813
G1 X151.672 Y115.744 E21.96386
G1 X152.06 Y118.247 E22.04043
G1 X152.53 Y120.799 E22.11887
G1 X153.039 Y123.185 E22.19262
G1 X153.269 Y124.128 E22.22197
G1 X153.52 Y125.216 E22.25572
G1 X153.684 Y126.104 E22.28302
G1 X153.768 Y127.003 E22.31031
G1 X153.776 Y127.815 E22.33486
G1 X153.76 Y128.326 E22.35032
G1 X153.695 Y129.793 E22.39471
G1 X153.615 Y130.693 E22.42202
G1 X153.529 Y131.23 E22.43846
G1 X153.487 Y131.453 E22.44532
G1 X153.28 Y132.332 E22.47262
G1 X152.997 Y133.19 E22.49993
G1 X152.639 Y134.019 E22.52723
G1 X152.351 Y134.569 E22.546
G1 X152.011 Y135.172 E22.56693
G1 X142.758 Y151.2 E23.1264
G1 X142.378 Y151.837 E23.14882
G1 X141.881 Y152.591 E23.17612
G1 X141.32 Y153.298 E23.20341
G1 X140.698 Y153.953 E23.23071
G1 X140.021 Y154.551 E23.25802
G1 X139.294 Y155.086 E23.28531
G1 X138.478 Y155.579 E23.31413
G1 X137.631 Y156.038 E23.34325
G1 X136.803 Y156.47 E23.37148
G1 X135.985 Y156.851 E23.39876
G1 X135.135 Y157.159 E23.42609
G1 X134.078 Y157.428 E23.45906
G1 X133.186 Y157.566 E23.48635
G1 X132.226 Y157.625 E23.51543
G1 X131.391 Y157.636 E23.54067
G1 X109.636 Y157.636 E24.19833
G1 X108.97 Y157.626 E24.21846
G1 X108.068 Y157.572 E24.24578
G1 X107.175 Y157.439 E24.27307
G1 X106.297 Y157.228 E24.30037
G1 X105.441 Y156.939 E24.32768
G1 X104.614 Y156.576 E24.35498
G1 X103.875 Y156.173 E24.38043
G1 X103.82 Y156.14 E24.38237
G1 X103.067 Y155.642 E24.40966
G1 X102.361 Y155.079 E24.43696
G1 X101.708 Y154.455 E24.46426
G1 X101.112 Y153.777 E24.49155
G1 X100.578 Y153.048 E24.51887
G1 X100.309 Y152.621 E24.53413
G1 X99.83 Y151.817 E24.56242
G1 X89.073 Y133.184 E25.21282
G1 X88.672 Y132.465 E25.23771
G1 X88.269 Y131.657 E25.26501
G1 X87.939 Y130.816 E25.29232
G1 X87.684 Y129.95 E25.31961
G1 X87.507 Y129.064 E25.34692
G1 X87.409 Y128.166 E25.37423
G1 X87.391 Y127.264 E25.4015
G1 X87.453 Y126.363 E25.4288
G1 X87.65 Y125.211 E25.46413
G1 X87.715 Y124.936 E25.47268
G1 X88.297 Y122.575 E25.54619
G1 X88.842 Y120.064 E25.62386
G1 X89.307 Y117.591 E25.69993
G1 X89.699 Y115.1 E25.77616
G1 X90.027 Y112.564 E25.85346
G1 X90.283 Y110.016 E25.93088
G1 X90.464 Y107.515 E26.00668
G1 X90.575 Y104.985 E26.08324
G1 X90.615 Y102.414 E26.16097
G1 X90.583 Y99.881 E26.23755
G1 X90.479 Y97.35 E26.31412
G1 X90.305 Y94.847 E26.38997
G1 X90.055 Y92.284 E26.46782
G1 X89.734 Y89.76 E26.54473
G1 X89.348 Y87.274 E26.62079
G1 X88.886 Y84.767 E26.69785
G1 X88.362 Y82.314 E26.77368
G1 X88.141 Y81.409 E26.80184
G1 X87.889 Y80.311 E26.8359
G1 X87.727 Y79.422 E26.86321
G1 X87.643 Y78.523 E26.89051
G1 X87.634 Y77.769 E26.9133
G1 X87.641 Y77.494 E26.92162
G1 X87.649 Y77.281 E26.92806
G1 X87.704 Y76.097 E26.96389
G1 X87.719 Y75.677 E26.9766
G1 X87.792 Y74.777 E27.0039
G1 X87.944 Y73.887 E27.03119
G1 X88.174 Y73.014 E27.05848
G1 X88.481 Y72.164 E27.0858
G1 X88.912 Y71.249 E27.11638
G1 X89.115 Y70.873 E27.12929
G1 X89.334 Y70.486 E27.14274
G1 X98.67 Y54.317 E27.70716
M204 S500
G1 F2400 E23.70716
;MESH:hexagon_project_top.stl
G0 F7500 X107.727 Y59.547
G0 X108.665 Y60.088
G0 X98.716 Y78.033
G0 X109.671 Y97.357
M204 S550
;TYPE:WALL-INNER
G1 F2400 E27.70716
G1 F1500 X98.513 Y78.033 E28.38171
G1 X109.671 Y58.708 E29.0563
G1 X131.986 Y58.707 E29.73088
G1 X143.143 Y78.033 E30.40548
G1 X131.985 Y97.357 E31.08004
G1 X109.671 Y97.357 E31.75459
M204 S500
G0 F7500 X109.44 Y97.757
M204 S550
;TYPE:WALL-OUTER
G1 F1500 X98.052 Y78.033 E32.4431
G1 X109.44 Y58.308 E33.13163
G1 X132.217 Y58.307 E33.82018
G1 X143.604 Y78.033 E34.50872
G1 X132.216 Y97.757 E35.19723
G1 X109.44 Y97.757 E35.88575
M204 S500
G0 F7500 X109.896 Y96.967
M204 S550
;TYPE:SKIN
G1 F1500 X98.964 Y78.033 E36.54668
G1 X109.896 Y59.098 E37.20764
G1 X131.761 Y59.097 E37.86862
G1 X142.692 Y78.033 E38.52959
G1 X131.76 Y96.967 E39.19052
G1 X109.896 Y96.967 E39.85147
M204 S500
G0 F7500 X110.383 Y96.807
M204 S550
G1 F1500 X109.446 Y95.87 E39.89153
M204 S500
G0 F7500 X109.066 Y96.089
G0 X108.293 Y94.75
G0 X108.673 Y94.531
M204 S550
G1 F1500 X110.949 Y96.807 E39.98884
M204 S500
G0 F7500 X111.514 Y96.807
M204 S550
G1 F1500 X107.9 Y93.193 E40.14334
M204 S500
G0 F7500 X107.52 Y93.412
G0 X106.747 Y92.073
G0 X107.128 Y91.854
M204 S550
G1 F1500 X112.08 Y96.807 E40.35507
M204 S500
G0 F7500 X112.646 Y96.807
M204 S550
G1 F1500 X106.355 Y90.516 E40.62402
M204 S500
G0 F7500 X105.975 Y90.735
G0 X105.202 Y89.397
G0 X105.583 Y89.178
M204 S550
G1 F1500 X113.212 Y96.807 E40.95018
M204 S500
G0 F7500 X113.777 Y96.807
M204 S550
G1 F1500 X104.81 Y87.839 E41.33355
M204 S500
G0 F7500 X104.429 Y88.058
G0 X103.657 Y86.72
G0 X104.037 Y86.501
M204 S550
G1 F1500 X114.343 Y96.807 E41.77415
M204 S500
G0 F7500 X114.909 Y96.807
M204 S550
G1 F1500 X103.264 Y85.162 E42.272
