;FLAVOR:Marlin
;TIME:8721
;Filament used: 6.95084m
;Layer height: 0.2
;MINX:27.845
;MINY:27.696
;MINZ:0.2
;MAXX:213.379
;MAXY:217.506
;MAXZ:4
;Generated with Cura_SteamEngine master
M140 S60
M105
M190 S60
M104 S200
M105
M109 S200
M82 ;absolute extrusion mode
; Ender 3 Custom Start G-code
G92 E0 ; Reset Extruder
G28 ; Home all axes
G1 Z2.0 F3000 ; Move Z Axis up little to prevent scratching of Heat Bed
G1 X0.1 Y20 Z0.3 F5000.0 ; Move to start position
G1 X0.1 Y200.0 Z0.3 F1500.0 E15 ; Draw the first line
G1 X0.4 Y200.0 Z0.3 F5000.0 ; Move to side a little
G1 X0.4 Y20 Z0.3 F1500.0 E30 ; Draw the second line
G92 E0 ; Reset Extruder
G1 Z2.0 F3000 ; Move Z Axis up little to prevent scratching of Heat Bed
G1 X5 Y20 Z0.3 F5000.0 ; Move over to prevent blob squish
G92 E0
G92 E0
G1 F2400 E-4
;LAYER_COUNT:20
;LAYER:0
M107
M204 S500
G0 F7500 X48.009 Y67.203 Z0.2
M204 S550
;TYPE:SKIRT
G1 F2400 E0
G1 F1500 X49.05 Y66.563 E0.03694
G1 X50.004 Y66.048 E0.06971
G1 X50.635 Y65.718 E0.09124
G1 X51.033 Y65.519 E0.10469
G1 X51.124 Y65.476 E0.10774
G1 X51.989 Y65.112 E0.13611
G1 X52.881 Y64.823 E0.16445
G1 X53.473 Y64.676 E0.18289
G1 X53.972 Y64.567 E0.19833
G1 X56.457 Y63.993 E0.27543
G1 X58.888 Y63.358 E0.35139
G1 X61.32 Y62.651 E0.42795
G1 X63.708 Y61.88 E0.50381
G1 X66.11 Y61.03 E0.58083
G1 X68.397 Y60.148 E0.65493
G1 X70.749 Y59.163 E0.73202
G1 X73.057 Y58.117 E0.80862
G1 X75.319 Y57.017 E0.88466
G1 X77.535 Y55.858 E0.96026
G1 X79.736 Y54.627 E1.03649
G1 X81.895 Y53.338 E1.11251
G1 X84.039 Y51.975 E1.18931
G1 X86.091 Y50.587 E1.2642
G1 X88.151 Y49.107 E1.34088
G1 X90.166 Y47.57 E1.41749
G1 X92.116 Y45.995 E1.49327
G1 X94.027 Y44.361 E1.56927
G1 X95.878 Y42.683 E1.6448
G1 X97.71 Y40.926 E1.72154
G1 X99.487 Y39.123 E1.79806
G1 X101.19 Y37.295 E1.87359
G1 X102.851 Y35.407 E1.94961
G1 X104.511 Y33.408 E2.02816
G1 X105.158 Y32.608 E2.05926
G1 X105.778 Y31.904 E2.08762
G1 X106.456 Y31.256 E2.11597
G1 X107.187 Y30.668 E2.14433
G1 X107.965 Y30.145 E2.17267
G1 X108.473 Y29.852 E2.1904
G1 X109.465 Y29.316 E2.22448
G1 X110.157 Y28.955 E2.24808
G1 X111.007 Y28.557 E2.27645
G1 X111.887 Y28.233 E2.3048
G1 X112.791 Y27.985 E2.33314
G1 X113.713 Y27.815 E2.36148
G1 X115.071 Y27.709 E2.40266
G1 X115.938 Y27.697 E2.42887
G1 X137.542 Y27.696 E3.08196
G1 X138.403 Y27.707 E3.10799
G1 X139.34 Y27.76 E3.13636
G1 X140.268 Y27.893 E3.1647
G1 X141.182 Y28.105 E3.19307
G1 X142.074 Y28.393 E3.2214
G1 X142.939 Y28.757 E3.24977
G1 X143.769 Y29.193 E3.27811
G1 X144.559 Y29.698 E3.30646
G1 X145.304 Y30.268 E3.33482
G1 X145.997 Y30.9 E3.36317
G1 X146.799 Y31.787 E3.39932
G1 X147.688 Y32.888 E3.4421
G1 X147.775 Y32.988 E3.4461
G1 X147.946 Y33.204 E3.45443
G1 X149.554 Y35.121 E3.53007
G1 X151.25 Y37.03 E3.60727
G1 X152.953 Y38.843 E3.68246
G1 X154.754 Y40.651 E3.75961
G1 X156.549 Y42.356 E3.83445
G1 X158.433 Y44.046 E3.91096
G1 X160.355 Y45.674 E3.9871
G1 X162.34 Y47.262 E4.06395
G1 X164.336 Y48.769 E4.13955
G1 X166.39 Y50.23 E4.21575
G1 X168.468 Y51.62 E4.29133
G1 X170.613 Y52.969 E4.36793
G1 X172.759 Y54.235 E4.44325
G1 X174.995 Y55.472 E4.5205
G1 X177.218 Y56.62 E4.59613
G1 X179.477 Y57.707 E4.67192
G1 X181.768 Y58.73 E4.74777
G1 X184.119 Y59.702 E4.82467
G1 X186.473 Y60.598 E4.90081
G1 X188.844 Y61.423 E4.97671
G1 X191.23 Y62.179 E5.05237
G1 X193.4 Y62.805 E5.12064
G1 X193.814 Y62.919 E5.13362
G1 X194.706 Y63.208 E5.16197
G1 X195.571 Y63.571 E5.19033
G1 X196.401 Y64.007 E5.21867
G1 X197.192 Y64.511 E5.24702
G1 X197.936 Y65.082 E5.27537
G1 X198.63 Y65.713 E5.30373
G1 X199.267 Y66.402 E5.3321
G1 X199.843 Y67.142 E5.36044
G1 X200.323 Y67.877 E5.38698
G1 X200.723 Y68.548 E5.4106
G1 X211.583 Y87.36 E6.06725
G1 X211.985 Y88.08 E6.09217
G1 X212.407 Y88.918 E6.12054
G1 X212.756 Y89.788 E6.14888
G1 X213.029 Y90.686 E6.17725
G1 X213.225 Y91.603 E6.2056
G1 X213.342 Y92.533 E6.23393
G1 X213.379 Y93.471 E6.26231
G1 X213.336 Y94.407 E6.29064
G1 X213.214 Y95.337 E6.31899
G1 X213.013 Y96.253 E6.34734
G1 X212.846 Y96.822 E6.36527
G1 X212.39 Y98.232 E6.41006
G1 X212.28 Y98.566 E6.42069
G1 X211.549 Y100.973 E6.49674
G1 X210.879 Y103.424 E6.57355
G1 X210.272 Y105.917 E6.65112
G1 X209.763 Y108.311 E6.72511
G1 X209.303 Y110.814 E6.80204
G1 X208.918 Y113.299 E6.87806
G1 X208.605 Y115.782 E6.95371
G1 X208.361 Y118.291 E7.02992
G1 X208.188 Y120.803 E7.10604
G1 X208.086 Y123.326 E7.18237
G1 X208.055 Y125.818 E7.25771
G1 X208.097 Y128.381 E7.3352
G1 X208.206 Y130.854 E7.41003
G1 X208.391 Y133.384 E7.48672
G1 X208.643 Y135.873 E7.56234
G1 X208.972 Y138.409 E7.63965
G1 X209.362 Y140.86 E7.71468
G1 X209.824 Y143.322 E7.7904
G1 X210.359 Y145.783 E7.86654
G1 X210.964 Y148.238 E7.94297
G1 X211.036 Y148.513 E7.95157
G1 X211.234 Y149.429 E7.9799
G1 X211.353 Y150.36 E8.00827
G1 X211.387 Y151.618 E8.04631
G1 X211.37 Y152.122 E8.06156
G1 X211.326 Y153.09 E8.09085
G1 X211.305 Y153.665 E8.10824
G1 X211.231 Y154.6 E8.1366
G1 X211.077 Y155.526 E8.16498
G1 X210.845 Y156.434 E8.19331
G1 X210.537 Y157.32 E8.22166
G1 X210.098 Y158.287 E8.25377
G1 X210.001 Y158.476 E8.26019
G1 X209.805 Y158.841 E8.27271
G1 X209.582 Y159.236 E8.28642
G1 X200.235 Y175.423 E8.85148
G1 X199.875 Y176.026 E8.87271
G1 X199.36 Y176.81 E8.90107
G1 X198.781 Y177.547 E8.9294
G1 X198.14 Y178.232 E8.95776
G1 X197.444 Y178.861 E8.98612
G1 X196.697 Y179.427 E9.01445
G1 X195.667 Y180.06 E9.051
G1 X194.646 Y180.612 E9.08609
G1 X194.078 Y180.909 E9.10546
G1 X193.699 Y181.098 E9.11827
G1 X193.6 Y181.145 E9.12158
G1 X192.736 Y181.511 E9.14995
G1 X191.508 Y181.89 E9.1888
G1 X190.222 Y182.205 E9.22882
G1 X189.917 Y182.275 E9.23828
G1 X187.489 Y182.91 E9.31415
G1 X185.074 Y183.614 E9.39019
G1 X182.65 Y184.396 E9.46719
G1 X180.305 Y185.226 E9.54239
G1 X177.944 Y186.139 E9.61891
G1 X175.632 Y187.108 E9.69469
G1 X173.335 Y188.148 E9.77092
G1 X171.065 Y189.254 E9.84725
G1 X168.865 Y190.404 E9.9223
G1 X166.633 Y191.653 E9.99962
G1 X164.486 Y192.935 E10.07521
G1 X162.353 Y194.292 E10.15164
G1 X160.261 Y195.708 E10.228
G1 X158.241 Y197.16 E10.30321
G1 X156.226 Y198.696 E10.3798
G1 X154.264 Y200.28 E10.45603
G1 X152.379 Y201.896 E10.53109
G1 X150.484 Y203.613 E10.60839
G1 X148.679 Y205.345 E10.68401
G1 X146.912 Y207.139 E10.76013
G1 X145.198 Y208.98 E10.83617
G1 X143.508 Y210.902 E10.91354
G1 X142.122 Y212.57 E10.9791
G1 X141.949 Y212.774 E10.98719
G1 X141.825 Y212.916 E10.99289
G1 X141.178 Y213.596 E11.02126
G1 X140.476 Y214.218 E11.04962
G1 X139.724 Y214.778 E11.07796
G1 X138.776 Y215.354 E11.11149
G1 X137.787 Y215.888 E11.14547
G1 X137.188 Y216.201 E11.1659
G1 X136.84 Y216.375 E11.17766
G1 X136.748 Y216.419 E11.18075
G1 X135.885 Y216.788 E11.20912
G1 X134.995 Y217.081 E11.23744
G1 X134.082 Y217.298 E11.26581
G1 X133.154 Y217.435 E11.29417
G1 X132.162 Y217.495 E11.32421
G1 X131.316 Y217.506 E11.34979
G1 X109.55 Y217.506 E12.00778
G1 X108.865 Y217.496 E12.02849
G1 X107.929 Y217.442 E12.05683
G1 X107.001 Y217.309 E12.08517
G1 X106.087 Y217.097 E12.11354
G1 X105.195 Y216.808 E12.14188
G1 X104.33 Y216.444 E12.17025
G1 X103.621 Y216.078 E12.19437
G1 X103.582 Y216.056 E12.19573
G1 X102.786 Y215.561 E12.22406
G1 X102.035 Y214.999 E12.25242
G1 X101.334 Y214.376 E12.28077
G1 X100.632 Y213.63 E12.31174
G1 X100.106 Y213.016 E12.33618
G1 X98.353 Y211.025 E12.41637
G1 X96.647 Y209.197 E12.49196
G1 X94.885 Y207.411 E12.5678
G1 X93.056 Y205.66 E12.64434
G1 X91.182 Y203.965 E12.72073
G1 X89.285 Y202.345 E12.79614
G1 X87.32 Y200.759 E12.87248
G1 X85.339 Y199.252 E12.94773
G1 X83.262 Y197.762 E13.025
G1 X81.205 Y196.373 E13.10003
G1 X79.065 Y195.015 E13.17665
G1 X76.884 Y193.715 E13.25341
G1 X74.713 Y192.504 E13.32856
G1 X72.467 Y191.332 E13.40514
G1 X70.199 Y190.229 E13.48138
G1 X67.915 Y189.197 E13.55715
G1 X65.554 Y188.209 E13.63452
G1 X63.239 Y187.32 E13.70948
G1 X60.871 Y186.484 E13.7854
G1 X58.465 Y185.71 E13.8618
G1 X56.067 Y185.013 E13.93729
G1 X53.612 Y184.375 E14.01397
G1 X51.129 Y183.802 E14.09101
G1 X48.634 Y183.303 E14.16793
G1 X48.319 Y183.244 E14.17761
G1 X47.405 Y183.032 E14.20598
G1 X46.513 Y182.743 E14.23432
G1 X45.648 Y182.379 E14.26269
G1 X44.818 Y181.943 E14.29104
G1 X44.028 Y181.438 E14.31938
G1 X43.284 Y180.867 E14.34773
G1 X42.591 Y180.235 E14.37609
G1 X41.954 Y179.546 E14.40445
G1 X41.379 Y178.806 E14.43278
G1 X40.894 Y178.062 E14.45963
G1 X40.395 Y177.222 E14.48917
G1 X29.641 Y158.595 E15.13937
G1 X29.232 Y157.862 E15.16474
G1 X28.811 Y157.024 E15.19309
G1 X28.464 Y156.153 E15.22144
G1 X28.192 Y155.255 E15.2498
G1 X27.997 Y154.338 E15.27814
G1 X27.881 Y153.407 E15.3065
G1 X27.845 Y152.47 E15.33485
G1 X27.889 Y151.533 E15.36321
G1 X28.013 Y150.603 E15.39157
G1 X28.215 Y149.688 E15.4199
G1 X28.586 Y148.546 E15.4562
G1 X29.038 Y147.381 E15.49397
G1 X29.258 Y146.835 E15.51177
G1 X30.117 Y144.51 E15.5867
G1 X30.94 Y142.075 E15.6644
G1 X31.669 Y139.704 E15.73938
G1 X32.341 Y137.267 E15.8158
G1 X32.94 Y134.836 E15.89149
G1 X33.483 Y132.335 E15.96886
G1 X33.933 Y129.908 E16.04348
G1 X34.33 Y127.394 E16.12042
G1 X34.652 Y124.896 E16.19656
G1 X34.9 Y122.415 E16.27193
G1 X35.08 Y119.9 E16.34816
G1 X35.19 Y117.371 E16.42468
G1 X35.228 Y114.855 E16.50075
G1 X35.194 Y112.357 E16.57627
G1 X35.089 Y109.813 E16.65324
G1 X34.913 Y107.313 E16.729
G1 X34.668 Y104.814 E16.80491
G1 X34.348 Y102.302 E16.88146
G1 X33.966 Y99.855 E16.95633
G1 X33.55 Y97.61 E17.02535
G1 X33.479 Y97.198 E17.03799
G1 X33.359 Y96.268 E17.06634
G1 X33.325 Y95.017 E17.10417
G1 X33.346 Y94.324 E17.12513
G1 X33.407 Y92.916 E17.16773
G1 X33.421 Y92.685 E17.17473
G1 X33.518 Y91.752 E17.20309
G1 X33.693 Y90.83 E17.23146
G1 X33.947 Y89.927 E17.25981
G1 X34.277 Y89.049 E17.28817
G1 X34.799 Y87.983 E17.32405
G1 X35.221 Y87.23 E17.35014
G1 X44.457 Y71.238 E17.90842
G1 X44.833 Y70.607 E17.93062
G1 X45.347 Y69.823 E17.95896
G1 X45.926 Y69.085 E17.98732
G1 X46.566 Y68.399 E18.01568
G1 X47.262 Y67.77 E18.04404
G1 X48.009 Y67.203 E18.07239
M204 S500
G0 F7500 X48.306 Y67.483
M204 S550
G1 F1500 X49.24 Y66.915 E18.10544
G1 X50.19 Y66.402 E18.13808
G1 X50.821 Y66.072 E18.1596
G1 X51.204 Y65.881 E18.17254
G1 X51.295 Y65.838 E18.17558
G1 X52.144 Y65.481 E18.20342
G1 X53.02 Y65.199 E18.23124
G1 X53.559 Y65.067 E18.24802
G1 X53.952 Y64.981 E18.26018
G1 X56.584 Y64.374 E18.34184
G1 X58.986 Y63.746 E18.41689
G1 X61.458 Y63.027 E18.49471
G1 X63.816 Y62.266 E18.56962
G1 X66.25 Y61.405 E18.64767
G1 X68.547 Y60.518 E18.7221
G1 X70.931 Y59.52 E18.80023
G1 X73.218 Y58.484 E18.87613
G1 X75.473 Y57.387 E18.95194
G1 X77.737 Y56.204 E19.02916
G1 X79.93 Y54.977 E19.10512
G1 X82.119 Y53.669 E19.18221
G1 X84.247 Y52.317 E19.25843
G1 X86.344 Y50.899 E19.33495
G1 X88.382 Y49.434 E19.41083
G1 X90.397 Y47.897 E19.48744
G1 X92.382 Y46.294 E19.56457
G1 X94.275 Y44.675 E19.63987
G1 X96.177 Y42.951 E19.71747
G1 X97.989 Y41.213 E19.79337
G1 X99.747 Y39.43 E19.86907
G1 X101.499 Y37.549 E19.94678
G1 X103.157 Y35.663 E20.02269
G1 X104.817 Y33.666 E20.10119
G1 X105.469 Y32.859 E20.13255
G1 X106.079 Y32.169 E20.1604
G1 X106.746 Y31.535 E20.18821
G1 X107.465 Y30.961 E20.21603
G1 X108.232 Y30.451 E20.24387
G1 X108.663 Y30.204 E20.25889
G1 X109.65 Y29.671 E20.2928
G1 X110.342 Y29.31 E20.31639
G1 X111.176 Y28.92 E20.34423
G1 X112.041 Y28.604 E20.37206
G1 X112.93 Y28.364 E20.3999
G1 X113.836 Y28.202 E20.42772
G1 X115.077 Y28.109 E20.46534
G1 X115.939 Y28.097 E20.49141
G1 X137.543 Y28.096 E21.1445
G1 X138.398 Y28.107 E21.17035
G1 X139.317 Y28.16 E21.19817
G1 X140.228 Y28.293 E21.22601
G1 X141.124 Y28.504 E21.25383
G1 X141.998 Y28.792 E21.28165
G1 X142.844 Y29.155 E21.30948
G1 X143.656 Y29.59 E21.33733
G1 X144.426 Y30.094 E21.36515
G1 X145.15 Y30.662 E21.39297
G1 X145.822 Y31.292 E21.42081
G1 X146.488 Y32.039 E21.45107
G1 X147.358 Y33.114 E21.49287
G1 X147.461 Y33.236 E21.4977
G1 X147.625 Y33.443 E21.50568
G1 X149.265 Y35.398 E21.58282
G1 X150.96 Y37.306 E21.65998
G1 X152.677 Y39.134 E21.73579
G1 X154.442 Y40.906 E21.8114
G1 X156.29 Y42.661 E21.88844
G1 X158.19 Y44.366 E21.96561
G1 X160.092 Y45.976 E22.04095
G1 X162.072 Y47.561 E22.11762
G1 X164.093 Y49.086 E22.19415
G1 X166.158 Y50.555 E22.27076
G1 X168.279 Y51.974 E22.34791
G1 X170.377 Y53.294 E22.42284
G1 X172.568 Y54.587 E22.49975
G1 X174.797 Y55.819 E22.57674
G1 X177.04 Y56.977 E22.65305
G1 X179.32 Y58.074 E22.72953
G1 X181.631 Y59.107 E22.80606
G1 X183.96 Y60.069 E22.88223
G1 X186.347 Y60.979 E22.95946
G1 X188.696 Y61.795 E23.03463
G1 X191.148 Y62.572 E23.11239
G1 X193.28 Y63.187 E23.17947
G1 X193.707 Y63.305 E23.19286
G1 X194.583 Y63.588 E23.22069
G1 X195.431 Y63.947 E23.24853
G1 X196.245 Y64.378 E23.27637
G1 X197.018 Y64.878 E23.3042
G1 X197.744 Y65.443 E23.33201
G1 X198.42 Y66.069 E23.35986
G1 X199.038 Y66.751 E23.38769
G1 X199.594 Y67.485 E23.41552
G1 X199.98 Y68.083 E23.43704
G1 X200.376 Y68.748 E23.46044
G1 X211.313 Y87.696 E24.12181
G1 X211.636 Y88.275 E24.14185
G1 X212.049 Y89.098 E24.16969
G1 X212.389 Y89.953 E24.1975
G1 X212.654 Y90.835 E24.22534
G1 X212.841 Y91.736 E24.25316
G1 X212.95 Y92.651 E24.28102
G1 X212.978 Y93.571 E24.30884
G1 X212.927 Y94.49 E24.33667
G1 X212.796 Y95.401 E24.36449
G1 X212.465 Y96.699 E24.40498
G1 X212.01 Y98.106 E24.44969
G1 X211.9 Y98.439 E24.46029
G1 X211.163 Y100.866 E24.53696
G1 X210.49 Y103.329 E24.61415
G1 X209.885 Y105.811 E24.69138
G1 X209.373 Y108.22 E24.76583
G1 X208.908 Y110.752 E24.84365
G1 X208.525 Y113.224 E24.91927
G1 X208.205 Y115.764 E24.99667
G1 X207.962 Y118.258 E25.07242
G1 X207.787 Y120.797 E25.14935
G1 X207.686 Y123.304 E25.2252
G1 X207.655 Y125.82 E25.30127
G1 X207.697 Y128.37 E25.37836
G1 X207.809 Y130.9 E25.45492
G1 X207.993 Y133.421 E25.53133
G1 X208.246 Y135.924 E25.60738
G1 X208.575 Y138.457 E25.6846
G1 X208.967 Y140.925 E25.76014
G1 X209.434 Y143.409 E25.83655
G1 X209.972 Y145.884 E25.91312
G1 X210.559 Y148.266 E25.98728
G1 X210.649 Y148.613 E25.99812
G1 X210.843 Y149.514 E26.02598
G1 X210.957 Y150.427 E26.05379
G1 X210.987 Y151.606 E26.08945
G1 X210.971 Y152.104 E26.10451
G1 X210.922 Y153.174 E26.13689
G1 X210.905 Y153.651 E26.15132
G1 X210.831 Y154.569 E26.17916
G1 X210.679 Y155.476 E26.20696
G1 X210.447 Y156.368 E26.23482
G1 X210.14 Y157.235 E26.26263
G1 X209.743 Y158.104 E26.29151
G1 X209.646 Y158.293 E26.29793
G1 X209.456 Y158.645 E26.31002
G1 X209.236 Y159.036 E26.32359
G1 X199.891 Y175.218 E26.88848
G1 X199.531 Y175.821 E26.90971
G1 X199.026 Y176.59 E26.93752
G1 X198.455 Y177.312 E26.96535
G1 X197.824 Y177.983 E26.99319
G1 X197.137 Y178.596 E27.02103
G1 X196.399 Y179.147 E27.04887
G1 X195.477 Y179.708 E27.0815
G1 X194.461 Y180.257 E27.11641
G1 X193.893 Y180.554 E27.13578
G1 X193.527 Y180.737 E27.14815
G1 X193.428 Y180.784 E27.15147
G1 X192.58 Y181.142 E27.17929
G1 X191.412 Y181.502 E27.21624
G1 X190.277 Y181.781 E27.25157
G1 X189.832 Y181.884 E27.26538
G1 X187.381 Y182.524 E27.34196
G1 X184.944 Y183.236 E27.41871
G1 X182.53 Y184.014 E27.49538
G1 X180.176 Y184.847 E27.57087
G1 X177.794 Y185.768 E27.64807
G1 X175.449 Y186.751 E27.72494
G1 X173.175 Y187.781 E27.8004
G1 X170.898 Y188.89 E27.87697
G1 X168.649 Y190.066 E27.95369
G1 X166.427 Y191.31 E28.03067
G1 X164.271 Y192.596 E28.10656
G1 X162.16 Y193.94 E28.18221
G1 X160.05 Y195.369 E28.25925
G1 X157.971 Y196.862 E28.33663
G1 X155.995 Y198.369 E28.41175
G1 X154.019 Y199.965 E28.48854
G1 X152.075 Y201.631 E28.56593
G1 X150.221 Y203.311 E28.64157
G1 X148.399 Y205.058 E28.71787
G1 X146.617 Y206.868 E28.79466
G1 X144.888 Y208.726 E28.87138
G1 X143.25 Y210.589 E28.94637
G1 X141.815 Y212.315 E29.01423
G1 X141.523 Y212.653 E29.02773
G1 X140.888 Y213.32 E29.05557
G1 X140.198 Y213.929 E29.08339
G1 X139.457 Y214.475 E29.11122
G1 X138.585 Y215.003 E29.14203
G1 X137.602 Y215.534 E29.17581
G1 X137.003 Y215.847 E29.19624
G1 X136.575 Y216.059 E29.21068
G1 X135.728 Y216.419 E29.2385
G1 X134.853 Y216.705 E29.26633
G1 X133.957 Y216.914 E29.29414
G1 X133.045 Y217.045 E29.322
G1 X132.156 Y217.095 E29.34891
G1 X131.315 Y217.106 E29.37434
G1 X109.556 Y217.106 E30.03212
G1 X108.871 Y217.096 E30.05283
G1 X107.952 Y217.042 E30.08066
G1 X107.041 Y216.91 E30.10848
G1 X106.145 Y216.698 E30.13632
G1 X105.271 Y216.41 E30.16414
G1 X104.425 Y216.046 E30.19198
G1 X103.779 Y215.707 E30.21403
G1 X102.998 Y215.221 E30.24184
G1 X102.261 Y214.668 E30.26969
G1 X101.576 Y214.053 E30.29752
