;FLAVOR:Marlin
;TIME:6999
;Filament used: 4.9528m
;Layer height: 0.2
;MINX:80.25
;MINY:86.5
;MINZ:0.2
;MAXX:154.75
;MAXY:148.5
;MAXZ:37.4
;Generated with Cura_SteamEngine master
M140 S60
M105
M190 S60
M104 S200
M105
M109 S200
M82 ;absolute extrusion mode
; Ender 3 Custom Start G-code
G92 E0 ; Reset Extruder
G28 ; Home all axes
G1 Z2.0 F3000 ; Move Z Axis up little to prevent scratching of Heat Bed
G1 X0.1 Y20 Z0.3 F5000.0 ; Move to start position
G1 X0.1 Y200.0 Z0.3 F1500.0 E15 ; Draw the first line
G1 X0.4 Y200.0 Z0.3 F5000.0 ; Move to side a little
G1 X0.4 Y20 Z0.3 F1500.0 E30 ; Draw the second line
G92 E0 ; Reset Extruder
G1 Z2.0 F3000 ; Move Z Axis up little to prevent scratching of Heat Bed
G1 X5 Y20 Z0.3 F5000.0 ; Move over to prevent blob squish
G92 E0
G92 E0
G1 F1500 E-6.5
;LAYER_COUNT:187
;LAYER:0
M107
G0 F6000 X84.888 Y110.941 Z0.2
;TYPE:SKIRT
G1 F1500 E0
G1 F1200 X85.675 Y110.431 E0.03119
G1 X86.503 Y109.99 E0.06239
G1 X87.365 Y109.621 E0.09358
G1 X88.163 Y109.353 E0.12158
G1 X88.499 Y109.254 E0.13323
G1 X91.031 Y108.477 E0.22132
G1 X93.387 Y107.68 E0.30404
G1 X95.77 Y106.799 E0.38854
G1 X98.093 Y105.863 E0.47184
G1 X100.393 Y104.86 E0.5553
G1 X102.686 Y103.784 E0.63954
G1 X104.916 Y102.658 E0.72263
G1 X107.145 Y101.452 E0.80693
G1 X109.297 Y100.208 E0.8896
G1 X111.474 Y98.867 E0.97464
G1 X113.567 Y97.494 E1.0579
G1 X115.623 Y96.059 E1.14129
G1 X117.659 Y94.552 E1.22554
G1 X119.639 Y92.998 E1.30926
G1 X121.553 Y91.406 E1.39206
G1 X123.521 Y89.673 E1.47928
G1 X123.868 Y89.358 E1.49486
G1 X124.59 Y88.759 E1.52606
G1 X125.359 Y88.223 E1.55724
G1 X126.172 Y87.754 E1.58846
G1 X127.021 Y87.357 E1.61963
G1 X127.902 Y87.033 E1.65085
G1 X128.806 Y86.786 E1.68202
G1 X129.729 Y86.616 E1.71324
G1 X130.917 Y86.515 E1.75289
G1 X131.243 Y86.505 E1.76374
G1 X131.58 Y86.5 E1.77495
G1 X132.541 Y86.5 E1.80691
G1 X134.711 Y86.508 E1.87909
G1 X135.753 Y86.5 E1.91375
G1 X137.2 Y86.501 E1.96187
G1 X137.902 Y86.511 E1.98522
G1 X138.838 Y86.564 E2.01641
G1 X139.766 Y86.697 E2.04759
G1 X140.68 Y86.909 E2.07879
G1 X141.573 Y87.197 E2.11
G1 X142.437 Y87.561 E2.14118
G1 X143.268 Y87.997 E2.1724
G1 X144.058 Y88.502 E2.20358
G1 X144.802 Y89.072 E2.23476
G1 X145.495 Y89.704 E2.26595
G1 X146.302 Y90.598 E2.30601
G1 X146.62 Y90.993 E2.32287
G1 X147.822 Y92.522 E2.38756
G1 X149.436 Y94.462 E2.4715
G1 X151.543 Y96.838 E2.57712
G1 X151.862 Y97.187 E2.59285
G1 X152.464 Y97.905 E2.62401
G1 X153.003 Y98.673 E2.65522
G1 X153.475 Y99.484 E2.68643
G1 X153.876 Y100.331 E2.7176
G1 X154.203 Y101.21 E2.74879
G1 X154.454 Y102.114 E2.77999
G1 X154.627 Y103.036 E2.81119
G1 X154.734 Y104.234 E2.8512
G1 X154.744 Y104.619 E2.86401
G1 X154.75 Y105.162 E2.88207
G1 X154.749 Y109.861 E3.03836
G1 X154.738 Y110.583 E3.06238
G1 X154.721 Y111.037 E3.07749
G1 X154.571 Y113.677 E3.16543
G1 X154.499 Y116.236 E3.25058
G1 X154.499 Y118.724 E3.33333
G1 X154.572 Y121.303 E3.41914
G1 X154.671 Y123.165 E3.48116
G1 X154.717 Y123.875 E3.50483
G1 X154.735 Y124.257 E3.51755
G1 X154.744 Y124.618 E3.52956
G1 X154.75 Y125.161 E3.54762
G1 X154.749 Y129.849 E3.70354
G1 X154.739 Y130.554 E3.72699
G1 X154.686 Y131.49 E3.75817
G1 X154.553 Y132.419 E3.78939
G1 X154.341 Y133.333 E3.82059
G1 X154.053 Y134.225 E3.85177
G1 X153.689 Y135.089 E3.88295
G1 X153.254 Y135.92 E3.91415
G1 X152.749 Y136.71 E3.94534
G1 X151.9 Y137.774 E3.99061
G1 X150.249 Y139.6 E4.07249
G1 X148.598 Y141.533 E4.15704
G1 X146.956 Y143.569 E4.24403
G1 X146.4 Y144.278 E4.274
G1 X145.791 Y144.99 E4.30516
G1 X145.122 Y145.648 E4.33637
G1 X144.4 Y146.247 E4.36758
G1 X143.63 Y146.782 E4.39876
G1 X142.817 Y147.25 E4.42996
G1 X141.967 Y147.646 E4.46115
G1 X140.76 Y148.068 E4.50368
G1 X139.848 Y148.287 E4.53487
G1 X138.921 Y148.427 E4.56606
G1 X138.049 Y148.487 E4.59513
G1 X137.731 Y148.496 E4.60571
G1 X137.42 Y148.5 E4.61605
G1 X131.795 Y148.499 E4.80314
G1 X131.117 Y148.489 E4.82569
G1 X130.18 Y148.435 E4.85691
G1 X129.234 Y148.298 E4.8887
G1 X129.197 Y148.291 E4.88995
G1 X128.284 Y148.078 E4.92114
G1 X127.413 Y147.795 E4.9516
G1 X126.499 Y147.454 E4.98404
G1 X87.891 Y132.397 E6.36235
G1 X87.107 Y132.078 E6.3905
G1 X86.255 Y131.687 E6.42168
G1 X85.439 Y131.224 E6.45289
G1 X84.666 Y130.694 E6.48406
G1 X83.94 Y130.099 E6.51528
G1 X83.268 Y129.445 E6.54647
G1 X82.654 Y128.736 E6.57766
G1 X82.103 Y127.977 E6.60886
G1 X81.618 Y127.174 E6.64006
G1 X81.204 Y126.333 E6.67124
G1 X80.862 Y125.46 E6.70242
G1 X80.597 Y124.56 E6.73363
G1 X80.408 Y123.641 E6.76483
G1 X80.299 Y122.71 E6.79601
G1 X80.271 Y122.104 E6.81619
G1 X80.252 Y121.097 E6.84968
G1 X80.25 Y120.581 E6.86685
G1 X80.261 Y119.745 E6.89465
G1 X80.315 Y118.808 E6.92587
G1 X80.449 Y117.88 E6.95706
G1 X80.661 Y116.966 E6.98826
G1 X80.95 Y116.074 E7.01945
G1 X81.314 Y115.21 E7.05063
G1 X81.75 Y114.38 E7.08182
G1 X82.256 Y113.59 E7.11302
G1 X82.827 Y112.846 E7.14421
G1 X83.459 Y112.153 E7.17541
G1 X84.148 Y111.517 E7.20659
G1 X84.888 Y110.941 E7.23778
G0 F6000 X85.273 Y111.161
G1 F1200 X86.054 Y110.674 E7.2684
G1 X86.875 Y110.257 E7.29902
G1 X87.729 Y109.913 E7.32965
G1 X88.276 Y109.737 E7.34876
G1 X88.652 Y109.627 E7.36179
G1 X91.129 Y108.866 E7.44797
G1 X93.505 Y108.063 E7.53139
G1 X95.922 Y107.169 E7.6171
G1 X98.236 Y106.236 E7.70009
G1 X100.56 Y105.224 E7.78439
G1 X102.885 Y104.132 E7.86983
G1 X105.093 Y103.017 E7.9521
G1 X107.356 Y101.793 E8.03767
G1 X109.502 Y100.553 E8.12011
G1 X111.681 Y99.21 E8.20524
G1 X113.786 Y97.829 E8.28897
G1 X115.868 Y96.376 E8.37342
G1 X117.876 Y94.89 E8.4565
G1 X119.9 Y93.301 E8.54209
G1 X121.845 Y91.683 E8.62624
G1 X123.771 Y89.987 E8.71159
G1 X124.137 Y89.655 E8.72803
G1 X124.845 Y89.067 E8.75864
G1 X125.602 Y88.542 E8.78928
G1 X126.402 Y88.086 E8.81991
G1 X127.238 Y87.7 E8.85053
G1 X128.104 Y87.389 E8.88114
G1 X128.994 Y87.154 E8.91175
G1 X129.901 Y86.997 E8.94237
G1 X130.929 Y86.915 E8.97667
G1 X131.255 Y86.905 E8.98752
G1 X131.58 Y86.9 E8.99833
G1 X132.54 Y86.9 E9.03026
G1 X134.713 Y86.908 E9.10253
G1 X135.756 Y86.9 E9.13722
G1 X137.194 Y86.901 E9.18505
G1 X137.896 Y86.911 E9.2084
G1 X138.815 Y86.964 E9.23902
G1 X139.726 Y87.097 E9.26964
G1 X140.622 Y87.308 E9.30026
G1 X141.497 Y87.596 E9.3309
G1 X142.343 Y87.959 E9.36151
G1 X143.154 Y88.394 E9.39212
G1 X143.925 Y88.898 E9.42276
G1 X144.649 Y89.466 E9.45337
G1 X145.321 Y90.096 E9.484
G1 X145.991 Y90.849 E9.51753
G1 X146.305 Y91.24 E9.53421
G1 X147.515 Y92.779 E9.59932
G1 X149.123 Y94.712 E9.68295
G1 X151.232 Y97.09 E9.78867
G1 X151.567 Y97.456 E9.80517
G1 X152.157 Y98.162 E9.83577
G1 X152.685 Y98.917 E9.86641
G1 X153.145 Y99.715 E9.89705
G1 X153.533 Y100.549 E9.92764
G1 X153.848 Y101.414 E9.95826
G1 X154.087 Y102.304 E9.98891
G1 X154.248 Y103.21 E10.01952
G1 X154.334 Y104.247 E10.05413
G1 X154.344 Y104.623 E10.06664
G1 X154.35 Y105.162 E10.08456
G1 X154.349 Y109.854 E10.24062
G1 X154.338 Y110.576 E10.26464
G1 X154.322 Y111.015 E10.27925
G1 X154.171 Y113.677 E10.36793
G1 X154.099 Y116.225 E10.45271
G1 X154.099 Y118.735 E10.53619
G1 X154.171 Y121.297 E10.62144
G1 X154.275 Y123.243 E10.68626
G1 X154.318 Y123.901 E10.70819
G1 X154.335 Y124.269 E10.72044
G1 X154.344 Y124.623 E10.73222
G1 X154.35 Y125.161 E10.75011
G1 X154.349 Y129.843 E10.90584
G1 X154.339 Y130.548 E10.92929
G1 X154.286 Y131.467 E10.95991
G1 X154.153 Y132.379 E10.99056
G1 X153.942 Y133.275 E11.02118
G1 X153.654 Y134.149 E11.05178
G1 X153.291 Y134.995 E11.0824
G1 X152.856 Y135.807 E11.11304
G1 X152.353 Y136.577 E11.14363
G1 X151.604 Y137.506 E11.18332
G1 X149.932 Y139.356 E11.26626
G1 X148.298 Y141.268 E11.34991
G1 X146.65 Y143.312 E11.43724
G1 X146.086 Y144.031 E11.46763
G1 X145.486 Y144.73 E11.49827
G1 X144.829 Y145.374 E11.52887
G1 X144.118 Y145.959 E11.55949
G1 X143.359 Y146.48 E11.59011
G1 X142.558 Y146.934 E11.62074
G1 X141.72 Y147.315 E11.65135
G1 X140.65 Y147.683 E11.68899
G1 X139.755 Y147.897 E11.7196
G1 X138.844 Y148.033 E11.75023
G1 X138.038 Y148.087 E11.7771
G1 X137.72 Y148.096 E11.78768
G1 X137.42 Y148.1 E11.79766
G1 X131.801 Y148.099 E11.98455
G1 X131.123 Y148.089 E12.0071
G1 X130.204 Y148.035 E12.03772
G1 X129.309 Y147.905 E12.0678
G1 X129.272 Y147.898 E12.06905
G1 X128.375 Y147.688 E12.09969
G1 X127.552 Y147.42 E12.12848
G1 X126.645 Y147.082 E12.16067
G1 X88.037 Y132.025 E13.53898
G1 X87.259 Y131.708 E13.56692
G1 X86.422 Y131.323 E13.59757
G1 X85.623 Y130.867 E13.62816
G1 X84.865 Y130.343 E13.65881
G1 X84.157 Y129.756 E13.6894
G1 X83.501 Y129.109 E13.72005
G1 X82.905 Y128.408 E13.75065
G1 X82.371 Y127.657 E13.7813
G1 X81.905 Y126.864 E13.81189
G1 X81.509 Y126.032 E13.84254
G1 X81.187 Y125.17 E13.87314
G1 X80.941 Y124.283 E13.90376
G1 X80.773 Y123.377 E13.93441
G1 X80.671 Y122.096 E13.97715
G1 X80.652 Y121.089 E14.01065
G1 X80.65 Y120.581 E14.02754
G1 X80.661 Y119.751 E14.05515
G1 X80.715 Y118.831 E14.0858
G1 X80.848 Y117.92 E14.11642
G1 X81.06 Y117.024 E14.14705
G1 X81.348 Y116.15 E14.17766
G1 X81.712 Y115.304 E14.20829
G1 X82.147 Y114.493 E14.2389
G1 X82.652 Y113.723 E14.26952
G1 X83.221 Y112.999 E14.30015
G1 X83.851 Y112.328 E14.33076
G1 X84.536 Y111.713 E14.36138
G1 X85.273 Y111.161 E14.39201
G0 F6000 X85.656 Y111.385
G1 F1200 X86.432 Y110.923 E14.42205
G1 X87.245 Y110.531 E14.45207
G1 X88.388 Y110.121 E14.49245
G1 X88.73 Y110.021 E14.5043
G1 X91.269 Y109.241 E14.59265
G1 X93.667 Y108.43 E14.67684
G1 X96.043 Y107.551 E14.7611
G1 X98.392 Y106.605 E14.84533
G1 X100.723 Y105.588 E14.92992
G1 X103.056 Y104.494 E15.01562
G1 X105.3 Y103.36 E15.09924
G1 X107.525 Y102.156 E15.18339
G1 X109.706 Y100.897 E15.26715
G1 X111.889 Y99.551 E15.35245
G1 X114.028 Y98.148 E15.43753
G1 X116.089 Y96.71 E15.52111
G1 X118.138 Y95.193 E15.60591
G1 X120.136 Y93.624 E15.6904
G1 X122.102 Y91.989 E15.77545
G1 X124.02 Y90.3 E15.86045
G1 X124.405 Y89.951 E15.87774
G1 X125.101 Y89.375 E15.90778
G1 X125.845 Y88.863 E15.93782
G1 X126.631 Y88.418 E15.96786
G1 X127.453 Y88.045 E15.99789
G1 X128.305 Y87.746 E16.02792
G1 X129.18 Y87.523 E16.05795
G1 X130.072 Y87.379 E16.088
G1 X130.941 Y87.315 E16.11699
G1 X131.267 Y87.305 E16.12783
G1 X131.58 Y87.3 E16.13825
G1 X132.538 Y87.3 E16.17011
G1 X134.714 Y87.308 E16.24248
G1 X135.759 Y87.3 E16.27724
G1 X137.188 Y87.301 E16.32477
G1 X137.89 Y87.311 E16.34812
G1 X138.792 Y87.364 E16.37817
G1 X139.685 Y87.496 E16.4082
G1 X140.563 Y87.707 E16.43823
G1 X141.419 Y87.995 E16.46827
G1 X142.247 Y88.357 E16.49833
G1 X143.039 Y88.791 E16.52836
G1 X143.789 Y89.294 E16.5584
G1 X144.492 Y89.86 E16.58842
G1 X145.142 Y90.487 E16.61846
G1 X145.679 Y91.1 E16.64556
G1 X145.991 Y91.487 E16.66209
G1 X147.209 Y93.037 E16.72766
G1 X148.816 Y94.968 E16.81122
G1 X150.986 Y97.414 E16.91997
G1 X151.271 Y97.726 E16.93403
G1 X151.85 Y98.419 E16.96406
G1 X152.366 Y99.161 E16.99412
G1 X152.813 Y99.945 E17.02414
G1 X153.19 Y100.766 E17.05419
G1 X153.493 Y101.617 E17.08423
G1 X153.719 Y102.491 E17.11426
G1 X153.866 Y103.382 E17.14429
G1 X153.934 Y104.261 E17.17362
G1 X153.944 Y104.628 E17.18583
G1 X153.95 Y105.162 E17.20359
G1 X153.949 Y109.848 E17.35945
G1 X153.938 Y110.57 E17.38346
G1 X153.923 Y110.992 E17.39751
G1 X153.771 Y113.677 E17.48695
G1 X153.699 Y116.214 E17.57137
G1 X153.699 Y118.747 E17.65562
G1 X153.772 Y121.329 E17.74153
G1 X153.873 Y123.217 E17.80441
G1 X153.919 Y123.927 E17.82808
G1 X153.935 Y124.281 E17.83986
G1 X153.944 Y124.628 E17.85141
G1 X153.95 Y125.161 E17.86914
G1 X153.949 Y129.838 E18.0247
G1 X153.939 Y130.543 E18.04815
G1 X153.886 Y131.444 E18.07816
G1 X153.754 Y132.338 E18.10822
G1 X153.543 Y133.216 E18.13826
G1 X153.255 Y134.072 E18.16829
G1 X152.893 Y134.899 E18.19832
G1 X152.459 Y135.691 E18.22836
G1 X151.957 Y136.442 E18.2584
G1 X151.307 Y137.238 E18.29258
G1 X149.632 Y139.091 E18.37566
G1 X147.981 Y141.023 E18.46019
G1 X146.343 Y143.054 E18.54697
G1 X145.771 Y143.784 E18.57782
G1 X145.183 Y144.469 E18.60784
G1 X144.536 Y145.1 E18.6379
G1 X143.836 Y145.671 E18.66795
G1 X143.089 Y146.177 E18.69796
G1 X142.299 Y146.616 E18.72802
G1 X141.474 Y146.983 E18.75805
G1 X140.54 Y147.299 E18.79084
G1 X139.662 Y147.508 E18.82086
G1 X138.768 Y147.639 E18.85091
G1 X138.027 Y147.687 E18.87561
G1 X137.709 Y147.696 E18.88619
G1 X137.42 Y147.7 E18.8958
G1 X131.807 Y147.699 E19.08249
G1 X131.129 Y147.689 E19.10505
G1 X130.227 Y147.636 E19.1351
G1 X129.383 Y147.512 E19.16347
G1 X129.346 Y147.505 E19.16472
G1 X128.467 Y147.298 E19.19476
G1 X127.691 Y147.045 E19.22191
G1 X126.79 Y146.709 E19.25389
G1 X88.029 Y131.591 E20.63767
G1 X87.41 Y131.338 E20.65992
G1 X86.59 Y130.959 E20.68996
G1 X85.807 Y130.51 E20.71998
G1 X85.066 Y129.993 E20.75003
G1 X84.374 Y129.413 E20.78007
G1 X83.736 Y128.773 E20.81012
G1 X83.157 Y128.08 E20.84016
G1 X82.642 Y127.338 E20.8702
G1 X82.195 Y126.554 E20.90021
G1 X81.818 Y125.733 E20.93026
G1 X81.516 Y124.882 E20.9603
G1 X81.29 Y124.008 E20.99032
G1 X81.142 Y123.117 E21.02036
G1 X81.071 Y122.088 E21.05467
G1 X81.05 Y120.889 E21.09455
G1 X81.051 Y120.429 E21.10985
G1 X81.061 Y119.756 E21.13224
G1 X81.115 Y118.855 E21.16226
G1 X81.247 Y117.962 E21.19229
G1 X81.459 Y117.084 E21.22233
G1 X81.747 Y116.228 E21.25237
G1 X82.11 Y115.401 E21.2824
G1 X82.544 Y114.609 E21.31244
G1 X83.047 Y113.859 E21.34248
G1 X83.615 Y113.156 E21.37254
G1 X84.242 Y112.506 E21.40258
G1 X84.924 Y111.915 E21.43259
G1 X85.656 Y111.385 E21.46265
G1 F1500 E14.96265
;MESH:OctoPrint_Pi_Mount.stl
G0 F6000 X91.67 Y119.235
G0 X91.67 Y120.32
G0 X92.027 Y121.368
G0 X131.363 Y136.9
;TYPE:WALL-INNER
G1 F1500 E21.46265
G1 F1200 X91.85 Y121.49 E22.87327
G1 X91.85 Y120.5 E22.90619
G1 X130.499 Y120.5 E24.19166
G1 X131.85 Y119.149 E24.25521
G1 X131.85 Y98.1 E24.9553
G1 X132.65 Y98.1 E24.98191
G1 X132.65 Y120.5 E25.72694
G1 X136.1 Y120.5 E25.84169
G1 X136.1 Y98.1 E26.58671
G1 X137.15 Y98.1 E26.62164
G1 X137.15 Y103.249 E26.79289
G1 X139.301 Y105.4 E26.89407
G1 X140.4 Y105.4 E26.93062
G1 X140.4 Y102.9 E27.01377
G1 X141.202 Y102.9 E27.04045
G1 X143.15 Y104.848 E27.13208
G1 X143.15 Y110.152 E27.30849
G1 X141.202 Y112.1 E27.40012
G1 X140.4 Y112.1 E27.42679
G1 X140.4 Y109.6 E27.50994
G1 X139.301 Y109.6 E27.54649
G1 X137.15 Y111.751 E27.64767
G1 X137.15 Y123.249 E28.03009
G1 X139.301 Y125.4 E28.13127
G1 X140.4 Y125.4 E28.16782
G1 X140.4 Y122.9 E28.25097
G1 X141.202 Y122.9 E28.27765
G1 X143.15 Y124.848 E28.36928
G1 X143.15 Y130.152 E28.54569
G1 X141.202 Y132.1 E28.63732
G1 X140.4 Y132.1 E28.66399
G1 X140.4 Y129.6 E28.74714
G1 X139.301 Y129.6 E28.78369
G1 X137.15 Y131.751 E28.88487
G1 X137.15 Y136.9 E29.05613
G1 X131.363 Y136.9 E29.2486
G0 F6000 X131.287 Y137.3
;TYPE:WALL-OUTER
G1 F1200 X91.45 Y121.764 E30.67078
G1 X91.45 Y120.1 E30.72613
G1 X130.333 Y120.1 E32.01938
G1 X131.45 Y118.983 E32.07192
G1 X131.45 Y97.7 E32.7798
G1 X133.05 Y97.7 E32.83301
G1 X133.05 Y120.1 E33.57804
G1 X135.7 Y120.1 E33.66618
G1 X135.7 Y97.7 E34.41121
G1 X137.55 Y97.7 E34.47274
G1 X137.55 Y103.083 E34.65178
G1 X139.467 Y105 E34.74195
G1 X140 Y105 E34.75967
G1 X140 Y102.5 E34.84282
G1 X141.368 Y102.5 E34.88832
G1 X143.55 Y104.682 E34.99096
G1 X143.55 Y110.318 E35.17841
G1 X141.368 Y112.5 E35.28105
G1 X140 Y112.5 E35.32655
G1 X140 Y110 E35.4097
G1 X139.467 Y110 E35.42743
G1 X137.55 Y111.917 E35.5176
G1 X137.55 Y123.083 E35.88898
G1 X139.467 Y125 E35.97915
G1 X140 Y125 E35.99688
G1 X140 Y122.5 E36.08003
G1 X141.368 Y122.5 E36.12553
G1 X143.55 Y124.682 E36.22816
G1 X143.55 Y130.318 E36.41561
G1 X141.368 Y132.5 E36.51825
G1 X140 Y132.5 E36.56375
G1 X140 Y130 E36.6469
G1 X139.467 Y130 E36.66463
G1 X137.55 Y131.917 E36.7548
G1 X137.55 Y137.3 E36.93384
G1 X131.287 Y137.3 E37.14214
G0 F6000 X131.368 Y136.868
G0 X131.436 Y136.51
;TYPE:SKIN
G1 F1200 X92.24 Y121.224 E38.54144
G1 X92.24 Y120.89 E38.55255
G1 X130.661 Y120.89 E39.83044
G1 X132.24 Y119.311 E39.90471
G1 X132.24 Y98.49 E40.59722
G1 X132.26 Y98.49 E40.59788
G1 X132.26 Y120.89 E41.34291
G1 X136.49 Y120.89 E41.4836
G1 X136.49 Y98.49 E42.22863
G1 X136.76 Y98.49 E42.23761
G1 X136.76 Y103.411 E42.40128
G1 X139.139 Y105.79 E42.51318
G1 X140.79 Y105.79 E42.56809
G1 X140.79 Y103.29 E42.65124
G1 X141.042 Y103.29 E42.65962
G1 X142.76 Y105.008 E42.74043
G1 X142.76 Y109.992 E42.9062
G1 X141.042 Y111.71 E42.98701
G1 X140.79 Y111.71 E42.99539
G1 X140.79 Y109.21 E43.07854
G1 X139.139 Y109.21 E43.13346
