;FLAVOR:Marlin
;TIME:4370
;Filament used: 2.63383m
;Layer height: 0.2
;MINX:60.5
;MINY:48
;MINZ:0.2
;MAXX:159.5
;MAXY:172
;MAXZ:8.8
;Generated with Cura_SteamEngine master
M140 S60
M105
M190 S60
M104 S200
M105
M109 S200
M82 ;absolute extrusion mode
; Ender 3 Custom Start G-code
G92 E0 ; Reset Extruder
G28 ; Home all axes
G1 Z2.0 F3000 ; Move Z Axis up little to prevent scratching of Heat Bed
G1 X0.1 Y20 Z0.3 F5000.0 ; Move to start position
G1 X0.1 Y200.0 Z0.3 F1500.0 E15 ; Draw the first line
G1 X0.4 Y200.0 Z0.3 F5000.0 ; Move to side a little
G1 X0.4 Y20 Z0.3 F1500.0 E30 ; Draw the second line
G92 E0 ; Reset Extruder
G1 Z2.0 F3000 ; Move Z Axis up little to prevent scratching of Heat Bed
G1 X5 Y20 Z0.3 F5000.0 ; Move over to prevent blob squish
G92 E0
G92 E0
G1 F1500 E-6.5
;LAYER_COUNT:45
;LAYER:0
M107
G0 F6000 X65.078 Y51.945 Z0.2
;TYPE:SKIRT
G1 F1500 E0
G1 F1200 X65.71 Y51.252 E0.03119
G1 X66.399 Y50.616 E0.06238
G1 X67.14 Y50.041 E0.09358
G1 X67.927 Y49.531 E0.12477
G1 X68.755 Y49.09 E0.15597
G1 X69.617 Y48.721 E0.18716
G1 X70.508 Y48.427 E0.21836
G1 X71.42 Y48.209 E0.24955
G1 X72.347 Y48.071 E0.28072
G1 X73.201 Y48.013 E0.30919
G1 X73.521 Y48.004 E0.31984
G1 X73.83 Y48 E0.33012
G1 X82.829 Y48 E0.62943
G1 X83.688 Y48.011 E0.658
G1 X84.624 Y48.064 E0.68918
G1 X85.423 Y48.174 E0.71601
G1 X85.89 Y48.264 E0.73182
G1 X86.844 Y48.47 E0.76429
G1 X89.397 Y48.981 E0.85088
G1 X91.833 Y49.397 E0.93308
G1 X94.366 Y49.757 E1.01817
G1 X96.918 Y50.047 E1.1036
G1 X97.413 Y50.1 E1.12016
G1 X98.674 Y50.262 E1.16244
G1 X101.255 Y50.555 E1.24884
G1 X103.748 Y50.767 E1.33205
G1 X106.232 Y50.908 E1.41481
G1 X108.79 Y50.98 E1.49992
G1 X111.278 Y50.98 E1.58267
G1 X113.836 Y50.908 E1.66778
G1 X116.32 Y50.767 E1.75053
G1 X118.813 Y50.555 E1.83375
G1 X121.385 Y50.263 E1.91985
G1 X122.467 Y50.116 E1.95616
G1 X122.699 Y50.087 E1.96394
G1 X123.924 Y49.948 E2.00495
G1 X124.583 Y49.881 E2.02698
G1 X127.076 Y49.559 E2.11058
G1 X129.566 Y49.165 E2.19443
G1 X132.046 Y48.7 E2.27835
G1 X132.858 Y48.523 E2.306
G1 X134.251 Y48.236 E2.3533
G1 X135.177 Y48.086 E2.3845
G1 X136.095 Y48.016 E2.41512
G1 X136.483 Y48.006 E2.42803
G1 X137.026 Y48 E2.44609
G1 X145.949 Y48.001 E2.74287
G1 X146.652 Y48.011 E2.76626
G1 X147.589 Y48.064 E2.79747
G1 X148.517 Y48.197 E2.82865
G1 X149.431 Y48.409 E2.85986
G1 X150.323 Y48.697 E2.89104
G1 X151.188 Y49.061 E2.92225
G1 X152.018 Y49.497 E2.95343
G1 X152.809 Y50.002 E2.98464
G1 X153.553 Y50.572 E3.01582
G1 X154.205 Y51.163 E3.04509
G1 X154.778 Y51.728 E3.07185
G1 X155.809 Y52.772 E3.12065
G1 X156.207 Y53.165 E3.13926
G1 X157.004 Y54.04 E3.17862
G1 X157.566 Y54.791 E3.20982
G1 X158.062 Y55.587 E3.24101
G1 X158.489 Y56.422 E3.27221
G1 X158.843 Y57.29 E3.30339
G1 X159.122 Y58.186 E3.3346
G1 X159.324 Y59.102 E3.3658
G1 X159.447 Y60.031 E3.39696
G1 X159.485 Y60.667 E3.41816
G1 X159.495 Y60.991 E3.42894
G1 X159.5 Y61.33 E3.44021
G1 X159.499 Y76.736 E3.95262
G1 X159.489 Y77.437 E3.97594
G1 X159.436 Y78.373 E4.00712
G1 X159.305 Y79.288 E4.03786
G1 X159.082 Y80.482 E4.07826
G1 X159.001 Y80.886 E4.09197
G1 X158.567 Y83.405 E4.17698
G1 X158.213 Y85.881 E4.26017
G1 X157.927 Y88.378 E4.34377
G1 X157.711 Y90.896 E4.42782
G1 X157.567 Y93.398 E4.51118
G1 X157.485 Y96.29 E4.6074
G1 X157.399 Y97.411 E4.6448
G1 X157.244 Y98.627 E4.68557
G1 X156.945 Y101.255 E4.77354
G1 X156.733 Y103.749 E4.85679
G1 X156.592 Y106.232 E4.93951
G1 X156.52 Y108.79 E5.02462
G1 X156.52 Y111.278 E5.10737
G1 X156.592 Y113.837 E5.19252
G1 X156.733 Y116.32 E5.27524
G1 X156.945 Y118.813 E5.35845
G1 X157.236 Y121.374 E5.44418
G1 X157.392 Y122.534 E5.48311
G1 X157.485 Y123.667 E5.52092
G1 X157.531 Y125.195 E5.57177
G1 X157.545 Y125.885 E5.59472
G1 X157.666 Y128.37 E5.67747
G1 X157.861 Y130.913 E5.7623
G1 X158.126 Y133.413 E5.84591
G1 X158.453 Y135.859 E5.92799
G1 X158.867 Y138.397 E6.01352
G1 X159.22 Y140.229 E6.07558
G1 X159.317 Y140.769 E6.09382
G1 X159.443 Y141.699 E6.12504
G1 X159.484 Y142.355 E6.1469
G1 X159.494 Y142.733 E6.15948
G1 X159.5 Y143.276 E6.17754
G1 X159.499 Y158.415 E6.68106
G1 X159.489 Y159.142 E6.70524
G1 X159.436 Y160.079 E6.73646
G1 X159.304 Y161.007 E6.76764
G1 X159.093 Y161.921 E6.79883
G1 X158.804 Y162.813 E6.83002
G1 X158.441 Y163.678 E6.86122
G1 X158.006 Y164.509 E6.89242
G1 X157.501 Y165.299 E6.9236
G1 X156.931 Y166.044 E6.9548
G1 X156.3 Y166.738 E6.986
G1 X155.611 Y167.375 E7.01721
G1 X154.871 Y167.951 E7.0484
G1 X154.085 Y168.462 E7.07958
G1 X153.258 Y168.904 E7.11077
G1 X152.396 Y169.274 E7.14197
G1 X151.506 Y169.569 E7.17315
G1 X150.594 Y169.788 E7.20435
G1 X149.432 Y169.951 E7.24338
G1 X148.637 Y170.018 E7.26991
G1 X147.284 Y170.115 E7.31503
G1 X144.806 Y170.363 E7.39786
G1 X142.308 Y170.685 E7.48163
G1 X139.814 Y171.078 E7.5656
G1 X136.628 Y171.684 E7.67347
G1 X136.264 Y171.76 E7.68584
G1 X135.339 Y171.912 E7.71702
G1 X134.405 Y171.984 E7.74817
G1 X134.017 Y171.994 E7.76108
G1 X133.474 Y172 E7.77915
G1 X124.549 Y171.999 E8.07599
G1 X123.852 Y171.989 E8.09918
G1 X122.628 Y171.903 E8.13999
G1 X121.345 Y171.741 E8.183
G1 X118.745 Y171.445 E8.27003
G1 X116.251 Y171.233 E8.35328
G1 X113.768 Y171.092 E8.436
G1 X111.21 Y171.02 E8.52111
G1 X108.722 Y171.02 E8.60387
G1 X106.164 Y171.092 E8.68898
G1 X103.68 Y171.233 E8.77173
G1 X101.187 Y171.445 E8.85495
G1 X98.615 Y171.737 E8.94104
G1 X97.533 Y171.884 E8.97736
G1 X97.149 Y171.93 E8.99022
G1 X96.299 Y171.987 E9.01856
G1 X95.98 Y171.996 E9.02917
G1 X95.67 Y172 E9.03948
G1 X86.514 Y171.999 E9.34401
G1 X85.813 Y171.989 E9.36733
G1 X84.877 Y171.936 E9.39851
G1 X83.67 Y171.747 E9.43915
G1 X82.656 Y171.53 E9.47364
G1 X80.104 Y171.019 E9.5602
G1 X77.668 Y170.603 E9.6424
G1 X75.131 Y170.242 E9.72763
G1 X72.613 Y169.956 E9.81191
G1 X72.377 Y169.932 E9.8198
G1 X71.449 Y169.795 E9.851
G1 X70.536 Y169.581 E9.88219
G1 X69.645 Y169.289 E9.91338
G1 X68.782 Y168.922 E9.94457
G1 X67.953 Y168.484 E9.97575
G1 X67.164 Y167.976 E10.00697
G1 X66.422 Y167.403 E10.03815
G1 X65.731 Y166.768 E10.06936
G1 X65.097 Y166.078 E10.10053
G1 X64.524 Y165.335 E10.13173
G1 X64.016 Y164.547 E10.16292
G1 X63.577 Y163.718 E10.19412
G1 X63.21 Y162.855 E10.22531
G1 X62.918 Y161.963 E10.25653
G1 X62.704 Y161.05 E10.28771
G1 X62.567 Y160.122 E10.31891
G1 X62.513 Y159.302 E10.34625
G1 X62.472 Y157.833 E10.39513
G1 X62.456 Y157.146 E10.41798
G1 X62.334 Y154.633 E10.50166
G1 X62.14 Y152.104 E10.58602
G1 X61.874 Y149.575 E10.6706
G1 X61.545 Y147.129 E10.75269
G1 X61.138 Y144.63 E10.8369
G1 X60.806 Y142.912 E10.8951
G1 X60.68 Y142.208 E10.91889
G1 X60.555 Y141.279 E10.95006
G1 X60.516 Y140.649 E10.97106
G1 X60.506 Y140.267 E10.98377
G1 X60.5 Y139.724 E11.00183
G1 X60.501 Y124.549 E11.50655
G1 X60.511 Y123.851 E11.52977
G1 X60.597 Y122.626 E11.57061
G1 X60.761 Y121.335 E11.6139
G1 X61.055 Y118.745 E11.70059
G1 X61.267 Y116.251 E11.78384
G1 X61.408 Y113.768 E11.86656
G1 X61.48 Y111.21 E11.95168
G1 X61.48 Y108.722 E12.03443
G1 X61.408 Y106.163 E12.11957
G1 X61.267 Y103.68 E12.20229
G1 X61.055 Y101.19 E12.28541
G1 X60.762 Y98.61 E12.37177
G1 X60.616 Y97.533 E12.40792
G1 X60.57 Y97.149 E12.42078
G1 X60.513 Y96.299 E12.44912
G1 X60.504 Y95.98 E12.45973
G1 X60.5 Y95.67 E12.47004
G1 X60.501 Y80.25 E12.98292
G1 X60.512 Y79.544 E13.0064
G1 X60.567 Y78.607 E13.03762
G1 X60.696 Y77.704 E13.06796
G1 X60.927 Y76.462 E13.10997
G1 X61.006 Y76.067 E13.12337
G1 X61.428 Y73.597 E13.20672
G1 X61.784 Y71.088 E13.291
G1 X62.064 Y68.611 E13.37391
G1 X62.279 Y66.081 E13.45836
G1 X62.42 Y63.579 E13.54171
G1 X62.493 Y60.177 E13.65489
G1 X62.5 Y59.674 E13.67162
G1 X62.511 Y58.844 E13.69923
G1 X62.565 Y57.907 E13.73044
G1 X62.699 Y56.979 E13.76163
G1 X62.911 Y56.065 E13.79284
G1 X63.2 Y55.173 E13.82402
G1 X63.565 Y54.309 E13.85522
G1 X64.001 Y53.479 E13.8864
G1 X64.507 Y52.689 E13.91761
G1 X65.078 Y51.945 E13.9488
G0 F6000 X65.472 Y52.099
G1 F1200 X66.102 Y51.427 E13.97944
G1 X66.788 Y50.813 E14.01006
G1 X67.524 Y50.261 E14.04066
G1 X68.306 Y49.774 E14.0713
G1 X69.127 Y49.358 E14.10191
G1 X69.981 Y49.014 E14.13253
G1 X70.861 Y48.745 E14.16314
G1 X71.762 Y48.554 E14.19377
G1 X72.676 Y48.442 E14.2244
G1 X73.212 Y48.413 E14.24225
G1 X73.532 Y48.404 E14.2529
G1 X73.83 Y48.4 E14.26281
G1 X82.829 Y48.4 E14.56212
G1 X83.682 Y48.411 E14.59049
G1 X84.601 Y48.464 E14.62111
G1 X85.356 Y48.568 E14.64646
G1 X85.805 Y48.655 E14.66167
G1 X86.745 Y48.858 E14.69365
G1 X89.316 Y49.372 E14.78086
G1 X91.781 Y49.794 E14.86404
G1 X94.336 Y50.157 E14.94987
G1 X96.841 Y50.441 E15.03372
G1 X97.05 Y50.462 E15.04071
G1 X97.362 Y50.497 E15.05115
G1 X98.645 Y50.661 E15.09417
G1 X101.174 Y50.948 E15.17882
G1 X103.729 Y51.166 E15.26411
G1 X106.234 Y51.308 E15.34756
G1 X108.779 Y51.38 E15.43224
G1 X111.289 Y51.38 E15.51573
G1 X113.834 Y51.308 E15.60041
G1 X116.339 Y51.166 E15.68386
G1 X118.894 Y50.948 E15.76915
G1 X121.395 Y50.665 E15.85286
G1 X122.521 Y50.512 E15.89065
G1 X122.745 Y50.484 E15.89816
G1 X123.964 Y50.346 E15.93897
G1 X124.643 Y50.277 E15.96167
G1 X127.114 Y49.957 E16.04454
G1 X129.636 Y49.558 E16.12946
G1 X132.133 Y49.091 E16.21395
G1 X132.939 Y48.915 E16.24139
G1 X134.332 Y48.628 E16.2887
G1 X135.241 Y48.482 E16.31932
G1 X136.108 Y48.416 E16.34824
G1 X136.487 Y48.406 E16.36085
G1 X137.026 Y48.4 E16.37878
G1 X145.944 Y48.401 E16.67539
G1 X146.647 Y48.411 E16.69878
G1 X147.566 Y48.464 E16.72939
G1 X148.477 Y48.597 E16.76001
G1 X149.373 Y48.808 E16.79063
G1 X150.247 Y49.096 E16.82124
G1 X151.094 Y49.459 E16.85189
G1 X151.905 Y49.894 E16.8825
G1 X152.676 Y50.398 E16.91313
G1 X153.4 Y50.966 E16.94374
G1 X153.924 Y51.448 E16.96742
G1 X154.493 Y52.009 E16.994
G1 X155.478 Y53.007 E17.04063
G1 X155.926 Y53.449 E17.06157
G1 X156.694 Y54.294 E17.09954
G1 X157.245 Y55.031 E17.13015
G1 X157.731 Y55.813 E17.16077
G1 X158.147 Y56.635 E17.19141
G1 X158.49 Y57.489 E17.22202
G1 X158.757 Y58.37 E17.25264
G1 X158.947 Y59.271 E17.28327
G1 X159.058 Y60.185 E17.31389
G1 X159.085 Y60.679 E17.33035
G1 X159.095 Y61.003 E17.34113
G1 X159.1 Y61.33 E17.35201
G1 X159.099 Y76.73 E17.86421
G1 X159.089 Y77.431 E17.88753
G1 X159.036 Y78.35 E17.91815
G1 X158.912 Y79.215 E17.94721
G1 X158.69 Y80.403 E17.98741
G1 X158.602 Y80.839 E18.0022
G1 X158.175 Y83.324 E18.08606
G1 X157.813 Y85.849 E18.1709
G1 X157.529 Y88.331 E18.25399
G1 X157.311 Y90.875 E18.33892
G1 X157.167 Y93.364 E18.42184
G1 X157.085 Y96.28 E18.51887
G1 X157.003 Y97.36 E18.55489
G1 X156.834 Y98.683 E18.59925
G1 X156.551 Y101.177 E18.68273
G1 X156.334 Y103.727 E18.76785
G1 X156.192 Y106.234 E18.85137
G1 X156.12 Y108.779 E18.93605
G1 X156.12 Y111.289 E19.01954
G1 X156.192 Y113.835 E19.10425
G1 X156.334 Y116.339 E19.18767
G1 X156.552 Y118.894 E19.27295
G1 X156.839 Y121.429 E19.35781
G1 X156.995 Y122.588 E19.3967
G1 X157.085 Y123.679 E19.43311
G1 X157.131 Y125.203 E19.48383
G1 X157.145 Y125.878 E19.50628
G1 X157.268 Y128.417 E19.59083
G1 X157.463 Y130.952 E19.67539
G1 X157.726 Y133.437 E19.7585
G1 X158.062 Y135.945 E19.84267
G1 X158.473 Y138.466 E19.92762
G1 X158.826 Y140.3 E19.98974
G1 X158.923 Y140.84 E20.00799
G1 X159.046 Y141.752 E20.0386
G1 X159.084 Y142.368 E20.05912
G1 X159.094 Y142.737 E20.0714
G1 X159.1 Y143.276 E20.08933
G1 X159.099 Y158.41 E20.59269
G1 X159.089 Y159.137 E20.61687
G1 X159.036 Y160.056 E20.64749
G1 X158.904 Y160.967 E20.6781
G1 X158.693 Y161.863 E20.70872
G1 X158.406 Y162.738 E20.73935
G1 X158.043 Y163.584 E20.76997
G1 X157.609 Y164.396 E20.80059
G1 X157.105 Y165.167 E20.83123
G1 X156.537 Y165.891 E20.86183
G1 X155.908 Y166.563 E20.89245
G1 X155.223 Y167.178 E20.92307
G1 X154.487 Y167.731 E20.95368
G1 X153.706 Y168.219 E20.98431
G1 X152.886 Y168.637 E21.01493
G1 X152.032 Y168.982 E21.04556
G1 X151.152 Y169.251 E21.07617
G1 X150.251 Y169.444 E21.10681
G1 X149.398 Y169.552 E21.13541
G1 X148.608 Y169.619 E21.16178
G1 X147.255 Y169.716 E21.2069
G1 X144.748 Y169.967 E21.2907
G1 X142.231 Y170.291 E21.3751
G1 X139.768 Y170.68 E21.45804
G1 X136.597 Y171.283 E21.5654
G1 X136.183 Y171.369 E21.57946
G1 X135.274 Y171.517 E21.61009
G1 X134.392 Y171.584 E21.63951
G1 X134.013 Y171.594 E21.65212
G1 X133.474 Y171.6 E21.67005
G1 X124.555 Y171.599 E21.9667
G1 X123.858 Y171.589 E21.98988
G1 X122.678 Y171.506 E22.02923
G1 X121.362 Y171.339 E22.07335
G1 X118.823 Y171.051 E22.15834
G1 X116.273 Y170.834 E22.24346
G1 X113.766 Y170.692 E22.32697
G1 X111.221 Y170.62 E22.41166
G1 X108.711 Y170.62 E22.49514
G1 X106.166 Y170.692 E22.57982
G1 X103.661 Y170.834 E22.66327
G1 X101.106 Y171.052 E22.74856
G1 X98.605 Y171.335 E22.83227
G1 X97.479 Y171.488 E22.87007
G1 X97.107 Y171.532 E22.88253
G1 X96.288 Y171.587 E22.90983
G1 X95.969 Y171.596 E22.92044
G1 X95.67 Y171.6 E22.93039
G1 X86.52 Y171.599 E23.23472
G1 X85.819 Y171.589 E23.25804
G1 X84.9 Y171.536 E23.28865
G1 X83.754 Y171.356 E23.32724
G1 X82.74 Y171.139 E23.36173
G1 X80.185 Y170.628 E23.44839
G1 X77.72 Y170.206 E23.53157
G1 X75.161 Y169.842 E23.61754
G1 X72.679 Y169.561 E23.70062
G1 X72.418 Y169.534 E23.70934
G1 X71.507 Y169.399 E23.73997
G1 X70.612 Y169.186 E23.77057
G1 X69.738 Y168.897 E23.80119
G1 X68.893 Y168.532 E23.8318
G1 X68.082 Y168.095 E23.86245
G1 X67.312 Y167.59 E23.89307
G1 X66.59 Y167.02 E23.92367
G1 X65.919 Y166.389 E23.9543
G1 X65.305 Y165.703 E23.98492
G1 X64.754 Y164.966 E24.01553
G1 X64.268 Y164.183 E24.04618
G1 X63.853 Y163.362 E24.07678
G1 X63.51 Y162.508 E24.10739
G1 X63.242 Y161.627 E24.13802
G1 X63.052 Y160.726 E24.16864
G1 X62.941 Y159.812 E24.19927
G1 X62.913 Y159.291 E24.21662
G1 X62.872 Y157.823 E24.26546
G1 X62.857 Y157.156 E24.28765
G1 X62.732 Y154.586 E24.37323
G1 X62.538 Y152.065 E24.45733
G1 X62.273 Y149.551 E24.54141
G1 X61.938 Y147.048 E24.6254
G1 X61.531 Y144.555 E24.70942
G1 X61.17 Y142.678 E24.77299
G1 X61.074 Y142.138 E24.79123
G1 X60.952 Y141.226 E24.82184
G1 X60.916 Y140.636 E24.8415
G1 X60.906 Y140.263 E24.85391
G1 X60.9 Y139.724 E24.87183
G1 X60.901 Y124.555 E25.37636
G1 X60.911 Y123.857 E25.39958
G1 X60.994 Y122.676 E25.43895
G1 X61.165 Y121.327 E25.48418
G1 X61.449 Y118.823 E25.568
G1 X61.666 Y116.273 E25.65312
G1 X61.808 Y113.766 E25.73663
G1 X61.88 Y111.221 E25.82131
G1 X61.88 Y108.711 E25.9048
G1 X61.808 Y106.165 E25.98951
G1 X61.666 Y103.658 E26.07303
G1 X61.449 Y101.112 E26.15802
G1 X61.164 Y98.6 E26.2421
G1 X61.012 Y97.479 E26.27973
G1 X60.968 Y97.107 E26.29219
G1 X60.913 Y96.288 E26.31949
G1 X60.904 Y95.969 E26.3301
G1 X60.9 Y95.67 E26.34005
G1 X60.901 Y80.256 E26.85272
G1 X60.912 Y79.55 E26.8762
G1 X60.967 Y78.631 E26.90682
G1 X61.09 Y77.777 E26.93552
G1 X61.347 Y76.399 E26.98214
G1 X61.398 Y76.141 E26.99089
G1 X61.825 Y73.649 E27.07498
G1 X62.179 Y71.153 E27.15883
G1 X62.465 Y68.618 E27.24368
G1 X62.679 Y66.103 E27.32763
G1 X62.818 Y63.639 E27.40972
G1 X62.9 Y59.766 E27.53856
G1 X62.901 Y59.515 E27.54691
G1 X62.911 Y58.85 E27.56903
G1 X62.965 Y57.931 E27.59965
G1 X63.098 Y57.02 E27.63027
G1 X63.31 Y56.124 E27.66089
G1 X63.599 Y55.249 E27.69154
G1 X63.963 Y54.404 E27.72214
G1 X64.398 Y53.593 E27.75275
G1 X64.903 Y52.822 E27.78341
G1 X65.472 Y52.099 E27.81401
G0 F6000 X65.866 Y52.256
G1 F1200 X66.493 Y51.606 E27.84405
G1 X67.175 Y51.014 E27.87408
G1 X67.907 Y50.485 E27.90412
G1 X68.683 Y50.023 E27.93416
G1 X69.497 Y49.632 E27.9642
G1 X70.342 Y49.313 E27.99424
G1 X71.212 Y49.071 E28.02427
G1 X72.1 Y48.907 E28.05431
G1 X73.223 Y48.813 E28.09179
G1 X73.543 Y48.804 E28.10244
G1 X73.83 Y48.8 E28.11198
G1 X82.829 Y48.8 E28.41129
G1 X83.676 Y48.811 E28.43946
G1 X84.578 Y48.864 E28.46952
G1 X85.289 Y48.962 E28.49339
G1 X85.721 Y49.046 E28.50803
G1 X86.648 Y49.246 E28.53957
G1 X89.248 Y49.766 E28.62776
G1 X91.762 Y50.196 E28.71259
G1 X94.232 Y50.547 E28.79556
G1 X96.823 Y50.842 E28.8823
G1 X97.011 Y50.86 E28.88858
G1 X97.311 Y50.894 E28.89862
G1 X98.547 Y51.053 E28.94007
G1 X101.166 Y51.35 E29.02774
G1 X103.673 Y51.563 E29.11142
G1 X106.234 Y51.708 E29.19674
G1 X108.768 Y51.78 E29.28105
G1 X111.3 Y51.78 E29.36527
G1 X113.834 Y51.708 E29.44958
G1 X116.395 Y51.563 E29.5349
G1 X118.902 Y51.35 E29.61858
G1 X121.45 Y51.061 E29.70387
G1 X122.575 Y50.908 E29.74163
G1 X123.878 Y50.758 E29.78526
G1 X124.662 Y50.677 E29.81147
G1 X127.196 Y50.349 E29.89646
G1 X129.701 Y49.953 E29.98081
G1 X132.187 Y49.487 E30.06493
G1 X133.02 Y49.307 E30.09328
