;FLAVOR:Marlin
;TIME:18571
;Filament used: 10.5757m
;Layer height: 0.2
;MINX:62.5
;MINY:50
;MINZ:0.2
;MAXX:157.5
;MAXY:170
;MAXZ:44.2
;Generated with Cura_SteamEngine master
M140 S60
M105
M190 S60
M104 S200
M105
M109 S200
M82 ;absolute extrusion mode
; Ender 3 Custom Start G-code
G92 E0 ; Reset Extruder
G28 ; Home all axes
G1 Z2.0 F3000 ; Move Z Axis up little to prevent scratching of Heat Bed
G1 X0.1 Y20 Z0.3 F5000.0 ; Move to start position
G1 X0.1 Y200.0 Z0.3 F1500.0 E15 ; Draw the first line
G1 X0.4 Y200.0 Z0.3 F5000.0 ; Move to side a little
G1 X0.4 Y20 Z0.3 F1500.0 E30 ; Draw the second line
G92 E0 ; Reset Extruder
G1 Z2.0 F3000 ; Move Z Axis up little to prevent scratching of Heat Bed
G1 X5 Y20 Z0.3 F5000.0 ; Move over to prevent blob squish
G92 E0
G92 E0
G1 F1500 E-6.5
;LAYER_COUNT:221
;LAYER:0
M107
G0 F6000 X65.066 Y53.958 Z0.2
;TYPE:SKIRT
G1 F1500 E0
G1 F1200 X65.698 Y53.264 E0.03122
G1 X66.386 Y52.627 E0.0624
G1 X67.126 Y52.051 E0.09359
G1 X67.912 Y51.539 E0.12479
G1 X68.739 Y51.097 E0.15598
G1 X69.601 Y50.727 E0.18718
G1 X70.491 Y50.431 E0.21838
G1 X71.403 Y50.213 E0.24957
G1 X72.33 Y50.072 E0.28075
G1 X73.201 Y50.013 E0.30979
G1 X73.522 Y50.004 E0.32047
G1 X73.83 Y50 E0.33071
G1 X95.293 Y50 E1.04458
G1 X96.149 Y50.011 E1.07305
G1 X97.374 Y50.097 E1.11389
G1 X98.665 Y50.261 E1.15718
G1 X101.255 Y50.555 E1.24387
G1 X103.749 Y50.767 E1.32712
G1 X106.232 Y50.908 E1.40984
G1 X108.79 Y50.98 E1.49496
G1 X111.278 Y50.98 E1.57771
G1 X113.836 Y50.908 E1.66282
G1 X116.32 Y50.767 E1.74557
G1 X118.813 Y50.555 E1.82879
G1 X121.385 Y50.263 E1.91488
G1 X122.467 Y50.116 E1.9512
G1 X122.851 Y50.07 E1.96406
G1 X123.701 Y50.013 E1.9924
G1 X124.02 Y50.004 E2.00301
G1 X124.33 Y50 E2.01332
G1 X145.935 Y50.001 E2.73191
G1 X146.633 Y50.01 E2.75513
G1 X147.569 Y50.062 E2.78631
G1 X148.498 Y50.194 E2.81751
G1 X149.412 Y50.404 E2.84871
G1 X150.305 Y50.691 E2.8799
G1 X151.17 Y51.054 E2.9111
G1 X152.001 Y51.488 E2.94229
G1 X152.792 Y51.992 E2.97348
G1 X153.537 Y52.562 E3.00468
G1 X154.231 Y53.193 E3.03588
G1 X154.868 Y53.88 E3.06704
G1 X155.445 Y54.62 E3.09825
G1 X155.957 Y55.406 E3.12945
G1 X156.4 Y56.233 E3.16065
G1 X156.771 Y57.094 E3.19184
G1 X157.067 Y57.984 E3.22303
G1 X157.286 Y58.896 E3.25423
G1 X157.427 Y59.823 E3.28541
G1 X157.487 Y60.701 E3.31468
G1 X157.496 Y61.022 E3.32536
G1 X157.5 Y61.33 E3.33561
G1 X157.499 Y95.428 E4.46971
G1 X157.489 Y96.144 E4.49353
G1 X157.403 Y97.372 E4.53447
G1 X157.241 Y98.655 E4.57749
G1 X156.945 Y101.255 E4.66452
G1 X156.733 Y103.749 E4.74777
G1 X156.592 Y106.232 E4.83049
G1 X156.52 Y108.79 E4.9156
G1 X156.52 Y111.278 E4.99835
G1 X156.592 Y113.837 E5.0835
G1 X156.733 Y116.32 E5.16622
G1 X156.945 Y118.813 E5.24943
G1 X157.236 Y121.374 E5.33516
G1 X157.392 Y122.534 E5.37409
G1 X157.485 Y123.667 E5.4119
G1 X157.495 Y123.997 E5.42288
G1 X157.5 Y124.33 E5.43396
G1 X157.499 Y158.395 E6.56696
G1 X157.49 Y159.126 E6.59128
G1 X157.439 Y160.063 E6.62249
G1 X157.308 Y160.992 E6.65369
G1 X157.098 Y161.906 E6.68489
G1 X156.811 Y162.799 E6.71608
G1 X156.449 Y163.664 E6.74727
G1 X156.015 Y164.495 E6.77845
G1 X155.511 Y165.286 E6.80965
G1 X154.942 Y166.032 E6.84085
G1 X154.312 Y166.726 E6.87203
G1 X153.625 Y167.364 E6.90321
G1 X152.885 Y167.942 E6.93444
G1 X152.1 Y168.454 E6.96562
G1 X151.273 Y168.897 E6.99682
G1 X150.412 Y169.268 E7.028
G1 X149.522 Y169.565 E7.05921
G1 X148.611 Y169.785 E7.09038
G1 X147.683 Y169.926 E7.1216
G1 X146.799 Y169.987 E7.15107
G1 X146.478 Y169.996 E7.16175
G1 X146.17 Y170 E7.172
G1 X124.549 Y169.999 E7.89111
G1 X123.852 Y169.989 E7.9143
G1 X122.628 Y169.903 E7.95511
G1 X121.345 Y169.741 E7.99812
G1 X118.745 Y169.445 E8.08516
G1 X116.251 Y169.233 E8.16841
G1 X113.768 Y169.092 E8.25112
G1 X111.21 Y169.02 E8.33624
G1 X108.722 Y169.02 E8.41899
G1 X106.164 Y169.092 E8.5041
G1 X103.68 Y169.233 E8.58685
G1 X101.187 Y169.445 E8.67007
G1 X98.615 Y169.737 E8.75616
G1 X97.533 Y169.884 E8.79248
G1 X97.149 Y169.93 E8.80534
G1 X96.299 Y169.987 E8.83368
G1 X95.98 Y169.996 E8.84429
G1 X95.67 Y170 E8.8546
G1 X74.065 Y169.999 E9.57319
G1 X73.367 Y169.99 E9.59641
G1 X72.431 Y169.938 E9.62759
G1 X71.502 Y169.806 E9.6588
G1 X70.588 Y169.596 E9.68999
G1 X69.695 Y169.309 E9.72119
G1 X68.83 Y168.946 E9.75239
G1 X67.999 Y168.512 E9.78357
G1 X67.208 Y168.008 E9.81476
G1 X66.463 Y167.438 E9.84596
G1 X65.769 Y166.807 E9.87716
G1 X65.132 Y166.12 E9.90832
G1 X64.555 Y165.38 E9.93953
G1 X64.043 Y164.594 E9.97073
G1 X63.6 Y163.767 E10.00193
G1 X63.229 Y162.906 E10.03312
G1 X62.933 Y162.016 E10.06431
G1 X62.714 Y161.104 E10.09551
G1 X62.573 Y160.177 E10.12669
G1 X62.513 Y159.288 E10.15633
G1 X62.504 Y158.955 E10.16741
G1 X62.5 Y158.658 E10.17729
G1 X62.501 Y124.549 E11.31176
G1 X62.511 Y123.852 E11.33494
G1 X62.597 Y122.628 E11.37575
G1 X62.759 Y121.345 E11.41877
G1 X63.055 Y118.745 E11.5058
G1 X63.267 Y116.251 E11.58905
G1 X63.408 Y113.768 E11.67177
G1 X63.48 Y111.21 E11.75688
G1 X63.48 Y108.722 E11.83963
G1 X63.408 Y106.163 E11.92478
G1 X63.267 Y103.68 E12.0075
G1 X63.055 Y101.19 E12.09061
G1 X62.762 Y98.61 E12.17698
G1 X62.616 Y97.533 E12.21313
G1 X62.57 Y97.149 E12.22599
G1 X62.513 Y96.299 E12.25432
G1 X62.504 Y95.98 E12.26494
G1 X62.5 Y95.67 E12.27525
G1 X62.501 Y61.525 E13.41092
G1 X62.51 Y60.86 E13.43304
G1 X62.563 Y59.924 E13.46422
G1 X62.695 Y58.995 E13.49543
G1 X62.906 Y58.081 E13.52663
G1 X63.194 Y57.189 E13.5578
G1 X63.557 Y56.324 E13.589
G1 X63.992 Y55.493 E13.6202
G1 X64.496 Y54.703 E13.65137
G1 X65.066 Y53.958 E13.68257
G0 F6000 X65.461 Y54.111
G1 F1200 X66.089 Y53.439 E13.71316
G1 X66.774 Y52.823 E13.7438
G1 X67.51 Y52.27 E13.77442
G1 X68.291 Y51.782 E13.80505
G1 X69.111 Y51.364 E13.83566
G1 X69.965 Y51.019 E13.8663
G1 X70.845 Y50.749 E13.89691
G1 X71.745 Y50.557 E13.92752
G1 X72.659 Y50.443 E13.95815
G1 X73.212 Y50.413 E13.97657
G1 X73.533 Y50.404 E13.98725
G1 X73.83 Y50.4 E13.99713
G1 X95.293 Y50.4 E14.711
G1 X96.143 Y50.411 E14.73927
G1 X97.324 Y50.494 E14.77865
G1 X98.647 Y50.662 E14.823
G1 X101.177 Y50.949 E14.90769
G1 X103.727 Y51.166 E14.99281
G1 X106.234 Y51.308 E15.07633
G1 X108.779 Y51.38 E15.16101
G1 X111.289 Y51.38 E15.24449
G1 X113.834 Y51.308 E15.32917
G1 X116.339 Y51.166 E15.41262
G1 X118.894 Y50.948 E15.49791
G1 X121.395 Y50.665 E15.58163
G1 X122.521 Y50.512 E15.61942
G1 X122.893 Y50.468 E15.63188
G1 X123.712 Y50.413 E15.65918
G1 X124.031 Y50.404 E15.6698
G1 X124.33 Y50.4 E15.67974
G1 X145.93 Y50.401 E16.39816
G1 X146.628 Y50.41 E16.42138
G1 X147.547 Y50.462 E16.45199
G1 X148.458 Y50.593 E16.4826
G1 X149.354 Y50.803 E16.51321
G1 X150.229 Y51.09 E16.54384
G1 X151.076 Y51.452 E16.57448
G1 X151.888 Y51.886 E16.6051
G1 X152.659 Y52.388 E16.6357
G1 X153.384 Y52.956 E16.66633
G1 X154.057 Y53.585 E16.69697
G1 X154.672 Y54.269 E16.72757
G1 X155.226 Y55.004 E16.75818
G1 X155.714 Y55.785 E16.78881
G1 X156.133 Y56.605 E16.81944
G1 X156.479 Y57.458 E16.85005
G1 X156.749 Y58.338 E16.88067
G1 X156.942 Y59.239 E16.91131
G1 X157.056 Y60.152 E16.94192
G1 X157.087 Y60.712 E16.96057
G1 X157.096 Y61.033 E16.97125
G1 X157.1 Y61.33 E16.98113
G1 X157.099 Y95.422 E18.11504
G1 X157.089 Y96.138 E18.13885
G1 X157.006 Y97.322 E18.17833
G1 X156.835 Y98.672 E18.22359
G1 X156.551 Y101.177 E18.30744
G1 X156.334 Y103.727 E18.39256
G1 X156.192 Y106.234 E18.47608
G1 X156.12 Y108.779 E18.56076
G1 X156.12 Y111.289 E18.64424
G1 X156.192 Y113.835 E18.72895
G1 X156.334 Y116.339 E18.81237
G1 X156.552 Y118.894 E18.89766
G1 X156.839 Y121.429 E18.98251
G1 X156.995 Y122.588 E19.02141
G1 X157.085 Y123.679 E19.05782
G1 X157.095 Y124.009 E19.0688
G1 X157.1 Y124.33 E19.07948
G1 X157.099 Y158.39 E20.21232
G1 X157.09 Y159.121 E20.23663
G1 X157.039 Y160.041 E20.26728
G1 X156.908 Y160.952 E20.29789
G1 X156.699 Y161.849 E20.32852
G1 X156.412 Y162.723 E20.35912
G1 X156.051 Y163.57 E20.38974
G1 X155.617 Y164.383 E20.4204
G1 X155.115 Y165.154 E20.451
G1 X154.548 Y165.879 E20.48161
G1 X153.92 Y166.552 E20.51222
G1 X153.236 Y167.168 E20.54284
G1 X152.501 Y167.723 E20.57347
G1 X151.72 Y168.211 E20.6041
G1 X150.9 Y168.63 E20.63473
G1 X150.047 Y168.977 E20.66536
G1 X149.168 Y169.248 E20.69595
G1 X148.267 Y169.441 E20.7266
G1 X147.354 Y169.556 E20.75721
G1 X146.788 Y169.587 E20.77606
G1 X146.467 Y169.596 E20.78674
G1 X146.17 Y169.6 E20.79662
G1 X124.555 Y169.599 E21.51554
G1 X123.858 Y169.589 E21.53872
G1 X122.678 Y169.506 E21.57807
G1 X121.362 Y169.339 E21.62219
G1 X118.823 Y169.051 E21.70718
G1 X116.273 Y168.834 E21.7923
G1 X113.766 Y168.692 E21.87581
G1 X111.221 Y168.62 E21.96049
G1 X108.711 Y168.62 E22.04398
G1 X106.166 Y168.692 E22.12866
G1 X103.661 Y168.834 E22.21211
G1 X101.106 Y169.052 E22.2974
G1 X98.605 Y169.335 E22.38111
G1 X97.479 Y169.488 E22.41891
G1 X97.107 Y169.532 E22.43136
G1 X96.288 Y169.587 E22.45867
G1 X95.969 Y169.596 E22.46928
G1 X95.67 Y169.6 E22.47923
G1 X74.07 Y169.599 E23.19765
G1 X73.372 Y169.59 E23.22086
G1 X72.453 Y169.538 E23.25148
G1 X71.542 Y169.407 E23.28209
G1 X70.646 Y169.197 E23.3127
G1 X69.771 Y168.91 E23.34333
G1 X68.924 Y168.548 E23.37396
G1 X68.112 Y168.114 E23.40459
G1 X67.341 Y167.612 E23.43519
G1 X66.616 Y167.044 E23.46582
G1 X65.943 Y166.415 E23.49646
G1 X65.328 Y165.731 E23.52705
G1 X64.774 Y164.996 E23.55766
G1 X64.286 Y164.215 E23.58829
G1 X63.867 Y163.395 E23.61892
G1 X63.521 Y162.542 E23.64954
G1 X63.251 Y161.662 E23.68015
G1 X63.058 Y160.761 E23.7108
G1 X62.944 Y159.848 E23.7414
G1 X62.913 Y159.277 E23.76042
G1 X62.904 Y158.944 E23.7715
G1 X62.9 Y158.658 E23.78101
G1 X62.901 Y124.555 E24.91528
G1 X62.911 Y123.858 E24.93847
G1 X62.994 Y122.678 E24.97781
G1 X63.165 Y121.328 E25.02307
G1 X63.449 Y118.823 E25.10692
G1 X63.666 Y116.273 E25.19204
G1 X63.808 Y113.766 E25.27556
G1 X63.88 Y111.221 E25.36024
G1 X63.88 Y108.711 E25.44372
G1 X63.808 Y106.165 E25.52844
G1 X63.666 Y103.658 E25.61195
G1 X63.449 Y101.112 E25.69694
G1 X63.164 Y98.6 E25.78103
G1 X63.012 Y97.479 E25.81865
G1 X62.968 Y97.107 E25.83111
G1 X62.913 Y96.288 E25.85841
G1 X62.904 Y95.969 E25.86903
G1 X62.9 Y95.67 E25.87897
G1 X62.901 Y61.531 E27.01444
G1 X62.91 Y60.866 E27.03656
G1 X62.962 Y59.946 E27.06721
G1 X63.094 Y59.035 E27.09783
G1 X63.305 Y58.139 E27.12844
G1 X63.592 Y57.264 E27.15907
G1 X63.955 Y56.418 E27.18969
G1 X64.389 Y55.606 E27.22031
G1 X64.892 Y54.835 E27.25093
G1 X65.461 Y54.111 E27.28156
G0 F6000 X65.855 Y54.267
G1 F1200 X66.481 Y53.617 E27.31157
G1 X67.162 Y53.024 E27.34161
G1 X67.894 Y52.494 E27.37166
G1 X68.669 Y52.031 E27.40169
G1 X69.482 Y51.638 E27.43172
G1 X70.327 Y51.318 E27.46178
G1 X71.196 Y51.075 E27.49179
G1 X72.084 Y50.909 E27.52184
G1 X73.223 Y50.813 E27.55985
G1 X73.544 Y50.804 E27.57053
G1 X73.83 Y50.8 E27.58005
G1 X95.293 Y50.8 E28.29391
G1 X96.137 Y50.811 E28.32198
G1 X97.274 Y50.891 E28.35989
G1 X98.555 Y51.053 E28.40284
G1 X101.169 Y51.35 E28.49034
G1 X103.671 Y51.563 E28.57386
G1 X106.234 Y51.708 E28.65924
G1 X108.768 Y51.78 E28.74356
G1 X111.3 Y51.78 E28.82777
G1 X113.834 Y51.708 E28.91209
G1 X116.395 Y51.563 E28.9974
G1 X118.902 Y51.35 E29.08109
G1 X121.45 Y51.061 E29.16638
G1 X122.575 Y50.908 E29.20414
G1 X122.935 Y50.866 E29.21619
G1 X123.723 Y50.813 E29.24246
G1 X124.042 Y50.804 E29.25307
G1 X124.33 Y50.8 E29.26265
G1 X145.925 Y50.801 E29.98091
G1 X146.623 Y50.81 E30.00412
G1 X147.524 Y50.861 E30.03414
G1 X148.418 Y50.993 E30.0642
G1 X149.296 Y51.202 E30.09422
G1 X150.153 Y51.489 E30.12428
G1 X150.98 Y51.85 E30.15429
G1 X151.773 Y52.283 E30.18434
G1 X152.524 Y52.784 E30.21437
G1 X153.228 Y53.35 E30.24441
G1 X153.879 Y53.976 E30.27445
G1 X154.472 Y54.657 E30.30448
G1 X155.002 Y55.388 E30.33451
G1 X155.466 Y56.163 E30.36456
G1 X155.86 Y56.976 E30.39461
G1 X156.18 Y57.82 E30.42463
G1 X156.424 Y58.69 E30.45468
G1 X156.59 Y59.578 E30.48473
G1 X156.687 Y60.723 E30.52295
G1 X156.696 Y61.044 E30.53363
G1 X156.7 Y61.33 E30.54314
G1 X156.699 Y95.416 E31.67684
G1 X156.689 Y96.132 E31.70066
G1 X156.609 Y97.272 E31.73867
G1 X156.448 Y98.545 E31.78135
G1 X156.15 Y101.169 E31.86918
G1 X155.937 Y103.671 E31.9527
G1 X155.792 Y106.234 E32.03808
G1 X155.72 Y108.768 E32.1224
G1 X155.72 Y111.301 E32.20665
G1 X155.792 Y113.834 E32.29093
G1 X155.937 Y116.395 E32.37624
G1 X156.15 Y118.902 E32.45993
G1 X156.443 Y121.478 E32.54616
G1 X156.599 Y122.641 E32.58519
G1 X156.685 Y123.691 E32.62023
G1 X156.695 Y124.021 E32.63121
G1 X156.7 Y124.33 E32.64149
G1 X156.699 Y158.386 E33.77419
G1 X156.69 Y159.117 E33.79851
G1 X156.639 Y160.018 E33.82852
G1 X156.509 Y160.912 E33.85857
G1 X156.299 Y161.79 E33.8886
G1 X156.013 Y162.647 E33.91865
G1 X155.653 Y163.475 E33.94868
G1 X155.22 Y164.268 E33.97873
G1 X154.719 Y165.019 E34.00875
G1 X154.154 Y165.723 E34.03878
G1 X153.528 Y166.375 E34.06884
G1 X152.847 Y166.968 E34.09887
G1 X152.117 Y167.499 E34.1289
G1 X151.342 Y167.963 E34.15894
G1 X150.53 Y168.357 E34.18896
G1 X149.685 Y168.678 E34.21902
G1 X148.816 Y168.923 E34.24905
G1 X147.928 Y169.089 E34.2791
G1 X146.777 Y169.187 E34.31752
G1 X146.456 Y169.196 E34.3282
G1 X146.17 Y169.2 E34.33772
G1 X124.561 Y169.199 E35.05643
G1 X123.864 Y169.189 E35.07962
G1 X122.728 Y169.109 E35.1175
G1 X121.455 Y168.948 E35.16017
G1 X118.831 Y168.65 E35.24801
G1 X116.329 Y168.437 E35.33153
G1 X113.766 Y168.292 E35.41691
G1 X111.232 Y168.22 E35.50122
G1 X108.7 Y168.22 E35.58544
G1 X106.166 Y168.292 E35.66975
G1 X103.605 Y168.437 E35.75507
G1 X101.098 Y168.65 E35.83875
G1 X98.55 Y168.939 E35.92404
G1 X97.425 Y169.092 E35.9618
G1 X97.065 Y169.134 E35.97386
G1 X96.277 Y169.187 E36.00013
G1 X95.958 Y169.196 E36.01074
G1 X95.67 Y169.2 E36.02032
G1 X74.075 Y169.199 E36.73857
G1 X73.377 Y169.19 E36.76179
G1 X72.476 Y169.139 E36.79181
G1 X71.582 Y169.007 E36.82186
G1 X70.704 Y168.798 E36.85188
G1 X69.847 Y168.511 E36.88194
G1 X69.02 Y168.15 E36.91196
G1 X68.227 Y167.717 E36.94201
G1 X67.476 Y167.216 E36.97203
G1 X66.772 Y166.65 E37.00208
G1 X66.121 Y166.024 E37.03212
G1 X65.528 Y165.343 E37.06215
G1 X64.998 Y164.612 E37.09218
G1 X64.534 Y163.837 E37.12222
G1 X64.14 Y163.024 E37.15227
G1 X63.82 Y162.18 E37.18229
G1 X63.576 Y161.31 E37.21235
G1 X63.41 Y160.422 E37.24239
G1 X63.313 Y159.267 E37.28094
G1 X63.304 Y158.934 E37.29202
G1 X63.3 Y158.658 E37.3012
G1 X63.301 Y124.561 E38.43528
G1 X63.311 Y123.864 E38.45846
G1 X63.391 Y122.728 E38.49634
G1 X63.552 Y121.455 E38.53901
G1 X63.85 Y118.831 E38.62685
G1 X64.063 Y116.329 E38.71037
G1 X64.208 Y113.766 E38.79575
G1 X64.28 Y111.232 E38.88007
G1 X64.28 Y108.699 E38.96431
G1 X64.208 Y106.166 E39.0486
G1 X64.063 Y103.602 E39.13401
G1 X63.85 Y101.104 E39.2174
G1 X63.56 Y98.545 E39.30305
G1 X63.408 Y97.425 E39.34065
G1 X63.366 Y97.065 E39.3527
G1 X63.313 Y96.277 E39.37897
G1 X63.304 Y95.958 E39.38958
G1 X63.3 Y95.67 E39.39916
G1 X63.301 Y61.536 E40.53446
G1 X63.31 Y60.871 E40.55658
G1 X63.362 Y59.969 E40.58664
G1 X63.494 Y59.076 E40.61666
G1 X63.704 Y58.198 E40.64669
G1 X63.991 Y57.341 E40.67675
G1 X64.353 Y56.514 E40.70677
G1 X64.786 Y55.722 E40.73679
G1 X65.288 Y54.971 E40.76684
G1 X65.855 Y54.267 E40.7969
G1 F1500 E34.2969
;MESH:ICT-Terraforming_Mars_72_Cards.stl
G0 F6000 X84.164 Y79.02
G0 X82.709 Y78.984
G0 X83.061 Y141.006
G0 X83.107 Y141.882
G0 X83.244 Y142.755
G0 X83.474 Y143.608
G0 X83.79 Y144.432
G0 X84.192 Y145.219
G0 X84.672 Y145.961
G0 X85.228 Y146.647
G0 X85.853 Y147.272
G0 X86.539 Y147.828
G0 X87.28 Y148.308
G0 X88.066 Y148.71
G0 X88.892 Y149.027
G0 X91.49 Y149.6
;TYPE:WALL-INNER
G1 F1500 E40.7969
G1 F1200 X128.512 Y149.6 E42.02826
G1 X129.399 Y149.553 E42.0578
G1 X130.288 Y149.413 E42.08774
G1 X131.158 Y149.18 E42.11769
G1 X131.999 Y148.857 E42.14766
G1 X132.8 Y148.448 E42.17757
G1 X133.555 Y147.958 E42.20751
G1 X134.255 Y147.392 E42.23745
G1 X134.892 Y146.755 E42.26741
G1 X135.458 Y146.055 E42.29735
G1 X135.948 Y145.3 E42.32729
G1 X136.357 Y144.498 E42.35723
G1 X136.679 Y143.658 E42.38715
G1 X136.913 Y142.788 E42.41711
G1 X137.053 Y141.899 E42.44705
G1 X137.1 Y141.01 E42.47666
G1 X137.1 Y78.984 E44.53965
G1 X137.053 Y78.101 E44.56906
G1 X136.913 Y77.212 E44.59899
G1 X136.679 Y76.342 E44.62896
G1 X136.357 Y75.502 E44.65888
G1 X135.948 Y74.7 E44.68882
G1 X135.458 Y73.945 E44.71876
G1 X134.892 Y73.245 E44.7487
G1 X134.255 Y72.608 E44.77866
G1 X133.555 Y72.042 E44.8086
