;FLAVOR:Marlin
;TIME:14710
;Filament used: 9.49057m
;Layer height: 0.2
;MINX:29.837
;MINY:41.298
;MINZ:0.2
;MAXX:214.335
;MAXY:208.348
;MAXZ:4
;Generated with Cura_SteamEngine master
M140 S60
M105
M190 S60
M104 S200
M105
M109 S200
M82 ;absolute extrusion mode
; Ender 3 Custom Start G-code
G92 E0 ; Reset Extruder
G28 ; Home all axes
G1 Z2.0 F3000 ; Move Z Axis up little to prevent scratching of Heat Bed
G1 X0.1 Y20 Z0.3 F5000.0 ; Move to start position
G1 X0.1 Y200.0 Z0.3 F1500.0 E15 ; Draw the first line
G1 X0.4 Y200.0 Z0.3 F5000.0 ; Move to side a little
G1 X0.4 Y20 Z0.3 F1500.0 E30 ; Draw the second line
G92 E0 ; Reset Extruder
G1 Z2.0 F3000 ; Move Z Axis up little to prevent scratching of Heat Bed
G1 X5 Y20 Z0.3 F5000.0 ; Move over to prevent blob squish
G92 E0
G92 E0
G1 F1500 E-6.5
;LAYER_COUNT:20
;LAYER:0
M107
G0 F6000 X46.21 Y46.602 Z0.2
;TYPE:SKIRT
G1 F1500 E0
G1 F1200 X46.89 Y45.955 E0.03122
G1 X47.622 Y45.369 E0.06241
G1 X48.401 Y44.847 E0.09359
G1 X49.222 Y44.394 E0.12478
G1 X50.079 Y44.012 E0.15599
G1 X50.965 Y43.704 E0.18719
G1 X51.874 Y43.473 E0.21838
G1 X52.799 Y43.32 E0.24957
G1 X53.968 Y43.241 E0.28854
G1 X54.822 Y43.23 E0.31694
G1 X76.58 Y43.23 E1.04062
G1 X77.285 Y43.24 E1.06407
G1 X78.229 Y43.294 E1.09552
G1 X78.749 Y43.347 E1.1129
G1 X80.678 Y43.566 E1.17747
G1 X83.186 Y43.781 E1.26119
G1 X85.69 Y43.922 E1.34461
G1 X88.185 Y43.994 E1.42763
G1 X90.708 Y43.994 E1.51154
G1 X93.232 Y43.923 E1.59552
G1 X95.774 Y43.78 E1.68021
G1 X98.252 Y43.569 E1.76292
G1 X100.739 Y43.288 E1.84617
G1 X103.247 Y42.932 E1.93042
G1 X105.753 Y42.502 E2.01499
G1 X106.549 Y42.342 E2.04199
G1 X107.619 Y42.142 E2.0782
G1 X108.547 Y42.009 E2.10938
G1 X109.482 Y41.956 E2.14053
G1 X110.336 Y41.945 E2.16893
G1 X132.108 Y41.945 E2.89307
G1 X132.82 Y41.956 E2.91676
G1 X134.196 Y42.064 E2.96266
G1 X136.842 Y42.44 E3.05155
G1 X139.358 Y42.725 E3.13577
G1 X141.828 Y42.936 E3.21822
G1 X144.363 Y43.078 E3.30267
G1 X146.896 Y43.15 E3.38695
G1 X149.383 Y43.15 E3.46967
G1 X151.932 Y43.078 E3.55448
G1 X154.431 Y42.935 E3.63774
G1 X156.915 Y42.724 E3.72065
G1 X159.447 Y42.436 E3.80541
G1 X161.916 Y42.085 E3.88835
G1 X164.534 Y41.636 E3.9767
G1 X165.29 Y41.495 E4.00228
G1 X166.219 Y41.363 E4.03349
G1 X167.145 Y41.31 E4.06434
G1 X167.999 Y41.299 E4.09274
G1 X189.598 Y41.298 E4.81113
G1 X190.458 Y41.309 E4.83974
G1 X191.394 Y41.362 E4.87092
G1 X192.322 Y41.495 E4.9021
G1 X193.236 Y41.707 E4.9333
G1 X194.129 Y41.995 E4.96451
G1 X194.993 Y42.359 E4.99569
G1 X195.824 Y42.795 E5.02691
G1 X196.614 Y43.3 E5.05809
G1 X197.358 Y43.87 E5.08927
G1 X198.051 Y44.502 E5.12046
G1 X198.688 Y45.191 E5.15167
G1 X199.264 Y45.931 E5.18286
G1 X199.748 Y46.672 E5.2123
G1 X200.131 Y47.314 E5.23716
G1 X211.076 Y66.271 E5.96522
G1 X211.402 Y66.854 E5.98743
G1 X211.824 Y67.692 E6.01864
G1 X212.174 Y68.562 E6.04983
G1 X212.448 Y69.459 E6.08103
G1 X212.645 Y70.376 E6.11222
G1 X212.763 Y71.306 E6.1434
G1 X212.801 Y72.243 E6.17459
G1 X212.759 Y73.18 E6.20579
G1 X212.638 Y74.11 E6.23698
G1 X212.523 Y74.678 E6.25625
G1 X212.306 Y75.621 E6.28844
G1 X212.059 Y76.625 E6.32283
G1 X211.524 Y79.108 E6.40731
G1 X211.064 Y81.571 E6.49064
G1 X210.679 Y84.042 E6.57382
G1 X210.354 Y86.58 E6.65892
G1 X210.108 Y89.052 E6.74155
G1 X209.93 Y91.565 E6.82534
G1 X209.823 Y94.075 E6.9089
G1 X209.787 Y96.599 E6.99286
G1 X209.823 Y99.131 E7.07708
G1 X209.929 Y101.64 E7.16061
G1 X210.106 Y104.135 E7.2438
G1 X210.354 Y106.644 E7.32765
G1 X210.674 Y109.145 E7.41152
G1 X211.062 Y111.615 E7.49468
G1 X211.523 Y114.098 E7.57867
G1 X212.052 Y116.559 E7.6624
G1 X212.652 Y119.007 E7.74623
G1 X213.321 Y121.435 E7.82999
G1 X213.653 Y122.526 E7.86792
G1 X213.9 Y123.374 E7.8973
G1 X214.124 Y124.285 E7.9285
G1 X214.269 Y125.211 E7.95967
G1 X214.335 Y126.147 E7.99088
G1 X214.321 Y127.085 E8.02208
G1 X214.227 Y128.018 E8.05327
G1 X213.992 Y129.192 E8.09309
G1 X213.914 Y129.495 E8.1035
G1 X213.314 Y131.949 E8.18753
G1 X212.773 Y134.471 E8.27332
G1 X212.33 Y136.866 E8.35433
G1 X211.932 Y139.416 E8.44017
G1 X211.618 Y141.872 E8.52252
G1 X211.372 Y144.382 E8.6064
G1 X211.194 Y146.908 E8.69062
G1 X211.089 Y149.406 E8.77378
G1 X211.055 Y151.922 E8.85747
G1 X211.093 Y154.452 E8.94163
G1 X211.2 Y156.962 E9.02519
G1 X211.379 Y159.464 E9.10862
G1 X211.632 Y161.991 E9.19309
G1 X211.952 Y164.477 E9.27645
G1 X212.343 Y166.961 E9.36009
G1 X212.805 Y169.436 E9.44383
G1 X213.333 Y171.882 E9.52706
G1 X213.864 Y174.041 E9.60101
G1 X213.961 Y174.462 E9.61537
G1 X214.129 Y175.384 E9.64655
G1 X214.217 Y176.318 E9.67775
G1 X214.226 Y177.256 E9.70895
G1 X214.155 Y178.191 E9.74014
G1 X214.004 Y179.117 E9.77134
G1 X213.775 Y180.026 E9.80252
G1 X213.47 Y180.913 E9.83372
G1 X213.09 Y181.77 E9.8649
G1 X212.838 Y182.248 E9.88287
G1 X212.406 Y183.02 E9.91229
G1 X201.57 Y201.785 E10.63301
G1 X201.187 Y202.429 E10.65793
G1 X200.674 Y203.214 E10.68912
G1 X200.096 Y203.952 E10.72029
G1 X199.457 Y204.638 E10.75148
G1 X198.761 Y205.268 E10.7827
G1 X198.015 Y205.836 E10.81389
G1 X197.223 Y206.338 E10.84507
G1 X196.391 Y206.771 E10.87627
G1 X195.525 Y207.132 E10.90748
G1 X194.632 Y207.417 E10.93865
G1 X193.717 Y207.626 E10.96987
G1 X192.789 Y207.755 E11.00103
G1 X191.892 Y207.805 E11.03091
G1 X191.042 Y207.816 E11.05919
G1 X169.284 Y207.816 E11.78286
G1 X168.579 Y207.806 E11.80631
G1 X167.643 Y207.753 E11.83749
G1 X167.033 Y207.675 E11.85795
G1 X166.432 Y207.581 E11.87818
G1 X163.875 Y207.217 E11.96408
G1 X161.42 Y206.937 E12.04626
G1 X158.864 Y206.72 E12.13158
G1 X156.388 Y206.579 E12.21407
G1 X153.841 Y206.507 E12.29882
G1 X151.353 Y206.507 E12.38157
G1 X148.821 Y206.579 E12.46582
G1 X146.281 Y206.722 E12.55043
G1 X143.821 Y206.931 E12.63255
G1 X141.302 Y207.217 E12.71687
G1 X138.782 Y207.575 E12.80152
G1 X136.168 Y208.024 E12.88974
G1 X135.488 Y208.151 E12.91275
G1 X134.56 Y208.284 E12.94393
G1 X133.629 Y208.337 E12.97494
G1 X132.779 Y208.348 E13.00322
G1 X111.017 Y208.348 E13.72702
G1 X110.331 Y208.338 E13.74984
G1 X109.309 Y208.275 E13.7839
G1 X108.455 Y208.152 E13.8126
G1 X108.013 Y208.069 E13.82755
G1 X105.945 Y207.654 E13.89771
G1 X103.497 Y207.235 E13.98031
G1 X100.981 Y206.877 E14.06484
G1 X98.487 Y206.593 E14.14832
G1 X95.98 Y206.379 E14.23201
G1 X93.497 Y206.238 E14.31473
G1 X90.938 Y206.166 E14.39987
G1 X88.45 Y206.166 E14.48263
G1 X85.917 Y206.238 E14.56691
G1 X83.38 Y206.381 E14.65142
G1 X80.902 Y206.592 E14.73414
G1 X78.268 Y206.892 E14.82231
G1 X77.66 Y206.97 E14.8427
G1 X76.413 Y207.059 E14.88428
G1 X75.56 Y207.07 E14.91265
G1 X53.8 Y207.07 E15.6364
G1 X53.114 Y207.06 E15.65921
G1 X52.177 Y207.006 E15.69043
G1 X51.249 Y206.873 E15.72161
G1 X50.335 Y206.661 E15.75282
G1 X49.443 Y206.372 E15.784
G1 X48.579 Y206.009 E15.81517
G1 X47.748 Y205.572 E15.8464
G1 X47.228 Y205.251 E15.86673
G1 X46.466 Y204.704 E15.89793
G1 X45.753 Y204.095 E15.92911
G1 X45.094 Y203.427 E15.96032
G1 X44.495 Y202.706 E15.9915
G1 X43.803 Y201.682 E16.03261
G1 X43.337 Y200.899 E16.06291
G1 X32.483 Y182.098 E16.78496
G1 X32.157 Y181.515 E16.80718
G1 X31.735 Y180.677 E16.83838
G1 X31.385 Y179.807 E16.86957
G1 X31.111 Y178.91 E16.90077
G1 X30.914 Y177.993 E16.93196
G1 X30.796 Y177.063 E16.96314
G1 X30.758 Y176.126 E16.99433
G1 X30.8 Y175.189 E17.02553
G1 X31.004 Y173.834 E17.07111
G1 X31.548 Y171.305 E17.15715
G1 X32.017 Y168.78 E17.24256
G1 X32.401 Y166.329 E17.32508
G1 X32.722 Y163.824 E17.40908
G1 X32.973 Y161.297 E17.49354
G1 X33.149 Y158.818 E17.5762
G1 X33.256 Y156.297 E17.66012
G1 X33.292 Y153.774 E17.74405
G1 X33.256 Y151.251 E17.82797
G1 X33.15 Y148.753 E17.91113
G1 X32.972 Y146.223 E17.99548
G1 X32.723 Y143.723 E18.07905
G1 X32.403 Y141.223 E18.16287
G1 X32.017 Y138.762 E18.24573
G1 X31.553 Y136.265 E18.3302
G1 X31.022 Y133.798 E18.41413
G1 X30.391 Y131.228 E18.50215
G1 X30.191 Y130.458 E18.52861
G1 X29.994 Y129.541 E18.55981
G1 X29.876 Y128.611 E18.59099
G1 X29.837 Y127.674 E18.62218
G1 X29.878 Y126.737 E18.65337
G1 X29.999 Y125.807 E18.68456
G1 X30.273 Y124.623 E18.72499
G1 X30.498 Y123.852 E18.7517
G1 X30.906 Y122.519 E18.79806
G1 X31.567 Y120.118 E18.88089
G1 X32.173 Y117.641 E18.96571
G1 X32.696 Y115.216 E19.04822
G1 X33.161 Y112.716 E19.13279
G1 X33.549 Y110.229 E19.21651
G1 X33.869 Y107.729 E19.30034
G1 X34.117 Y105.23 E19.38387
G1 X34.294 Y102.73 E19.46723
G1 X34.4 Y100.221 E19.55075
G1 X34.436 Y97.689 E19.63497
G1 X34.4 Y95.173 E19.71866
G1 X34.292 Y92.642 E19.80292
G1 X34.116 Y90.162 E19.88562
G1 X33.866 Y87.647 E19.96968
G1 X33.547 Y85.154 E20.05327
G1 X33.156 Y82.665 E20.13707
G1 X32.695 Y80.187 E20.2209
G1 X32.127 Y77.554 E20.31049
G1 X31.913 Y76.625 E20.3422
G1 X31.741 Y75.703 E20.37339
G1 X31.649 Y74.77 E20.40458
G1 X31.637 Y73.832 E20.43578
G1 X31.704 Y72.897 E20.46695
G1 X31.852 Y71.97 E20.49818
G1 X32.077 Y71.06 E20.52936
G1 X32.379 Y70.172 E20.56055
G1 X32.756 Y69.313 E20.59175
G1 X33.026 Y68.798 E20.61109
G1 X33.458 Y68.025 E20.64055
G1 X44.246 Y49.342 E21.3581
G1 X44.681 Y48.612 E21.38636
G1 X45.029 Y48.056 E21.40818
G1 X45.589 Y47.304 E21.43936
G1 X46.21 Y46.602 E21.47054
G0 F6000 X46.605 Y46.771
G1 F1200 X47.281 Y46.146 E21.50116
G1 X48.009 Y45.583 E21.53177
G1 X48.784 Y45.085 E21.56241
G1 X49.598 Y44.656 E21.59301
G1 X50.447 Y44.299 E21.62364
G1 X51.323 Y44.017 E21.65425
G1 X52.221 Y43.813 E21.68488
G1 X53.133 Y43.687 E21.7155
G1 X53.974 Y43.641 E21.74351
G1 X54.823 Y43.63 E21.77175
G1 X76.574 Y43.63 E22.4952
G1 X77.279 Y43.64 E22.51865
G1 X78.189 Y43.692 E22.54896
G1 X78.704 Y43.745 E22.56618
G1 X80.635 Y43.964 E22.63082
G1 X83.13 Y44.178 E22.71411
G1 X85.655 Y44.321 E22.79822
G1 X88.208 Y44.394 E22.88317
G1 X90.719 Y44.394 E22.96669
G1 X93.267 Y44.323 E23.05147
G1 X95.761 Y44.182 E23.13455
G1 X98.294 Y43.967 E23.2191
G1 X100.804 Y43.683 E23.30312
G1 X103.339 Y43.323 E23.38828
G1 X105.794 Y42.901 E23.47113
G1 X106.622 Y42.735 E23.49922
G1 X107.692 Y42.535 E23.53542
G1 X108.604 Y42.406 E23.56606
G1 X109.488 Y42.356 E23.59551
G1 X110.337 Y42.345 E23.62375
G1 X132.102 Y42.345 E24.34765
G1 X132.814 Y42.356 E24.37134
G1 X134.14 Y42.46 E24.41557
G1 X136.812 Y42.839 E24.50534
G1 X139.28 Y43.119 E24.58795
G1 X141.839 Y43.338 E24.67337
G1 X144.33 Y43.478 E24.75635
G1 X146.885 Y43.55 E24.84137
G1 X149.394 Y43.55 E24.92482
G1 X151.93 Y43.478 E25.0092
G1 X154.454 Y43.334 E25.09328
G1 X156.993 Y43.118 E25.17804
G1 X159.477 Y42.836 E25.26118
G1 X161.968 Y42.481 E25.34487
G1 X164.609 Y42.028 E25.434
G1 X165.363 Y41.888 E25.4595
G1 X166.275 Y41.759 E25.49014
G1 X167.151 Y41.71 E25.51932
G1 X168 Y41.699 E25.54756
G1 X189.599 Y41.698 E26.26595
G1 X190.452 Y41.709 E26.29432
G1 X191.371 Y41.762 E26.32494
G1 X192.282 Y41.895 E26.35556
G1 X193.178 Y42.106 E26.38617
G1 X194.053 Y42.394 E26.41681
G1 X194.899 Y42.757 E26.44743
G1 X195.71 Y43.192 E26.47804
G1 X196.481 Y43.696 E26.50868
G1 X197.205 Y44.264 E26.53928
G1 X197.877 Y44.894 E26.56992
G1 X198.491 Y45.579 E26.60052
G1 X199.044 Y46.315 E26.63113
G1 X199.404 Y46.877 E26.65333
G1 X199.864 Y47.65 E26.68325
G1 X210.727 Y66.467 E27.40591
G1 X211.053 Y67.05 E27.42813
G1 X211.467 Y67.872 E27.45874
G1 X211.808 Y68.727 E27.48935
G1 X212.074 Y69.609 E27.51999
G1 X212.262 Y70.51 E27.55061
G1 X212.371 Y71.424 E27.58122
G1 X212.4 Y72.344 E27.61184
G1 X212.35 Y73.263 E27.64245
G1 X212.134 Y74.589 E27.68713
G1 X211.918 Y75.525 E27.71908
G1 X211.667 Y76.547 E27.75408
G1 X211.132 Y79.029 E27.83853
G1 X210.665 Y81.529 E27.92312
G1 X210.285 Y83.971 E28.00532
G1 X209.957 Y86.522 E28.09086
G1 X209.71 Y89.021 E28.17439
G1 X209.529 Y91.555 E28.25888
G1 X209.423 Y94.052 E28.34201
G1 X209.387 Y96.599 E28.42673
G1 X209.423 Y99.117 E28.51049
G1 X209.531 Y101.684 E28.59594
G1 X209.707 Y104.17 E28.67883
G1 X209.957 Y106.693 E28.76316
G1 X210.277 Y109.191 E28.84692
G1 X210.667 Y111.679 E28.93068
G1 X211.139 Y114.218 E29.01658
G1 X211.658 Y116.633 E29.09874
G1 X212.265 Y119.112 E29.18362
G1 X212.935 Y121.544 E29.26753
G1 X213.269 Y122.638 E29.30557
G1 X213.516 Y123.486 E29.33495
G1 X213.735 Y124.38 E29.36556
G1 X213.875 Y125.29 E29.39618
G1 X213.936 Y126.208 E29.42678
G1 X213.917 Y127.129 E29.45742
G1 X213.818 Y128.044 E29.48803
G1 X213.604 Y129.093 E29.52364
G1 X213.558 Y129.271 E29.52976
G1 X212.921 Y131.875 E29.61892
G1 X212.382 Y134.386 E29.70434
G1 X211.928 Y136.837 E29.78725
G1 X211.544 Y139.305 E29.87032
G1 X211.219 Y141.849 E29.95562
G1 X210.973 Y144.351 E30.03924
G1 X210.796 Y146.864 E30.12303
G1 X210.689 Y149.418 E30.20805
G1 X210.655 Y151.922 E30.29134
G1 X210.693 Y154.477 E30.37633
G1 X210.8 Y156.972 E30.45939
G1 X210.98 Y159.493 E30.54345
G1 X211.236 Y162.049 E30.62889
G1 X211.553 Y164.519 E30.71172
G1 X211.949 Y167.031 E30.7963
G1 X212.414 Y169.523 E30.88061
G1 X212.945 Y171.982 E30.96428
G1 X213.521 Y174.329 E31.04466
G1 X213.571 Y174.55 E31.0522
G1 X213.735 Y175.456 E31.08282
G1 X213.819 Y176.373 E31.11345
G1 X213.824 Y177.293 E31.14405
G1 X213.749 Y178.211 E31.17468
G1 X213.595 Y179.118 E31.20528
G1 X213.362 Y180.009 E31.23591
G1 X213.053 Y180.877 E31.26656
G1 X212.489 Y182.053 E31.30994
G1 X212.06 Y182.82 E31.33917
G1 X201.227 Y201.58 E32.05969
G1 X200.844 Y202.224 E32.08461
G1 X200.339 Y202.994 E32.11523
G1 X199.77 Y203.718 E32.14586
G1 X199.14 Y204.389 E32.17647
G1 X198.454 Y205.003 E32.2071
G1 X197.717 Y205.555 E32.23772
G1 X196.935 Y206.042 E32.26836
G1 X196.114 Y206.458 E32.29897
G1 X195.26 Y206.802 E32.3296
G1 X194.379 Y207.07 E32.36022
G1 X193.479 Y207.261 E32.39082
G1 X192.565 Y207.373 E32.42145
G1 X191.886 Y207.405 E32.44406
G1 X191.041 Y207.416 E32.47217
G1 X169.29 Y207.416 E33.19561
G1 X168.585 Y207.406 E33.21906
G1 X167.666 Y207.353 E33.24968
G1 X167.095 Y207.279 E33.26883
G1 X166.545 Y207.193 E33.28734
G1 X163.945 Y206.822 E33.37469
G1 X161.428 Y206.536 E33.45895
G1 X158.92 Y206.323 E33.54267
G1 X156.388 Y206.179 E33.62702
G1 X153.852 Y206.107 E33.7114
G1 X151.342 Y206.107 E33.79488
G1 X148.786 Y206.179 E33.87993
G1 X146.294 Y206.32 E33.96294
G1 X143.743 Y206.537 E34.0481
G1 X141.272 Y206.817 E34.13081
G1 X138.73 Y207.179 E34.21621
G1 X136.093 Y207.631 E34.3052
G1 X135.415 Y207.758 E34.32814
G1 X134.504 Y207.887 E34.35874
G1 X133.623 Y207.937 E34.38809
G1 X132.778 Y207.948 E34.4162
G1 X111.022 Y207.948 E35.1398
G1 X110.336 Y207.938 E35.16262
G1 X109.352 Y207.878 E35.19541
G1 X108.528 Y207.759 E35.2231
G1 X108.092 Y207.677 E35.23786
G1 X106.025 Y207.262 E35.30798
G1 X103.549 Y206.838 E35.39153
G1 X101.046 Y206.482 E35.47562
G1 X98.53 Y206.195 E35.55984
G1 X96.002 Y205.98 E35.64423
G1 X93.495 Y205.838 E35.72775
G1 X90.949 Y205.766 E35.81246
G1 X88.439 Y205.766 E35.89594
G1 X85.884 Y205.838 E35.98096
G1 X83.394 Y205.978 E36.0639
G1 X80.856 Y206.195 E36.14863
G1 X78.171 Y206.501 E36.23851
G1 X77.609 Y206.573 E36.25735
G1 X76.407 Y206.659 E36.29743
G1 X75.559 Y206.67 E36.32564
G1 X53.805 Y206.67 E37.04918
G1 X53.119 Y206.66 E37.072
G1 X52.2 Y206.606 E37.10262
G1 X51.289 Y206.474 E37.13324
G1 X50.393 Y206.262 E37.16386
G1 X49.519 Y205.974 E37.19447
G1 X48.673 Y205.61 E37.2251
G1 X47.473 Y204.933 E37.27092
G1 X46.699 Y204.379 E37.30258
G1 X46.001 Y203.779 E37.3332
G1 X45.357 Y203.121 E37.36382
G1 X44.772 Y202.41 E37.39444
G1 X44.146 Y201.477 E37.43181
G1 X43.683 Y200.699 E37.46192
G1 X32.832 Y181.902 E38.18381
G1 X32.506 Y181.319 E38.20602
G1 X32.092 Y180.497 E38.23664
G1 X31.751 Y179.642 E38.26725
G1 X31.485 Y178.76 E38.29789
G1 X31.297 Y177.859 E38.32851
G1 X31.188 Y176.945 E38.35912
G1 X31.159 Y176.025 E38.38973
G1 X31.209 Y175.106 E38.42035
G1 X31.395 Y173.918 E38.46034
G1 X31.947 Y171.35 E38.5477
G1 X32.406 Y168.884 E38.63113
G1 X32.799 Y166.375 E38.7156
G1 X33.119 Y163.873 E38.79949
G1 X33.372 Y161.332 E38.88443
G1 X33.549 Y158.828 E38.96792
G1 X33.656 Y156.32 E39.05141
G1 X33.692 Y153.774 E39.1361
G1 X33.656 Y151.228 E39.22079
G1 X33.55 Y148.744 E39.30348
G1 X33.37 Y146.188 E39.3887
G1 X33.12 Y143.669 E39.4729
G1 X32.801 Y141.181 E39.55633
G1 X32.406 Y138.658 E39.64126
G1 X31.952 Y136.22 E39.72375
G1 X31.408 Y133.691 E39.80978
G1 X30.788 Y131.163 E39.89636
G1 X30.578 Y130.357 E39.92406
G1 X30.385 Y129.457 E39.95468
G1 X30.271 Y128.543 E39.98531
G1 X30.237 Y127.623 E40.01593
G1 X30.283 Y126.704 E40.04653
G1 X30.408 Y125.792 E40.07715
G1 X30.657 Y124.735 E40.11327
