;FLAVOR:Marlin
;TIME:25542
;Filament used: 16.5501m
;Layer height: 0.2
;MINX:11.939
;MINY:24.475
;MINZ:0.2
;MAXX:223.029
;MAXY:210.525
;MAXZ:4
;Generated with Cura_SteamEngine master
M140 S60
M105
M190 S60
M104 S200
M105
M109 S200
M82 ;absolute extrusion mode
; Ender 3 Custom Start G-code
G92 E0 ; Reset Extruder
G28 ; Home all axes
G1 Z2.0 F3000 ; Move Z Axis up little to prevent scratching of Heat Bed
G1 X0.1 Y20 Z0.3 F5000.0 ; Move to start position
G1 X0.1 Y200.0 Z0.3 F1500.0 E15 ; Draw the first line
G1 X0.4 Y200.0 Z0.3 F5000.0 ; Move to side a little
G1 X0.4 Y20 Z0.3 F1500.0 E30 ; Draw the second line
G92 E0 ; Reset Extruder
G1 Z2.0 F3000 ; Move Z Axis up little to prevent scratching of Heat Bed
G1 X5 Y20 Z0.3 F5000.0 ; Move over to prevent blob squish
G92 E0
G92 E0
G1 F1500 E-6.5
;LAYER_COUNT:20
;LAYER:0
M107
G0 F6000 X60.399 Y30.452 Z0.2
;TYPE:SKIRT
G1 F1500 E0
G1 F1200 X60.752 Y29.859 E0.02295
G1 X61.266 Y29.075 E0.05413
G1 X61.844 Y28.337 E0.08531
G1 X62.484 Y27.65 E0.11654
G1 X63.179 Y27.021 E0.14772
G1 X63.926 Y26.454 E0.17891
G1 X64.718 Y25.952 E0.2101
G1 X65.55 Y25.519 E0.24129
G1 X66.416 Y25.159 E0.27249
G1 X67.309 Y24.874 E0.30366
G1 X68.224 Y24.666 E0.33487
G1 X69.153 Y24.536 E0.36607
G1 X70.045 Y24.487 E0.39579
G1 X70.895 Y24.476 E0.42406
G1 X92.653 Y24.476 E1.14773
G1 X93.356 Y24.486 E1.17112
G1 X94.293 Y24.539 E1.20233
G1 X95.221 Y24.672 E1.23351
G1 X95.799 Y24.797 E1.25318
G1 X96.164 Y24.886 E1.26568
G1 X98.695 Y25.47 E1.35207
G1 X101.223 Y25.98 E1.43785
G1 X103.669 Y26.397 E1.52037
G1 X106.155 Y26.752 E1.6039
G1 X108.648 Y27.036 E1.68735
G1 X111.178 Y27.253 E1.77181
G1 X113.681 Y27.394 E1.85519
G1 X116.178 Y27.466 E1.93828
G1 X118.709 Y27.467 E2.02246
G1 X121.224 Y27.398 E2.10614
G1 X123.742 Y27.256 E2.19002
G1 X126.272 Y27.041 E2.27447
G1 X128.732 Y26.763 E2.35681
G1 X131.264 Y26.403 E2.44187
G1 X133.726 Y25.982 E2.52495
G1 X136.151 Y25.498 E2.60719
G1 X138.865 Y24.872 E2.69983
G1 X139.128 Y24.807 E2.70884
G1 X140.047 Y24.621 E2.74003
G1 X140.979 Y24.514 E2.77123
G1 X141.606 Y24.487 E2.7921
G1 X142.459 Y24.476 E2.82048
G1 X164.06 Y24.475 E3.53893
G1 X164.923 Y24.486 E3.56764
G1 X165.859 Y24.539 E3.59882
G1 X166.788 Y24.672 E3.63003
G1 X167.701 Y24.884 E3.66121
G1 X168.594 Y25.172 E3.69241
G1 X169.458 Y25.536 E3.7236
G1 X170.289 Y25.971 E3.75479
G1 X171.079 Y26.476 E3.78598
G1 X172.032 Y27.225 E3.82629
G1 X172.852 Y27.946 E3.86261
G1 X174.818 Y29.626 E3.94862
G1 X176.783 Y31.211 E4.03259
G1 X178.775 Y32.727 E4.11585
G1 X180.821 Y34.195 E4.1996
G1 X182.9 Y35.598 E4.28302
G1 X185.037 Y36.955 E4.36722
G1 X187.207 Y38.248 E4.45123
G1 X189.389 Y39.466 E4.53435
G1 X191.631 Y40.635 E4.61845
G1 X193.911 Y41.744 E4.70277
G1 X196.188 Y42.772 E4.78587
G1 X198.514 Y43.746 E4.86974
G1 X200.867 Y44.65 E4.95358
G1 X203.306 Y45.511 E5.03961
G1 X204.056 Y45.765 E5.06594
G1 X204.931 Y46.103 E5.09714
G1 X205.773 Y46.515 E5.12832
G1 X206.578 Y46.997 E5.15953
G1 X207.339 Y47.545 E5.19072
G1 X208.05 Y48.157 E5.22192
G1 X208.706 Y48.826 E5.25308
G1 X209.303 Y49.55 E5.28429
G1 X209.98 Y50.555 E5.3246
G1 X210.438 Y51.327 E5.35445
G1 X221.295 Y70.134 E6.07672
G1 X221.625 Y70.723 E6.09918
G1 X222.049 Y71.56 E6.13039
G1 X222.399 Y72.43 E6.16158
G1 X222.674 Y73.327 E6.19278
G1 X222.871 Y74.244 E6.22398
G1 X222.99 Y75.174 E6.25516
G1 X223.029 Y76.111 E6.28635
G1 X222.988 Y77.048 E6.31755
G1 X222.816 Y78.254 E6.35806
G1 X222.6 Y79.335 E6.39473
G1 X222.13 Y81.869 E6.48045
G1 X221.74 Y84.358 E6.56424
G1 X221.422 Y86.849 E6.64777
G1 X221.176 Y89.336 E6.73089
G1 X220.996 Y91.882 E6.81578
G1 X220.89 Y94.38 E6.89894
G1 X220.855 Y96.896 E6.98263
G1 X220.892 Y99.426 E7.06679
G1 X220.998 Y101.935 E7.15031
G1 X221.177 Y104.434 E7.23364
G1 X221.427 Y106.953 E7.31783
G1 X221.745 Y109.435 E7.40106
G1 X222.14 Y111.948 E7.48567
G1 X222.61 Y114.477 E7.57122
G1 X222.785 Y115.354 E7.60097
G1 X222.929 Y116.28 E7.63214
G1 X222.993 Y117.216 E7.66334
G1 X222.978 Y118.154 E7.69454
G1 X222.882 Y119.087 E7.72574
G1 X222.784 Y119.655 E7.74491
G1 X222.602 Y120.568 E7.77587
G1 X222.132 Y123.1 E7.86153
G1 X221.741 Y125.601 E7.94572
G1 X221.419 Y128.115 E8.03002
G1 X221.175 Y130.583 E8.11251
G1 X220.995 Y133.132 E8.1975
G1 X220.89 Y135.618 E8.28026
G1 X220.855 Y138.142 E8.36421
G1 X220.892 Y140.672 E8.44837
G1 X220.998 Y143.181 E8.53189
G1 X221.177 Y145.684 E8.61536
G1 X221.425 Y148.177 E8.69868
G1 X221.748 Y150.697 E8.78318
G1 X222.138 Y153.181 E8.86681
G1 X222.598 Y155.65 E8.95035
G1 X222.817 Y156.748 E8.98759
G1 X222.961 Y157.675 E9.01879
G1 X223.025 Y158.611 E9.04999
G1 X223.01 Y159.549 E9.08119
G1 X222.915 Y160.482 E9.11239
G1 X222.74 Y161.403 E9.14357
G1 X222.488 Y162.306 E9.17475
G1 X222.16 Y163.185 E9.20595
G1 X221.632 Y164.264 E9.24591
G1 X221.207 Y165.024 E9.27487
G1 X210.332 Y183.855 E9.99813
G1 X209.969 Y184.462 E10.02166
G1 X209.453 Y185.245 E10.05284
G1 X208.873 Y185.982 E10.08404
G1 X208.233 Y186.667 E10.11522
G1 X207.536 Y187.295 E10.14642
G1 X206.788 Y187.861 E10.17762
G1 X205.995 Y188.361 E10.2088
G1 X205.162 Y188.792 E10.23999
G1 X204.05 Y189.237 E10.27983
G1 X203.233 Y189.513 E10.30851
G1 X200.823 Y190.365 E10.39353
G1 X198.456 Y191.278 E10.47791
G1 X196.18 Y192.231 E10.55998
G1 X193.851 Y193.285 E10.64501
G1 X191.578 Y194.39 E10.72907
G1 X189.37 Y195.543 E10.81192
G1 X187.152 Y196.782 E10.89642
G1 X184.993 Y198.07 E10.98003
G1 X182.883 Y199.411 E11.06319
G1 X180.777 Y200.834 E11.14772
G1 X178.757 Y202.284 E11.23042
G1 X176.725 Y203.833 E11.31541
G1 X174.783 Y205.4 E11.3984
G1 X172.803 Y207.093 E11.48505
G1 X172.033 Y207.771 E11.51917
G1 X171.303 Y208.36 E11.55037
G1 X170.525 Y208.885 E11.58159
G1 X169.706 Y209.341 E11.61277
G1 X168.851 Y209.726 E11.64395
G1 X167.966 Y210.037 E11.67515
G1 X167.058 Y210.272 E11.70635
G1 X166.133 Y210.428 E11.73755
G1 X164.956 Y210.511 E11.77679
G1 X164.071 Y210.525 E11.80623
G1 X142.315 Y210.525 E12.52984
G1 X141.612 Y210.515 E12.55322
G1 X140.675 Y210.462 E12.58444
G1 X140.033 Y210.378 E12.60597
G1 X139.122 Y210.195 E12.63688
G1 X138.717 Y210.095 E12.65075
G1 X136.261 Y209.529 E12.73458
G1 X133.739 Y209.021 E12.82015
G1 X131.296 Y208.604 E12.90258
G1 X128.783 Y208.246 E12.987
G1 X126.3 Y207.963 E13.07012
G1 X123.796 Y207.75 E13.15371
G1 X121.264 Y207.605 E13.23806
G1 X118.778 Y207.534 E13.32078
G1 X116.254 Y207.534 E13.40473
G1 X113.729 Y207.605 E13.48874
G1 X111.213 Y207.746 E13.57256
G1 X108.697 Y207.96 E13.65654
G1 X106.217 Y208.241 E13.73955
G1 X103.68 Y208.602 E13.82478
G1 X101.229 Y209.021 E13.90749
G1 X98.797 Y209.507 E13.98998
G1 X96.186 Y210.109 E14.0791
G1 X95.833 Y210.196 E14.09119
G1 X94.914 Y210.381 E14.12237
G1 X93.982 Y210.487 E14.15357
G1 X93.36 Y210.514 E14.17427
G1 X92.507 Y210.525 E14.20265
G1 X70.736 Y210.525 E14.92675
G1 X70.029 Y210.514 E14.95027
G1 X69.093 Y210.459 E14.98146
G1 X68.164 Y210.325 E15.01267
G1 X67.251 Y210.112 E15.04386
G1 X66.359 Y209.823 E15.07504
G1 X65.495 Y209.458 E15.10624
G1 X64.665 Y209.021 E15.13744
G1 X63.875 Y208.515 E15.16864
G1 X62.936 Y207.775 E15.2084
G1 X62.152 Y207.085 E15.24314
G1 X60.15 Y205.374 E15.33073
G1 X58.189 Y203.793 E15.41451
G1 X56.181 Y202.265 E15.49844
G1 X54.16 Y200.815 E15.58117
G1 X52.06 Y199.398 E15.66543
G1 X49.931 Y198.046 E15.74931
G1 X47.761 Y196.753 E15.83332
G1 X45.579 Y195.535 E15.91644
G1 X43.337 Y194.366 E16.00054
G1 X41.057 Y193.257 E16.08486
G1 X38.78 Y192.229 E16.16796
G1 X36.454 Y191.255 E16.25183
G1 X34.101 Y190.351 E16.33567
G1 X31.662 Y189.49 E16.4217
G1 X30.912 Y189.236 E16.44803
G1 X30.037 Y188.898 E16.47923
G1 X29.195 Y188.486 E16.51041
G1 X28.39 Y188.004 E16.54162
G1 X27.629 Y187.456 E16.57281
G1 X26.918 Y186.844 E16.60401
G1 X26.262 Y186.175 E16.63517
G1 X25.665 Y185.451 E16.66638
G1 X24.989 Y184.448 E16.70661
G1 X24.588 Y183.775 E16.73267
G1 X13.673 Y164.867 E17.45881
G1 X13.343 Y164.278 E17.48127
G1 X12.919 Y163.441 E17.51248
G1 X12.569 Y162.571 E17.54367
G1 X12.294 Y161.674 E17.57487
G1 X12.097 Y160.757 E17.60607
G1 X11.978 Y159.827 E17.63725
G1 X11.939 Y158.89 E17.66844
G1 X11.98 Y157.953 E17.69964
G1 X12.153 Y156.742 E17.74032
G1 X12.372 Y155.65 E17.77737
G1 X12.86 Y153.023 E17.86624
G1 X13.239 Y150.602 E17.94774
G1 X13.563 Y148.071 E18.03261
G1 X13.81 Y145.576 E18.116
G1 X13.987 Y143.081 E18.19919
G1 X14.094 Y140.56 E18.28312
G1 X14.13 Y138.037 E18.36704
G1 X14.094 Y135.514 E18.45096
G1 X13.987 Y132.992 E18.53492
G1 X13.81 Y130.497 E18.61811
G1 X13.562 Y127.995 E18.70174
G1 X13.245 Y125.513 E18.78496
G1 X12.851 Y123.007 E18.86933
G1 X12.354 Y120.336 E18.9597
G1 X12.219 Y119.666 E18.98243
G1 X12.073 Y118.74 E19.01361
G1 X12.007 Y117.804 E19.04482
G1 X12.021 Y116.866 E19.07602
G1 X12.115 Y115.933 E19.10721
G1 X12.288 Y115.012 E19.13838
G1 X12.539 Y114.108 E19.16958
G1 X12.866 Y113.229 E19.20077
G1 X13.404 Y112.127 E19.24156
G1 X13.829 Y111.37 E19.27044
G1 X24.686 Y92.569 E19.99253
G1 X25.056 Y91.948 E20.01658
G1 X25.57 Y91.163 E20.04779
G1 X26.149 Y90.425 E20.07898
G1 X26.555 Y89.99 E20.09877
G1 X26.688 Y89.839 E20.10547
G1 X28.439 Y87.958 E20.19094
G1 X30.108 Y86.063 E20.27493
G1 X31.714 Y84.128 E20.35857
G1 X33.267 Y82.148 E20.44226
G1 X34.776 Y80.107 E20.52669
G1 X36.192 Y78.075 E20.60906
G1 X37.595 Y75.936 E20.69414
G1 X38.903 Y73.809 E20.77719
G1 X40.176 Y71.604 E20.86188
G1 X41.357 Y69.416 E20.94457
G1 X42.492 Y67.167 E21.02836
G1 X43.558 Y64.893 E21.11189
G1 X44.573 Y62.56 E21.19651
G1 X45.503 Y60.247 E21.27943
G1 X46.384 Y57.863 E21.36396
G1 X47.171 Y55.531 E21.44582
G1 X47.953 Y52.976 E21.5347
G1 X48.145 Y52.32 E21.55743
G1 X48.447 Y51.432 E21.58863
G1 X48.822 Y50.572 E21.61983
G1 X49.097 Y50.047 E21.63954
G1 X49.531 Y49.271 E21.66911
G1 X60.399 Y30.452 E22.39192
G0 F6000 X60.671 Y30.778
G1 F1200 X61.096 Y30.064 E22.41955
G1 X61.6 Y29.294 E22.45016
G1 X62.17 Y28.571 E22.48078
G1 X62.801 Y27.9 E22.51142
G1 X63.487 Y27.286 E22.54204
G1 X64.224 Y26.734 E22.57266
G1 X65.006 Y26.248 E22.60329
G1 X65.827 Y25.832 E22.6339
G1 X66.681 Y25.489 E22.66451
G1 X67.562 Y25.221 E22.69514
G1 X68.462 Y25.03 E22.72574
G1 X69.376 Y24.918 E22.75636
G1 X70.051 Y24.887 E22.77884
G1 X70.896 Y24.876 E22.80695
G1 X92.648 Y24.876 E23.53042
G1 X93.351 Y24.886 E23.5538
G1 X94.27 Y24.939 E23.58442
G1 X95.181 Y25.072 E23.61504
G1 X95.705 Y25.185 E23.63287
G1 X96.076 Y25.275 E23.64557
G1 X98.632 Y25.865 E23.73282
G1 X101.142 Y26.371 E23.81798
G1 X103.623 Y26.795 E23.90169
G1 X106.089 Y27.147 E23.98455
G1 X108.636 Y27.437 E24.06981
G1 X111.121 Y27.65 E24.15276
G1 X113.648 Y27.793 E24.23694
G1 X116.202 Y27.866 E24.32192
G1 X118.72 Y27.867 E24.40567
G1 X121.257 Y27.797 E24.49009
G1 X123.764 Y27.656 E24.5736
G1 X126.279 Y27.442 E24.65755
G1 X128.797 Y27.158 E24.74183
G1 X131.322 Y26.799 E24.82666
G1 X133.801 Y26.375 E24.91031
G1 X136.247 Y25.886 E24.99327
G1 X138.923 Y25.269 E25.08461
G1 X139.224 Y25.195 E25.09492
G1 X140.126 Y25.013 E25.12553
G1 X141.041 Y24.911 E25.15615
G1 X141.612 Y24.887 E25.17516
G1 X142.46 Y24.876 E25.20336
G1 X164.061 Y24.875 E25.92182
G1 X164.917 Y24.886 E25.95029
G1 X165.836 Y24.939 E25.98091
G1 X166.747 Y25.072 E26.01153
G1 X167.643 Y25.283 E26.04214
G1 X168.518 Y25.571 E26.07278
G1 X169.364 Y25.934 E26.1034
G1 X170.175 Y26.369 E26.13401
G1 X170.946 Y26.872 E26.16463
G1 X171.768 Y27.526 E26.19957
G1 X172.571 Y28.232 E26.23513
G1 X174.553 Y29.926 E26.32185
G1 X176.536 Y31.525 E26.40657
G1 X178.545 Y33.054 E26.49054
G1 X180.586 Y34.518 E26.57409
G1 X182.708 Y35.951 E26.65925
G1 X184.823 Y37.294 E26.74258
G1 X186.986 Y38.583 E26.82633
G1 X189.216 Y39.827 E26.91126
G1 X191.45 Y40.992 E26.99506
G1 X193.722 Y42.097 E27.07909
G1 X196.035 Y43.141 E27.16349
G1 X198.394 Y44.129 E27.24855
G1 X200.706 Y45.018 E27.33094
G1 X203.17 Y45.888 E27.41785
G1 X203.928 Y46.144 E27.44446
G1 X204.786 Y46.476 E27.47506
G1 X205.612 Y46.882 E27.50567
G1 X206.4 Y47.359 E27.53631
G1 X207.144 Y47.901 E27.56693
G1 X207.838 Y48.507 E27.59757
G1 X208.476 Y49.17 E27.62817
G1 X209.055 Y49.886 E27.6588
G1 X209.636 Y50.76 E27.69371
G1 X210.092 Y51.527 E27.72338
G1 X220.879 Y70.211 E28.44095
G1 X221.276 Y70.919 E28.46795
G1 X221.691 Y71.741 E28.49857
G1 X222.033 Y72.596 E28.5292
G1 X222.299 Y73.477 E28.55981
G1 X222.488 Y74.378 E28.59043
G1 X222.598 Y75.292 E28.62105
G1 X222.628 Y76.212 E28.65166
G1 X222.579 Y77.132 E28.68231
G1 X222.424 Y78.175 E28.71738
G1 X222.21 Y79.248 E28.75377
G1 X221.735 Y81.805 E28.84027
G1 X221.35 Y84.263 E28.92302
G1 X221.022 Y86.83 E29.00909
G1 X220.777 Y89.301 E29.09168
G1 X220.596 Y91.873 E29.17744
G1 X220.49 Y94.357 E29.26013
G1 X220.455 Y96.895 E29.34455
G1 X220.492 Y99.449 E29.42951
G1 X220.598 Y101.947 E29.51267
G1 X220.778 Y104.467 E29.5967
G1 X221.03 Y107.007 E29.68159
G1 X221.346 Y109.477 E29.76441
G1 X221.745 Y112.012 E29.84977
G1 X222.217 Y114.549 E29.9356
G1 X222.393 Y115.432 E29.96554
G1 X222.533 Y116.342 E29.99617
G1 X222.594 Y117.26 E30.02677
G1 X222.575 Y118.181 E30.0574
G1 X222.476 Y119.096 E30.08802
G1 X222.392 Y119.577 E30.10426
G1 X222.209 Y120.495 E30.13539
G1 X221.737 Y123.037 E30.22138
G1 X221.343 Y125.56 E30.30631
G1 X221.022 Y128.061 E30.39018
G1 X220.776 Y130.548 E30.4733
G1 X220.597 Y133.088 E30.55799
G1 X220.49 Y135.631 E30.64265
G1 X220.455 Y138.141 E30.72614
G1 X220.492 Y140.695 E30.81109
G1 X220.598 Y143.191 E30.89419
G1 X220.778 Y145.715 E30.97835
G1 X221.029 Y148.234 E31.06254
G1 X221.35 Y150.738 E31.14651
G1 X221.744 Y153.244 E31.23088
G1 X222.229 Y155.85 E31.31905
G1 X222.424 Y156.827 E31.35218
G1 X222.565 Y157.736 E31.38278
G1 X222.626 Y158.655 E31.41341
G1 X222.607 Y159.576 E31.44405
G1 X222.509 Y160.491 E31.47466
G1 X222.331 Y161.394 E31.50527
G1 X222.076 Y162.279 E31.5359
G1 X221.745 Y163.138 E31.56652
G1 X221.283 Y164.069 E31.60109
G1 X220.861 Y164.824 E31.62986
G1 X210.071 Y183.51 E32.34753
G1 X209.625 Y184.256 E32.37644
G1 X209.119 Y185.025 E32.40705
G1 X208.548 Y185.747 E32.43767
G1 X207.916 Y186.417 E32.4683
G1 X207.229 Y187.029 E32.49891
G1 X206.491 Y187.58 E32.52954
G1 X205.708 Y188.064 E32.56016
G1 X204.886 Y188.479 E32.59078
G1 X203.922 Y188.858 E32.62523
G1 X203.12 Y189.129 E32.65339
G1 X200.683 Y189.991 E32.73937
G1 X198.336 Y190.896 E32.82303
G1 X195.967 Y191.888 E32.90845
G1 X193.69 Y192.918 E32.99157
G1 X191.397 Y194.033 E33.07638
G1 X189.168 Y195.197 E33.16001
G1 X186.958 Y196.432 E33.24422
G1 X184.795 Y197.722 E33.32798
G1 X182.651 Y199.084 E33.41246
G1 X180.566 Y200.494 E33.49618
G1 X178.51 Y201.969 E33.58034
G1 X176.494 Y203.505 E33.66464
G1 X174.517 Y205.101 E33.74915
G1 X172.527 Y206.803 E33.83624
G1 X171.768 Y207.471 E33.86987
G1 X171.052 Y208.048 E33.90045
G1 X170.287 Y208.562 E33.93111
G1 X169.481 Y209.007 E33.96173
G1 X168.64 Y209.38 E33.99233
G1 X167.769 Y209.679 E34.02296
G1 X166.875 Y209.901 E34.05359
G1 X165.966 Y210.045 E34.08421
G1 X164.949 Y210.111 E34.1181
G1 X164.07 Y210.125 E34.14734
G1 X142.32 Y210.125 E34.87075
G1 X141.617 Y210.115 E34.89413
G1 X140.698 Y210.062 E34.92475
G1 X140.096 Y209.983 E34.94494
G1 X139.217 Y209.806 E34.97477
G1 X138.903 Y209.729 E34.98552
G1 X136.283 Y209.124 E35.07496
G1 X133.847 Y208.634 E35.1576
G1 X131.349 Y208.207 E35.24189
G1 X128.853 Y207.851 E35.32575
G1 X126.346 Y207.566 E35.40967
G1 X123.815 Y207.35 E35.49415
G1 X121.296 Y207.207 E35.57807
G1 X118.755 Y207.134 E35.66262
G1 X116.243 Y207.134 E35.74617
G1 X113.696 Y207.205 E35.83092
G1 X111.191 Y207.346 E35.91436
G1 X108.654 Y207.561 E35.99905
G1 X106.187 Y207.841 E36.08163
G1 X103.628 Y208.205 E36.1676
G1 X101.155 Y208.628 E36.25104
G1 X98.694 Y209.12 E36.33452
G1 X96.066 Y209.726 E36.42422
G1 X95.737 Y209.807 E36.43549
G1 X94.835 Y209.988 E36.46609
G1 X93.92 Y210.091 E36.49671
G1 X93.354 Y210.114 E36.51555
G1 X92.506 Y210.125 E36.54376
G1 X70.742 Y210.125 E37.26763
G1 X70.035 Y210.114 E37.29115
G1 X69.116 Y210.059 E37.32177
G1 X68.205 Y209.926 E37.35239
G1 X67.309 Y209.713 E37.38302
G1 X66.435 Y209.424 E37.41364
G1 X65.59 Y209.06 E37.44424
G1 X64.779 Y208.624 E37.47487
G1 X64.009 Y208.119 E37.50549
G1 X63.2 Y207.475 E37.53989
G1 X62.387 Y206.76 E37.5759
G1 X60.394 Y205.057 E37.66309
G1 X58.437 Y203.479 E37.7467
G1 X56.434 Y201.954 E37.83043
G1 X54.372 Y200.475 E37.91483
G1 X52.277 Y199.061 E37.9989
G1 X50.145 Y197.707 E38.0829
