;FLAVOR:Marlin
;TIME:12162
;Filament used: 9.10982m
;Layer height: 0.2
;MINX:65.5
;MINY:48.65
;MINZ:0.2
;MAXX:154.5
;MAXY:171.3
;MAXZ:27
;Generated with Cura_SteamEngine master
M140 S60
M105
M190 S60
M104 S200
M105
M109 S200
M82 ;absolute extrusion mode
; Ender 3 Custom Start G-code
G92 E0 ; Reset Extruder
G28 ; Home all axes
G1 Z2.0 F3000 ; Move Z Axis up little to prevent scratching of Heat Bed
G1 X0.1 Y20 Z0.3 F5000.0 ; Move to start position
G1 X0.1 Y200.0 Z0.3 F1500.0 E15 ; Draw the first line
G1 X0.4 Y200.0 Z0.3 F5000.0 ; Move to side a little
G1 X0.4 Y20 Z0.3 F1500.0 E30 ; Draw the second line
G92 E0 ; Reset Extruder
G1 Z2.0 F3000 ; Move Z Axis up little to prevent scratching of Heat Bed
G1 X5 Y20 Z0.3 F5000.0 ; Move over to prevent blob squish
G92 E0
G92 E0
G1 F1500 E-6.5
;LAYER_COUNT:135
;LAYER:0
M107
G0 F6000 X68.066 Y52.608 Z0.2
;TYPE:SKIRT
G1 F1500 E0
G1 F1200 X68.698 Y51.914 E0.03122
G1 X69.386 Y51.277 E0.0624
G1 X70.126 Y50.701 E0.09359
G1 X70.912 Y50.189 E0.12479
G1 X71.739 Y49.747 E0.15598
G1 X72.601 Y49.377 E0.18718
G1 X73.491 Y49.081 E0.21838
G1 X74.403 Y48.863 E0.24957
G1 X75.33 Y48.722 E0.28075
G1 X76.201 Y48.663 E0.30979
G1 X76.522 Y48.654 E0.32047
G1 X76.83 Y48.65 E0.33071
G1 X142.793 Y48.65 E2.52465
G1 X143.649 Y48.661 E2.55313
G1 X144.585 Y48.715 E2.58431
G1 X145.513 Y48.847 E2.61548
G1 X146.427 Y49.059 E2.64669
G1 X147.319 Y49.348 E2.67788
G1 X148.184 Y49.711 E2.70908
G1 X149.014 Y50.147 E2.74026
G1 X149.805 Y50.652 E2.77147
G1 X150.549 Y51.223 E2.80267
G1 X151.242 Y51.855 E2.83386
G1 X151.879 Y52.543 E2.86505
G1 X152.454 Y53.284 E2.89624
G1 X152.965 Y54.07 E2.92743
G1 X153.407 Y54.898 E2.95864
G1 X153.776 Y55.76 E2.98983
G1 X154.071 Y56.65 E3.02101
G1 X154.289 Y57.562 E3.0522
G1 X154.429 Y58.49 E3.08342
G1 X154.487 Y59.351 E3.11212
G1 X154.496 Y59.671 E3.12277
G1 X154.5 Y59.98 E3.13304
G1 X154.499 Y108.088 E4.73312
G1 X154.488 Y108.825 E4.75764
G1 X154.398 Y110.075 E4.79932
G1 X154.326 Y110.623 E4.8177
G1 X154.072 Y112.4 E4.87741
G1 X153.791 Y114.875 E4.96026
G1 X153.575 Y117.4 E5.04454
G1 X153.431 Y119.918 E5.12843
G1 X153.359 Y122.424 E5.21182
G1 X153.35 Y123.788 E5.25718
G1 X153.349 Y159.715 E6.45212
G1 X153.339 Y160.442 E6.4763
G1 X153.286 Y161.379 E6.50752
G1 X153.154 Y162.307 E6.53869
G1 X152.943 Y163.221 E6.56989
G1 X152.654 Y164.113 E6.60108
G1 X152.291 Y164.978 E6.63228
G1 X151.856 Y165.809 E6.66348
G1 X151.351 Y166.599 E6.69466
G1 X150.781 Y167.344 E6.72586
G1 X150.15 Y168.038 E6.75706
G1 X149.461 Y168.675 E6.78827
G1 X148.721 Y169.251 E6.81946
G1 X147.935 Y169.762 E6.85064
G1 X147.108 Y170.204 E6.88183
G1 X146.246 Y170.574 E6.91303
G1 X145.356 Y170.869 E6.94421
G1 X144.444 Y171.088 E6.97541
G1 X143.517 Y171.228 E7.00659
G1 X142.649 Y171.287 E7.03553
G1 X142.329 Y171.296 E7.04617
G1 X142.02 Y171.3 E7.05645
G1 X77.045 Y171.298 E9.21753
G1 X76.363 Y171.288 E9.24021
G1 X75.426 Y171.234 E9.27143
G1 X74.498 Y171.101 E9.30261
G1 X73.584 Y170.889 E9.33382
G1 X72.692 Y170.6 E9.365
G1 X71.828 Y170.236 E9.39619
G1 X70.998 Y169.8 E9.42737
G1 X70.207 Y169.295 E9.45858
G1 X69.463 Y168.724 E9.48978
G1 X68.77 Y168.092 E9.52097
G1 X68.134 Y167.403 E9.55216
G1 X67.758 Y166.934 E9.57215
G1 X67.222 Y166.165 E9.60333
G1 X66.754 Y165.352 E9.63453
G1 X66.356 Y164.503 E9.66572
G1 X66.032 Y163.623 E9.69691
G1 X65.784 Y162.718 E9.72812
G1 X65.615 Y161.796 E9.75929
G1 X65.512 Y160.551 E9.80084
G1 X65.504 Y160.24 E9.81119
G1 X65.5 Y159.957 E9.8206
G1 X65.501 Y114.236 E11.34129
G1 X65.527 Y112.381 E11.40299
G1 X65.527 Y109.769 E11.48987
G1 X65.502 Y108.566 E11.52989
G1 X65.5 Y108.337 E11.53751
G1 X65.501 Y60.175 E13.13938
G1 X65.51 Y59.51 E13.1615
G1 X65.563 Y58.574 E13.19268
G1 X65.695 Y57.645 E13.22389
G1 X65.906 Y56.731 E13.25509
G1 X66.194 Y55.839 E13.28627
G1 X66.557 Y54.974 E13.31747
G1 X66.992 Y54.143 E13.34867
G1 X67.496 Y53.353 E13.37983
G1 X68.066 Y52.608 E13.41103
G0 F6000 X68.461 Y52.761
G1 F1200 X69.089 Y52.089 E13.44162
G1 X69.774 Y51.473 E13.47226
G1 X70.51 Y50.92 E13.50288
G1 X71.291 Y50.432 E13.53351
G1 X72.111 Y50.014 E13.56413
G1 X72.965 Y49.669 E13.59476
G1 X73.845 Y49.399 E13.62538
G1 X74.745 Y49.207 E13.65598
G1 X75.659 Y49.093 E13.68662
G1 X76.212 Y49.063 E13.70504
G1 X76.533 Y49.054 E13.71572
G1 X76.83 Y49.05 E13.7256
G1 X142.793 Y49.05 E15.91954
G1 X143.643 Y49.061 E15.94781
G1 X144.562 Y49.114 E15.97843
G1 X145.473 Y49.247 E16.00905
G1 X146.369 Y49.458 E16.03967
G1 X147.243 Y49.746 E16.07027
G1 X148.09 Y50.109 E16.10092
G1 X148.901 Y50.544 E16.13153
G1 X149.671 Y51.048 E16.16214
G1 X150.395 Y51.617 E16.19277
G1 X151.067 Y52.247 E16.2234
G1 X151.682 Y52.932 E16.25402
G1 X152.235 Y53.668 E16.28464
G1 X152.722 Y54.449 E16.31525
G1 X153.139 Y55.27 E16.34588
G1 X153.484 Y56.124 E16.37651
G1 X153.753 Y57.004 E16.40712
G1 X153.945 Y57.905 E16.43776
G1 X154.058 Y58.818 E16.46836
G1 X154.087 Y59.362 E16.48648
G1 X154.096 Y59.682 E16.49713
G1 X154.1 Y59.98 E16.50704
G1 X154.099 Y108.082 E18.10692
G1 X154.088 Y108.819 E18.13143
G1 X154.001 Y110.023 E18.17158
G1 X153.93 Y110.567 E18.18983
G1 X153.677 Y112.34 E18.2494
G1 X153.39 Y114.863 E18.33385
G1 X153.178 Y117.342 E18.41661
G1 X153.033 Y119.885 E18.50132
G1 X152.959 Y122.456 E18.58687
G1 X152.95 Y123.785 E18.63107
G1 X152.949 Y159.71 E19.82595
G1 X152.939 Y160.437 E19.85013
G1 X152.886 Y161.356 E19.88074
G1 X152.754 Y162.267 E19.91136
G1 X152.543 Y163.163 E19.94198
G1 X152.256 Y164.038 E19.97261
G1 X151.893 Y164.884 E20.00322
G1 X151.459 Y165.696 E20.03385
G1 X150.955 Y166.467 E20.06448
G1 X150.387 Y167.191 E20.09509
G1 X149.758 Y167.863 E20.1257
G1 X149.073 Y168.478 E20.15632
G1 X148.337 Y169.031 E20.18694
G1 X147.556 Y169.519 E20.21757
G1 X146.736 Y169.937 E20.24818
G1 X145.882 Y170.282 E20.27882
G1 X145.002 Y170.551 E20.30942
G1 X144.101 Y170.744 E20.34007
G1 X143.188 Y170.857 E20.37067
G1 X142.638 Y170.887 E20.38899
G1 X142.318 Y170.896 E20.39964
G1 X142.02 Y170.9 E20.40955
G1 X77.051 Y170.898 E22.57043
G1 X76.369 Y170.888 E22.59311
G1 X75.449 Y170.834 E22.62377
G1 X74.539 Y170.701 E22.65435
G1 X73.642 Y170.49 E22.685
G1 X72.768 Y170.201 E22.71562
G1 X71.922 Y169.838 E22.74624
G1 X71.111 Y169.403 E22.77685
G1 X70.341 Y168.899 E22.80746
G1 X69.617 Y168.33 E22.83808
G1 X68.945 Y167.7 E22.86872
G1 X68.092 Y166.713 E22.91211
G1 X67.551 Y165.936 E22.9436
G1 X67.093 Y165.138 E22.9742
G1 X66.706 Y164.302 E23.00484
G1 X66.393 Y163.436 E23.03547
G1 X66.156 Y162.547 E23.06607
G1 X65.997 Y161.64 E23.0967
G1 X65.912 Y160.541 E23.13336
G1 X65.904 Y160.23 E23.14371
G1 X65.9 Y159.957 E23.15279
G1 X65.901 Y114.241 E24.67331
G1 X65.927 Y112.386 E24.73501
G1 X65.927 Y109.76 E24.82235
G1 X65.902 Y108.557 E24.86237
G1 X65.9 Y108.337 E24.86969
G1 X65.901 Y60.181 E26.47137
G1 X65.91 Y59.516 E26.49349
G1 X65.962 Y58.596 E26.52413
G1 X66.094 Y57.685 E26.55475
G1 X66.305 Y56.789 E26.58537
G1 X66.592 Y55.914 E26.61599
G1 X66.955 Y55.068 E26.64661
G1 X67.389 Y54.256 E26.67724
G1 X67.892 Y53.485 E26.70785
G1 X68.461 Y52.761 E26.73848
G0 F6000 X68.855 Y52.917
G1 F1200 X69.481 Y52.267 E26.7685
G1 X70.162 Y51.674 E26.79853
G1 X70.894 Y51.144 E26.82859
G1 X71.669 Y50.681 E26.85862
G1 X72.482 Y50.288 E26.88865
G1 X73.327 Y49.968 E26.9187
G1 X74.196 Y49.725 E26.94871
G1 X75.084 Y49.559 E26.97876
G1 X76.223 Y49.463 E27.01678
G1 X76.544 Y49.454 E27.02746
G1 X76.83 Y49.45 E27.03697
G1 X142.793 Y49.45 E29.23091
G1 X143.637 Y49.461 E29.25898
G1 X144.539 Y49.514 E29.28904
G1 X145.432 Y49.646 E29.31906
G1 X146.31 Y49.857 E29.34909
G1 X147.166 Y50.145 E29.37913
G1 X147.993 Y50.507 E29.40916
G1 X148.785 Y50.942 E29.43921
G1 X149.536 Y51.444 E29.46926
G1 X150.239 Y52.011 E29.4993
G1 X150.889 Y52.638 E29.52933
G1 X151.481 Y53.32 E29.55937
G1 X152.011 Y54.051 E29.5894
G1 X152.473 Y54.827 E29.61944
G1 X152.866 Y55.64 E29.64948
G1 X153.184 Y56.485 E29.6795
G1 X153.427 Y57.355 E29.70955
G1 X153.592 Y58.243 E29.73959
G1 X153.687 Y59.373 E29.77731
G1 X153.696 Y59.693 E29.78795
G1 X153.7 Y59.98 E29.7975
G1 X153.699 Y108.076 E31.39718
G1 X153.688 Y108.813 E31.42169
G1 X153.604 Y109.972 E31.46034
G1 X153.534 Y110.51 E31.47839
G1 X153.278 Y112.305 E31.53869
G1 X152.996 Y114.785 E31.62171
G1 X152.776 Y117.356 E31.70754
G1 X152.633 Y119.851 E31.79066
G1 X152.559 Y122.442 E31.87687
G1 X152.55 Y123.782 E31.92144
G1 X152.549 Y159.704 E33.11621
G1 X152.539 Y160.431 E33.14039
G1 X152.487 Y161.333 E33.17044
G1 X152.355 Y162.226 E33.20046
G1 X152.144 Y163.105 E33.23053
G1 X151.857 Y163.961 E33.26056
G1 X151.495 Y164.788 E33.29059
G1 X151.061 Y165.58 E33.32062
G1 X150.559 Y166.331 E33.35067
G1 X149.993 Y167.034 E33.38069
G1 X149.366 Y167.685 E33.41075
G1 X148.685 Y168.277 E33.44076
G1 X147.954 Y168.807 E33.47079
G1 X147.178 Y169.27 E33.50085
G1 X146.365 Y169.663 E33.53088
G1 X145.52 Y169.983 E33.56093
G1 X144.651 Y170.226 E33.59094
G1 X143.763 Y170.391 E33.62099
G1 X142.627 Y170.487 E33.6589
G1 X142.307 Y170.496 E33.66955
G1 X142.02 Y170.5 E33.6791
G1 X77.056 Y170.498 E35.83981
G1 X76.374 Y170.488 E35.86249
G1 X75.473 Y170.435 E35.89251
G1 X74.58 Y170.302 E35.92254
G1 X73.702 Y170.091 E35.95258
G1 X72.846 Y169.803 E35.98262
G1 X72.019 Y169.44 E36.01265
G1 X71.227 Y169.006 E36.04269
G1 X70.477 Y168.503 E36.07273
G1 X69.774 Y167.936 E36.10277
G1 X69.124 Y167.309 E36.13281
G1 X68.395 Y166.45 E36.17028
G1 X67.88 Y165.708 E36.20032
G1 X67.432 Y164.923 E36.23038
G1 X67.056 Y164.102 E36.26041
G1 X66.754 Y163.251 E36.29045
G1 X66.528 Y162.377 E36.32047
G1 X66.381 Y161.486 E36.35051
G1 X66.311 Y160.53 E36.38239
G1 X66.303 Y160.219 E36.39274
G1 X66.3 Y159.957 E36.40145
G1 X66.301 Y114.247 E37.92177
G1 X66.327 Y112.392 E37.98348
G1 X66.327 Y109.752 E38.07128
G1 X66.302 Y108.549 E38.1113
G1 X66.3 Y108.337 E38.11836
G1 X66.301 Y60.186 E39.71987
G1 X66.31 Y59.521 E39.74199
G1 X66.362 Y58.619 E39.77204
G1 X66.494 Y57.726 E39.80206
G1 X66.704 Y56.848 E39.83209
G1 X66.991 Y55.991 E39.86215
G1 X67.353 Y55.164 E39.89217
G1 X67.786 Y54.372 E39.92219
G1 X68.288 Y53.621 E39.95224
G1 X68.855 Y52.917 E39.9823
G1 F1500 E33.4823
;MESH:TM_Resource_Cubes_-_Copper_and_Gold_-_Parametric_compartment_box.stl
G0 F6000 X75.847 Y109.303
G0 X76.92 Y113.036
G0 X76.92 Y114.121
G0 X141.568 Y114.483
G0 X141.75 Y159.7
;TYPE:WALL-INNER
G1 F1500 E39.9823
G1 F1200 X141.551 Y159.7 E39.98892
G1 X77.1 Y159.699 E42.13257
G1 X77.1 Y114.301 E43.64251
G1 X141.75 Y114.301 E45.79278
G1 X141.75 Y159.501 E47.29614
G1 X141.75 Y159.7 E47.30042
G0 F6000 X142.15 Y160.1
;TYPE:WALL-OUTER
G1 F1200 X76.7 Y160.099 E49.4773
G1 X76.7 Y113.901 E51.01385
G1 X142.15 Y113.901 E53.19073
G1 X142.15 Y160.1 E54.72731
G0 F6000 X141.88 Y159.83
G0 X141.359 Y159.589
G0 X141.36 Y159.31
;TYPE:SKIN
G1 F1200 X77.49 Y159.309 E56.85164
G1 X77.49 Y114.691 E58.33564
G1 X141.36 Y114.691 E60.45996
G1 X141.36 Y159.31 E61.944
G1 F1500 E55.444
G0 F6000 X141.359 Y159.589
G0 X141.64 Y115.178
G0 X141.2 Y115.178
G1 F1500 E61.944
G1 F1200 X140.872 Y114.851 E61.9594
G0 F6000 X140.306 Y114.851
G1 F1200 X141.2 Y115.744 E62.00143
G0 F6000 X141.2 Y116.309
G1 F1200 X139.741 Y114.851 E62.07003
G0 F6000 X139.175 Y114.851
G1 F1200 X141.2 Y116.875 E62.16526
G0 F6000 X141.2 Y117.441
G1 F1200 X138.609 Y114.851 E62.28711
G0 F6000 X138.044 Y114.851
G1 F1200 X141.2 Y118.006 E62.43553
G0 F6000 X141.2 Y118.572
G1 F1200 X137.478 Y114.851 E62.61058
G0 F6000 X136.912 Y114.851
G1 F1200 X141.2 Y119.138 E62.81225
G0 F6000 X141.2 Y119.703
G1 F1200 X136.347 Y114.851 E63.0405
G0 F6000 X135.781 Y114.851
G1 F1200 X141.2 Y120.269 E63.29537
G0 F6000 X141.2 Y120.835
G1 F1200 X135.215 Y114.851 E63.57686
G0 F6000 X134.65 Y114.851
G1 F1200 X141.2 Y121.401 E63.88495
G0 F6000 X141.2 Y121.966
G1 F1200 X134.084 Y114.851 E64.21964
G0 F6000 X133.518 Y114.851
G1 F1200 X141.2 Y122.532 E64.58096
G0 F6000 X141.2 Y123.098
G1 F1200 X132.953 Y114.851 E64.96887
G0 F6000 X132.387 Y114.851
G1 F1200 X141.2 Y123.663 E65.38338
G0 F6000 X141.2 Y124.229
G1 F1200 X131.821 Y114.851 E65.82452
G0 F6000 X131.255 Y114.851
G1 F1200 X141.2 Y124.795 E66.29228
G0 F6000 X141.2 Y125.36
G1 F1200 X130.69 Y114.851 E66.78661
G0 F6000 X130.124 Y114.851
G1 F1200 X141.2 Y125.926 E67.30757
G0 F6000 X141.2 Y126.492
G1 F1200 X129.558 Y114.851 E67.85515
G0 F6000 X128.993 Y114.851
G1 F1200 X141.2 Y127.057 E68.42931
G0 F6000 X141.2 Y127.623
G1 F1200 X128.427 Y114.851 E69.03009
G0 F6000 X127.861 Y114.851
G1 F1200 X141.2 Y128.189 E69.65749
G0 F6000 X141.2 Y128.754
G1 F1200 X127.296 Y114.851 E70.31147
G0 F6000 X126.73 Y114.851
G1 F1200 X141.2 Y129.32 E70.99207
G0 F6000 X141.2 Y129.886
G1 F1200 X126.164 Y114.851 E71.69929
G0 F6000 X125.599 Y114.851
G1 F1200 X141.2 Y130.452 E72.43311
G0 F6000 X141.2 Y131.017
G1 F1200 X125.033 Y114.851 E73.19354
G0 F6000 X124.467 Y114.851
G1 F1200 X141.2 Y131.583 E73.98058
G0 F6000 X141.2 Y132.149
G1 F1200 X123.902 Y114.851 E74.79423
G0 F6000 X123.336 Y114.851
G1 F1200 X141.2 Y132.714 E75.63447
G0 F6000 X141.2 Y133.28
G1 F1200 X122.77 Y114.851 E76.50134
G0 F6000 X122.205 Y114.851
G1 F1200 X141.2 Y133.846 E77.39481
G0 F6000 X141.2 Y134.411
G1 F1200 X121.639 Y114.851 E78.31487
G0 F6000 X121.073 Y114.851
G1 F1200 X141.2 Y134.977 E79.26156
G0 F6000 X141.2 Y135.543
G1 F1200 X120.507 Y114.851 E80.23487
G0 F6000 X119.942 Y114.851
G1 F1200 X141.2 Y136.108 E81.23476
G0 F6000 X141.2 Y136.674
G1 F1200 X119.376 Y114.851 E82.26127
G0 F6000 X118.81 Y114.851
G1 F1200 X141.2 Y137.24 E83.3144
G0 F6000 X141.2 Y137.805
G1 F1200 X118.245 Y114.851 E84.39411
G0 F6000 X117.679 Y114.851
G1 F1200 X141.2 Y138.371 E85.50044
G0 F6000 X141.2 Y138.937
G1 F1200 X117.113 Y114.851 E86.6334
G0 F6000 X116.548 Y114.851
G1 F1200 X141.2 Y139.502 E87.79293
G0 F6000 X141.2 Y140.068
G1 F1200 X115.982 Y114.851 E88.97908
G0 F6000 X115.416 Y114.851
G1 F1200 X141.2 Y140.634 E90.19186
G0 F6000 X141.2 Y141.2
G1 F1200 X114.851 Y114.851 E91.43124
G0 F6000 X114.285 Y114.851
G1 F1200 X141.2 Y141.765 E92.69721
G0 F6000 X141.2 Y142.331
G1 F1200 X113.719 Y114.851 E93.98981
G0 F6000 X113.154 Y114.851
G1 F1200 X141.2 Y142.897 E95.30901
G0 F6000 X141.2 Y143.462
G1 F1200 X112.588 Y114.851 E96.65481
G0 F6000 X112.022 Y114.851
G1 F1200 X141.2 Y144.028 E98.02723
G0 F6000 X141.2 Y144.594
G1 F1200 X111.456 Y114.851 E99.42627
G0 F6000 X110.891 Y114.851
G1 F1200 X141.2 Y145.159 E100.85189
G0 F6000 X141.2 Y145.725
G1 F1200 X110.325 Y114.851 E102.30413
G0 F6000 X109.759 Y114.851
G1 F1200 X141.2 Y146.291 E103.783
G0 F6000 X141.2 Y146.856
G1 F1200 X109.194 Y114.851 E105.28844
G0 F6000 X108.628 Y114.851
G1 F1200 X141.2 Y147.422 E106.8205
G0 F6000 X141.2 Y147.988
G1 F1200 X108.062 Y114.851 E108.37919
G0 F6000 X107.497 Y114.851
G1 F1200 X141.2 Y148.553 E109.96445
G0 F6000 X141.2 Y149.119
G1 F1200 X106.931 Y114.851 E111.57633
G0 F6000 X106.365 Y114.851
G1 F1200 X141.2 Y149.685 E113.21484
G0 F6000 X141.2 Y150.25
G1 F1200 X105.8 Y114.851 E114.87993
G0 F6000 X105.234 Y114.851
G1 F1200 X141.2 Y150.816 E116.57163
G0 F6000 X141.2 Y151.382
G1 F1200 X104.668 Y114.851 E118.28996
G0 F6000 X104.103 Y114.851
G1 F1200 X141.2 Y151.948 E120.03489
G0 F6000 X141.2 Y152.513
G1 F1200 X103.537 Y114.851 E121.80642
G0 F6000 X102.971 Y114.851
G1 F1200 X141.2 Y153.079 E123.60457
G0 F6000 X141.2 Y153.645
G1 F1200 X102.406 Y114.851 E125.42932
G0 F6000 X101.84 Y114.851
G1 F1200 X141.2 Y154.21 E127.28067
G0 F6000 X141.2 Y154.776
G1 F1200 X101.274 Y114.851 E129.15865
G0 F6000 X100.708 Y114.851
G1 F1200 X141.2 Y155.342 E131.06324
G0 F6000 X141.2 Y155.907
G1 F1200 X100.143 Y114.851 E132.99441
G0 F6000 X99.577 Y114.851
G1 F1200 X141.2 Y156.473 E134.95221
G0 F6000 X141.2 Y157.039
G1 F1200 X99.011 Y114.851 E136.93663
G0 F6000 X98.446 Y114.851
G1 F1200 X141.2 Y157.604 E138.94762
G0 F6000 X141.2 Y158.17
G1 F1200 X97.88 Y114.851 E140.98524
G0 F6000 X97.314 Y114.851
G1 F1200 X141.2 Y158.736 E143.04948
G0 F6000 X141.046 Y159.148
G1 F1200 X96.749 Y114.851 E145.13307
G0 F6000 X96.183 Y114.851
G1 F1200 X140.48 Y159.148 E147.21667
G0 F6000 X139.915 Y159.148
G1 F1200 X95.617 Y114.851 E149.30028
G0 F6000 X95.052 Y114.851
G1 F1200 X139.349 Y159.148 E151.38388
G0 F6000 X138.783 Y159.148
G1 F1200 X94.486 Y114.851 E153.46747
G0 F6000 X93.92 Y114.851
G1 F1200 X138.218 Y159.148 E155.55109
G0 F6000 X137.652 Y159.148
