;FLAVOR:Marlin
;TIME:10311
;Filament used: 5.69983m
;Layer height: 0.2
;MINX:65.625
;MINY:60.489
;MINZ:0.2
;MAXX:169.373
;MAXY:134.111
;MAXZ:41
;Generated with Cura_SteamEngine master
M140 S60
M105
M190 S60
M104 S200
M105
M109 S200
M82 ;absolute extrusion mode
; Ender 3 Custom Start G-code
G92 E0 ; Reset Extruder
G28 ; Home all axes
G1 Z2.0 F3000 ; Move Z Axis up little to prevent scratching of Heat Bed
G1 X0.1 Y20 Z0.3 F5000.0 ; Move to start position
G1 X0.1 Y200.0 Z0.3 F1500.0 E15 ; Draw the first line
G1 X0.4 Y200.0 Z0.3 F5000.0 ; Move to side a little
G1 X0.4 Y20 Z0.3 F1500.0 E30 ; Draw the second line
G92 E0 ; Reset Extruder
G1 Z2.0 F3000 ; Move Z Axis up little to prevent scratching of Heat Bed
G1 X5 Y20 Z0.3 F5000.0 ; Move over to prevent blob squish
G92 E0
G92 E0
G1 F1500 E-6.5
;LAYER_COUNT:205
;LAYER:0
M107
;MESH:tm_hex_bottom.stl
G0 F6000 X146.426 Y110.349 Z0.2
;TYPE:WALL-INNER
G1 F1500 E0
G1 F1200 X148.697 Y110.557 E0.07585
G1 X150.972 Y110.372 E0.15177
G1 X153.13 Y109.807 E0.22596
G1 X153.2 Y109.781 E0.22844
G1 X154.667 Y109.139 E0.28171
G1 X155.028 Y108.942 E0.29538
G1 X155.259 Y108.834 E0.30386
G1 X157.129 Y107.539 E0.37952
G1 X158.046 Y106.683 E0.42124
G1 X158.095 Y106.644 E0.42333
G1 X158.599 Y106.085 E0.44836
G1 X158.759 Y105.923 E0.45593
G1 X159.923 Y104.281 E0.52288
G1 X160.119 Y103.987 E0.53463
G1 X160.214 Y103.793 E0.54181
G1 X161.033 Y102.045 E0.60602
G1 X161.224 Y101.495 E0.62538
G1 X161.585 Y100.053 E0.67482
G1 X161.65 Y99.815 E0.68303
G1 X161.77 Y98.994 E0.71062
G1 X161.841 Y97.77 E0.7514
G1 X161.863 Y97.532 E0.75935
G1 X161.821 Y96.443 E0.7956
G1 X161.697 Y95.455 E0.82872
G1 X161.677 Y95.248 E0.83564
G1 X161.37 Y93.91 E0.88129
G1 X161.146 Y93.205 E0.9059
G1 X161.094 Y93.029 E0.912
G1 X160.41 Y91.492 E0.96796
G1 X160.364 Y91.381 E0.97195
G1 X160.202 Y91.081 E0.98329
G1 X160.136 Y90.952 E0.98811
G1 X158.849 Y89.099 E1.06315
G1 X158.542 Y88.741 E1.07884
G1 X157.415 Y87.644 E1.13115
G1 X157.236 Y87.464 E1.13959
G1 X155.638 Y86.326 E1.20484
G1 X155.364 Y86.14 E1.21585
G1 X153.304 Y85.165 E1.29166
G1 X151.101 Y84.565 E1.3676
G1 X148.824 Y84.355 E1.44365
G1 X146.549 Y84.543 E1.51958
G1 X144.346 Y85.121 E1.59533
G1 X142.285 Y86.069 E1.67078
G1 X142.059 Y86.21 E1.67964
G1 X140.472 Y87.317 E1.744
G1 X140.38 Y87.39 E1.7479
G1 X139.223 Y88.494 E1.80109
G1 X138.944 Y88.812 E1.81516
G1 X138.768 Y88.985 E1.82337
G1 X137.463 Y90.832 E1.89859
G1 X137.29 Y91.135 E1.9102
G1 X137.222 Y91.265 E1.91508
G1 X136.524 Y92.794 E1.97098
G1 X136.476 Y92.91 E1.97515
G1 X136.24 Y93.617 E1.99994
G1 X136.188 Y93.794 E2.00608
G1 X135.891 Y95.038 E2.04862
G1 X135.875 Y95.12 E2.0514
G1 X135.737 Y96.114 E2.08477
G1 X135.715 Y96.322 E2.09173
G1 X135.663 Y97.393 E2.1274
G1 X135.722 Y98.641 E2.16895
G1 X135.741 Y98.876 E2.17679
G1 X135.853 Y99.681 E2.20382
G1 X136.208 Y101.166 E2.25461
G1 X136.371 Y101.658 E2.27185
G1 X136.428 Y101.877 E2.27937
G1 X137.232 Y103.635 E2.34367
G1 X137.389 Y103.956 E2.35555
G1 X138.677 Y105.816 E2.4308
G1 X139.186 Y106.389 E2.45629
G1 X139.335 Y106.543 E2.46342
G1 X140.298 Y107.456 E2.50756
G1 X142.138 Y108.758 E2.58253
G1 X142.55 Y108.989 E2.59824
G1 X143.99 Y109.636 E2.65074
G1 X144.223 Y109.746 E2.65931
G1 X146.426 Y110.349 E2.73528
G0 F6000 X146.498 Y109.954
;TYPE:WALL-OUTER
G1 F1200 X148.699 Y110.156 E2.80879
G1 X150.905 Y109.976 E2.88241
G1 X153.01 Y109.425 E2.95478
G1 X153.051 Y109.41 E2.95623
G1 X154.491 Y108.779 E3.00852
G1 X154.859 Y108.579 E3.02246
G1 X155.059 Y108.486 E3.02979
G1 X156.877 Y107.227 E3.10334
G1 X157.788 Y106.377 E3.14478
G1 X157.821 Y106.351 E3.14618
G1 X158.315 Y105.803 E3.17072
G1 X158.452 Y105.665 E3.17719
G1 X159.593 Y104.055 E3.24282
G1 X159.771 Y103.787 E3.25352
G1 X159.853 Y103.62 E3.25971
G1 X160.662 Y101.894 E3.32311
G1 X160.84 Y101.381 E3.34117
G1 X161.199 Y99.947 E3.39034
G1 X161.258 Y99.733 E3.39772
G1 X161.372 Y98.953 E3.42394
G1 X161.443 Y97.734 E3.46455
G1 X161.462 Y97.522 E3.47163
G1 X161.422 Y96.476 E3.50645
G1 X161.3 Y95.505 E3.53899
G1 X161.281 Y95.312 E3.54545
G1 X160.984 Y94.015 E3.5897
G1 X160.765 Y93.326 E3.61375
G1 X160.718 Y93.168 E3.61923
G1 X160.039 Y91.643 E3.67475
G1 X160.002 Y91.552 E3.67802
G1 X159.85 Y91.272 E3.68861
G1 X159.792 Y91.158 E3.69287
G1 X158.662 Y89.53 E3.75878
G1 X158.532 Y89.344 E3.76633
G1 X158.25 Y89.015 E3.78074
G1 X157.136 Y87.931 E3.83244
G1 X156.976 Y87.77 E3.83999
G1 X155.41 Y86.654 E3.90395
G1 X155.165 Y86.488 E3.91379
G1 X153.165 Y85.542 E3.98738
G1 X151.03 Y84.96 E4.06098
G1 X149.062 Y84.779 E4.12671
G1 X148.822 Y84.757 E4.13473
G1 X146.857 Y84.918 E4.2003
G1 X146.618 Y84.939 E4.20828
G1 X144.481 Y85.499 E4.28176
G1 X142.475 Y86.422 E4.3552
G1 X142.279 Y86.544 E4.36288
G1 X140.711 Y87.638 E4.42647
G1 X140.643 Y87.692 E4.42936
G1 X139.512 Y88.771 E4.48135
G1 X139.229 Y89.093 E4.49561
G1 X139.074 Y89.245 E4.50283
G1 X137.94 Y90.851 E4.56822
G1 X137.8 Y91.048 E4.57626
G1 X137.641 Y91.326 E4.58691
G1 X137.582 Y91.44 E4.59118
G1 X136.891 Y92.954 E4.64653
G1 X136.851 Y93.05 E4.64999
G1 X136.622 Y93.737 E4.67408
G1 X136.575 Y93.897 E4.67962
G1 X136.282 Y95.125 E4.72161
G1 X136.269 Y95.188 E4.72375
G1 X136.134 Y96.162 E4.75646
G1 X136.114 Y96.353 E4.76284
G1 X136.063 Y97.393 E4.79748
G1 X136.121 Y98.615 E4.83817
G1 X136.139 Y98.832 E4.84541
G1 X136.247 Y99.607 E4.87143
G1 X136.593 Y101.056 E4.92098
G1 X136.751 Y101.532 E4.93766
G1 X136.806 Y101.742 E4.94488
G1 X137.594 Y103.464 E5.00787
G1 X137.735 Y103.754 E5.01859
G1 X138.856 Y105.373 E5.08409
G1 X138.992 Y105.568 E5.092
G1 X139.479 Y106.117 E5.11641
G1 X139.616 Y106.258 E5.12295
G1 X140.552 Y107.146 E5.16586
G1 X142.352 Y108.419 E5.23919
G1 X142.73 Y108.631 E5.2536
G1 X144.154 Y109.271 E5.30553
G1 X144.362 Y109.369 E5.31317
G1 X146.268 Y109.891 E5.3789
G1 X146.498 Y109.954 E5.38683
G0 F6000 X146.42 Y110.386
G1 F1500 E-1.11317
G0 F6000 X142.464 Y109.16
G0 X142.816 Y107.689
G0 X126.422 Y107.573
G0 X108.782 Y107.265
G0 X108.529 Y107.446
G0 X92.247 Y107.332
G0 X92.809 Y108.698
G0 X88.45 Y110.059
;TYPE:WALL-INNER
G1 F1500 E5.38683
G1 F1200 X90.656 Y109.48 E5.46269
G1 X92.718 Y108.53 E5.5382
G1 X92.942 Y108.39 E5.54699
G1 X94.526 Y107.285 E5.61122
G1 X94.618 Y107.212 E5.61513
G1 X95.772 Y106.11 E5.6682
G1 X96.06 Y105.786 E5.68262
G1 X96.232 Y105.614 E5.69071
G1 X97.539 Y103.768 E5.76594
G1 X97.709 Y103.465 E5.7775
G1 X97.778 Y103.334 E5.78242
G1 X98.472 Y101.809 E5.83815
G1 X98.521 Y101.693 E5.84234
G1 X98.758 Y100.987 E5.86711
G1 X98.812 Y100.808 E5.87332
G1 X99.128 Y99.492 E5.91834
G1 X99.263 Y98.487 E5.95206
G1 X99.285 Y98.276 E5.95912
G1 X99.337 Y97.206 E5.99475
G1 X99.276 Y95.961 E6.03621
G1 X99.257 Y95.725 E6.04408
G1 X99.149 Y94.922 E6.07103
G1 X98.792 Y93.438 E6.1218
G1 X98.633 Y92.959 E6.13859
G1 X98.57 Y92.723 E6.14671
G1 X97.749 Y90.92 E6.2126
G1 X97.612 Y90.644 E6.22285
G1 X96.323 Y88.785 E6.29809
G1 X95.814 Y88.21 E6.32363
G1 X95.66 Y88.054 E6.33092
G1 X94.7 Y87.147 E6.37485
G1 X92.862 Y85.843 E6.4498
G1 X92.451 Y85.613 E6.46547
G1 X91.023 Y84.969 E6.51757
G1 X90.779 Y84.854 E6.52654
G1 X88.574 Y84.253 E6.60256
G1 X86.303 Y84.043 E6.67841
G1 X84.028 Y84.231 E6.75434
G1 X81.873 Y84.792 E6.8284
G1 X81.801 Y84.818 E6.83095
G1 X80.338 Y85.459 E6.88407
G1 X79.979 Y85.655 E6.89768
G1 X79.742 Y85.766 E6.90638
G1 X77.872 Y87.064 E6.98209
G1 X76.949 Y87.92 E7.02396
G1 X76.909 Y87.952 E7.02567
G1 X76.411 Y88.503 E7.05037
G1 X76.239 Y88.677 E7.05851
G1 X75.081 Y90.315 E7.12522
G1 X74.883 Y90.609 E7.13701
G1 X74.782 Y90.816 E7.14467
G1 X73.955 Y92.585 E7.20962
G1 X73.779 Y93.104 E7.22785
G1 X73.418 Y94.54 E7.2771
G1 X73.351 Y94.787 E7.28561
G1 X73.231 Y95.604 E7.31308
G1 X73.16 Y96.82 E7.35359
G1 X73.137 Y97.064 E7.36174
G1 X73.177 Y98.154 E7.39802
G1 X73.303 Y99.14 E7.43108
G1 X73.323 Y99.354 E7.43823
G1 X73.629 Y100.689 E7.48378
G1 X73.853 Y101.384 E7.50807
G1 X73.906 Y101.568 E7.51444
G1 X74.585 Y103.102 E7.57023
G1 X74.632 Y103.219 E7.57443
G1 X74.79 Y103.503 E7.58524
G1 X74.865 Y103.649 E7.5907
G1 X76.15 Y105.505 E7.66578
G1 X76.458 Y105.859 E7.68138
G1 X77.575 Y106.948 E7.73327
G1 X77.764 Y107.138 E7.74218
G1 X79.348 Y108.265 E7.80684
G1 X79.636 Y108.461 E7.81843
G1 X81.696 Y109.435 E7.89422
G1 X83.898 Y110.037 E7.97014
G1 X86.177 Y110.244 E8.04626
G1 X88.45 Y110.059 E8.12211
G0 F6000 X88.382 Y109.663
;TYPE:WALL-OUTER
G1 F1200 X90.521 Y109.102 E8.19566
G1 X92.527 Y108.178 E8.26911
G1 X92.721 Y108.056 E8.27674
G1 X94.287 Y106.964 E8.34023
G1 X94.355 Y106.91 E8.34312
G1 X95.484 Y105.832 E8.39504
G1 X95.769 Y105.511 E8.40932
G1 X95.926 Y105.355 E8.41668
G1 X97.068 Y103.742 E8.48241
G1 X97.2 Y103.554 E8.49005
G1 X97.358 Y103.274 E8.50075
G1 X97.419 Y103.158 E8.50511
G1 X98.106 Y101.648 E8.56028
G1 X98.147 Y101.551 E8.56379
G1 X98.377 Y100.865 E8.58785
G1 X98.426 Y100.703 E8.59348
G1 X98.734 Y99.418 E8.63743
G1 X98.866 Y98.44 E8.67025
G1 X98.886 Y98.246 E8.67674
G1 X98.937 Y97.206 E8.71137
G1 X98.877 Y95.987 E8.75196
G1 X98.859 Y95.768 E8.75927
G1 X98.755 Y94.996 E8.78518
G1 X98.407 Y93.548 E8.83471
G1 X98.249 Y93.072 E8.85139
G1 X98.192 Y92.858 E8.85876
G1 X97.388 Y91.092 E8.9233
G1 X97.267 Y90.848 E8.93236
G1 X96.143 Y89.226 E8.99799
G1 X96.008 Y89.033 E9.00583
G1 X95.521 Y88.483 E9.03026
G1 X95.38 Y88.339 E9.03696
G1 X94.446 Y87.457 E9.07969
G1 X92.648 Y86.182 E9.153
G1 X92.271 Y85.971 E9.16737
G1 X90.852 Y85.331 E9.21915
G1 X90.64 Y85.231 E9.22694
G1 X88.729 Y84.71 E9.29282
G1 X88.502 Y84.648 E9.30065
G1 X86.301 Y84.445 E9.37416
G1 X84.095 Y84.627 E9.44779
G1 X81.991 Y85.175 E9.5201
G1 X81.949 Y85.19 E9.52158
G1 X80.514 Y85.819 E9.57369
G1 X80.148 Y86.018 E9.58755
G1 X79.942 Y86.114 E9.59511
G1 X78.123 Y87.376 E9.66874
G1 X77.207 Y88.226 E9.71031
G1 X77.183 Y88.245 E9.71133
G1 X76.695 Y88.785 E9.73553
G1 X76.546 Y88.935 E9.74257
G1 X75.41 Y90.542 E9.80802
G1 X75.23 Y90.809 E9.81873
G1 X75.143 Y90.988 E9.82535
G1 X74.327 Y92.734 E9.88945
G1 X74.163 Y93.217 E9.90642
G1 X73.804 Y94.646 E9.95542
G1 X73.743 Y94.869 E9.96311
G1 X73.629 Y95.645 E9.9892
G1 X73.558 Y96.856 E10.02955
G1 X73.538 Y97.075 E10.03686
G1 X73.576 Y98.121 E10.07167
G1 X73.7 Y99.089 E10.10413
G1 X73.719 Y99.29 E10.11085
G1 X74.015 Y100.583 E10.15497
G1 X74.234 Y101.261 E10.17866
G1 X74.283 Y101.431 E10.18455
G1 X74.956 Y102.952 E10.23987
G1 X74.994 Y103.046 E10.24324
G1 X75.147 Y103.322 E10.25374
G1 X75.209 Y103.444 E10.25829
G1 X76.329 Y105.063 E10.32376
G1 X76.466 Y105.258 E10.33169
G1 X76.749 Y105.584 E10.34605
G1 X77.859 Y106.666 E10.39761
G1 X78.024 Y106.832 E10.40539
G1 X79.577 Y107.937 E10.46878
G1 X79.835 Y108.113 E10.47917
G1 X81.835 Y109.058 E10.55274
G1 X83.97 Y109.642 E10.62636
G1 X85.937 Y109.822 E10.69206
G1 X86.178 Y109.843 E10.70011
G1 X88.137 Y109.684 E10.76548
G1 X88.382 Y109.663 E10.77365
G0 F6000 X88.456 Y110.096
G1 F1500 E4.27365
G0 F6000 X90.602 Y109.328
G0 X92.853 Y108.256
G0 X94.513 Y107.091
G0 X96.109 Y105.51
G0 X97.569 Y103.389
G0 X98.371 Y101.636
G0 X98.657 Y100.765
G0 X98.97 Y99.462
G0 X99.124 Y98.263
G0 X99.166 Y97.408
G0 X98.975 Y93.385
G0 X102.301 Y90.484
G0 X102.374 Y90.217
;TYPE:WALL-INNER
G1 F1500 E10.77365
G1 F1200 X103.416 Y89.624 E10.81353
G1 X102.75 Y88.45 E10.85842
G1 X100.775 Y84.994 E10.99082
G1 X99.905 Y85.489 E11.02411
G1 X99.904 Y85.49 E11.02416
G1 X99.732 Y85.587 E11.03072
G1 X99.83 Y85.759 E11.03497
G1 X102.374 Y90.217 E11.20569
G0 F6000 X102.523 Y89.672
;TYPE:WALL-OUTER
G1 F1200 X102.871 Y89.474 E11.219
G1 X102.402 Y88.648 E11.2506
G1 X100.626 Y85.539 E11.36968
G1 X100.278 Y85.737 E11.383
G1 X102.523 Y89.672 E11.53368
G1 F1500 E5.03368
G0 F6000 X102.67 Y89.934
G0 X103.683 Y89.698
G0 X109.004 Y89.398
G0 X111.451 Y90.638
G0 X113.104 Y91.387
G0 X114.868 Y91.869
G0 X117.526 Y92.352
;TYPE:WALL-INNER
G1 F1500 E11.53368
G1 F1200 X119.8 Y92.164 E11.60957
G1 X121.956 Y91.6 E11.68369
G1 X122.026 Y91.574 E11.68618
G1 X123.491 Y90.934 E11.73935
G1 X123.85 Y90.738 E11.75295
G1 X124.085 Y90.628 E11.76159
G1 X125.956 Y89.334 E11.83725
G1 X126.938 Y88.424 E11.88178
G1 X127.427 Y87.881 E11.90608
G1 X127.588 Y87.718 E11.9137
G1 X128.748 Y86.075 E11.9806
G1 X128.946 Y85.783 E11.99233
G1 X129.042 Y85.583 E11.99971
G1 X129.86 Y83.84 E12.06375
G1 X130.05 Y83.291 E12.08307
G1 X130.41 Y81.85 E12.13247
G1 X130.476 Y81.608 E12.14081
G1 X130.596 Y80.788 E12.16838
G1 X130.668 Y79.568 E12.20903
G1 X130.69 Y79.329 E12.21701
G1 X130.649 Y78.239 E12.25329
G1 X130.524 Y77.252 E12.28638
G1 X130.504 Y77.043 E12.29336
G1 X130.199 Y75.704 E12.33904
G1 X129.971 Y74.999 E12.36368
G1 X129.921 Y74.826 E12.36967
G1 X129.235 Y73.278 E12.42599
G1 X129.192 Y73.174 E12.42973
G1 X129.026 Y72.873 E12.44116
G1 X128.963 Y72.747 E12.44585
G1 X127.677 Y70.889 E12.521
G1 X127.371 Y70.535 E12.53657
G1 X126.245 Y69.438 E12.58885
G1 X126.065 Y69.257 E12.59734
G1 X124.468 Y68.123 E12.66249
G1 X124.191 Y67.934 E12.67364
G1 X122.13 Y66.96 E12.74946
G1 X119.928 Y66.359 E12.82538
G1 X117.651 Y66.151 E12.90143
G1 X115.376 Y66.338 E12.97735
G1 X113.171 Y66.915 E13.05316
G1 X111.109 Y67.865 E13.12867
G1 X110.886 Y68.006 E13.13744
G1 X109.301 Y69.11 E13.20169
G1 X109.209 Y69.183 E13.20559
G1 X108.052 Y70.285 E13.25874
G1 X107.784 Y70.591 E13.27227
G1 X107.595 Y70.779 E13.28113
G1 X106.288 Y72.628 E13.35644
G1 X106.117 Y72.93 E13.36799
G1 X106.048 Y73.061 E13.37291
G1 X105.353 Y74.589 E13.42874
G1 X105.305 Y74.705 E13.43292
G1 X105.068 Y75.41 E13.45766
G1 X105.014 Y75.59 E13.46391
G1 X104.699 Y76.905 E13.50888
G1 X104.564 Y77.908 E13.54254
G1 X104.542 Y78.117 E13.54953
G1 X104.489 Y79.189 E13.58523
G1 X104.551 Y80.436 E13.62676
G1 X104.57 Y80.669 E13.63453
G1 X104.677 Y81.472 E13.66148
G1 X105.035 Y82.959 E13.71235
G1 X105.192 Y83.429 E13.72883
G1 X105.257 Y83.672 E13.73719
G1 X106.064 Y85.44 E13.80183
G1 X106.215 Y85.749 E13.81327
G1 X107.505 Y87.61 E13.88859
G1 X108.012 Y88.184 E13.91406
G1 X108.163 Y88.339 E13.92126
G1 X109.126 Y89.25 E13.96535
G1 X110.965 Y90.553 E14.04031
G1 X111.379 Y90.782 E14.05605
G1 X112.806 Y91.425 E14.1081
G1 X113.048 Y91.539 E14.117
G1 X115.254 Y92.141 E14.19306
G1 X117.526 Y92.352 E14.26895
G0 F6000 X117.528 Y91.95
;TYPE:WALL-OUTER
G1 F1200 X119.732 Y91.768 E14.3425
G1 X121.836 Y91.218 E14.41483
G1 X121.877 Y91.203 E14.41629
G1 X123.315 Y90.574 E14.46849
G1 X123.681 Y90.375 E14.48235
G1 X123.885 Y90.28 E14.48983
G1 X125.705 Y89.021 E14.56344
G1 X126.653 Y88.143 E14.60641
G1 X127.143 Y87.599 E14.63076
G1 X127.281 Y87.46 E14.63728
G1 X128.419 Y85.848 E14.70291
G1 X128.598 Y85.583 E14.71354
G1 X128.681 Y85.411 E14.7199
G1 X129.489 Y83.689 E14.78316
G1 X129.666 Y83.177 E14.80118
G1 X130.024 Y81.744 E14.85031
G1 X130.084 Y81.526 E14.85783
G1 X130.198 Y80.747 E14.88401
G1 X130.27 Y79.533 E14.92446
G1 X130.289 Y79.319 E14.93161
G1 X130.25 Y78.272 E14.96645
G1 X130.127 Y77.302 E14.99897
G1 X130.108 Y77.107 E15.00549
G1 X129.813 Y75.81 E15.04973
G1 X129.59 Y75.122 E15.07379
G1 X129.544 Y74.963 E15.07929
G1 X128.869 Y73.44 E15.1347
G1 X128.831 Y73.347 E15.13804
G1 X128.676 Y73.067 E15.14868
G1 X128.618 Y72.952 E15.15297
G1 X127.494 Y71.325 E15.21874
G1 X127.361 Y71.135 E15.22645
G1 X127.08 Y70.81 E15.24074
G1 X125.966 Y69.725 E15.29247
G1 X125.805 Y69.563 E15.30006
G1 X124.24 Y68.451 E15.36392
G1 X123.992 Y68.282 E15.3739
G1 X121.991 Y67.337 E15.4475
G1 X119.856 Y66.754 E15.52111
G1 X117.889 Y66.573 E15.58681
G1 X117.65 Y66.552 E15.59479
G1 X115.688 Y66.713 E15.66026
G1 X115.444 Y66.734 E15.66841
G1 X113.306 Y67.293 E15.74191
G1 X111.3 Y68.217 E15.81537
G1 X111.107 Y68.339 E15.82296
G1 X109.54 Y69.431 E15.88649
G1 X109.472 Y69.485 E15.88938
G1 X108.341 Y70.563 E15.94134
G1 X108.066 Y70.875 E15.95518
G1 X107.902 Y71.038 E15.96287
G1 X106.763 Y72.65 E16.02852
G1 X106.626 Y72.843 E16.03639
G1 X106.468 Y73.121 E16.04702
G1 X106.408 Y73.236 E16.05134
G1 X105.72 Y74.748 E16.10659
G1 X105.68 Y74.845 E16.11008
G1 X105.449 Y75.531 E16.13415
G1 X105.401 Y75.693 E16.13977
G1 X105.093 Y76.979 E16.18375
G1 X104.961 Y77.955 E16.21651
G1 X104.941 Y78.148 E16.22297
G1 X104.889 Y79.189 E16.25763
G1 X104.95 Y80.409 E16.29826
G1 X104.968 Y80.626 E16.3055
G1 X105.071 Y81.399 E16.33144
G1 X105.42 Y82.849 E16.38104
G1 X105.579 Y83.326 E16.39777
G1 X105.635 Y83.537 E16.40503
