;FLAVOR:Marlin
;TIME:4270
;Filament used: 2.21309m
;Layer height: 0.2
;MINX:80.186
;MINY:65.101
;MINZ:0.2
;MAXX:155.667
;MAXY:169.899
;MAXZ:8.8
;Generated with Cura_SteamEngine master
M140 S60
M105
M190 S60
M104 S200
M105
M109 S200
M82 ;absolute extrusion mode
; Ender 3 Custom Start G-code
G92 E0 ; Reset Extruder
G28 ; Home all axes
G1 Z2.0 F3000 ; Move Z Axis up little to prevent scratching of Heat Bed
G1 X0.1 Y20 Z0.3 F5000.0 ; Move to start position
G1 X0.1 Y200.0 Z0.3 F1500.0 E15 ; Draw the first line
G1 X0.4 Y200.0 Z0.3 F5000.0 ; Move to side a little
G1 X0.4 Y20 Z0.3 F1500.0 E30 ; Draw the second line
G92 E0 ; Reset Extruder
G1 Z2.0 F3000 ; Move Z Axis up little to prevent scratching of Heat Bed
G1 X5 Y20 Z0.3 F5000.0 ; Move over to prevent blob squish
G92 E0
G92 E0
G1 F1500 E-6.5
;LAYER_COUNT:44
;LAYER:0
M107
;MESH:tm_hex_top.stl
G0 F6000 X136.03 Y128.33 Z0.2
;TYPE:WALL-INNER
G1 F1500 E0
G1 F1200 X135.138 Y128.33 E0.02967
G1 X135.137 Y128.33 E0.0297
G1 X130.475 Y128.335 E0.18476
G1 X130.385 Y127.683 E0.20665
G1 X129.007 Y127.69 E0.25248
G1 X129.01 Y133.465 E0.44456
G1 X130.385 Y133.465 E0.49029
G1 X130.483 Y132.815 E0.51216
G1 X140.735 Y132.805 E0.85314
G1 X140.849 Y133.454 E0.87506
G1 X142.012 Y133.454 E0.91374
G1 X142.211 Y133.454 E0.92036
G1 X142.211 Y133.255 E0.92464
G1 X142.204 Y126.075 E1.16345
G1 X140.83 Y126.075 E1.20915
G1 X140.803 Y126.254 E1.21517
G1 X140.764 Y126.518 E1.22404
G1 X140.523 Y126.406 E1.22933
G1 X140.522 Y126.405 E1.22938
G1 X140.211 Y126.259 E1.2408
G1 X137.786 Y125.077 E1.33053
G1 X137.408 Y124.893 E1.34451
G1 X137.79 Y124.718 E1.35217
G1 X140.49 Y123.476 E1.45102
G1 X140.682 Y123.388 E1.45804
G1 X140.761 Y123.356 E1.46088
G1 X140.763 Y123.376
G1 X140.793 Y123.585 E1.46566
G1 X140.823 Y123.793 E1.47265
G1 X142.003 Y123.793 E1.51189
G1 X142.202 Y123.793 E1.51851
G1 X142.202 Y123.594 E1.52279
G1 X142.196 Y116.627 E1.75452
G1 X140.85 Y116.627 E1.79929
G1 X140.715 Y117.277 E1.82137
G1 X130.468 Y117.287 E2.16218
G1 X130.364 Y116.638 E2.18404
G1 X129.196 Y116.638 E2.22289
G1 X128.997 Y116.638 E2.22951
G1 X128.997 Y116.837 E2.23379
G1 X128.999 Y121.879 E2.40149
G1 X130.397 Y121.879 E2.44799
G1 X130.468 Y121.229 E2.46974
G1 X135.169 Y121.224 E2.62609
G1 X135.171 Y121.224 E2.62616
G1 X136.075 Y121.224 E2.65623
G1 X135.255 Y121.604 E2.6716
G1 X135.253 Y121.605 E2.67167
G1 X129.249 Y124.388 E2.89177
G1 X129.249 Y125.152 E2.91719
G1 X135.222 Y127.951 E3.13658
G1 X136.03 Y128.33 E3.15178
G1 F1500 E-3.34822
G0 F6000 X136.829 Y128.508
G0 X137.822 Y128.728
;TYPE:WALL-OUTER
G1 F1500 E3.15178
G1 F1200 X130.422 Y128.735 E3.3979
G1 X130.25 Y128.703 E3.40372
G1 X130.159 Y128.632 E3.40756
G1 X130.094 Y128.496 E3.41257
G1 X130.037 Y128.085 E3.42638
G1 X129.407 Y128.088 E3.44733
G1 X129.41 Y133.065 E3.61287
G1 X130.041 Y133.065 E3.63385
G1 X130.104 Y132.652 E3.64775
G1 X130.172 Y132.514 E3.65286
G1 X130.266 Y132.443 E3.65678
G1 X130.422 Y132.415 E3.66205
G1 X140.796 Y132.405 E4.0071
G1 X140.957 Y132.437 E4.01255
G1 X141.045 Y132.508 E4.01632
G1 X141.114 Y132.648 E4.02151
G1 X141.185 Y133.054 E4.03522
G1 X141.811 Y133.054 E4.05604
G1 X141.804 Y126.475 E4.27485
G1 X141.175 Y126.475 E4.29578
G1 X141.121 Y126.84 E4.30805
G1 X141.03 Y126.995 E4.31403
G1 X140.821 Y126.971 E4.32102
G1 X140.607 Y126.886 E4.32868
G1 X140.036 Y126.619 E4.34965
G1 X136.474 Y124.883 E4.48144
G1 X140.532 Y123.017 E4.63
G1 X140.797 Y122.91 E4.6395
G1 X140.969 Y122.862 E4.64544
G1 X141.076 Y122.922 E4.64952
G1 X141.119 Y123.032 E4.65345
G1 X141.17 Y123.393 E4.66557
G1 X141.802 Y123.393 E4.6866
G1 X141.796 Y117.027 E4.89833
G1 X141.176 Y117.027 E4.91895
G1 X141.092 Y117.432 E4.93271
G1 X141.017 Y117.576 E4.93811
G1 X140.922 Y117.649 E4.94209
G1 X140.782 Y117.677 E4.94684
G1 X130.408 Y117.687 E5.29188
G1 X130.247 Y117.655 E5.29734
G1 X130.158 Y117.584 E5.30113
G1 X130.088 Y117.441 E5.30642
G1 X130.023 Y117.038 E5.32
G1 X129.397 Y117.038 E5.34082
G1 X129.399 Y121.479 E5.48853
G1 X130.038 Y121.479 E5.50978
G1 X130.084 Y121.055 E5.52397
G1 X130.145 Y120.926 E5.52871
G1 X130.238 Y120.859 E5.53253
G1 X130.411 Y120.829 E5.53837
G1 X137.892 Y120.822 E5.78719
G1 X129.649 Y124.643 E6.08937
G1 X129.649 Y124.898 E6.09785
G1 X137.822 Y128.728 E6.39806
G1 F1500 E-0.10194
G0 F6000 X136.787 Y128.519
G0 X130.326 Y128.428
G0 X130.237 Y127.854
G0 X129.179 Y127.861
G0 X129.182 Y133.293
G0 X130.239 Y133.295
G0 X130.443 Y132.654
G0 X140.884 Y132.721
G0 X140.992 Y133.284
G0 X142.039 Y133.282
G0 X142.032 Y126.247
G0 X140.976 Y126.245
G0 X140.141 Y126.403
G0 X137.08 Y124.862
G0 X140.903 Y123.116
G0 X140.97 Y123.623
G0 X142.03 Y123.621
G0 X142.024 Y116.799
G0 X140.988 Y116.796
G0 X140.759 Y117.438
G0 X137.707 Y117.07
G0 X137.707 Y115.621
G0 X137.706 Y115.412
;TYPE:WALL-INNER
G1 F1500 E6.39806
G1 F1200 X142.06 Y115.409 E6.54287
G1 X142.806 Y115.405 E6.56768
G1 X142.813 Y114.066 E6.61222
G1 X142.212 Y113.924 E6.63276
G1 X142.193 Y113.915 E6.63346
G1 X142.182 Y102.928 E6.99889
G1 X142.794 Y102.858 E7.01938
G1 X142.8 Y101.658 E7.05929
G1 X142.801 Y101.458 E7.06594
G1 X142.601 Y101.458 E7.07024
G1 X137.886 Y101.462 E7.22706
G1 X137.686 Y101.462 E7.23371
G1 X137.687 Y101.662 E7.23801
G1 X137.695 Y102.794 E7.27566
G1 X138.228 Y102.934 E7.29399
G1 X138.232 Y105.919 E7.39327
G1 X138.232 Y106.118 E7.39989
G1 X138.033 Y106.118 E7.40417
G1 X130.458 Y106.126 E7.65612
G1 X130.355 Y105.474 E7.67807
G1 X128.986 Y105.481 E7.72361
G1 X128.99 Y111.216 E7.91436
G1 X128.99 Y111.416 E7.92101
G1 X129.19 Y111.415 E7.92531
G1 X130.364 Y111.409 E7.96435
G1 X130.462 Y110.763 E7.98609
G1 X138.235 Y110.755 E8.24462
G1 X138.239 Y113.946 E8.35075
G1 X137.699 Y114.015 E8.36886
G1 X137.706 Y115.412 E8.41532
G0 F6000 X138.104 Y115.012
;TYPE:WALL-OUTER
G1 F1200 X142.059 Y115.009 E8.54687
G1 X142.408 Y115.007 E8.55847
G1 X142.411 Y114.382 E8.57926
G1 X142.077 Y114.303 E8.59068
G1 X141.877 Y114.204 E8.5981
G1 X141.817 Y114.131 E8.60124
G1 X141.793 Y114.015 E8.60518
G1 X141.782 Y102.869 E8.9759
G1 X141.811 Y102.696 E8.98173
G1 X141.875 Y102.608 E8.98535
G1 X142.019 Y102.544 E8.99059
G1 X142.396 Y102.501 E9.00321
G1 X142.399 Y101.858 E9.0246
G1 X138.089 Y101.862 E9.16795
G1 X138.093 Y102.485 E9.18867
G1 X138.435 Y102.575 E9.20044
G1 X138.606 Y102.72 E9.20789
G1 X138.628 Y102.843 E9.21205
G1 X138.632 Y106.518 E9.33428
G1 X130.398 Y106.526 E9.60814
G1 X130.237 Y106.494 E9.6136
G1 X130.145 Y106.422 E9.61749
G1 X130.079 Y106.287 E9.62249
G1 X130.014 Y105.876 E9.63633
G1 X129.386 Y105.879 E9.65721
G1 X129.39 Y111.014 E9.82801
G1 X130.02 Y111.011 E9.84896
G1 X130.083 Y110.599 E9.86282
G1 X130.152 Y110.46 E9.86798
G1 X130.243 Y110.392 E9.87176
G1 X130.402 Y110.363 E9.87714
G1 X138.635 Y110.355 E10.15097
G1 X138.639 Y114.037 E10.27343
G1 X138.614 Y114.191 E10.27862
G1 X138.559 Y114.273 E10.28191
G1 X138.465 Y114.321 E10.28542
G1 X138.101 Y114.367 E10.29762
G1 X138.104 Y115.012 E10.31907
G1 F1500 E3.81907
G0 F6000 X137.804 Y115.012
G0 X137.518 Y113.856
G0 X138.059 Y113.787
G0 X138.053 Y110.937
G0 X133.751 Y110.929
G0 X133.749 Y109.495
G0 X121.478 Y103.512
G0 X118.968 Y104.905
G0 X118.91 Y102.261
G0 X116.048 Y100.866
G0 X115.997 Y104.907
G0 X102.425 Y97.087
G0 X105.05 Y95.505
G0 X101.867 Y93.954
G0 X102.586 Y95.195
G0 X100.294 Y96.325
;TYPE:WALL-INNER
G1 F1500 E10.31907
G1 F1200 X116.686 Y86.839 E10.94898
G1 X116.984 Y86.667 E10.96043
G1 X116.686 Y86.495 E10.96691
G1 X100.275 Y77.041 E11.59684
G1 X99.676 Y77.389 E11.61988
G1 X99.693 Y95.98 E12.23822
G1 X100.294 Y96.325 E12.26127
G0 F6000 X100.293 Y95.863
;TYPE:WALL-OUTER
G1 F1200 X116.184 Y86.668 E12.87191
G1 X100.276 Y77.503 E13.48254
G1 X100.076 Y77.619 E13.49023
G1 X100.093 Y95.748 E14.0932
G1 X100.293 Y95.863 E14.10088
G1 F1500 E7.60088
G0 F6000 X100.144 Y96.122
G0 X116.624 Y86.668
G0 X116.286 Y86.496
G0 X116.522 Y86.087
G0 X116.626 Y85.904
;TYPE:WALL-INNER
G1 F1500 E14.10088
G1 F1200 X117.225 Y85.556 E14.12392
G1 X117.208 Y66.735 E14.74991
G1 X116.808 Y66.504 E14.76527
G1 X100.516 Y75.93 E15.3913
G1 X100.516 Y76.623 E15.41435
G1 X116.626 Y85.904 E16.03273
G0 F6000 X116.625 Y85.442
;TYPE:WALL-OUTER
G1 F1200 X116.825 Y85.326 E16.04042
G1 X116.808 Y66.966 E16.65107
G1 X100.916 Y76.161 E17.26174
G1 X100.916 Y76.392 E17.26943
G1 X116.625 Y85.442 E17.87241
G0 F6000 X116.476 Y85.701
G0 X117.418 Y85.668
G0 X117.707 Y85.788
;TYPE:WALL-INNER
G1 F1200 X118.107 Y86.019 E17.88778
G1 X134.399 Y76.593 E18.51381
G1 X134.399 Y75.9 E18.53686
G1 X118.289 Y66.619 E19.15524
G1 X117.69 Y66.967 E19.17828
G1 X117.707 Y85.788 E19.80427
G0 F6000 X118.107 Y85.557
;TYPE:WALL-OUTER
G1 F1200 X133.999 Y76.362 E20.41493
G1 X133.999 Y76.131 E20.42262
G1 X118.29 Y67.081 E21.0256
G1 X118.09 Y67.197 E21.03329
G1 X118.107 Y85.557 E21.64395
G0 F6000 X117.888 Y85.938
G1 F1500 E15.14395
G0 F6000 X126.159 Y81.603
G0 X126.386 Y81.993
G0 X118.309 Y86.667
G0 X134.658 Y96.294
;TYPE:WALL-INNER
G1 F1500 E21.64395
G1 F1200 X135.257 Y95.946 E21.66699
G1 X135.24 Y77.355 E22.28533
G1 X134.639 Y77.01 E22.30838
G1 X118.247 Y86.496 E22.93829
G1 X117.949 Y86.668 E22.94973
G1 X118.247 Y86.84 E22.95622
G1 X134.658 Y96.294 E23.58615
G0 F6000 X134.657 Y95.832
;TYPE:WALL-OUTER
G1 F1200 X134.857 Y95.716 E23.59384
G1 X134.84 Y77.587 E24.19681
G1 X134.64 Y77.472 E24.20448
G1 X118.749 Y86.667 E24.81512
G1 X134.657 Y95.832 E25.42575
G1 F1500 E18.92575
G0 F6000 X134.508 Y96.091
G0 X126.809 Y91.992
G0 X126.564 Y92.419
G0 X134.251 Y96.806
G0 X134.251 Y97.307
G0 X118.326 Y106.715
;TYPE:WALL-INNER
G1 F1500 E25.42575
G1 F1200 X134.417 Y97.404 E26.04408
G1 X134.417 Y96.711 E26.06713
G1 X131.56 Y95.067 E26.17677
G1 X118.005 Y87.258 E26.69707
G1 X117.707 Y87.086 E26.70851
G1 X117.707 Y87.43 E26.71501
G1 X117.707 Y87.431 E26.71504
G1 X117.725 Y106.37 E27.34496
G1 X118.326 Y106.715 E27.368
G0 F6000 X118.325 Y106.253
;TYPE:WALL-OUTER
G1 F1200 X134.017 Y97.173 E27.971
G1 X134.017 Y96.942 E27.97868
G1 X131.361 Y95.414 E28.0806
G1 X118.108 Y87.778 E28.58933
G1 X118.125 Y106.138 E29.19998
G1 X118.325 Y106.253 E29.20766
G1 F1500 E22.70766
G0 F6000 X118.176 Y106.512
G0 X117.532 Y106.482
G0 X116.644 Y106.716
;TYPE:WALL-INNER
G1 F1500 E29.20766
G1 F1200 X117.243 Y106.368 E29.2307
G1 X117.225 Y87.43 E29.86058
G1 X117.225 Y87.429 E29.86061
G1 X117.225 Y87.085 E29.87205
G1 X116.927 Y87.257 E29.87855
G1 X100.233 Y96.917 E30.52005
G1 X99.935 Y97.089 E30.53149
G1 X100.233 Y97.261 E30.53798
G1 X116.644 Y106.716 E31.16792
G0 F6000 X116.643 Y106.254
;TYPE:WALL-OUTER
G1 F1200 X116.843 Y106.138 E31.17561
G1 X116.826 Y87.778 E31.78627
G1 X100.735 Y97.088 E32.40458
G1 X116.643 Y106.254 E33.01523
G1 F1500 E26.51523
G0 F6000 X116.494 Y106.513
G0 X114.812 Y105.859
G0 X115.528 Y104.614
G0 X106.77 Y135.389
G0 X102.463 Y137.939
G0 X105.524 Y139.77
G0 X101.013 Y155.627
G0 X99.579 Y155.629
G0 X99.916 Y157.548
G0 X100.351 Y157.989
;TYPE:WALL-INNER
G1 F1500 E33.01523
G1 F1200 X116.442 Y148.678 E33.63356
G1 X116.442 Y147.985 E33.65661
G1 X100.03 Y138.532 E34.28655
G1 X99.732 Y138.36 E34.29799
G1 X99.732 Y138.704 E34.30449
G1 X99.732 Y138.705 E34.30452
G1 X99.75 Y157.644 E34.93443
G1 X100.351 Y157.989 E34.95748
G0 F6000 X100.35 Y157.527
;TYPE:WALL-OUTER
G1 F1200 X116.042 Y148.447 E35.56048
G1 X116.042 Y148.216 E35.56816
G1 X100.133 Y139.052 E36.1788
G1 X100.15 Y157.412 E36.78946
G1 X100.35 Y157.527 E36.79713
G1 F1500 E30.29713
G0 F6000 X100.201 Y157.786
G0 X116.276 Y148.581
G0 X116.687 Y147.791
G0 X116.682 Y147.567
;TYPE:WALL-INNER
G1 F1500 E36.79713
G1 F1200 X117.281 Y147.219 E36.82017
G1 X117.264 Y128.399 E37.44613
G1 X116.864 Y128.168 E37.46149
G1 X100.573 Y137.594 E38.0875
G1 X100.573 Y138.287 E38.11055
G1 X116.682 Y147.567 E38.72888
G0 F6000 X116.681 Y147.105
;TYPE:WALL-OUTER
G1 F1200 X116.881 Y146.989 E38.73657
G1 X116.864 Y128.63 E39.34719
G1 X100.973 Y137.825 E39.95783
G1 X100.973 Y138.056 E39.96551
G1 X116.681 Y147.105 E40.56846
G1 F1500 E34.06846
G0 F6000 X116.532 Y147.364
G0 X117.474 Y147.331
G0 X118.364 Y147.565
;TYPE:WALL-INNER
G1 F1500 E40.56846
G1 F1200 X134.757 Y138.08 E41.19838
G1 X135.055 Y137.908 E41.20982
G1 X134.757 Y137.736 E41.21631
G1 X118.044 Y128.108 E41.85783
G1 X117.746 Y127.936 E41.86927
G1 X117.746 Y128.28 E41.87577
G1 X117.746 Y128.281 E41.8758
G1 X117.763 Y147.22 E42.50571
G1 X118.364 Y147.565 E42.52876
G0 F6000 X118.363 Y147.103
;TYPE:WALL-OUTER
G1 F1200 X134.255 Y137.909 E43.13941
G1 X118.147 Y128.628 E43.75773
G1 X118.163 Y146.988 E44.36839
G1 X118.363 Y147.103 E44.37606
G1 F1500 E37.87606
G0 F6000 X118.214 Y147.362
G0 X126.368 Y143.176
G0 X126.605 Y143.585
G0 X135.018 Y158.128
;TYPE:WALL-INNER
G1 F1500 E44.37606
G1 F1200 X135.316 Y158.3 E44.38751
G1 X135.316 Y157.956 E44.394
G1 X135.316 Y157.955 E44.39404
G1 X135.298 Y139.016 E45.02395
G1 X134.697 Y138.671 E45.047
G1 X118.606 Y147.982 E45.66533
G1 X118.606 Y148.675 E45.68838
G1 X135.018 Y158.128 E46.31831
G0 F6000 X134.915 Y157.608
;TYPE:WALL-OUTER
G1 F1200 X134.898 Y139.248 E46.92897
G1 X134.698 Y139.133 E46.93664
G1 X119.006 Y148.213 E47.53964
G1 X119.006 Y148.444 E47.54732
G1 X134.915 Y157.608 E48.15797
G1 F1500 E41.65797
G0 F6000 X134.766 Y157.867
G0 X126.868 Y153.654
G0 X126.622 Y154.081
G0 X134.31 Y158.468
G0 X134.31 Y158.969
G0 X118.385 Y168.377
;TYPE:WALL-INNER
G1 F1500 E48.15797
G1 F1200 X134.476 Y159.066 E48.7763
G1 X134.476 Y158.373 E48.79935
G1 X118.064 Y148.92 E49.42928
G1 X117.766 Y148.748 E49.44073
G1 X117.766 Y149.092 E49.44722
G1 X117.766 Y149.093 E49.44725
G1 X117.784 Y168.032 E50.07717
G1 X118.385 Y168.377 E50.10022
G0 F6000 X118.384 Y167.915
;TYPE:WALL-OUTER
G1 F1200 X134.076 Y158.835 E50.70321
G1 X134.076 Y158.604 E50.7109
G1 X129.455 Y155.944 E50.88824
G1 X118.167 Y149.44 E51.32154
G1 X118.184 Y167.8 E51.93219
G1 X118.384 Y167.915 E51.93987
G1 F1500 E45.43987
G0 F6000 X118.235 Y168.174
G0 X117.591 Y168.144
G0 X117.005 Y168.552
;TYPE:WALL-INNER
G1 F1500 E51.93987
G1 F1200 X117.303 Y168.724 E51.95131
G1 X117.303 Y168.38 E51.95781
G1 X117.303 Y168.379 E51.95784
G1 X117.285 Y149.44 E52.58775
G1 X116.684 Y149.095 E52.6108
G1 X100.593 Y158.406 E53.22913
G1 X100.593 Y159.099 E53.25218
G1 X117.005 Y168.552 E53.88212
G0 F6000 X116.902 Y168.032
;TYPE:WALL-OUTER
G1 F1200 X116.885 Y149.672 E54.49278
G1 X116.685 Y149.557 E54.50045
G1 X100.993 Y158.637 E55.10344
G1 X100.993 Y158.868 E55.11113
G1 X116.902 Y168.032 E55.72177
G1 F1500 E49.22177
G0 F6000 X116.753 Y168.291
G0 X117.503 Y169.071
G0 X117.544 Y169.436
;TYPE:WALL-INNER
G1 F1500 E55.72177
G1 F1200 X98.684 Y158.571 E56.4457
G1 X98.667 Y139.197 E57.09008
G1 X98.657 Y138.816 E57.10276
G1 X80.607 Y128.417 E57.79561
G1 X80.586 Y106.65 E58.51959
G1 X98.625 Y96.214 E59.21273
G1 X98.608 Y76.463 E59.86966
G1 X117.446 Y65.563 E60.59354
G1 X136.306 Y76.428 E61.31747
G1 X136.325 Y96.178 E61.97436
G1 X154.384 Y106.583 E62.66757
G1 X154.405 Y128.349 E63.39151
G1 X136.365 Y138.786 E64.0847
G1 X136.384 Y158.537 E64.74162
G1 X117.544 Y169.436 E65.46554
G0 F6000 X117.544 Y169.898
;TYPE:WALL-OUTER
G1 F1200 X98.284 Y158.803 E66.20482
G1 X98.267 Y139.202 E66.85675
G1 X98.263 Y139.051 E66.86178
G1 X80.207 Y128.649 E67.55485
G1 X80.186 Y106.42 E68.29419
G1 X98.225 Y95.983 E68.98736
G1 X98.208 Y76.233 E69.64424
G1 X117.446 Y65.101 E70.3835
G1 X136.706 Y76.196 E71.12278
G1 X136.725 Y95.947 E71.7797
G1 X154.784 Y106.351 E72.4729
G1 X154.805 Y128.579 E73.2122
G1 X136.765 Y139.017 E73.90541
G1 X136.784 Y158.767 E74.5623
G1 X117.544 Y169.898 E75.3016
G0 F6000 X117.515 Y169.407
G0 X117.693 Y168.9
;TYPE:SKIN
G1 F1200 X117.692 Y168.429 E75.31727
G1 X118.101 Y168.664 E75.33296
G1 X117.693 Y168.9 E75.34863
G0 F6000 X117.832 Y169.141
G0 X135.005 Y159.207
G0 X134.866 Y158.966
G1 F1200 X134.866 Y158.491 E75.36443
G1 X135.277 Y158.728 E75.38021
G1 X134.866 Y158.966 E75.39601
G1 F1500 E68.89601
G0 F6000 X135.005 Y159.208
G0 X126.372 Y164.11
G0 X126.127 Y163.689
G0 X118.384 Y168.186
G0 X117.95 Y167.936
G0 X117.657 Y149.043
G0 X117.377 Y149.043
G1 F1500 E75.39601
G1 F1200 X116.832 Y148.73 E75.41691
G1 X116.832 Y147.93 E75.44352
G1 X117.52 Y147.531 E75.46997
G1 X118.216 Y147.93 E75.49666
G1 X118.216 Y148.557 E75.51751
G1 X117.376 Y148.073 E75.54976
G1 X117.377 Y149.043 E75.58202
G1 F1500 E69.08202
G0 F6000 X117.657 Y149.043
