;FLAVOR:Marlin
;TIME:4324
;Filament used: 2.84128m
;Layer height: 0.2
;MINX:29.556
;MINY:50.527
;MINZ:0.2
;MAXX:198.766
;MAXY:195.142
;MAXZ:4
;Generated with Cura_SteamEngine master
M140 S60
M105
M190 S60
M104 S200
M105
M109 S200
M82 ;absolute extrusion mode
; Ender 3 Custom Start G-code
G92 E0 ; Reset Extruder
G28 ; Home all axes
G1 Z2.0 F3000 ; Move Z Axis up little to prevent scratching of Heat Bed
G1 X0.1 Y20 Z0.3 F5000.0 ; Move to start position
G1 X0.1 Y200.0 Z0.3 F1500.0 E15 ; Draw the first line
G1 X0.4 Y200.0 Z0.3 F5000.0 ; Move to side a little
G1 X0.4 Y20 Z0.3 F1500.0 E30 ; Draw the second line
G92 E0 ; Reset Extruder
G1 Z2.0 F3000 ; Move Z Axis up little to prevent scratching of Heat Bed
G1 X5 Y20 Z0.3 F5000.0 ; Move over to prevent blob squish
G92 E0
G92 E0
G1 F1500 E-6.5
;LAYER_COUNT:20
;LAYER:0
M107
G0 F6000 X47.5 Y61.956 Z0.2
;TYPE:SKIRT
G1 F1500 E0
G1 F1200 X48.279 Y61.434 E0.03119
G1 X49.1 Y60.981 E0.06238
G1 X49.957 Y60.599 E0.09358
G1 X50.843 Y60.291 E0.12478
G1 X51.752 Y60.06 E0.15598
G1 X52.677 Y59.907 E0.18716
G1 X53.846 Y59.828 E0.22613
G1 X54.7 Y59.817 E0.25454
G1 X76.472 Y59.817 E0.97868
G1 X77.182 Y59.828 E1.00229
G1 X78.119 Y59.883 E1.03351
G1 X79.047 Y60.017 E1.0647
G1 X79.932 Y60.222 E1.09491
G1 X80.26 Y60.312 E1.10622
G1 X82.79 Y60.97 E1.19317
G1 X85.274 Y61.543 E1.27796
G1 X87.694 Y62.026 E1.36004
G1 X90.208 Y62.456 E1.44487
G1 X92.686 Y62.809 E1.52812
G1 X95.179 Y63.092 E1.61157
G1 X97.725 Y63.308 E1.69655
G1 X100.186 Y63.448 E1.77854
G1 X102.736 Y63.519 E1.86338
G1 X105.259 Y63.519 E1.9473
G1 X107.755 Y63.447 E2.03035
G1 X110.271 Y63.305 E2.11417
G1 X112.778 Y63.091 E2.19785
G1 X115.272 Y62.807 E2.28134
G1 X117.762 Y62.453 E2.36499
G1 X120.278 Y62.021 E2.4499
G1 X122.728 Y61.53 E2.53301
G1 X125.135 Y60.977 E2.61515
G1 X127.621 Y60.329 E2.7006
G1 X130.019 Y59.631 E2.78366
G1 X132.431 Y58.855 E2.86794
G1 X134.793 Y58.021 E2.95125
G1 X137.13 Y57.12 E3.03456
G1 X139.481 Y56.137 E3.11931
G1 X141.759 Y55.108 E3.20245
G1 X144.04 Y53.998 E3.28682
G1 X146.248 Y52.847 E3.36964
G1 X147.275 Y52.274 E3.40875
G1 X148.026 Y51.867 E3.43716
G1 X148.869 Y51.456 E3.46836
G1 X149.744 Y51.118 E3.49956
G1 X150.644 Y50.855 E3.53074
G1 X151.563 Y50.671 E3.56191
G1 X152.495 Y50.565 E3.59311
G1 X153.109 Y50.539 E3.61355
G1 X153.962 Y50.528 E3.64193
G1 X175.563 Y50.527 E4.36038
G1 X176.423 Y50.538 E4.38898
G1 X177.359 Y50.591 E4.42017
G1 X178.287 Y50.724 E4.45135
G1 X179.201 Y50.936 E4.48255
G1 X180.094 Y51.224 E4.51376
G1 X180.958 Y51.588 E4.54494
G1 X181.789 Y52.024 E4.57616
G1 X182.579 Y52.529 E4.60734
G1 X183.323 Y53.099 E4.63851
G1 X184.016 Y53.731 E4.66971
G1 X184.653 Y54.42 E4.70092
G1 X185.229 Y55.16 E4.73211
G1 X185.708 Y55.894 E4.76126
G1 X186.153 Y56.641 E4.79018
G1 X197.036 Y75.493 E5.51418
G1 X197.366 Y76.083 E5.53666
G1 X197.789 Y76.921 E5.56789
G1 X198.139 Y77.791 E5.59908
G1 X198.413 Y78.688 E5.63027
G1 X198.61 Y79.605 E5.66147
G1 X198.728 Y80.535 E5.69265
G1 X198.766 Y81.472 E5.72384
G1 X198.724 Y82.409 E5.75503
G1 X198.603 Y83.339 E5.78623
G1 X198.403 Y84.255 E5.81741
G1 X198.126 Y85.151 E5.8486
G1 X197.773 Y86.02 E5.8798
G1 X197.368 Y86.82 E5.90962
G1 X196.931 Y87.599 E5.93933
G1 X194.835 Y91.228 E6.07872
G1 X193.558 Y93.512 E6.16575
G1 X192.393 Y95.745 E6.24952
G1 X191.298 Y97.994 E6.33272
G1 X190.247 Y100.318 E6.41755
G1 X189.292 Y102.599 E6.4998
G1 X188.367 Y104.993 E6.58516
G1 X187.544 Y107.328 E6.66751
G1 X186.766 Y109.746 E6.75199
G1 X186.068 Y112.142 E6.83499
G1 X185.427 Y114.6 E6.91948
G1 X184.865 Y117.032 E7.0025
G1 X184.357 Y119.557 E7.08817
G1 X183.942 Y121.984 E7.17006
G1 X183.586 Y124.479 E7.25388
G1 X183.302 Y126.972 E7.33734
G1 X183.086 Y129.496 E7.42159
G1 X182.942 Y132.015 E7.50551
G1 X182.871 Y134.504 E7.58833
G1 X182.869 Y137.028 E7.67228
G1 X182.94 Y139.549 E7.75616
G1 X183.082 Y142.083 E7.84058
G1 X183.292 Y144.566 E7.92345
G1 X183.578 Y147.087 E8.00784
G1 X183.932 Y149.58 E8.09159
G1 X184.353 Y152.044 E8.17473
G1 X184.843 Y154.498 E8.25796
G1 X185.408 Y156.956 E8.34185
G1 X186.059 Y159.463 E8.428
G1 X186.41 Y160.708 E8.47102
G1 X186.519 Y161.075 E8.48375
G1 X186.749 Y161.985 E8.51497
G1 X186.899 Y162.91 E8.54614
G1 X186.971 Y163.845 E8.57733
G1 X186.962 Y164.783 E8.60853
G1 X186.874 Y165.717 E8.63973
G1 X186.706 Y166.64 E8.67094
G1 X186.461 Y167.545 E8.70212
G1 X186.139 Y168.426 E8.73332
G1 X185.577 Y169.585 E8.77616
G1 X185.15 Y170.346 E8.80518
G1 X174.314 Y189.111 E9.52589
G1 X173.933 Y189.752 E9.5507
G1 X173.42 Y190.537 E9.58189
G1 X172.842 Y191.276 E9.61309
G1 X172.203 Y191.962 E9.64427
G1 X171.507 Y192.592 E9.6755
G1 X170.761 Y193.16 E9.70668
G1 X169.969 Y193.663 E9.73789
G1 X169.138 Y194.096 E9.76905
G1 X168.272 Y194.457 E9.80026
G1 X167.379 Y194.742 E9.83144
G1 X166.464 Y194.951 E9.86265
G1 X165.535 Y195.081 E9.89385
G1 X164.636 Y195.131 E9.9238
G1 X163.786 Y195.142 E9.95207
G1 X142.024 Y195.142 E10.67588
G1 X141.338 Y195.132 E10.6987
G1 X140.401 Y195.078 E10.72992
G1 X139.473 Y194.945 E10.7611
G1 X138.554 Y194.732 E10.79247
G1 X138.518 Y194.722 E10.79372
G1 X137.626 Y194.432 E10.82491
G1 X136.762 Y194.068 E10.8561
G1 X135.973 Y193.656 E10.8857
G1 X135.099 Y193.151 E10.91927
G1 X134.321 Y192.687 E10.9494
G1 X132.108 Y191.451 E11.03371
G1 X129.896 Y190.296 E11.11671
G1 X127.62 Y189.189 E11.20088
G1 X125.303 Y188.142 E11.28545
G1 X123.021 Y187.187 E11.36773
G1 X120.636 Y186.267 E11.45275
G1 X118.299 Y185.443 E11.53517
G1 X115.877 Y184.664 E11.61979
G1 X113.474 Y183.964 E11.70304
G1 X111.038 Y183.331 E11.78675
G1 X108.59 Y182.765 E11.87032
G1 X106.078 Y182.26 E11.95554
G1 X103.646 Y181.845 E12.0376
G1 X101.13 Y181.486 E12.12213
G1 X98.64 Y181.203 E12.20548
G1 X96.14 Y180.99 E12.28893
G1 X93.607 Y180.845 E12.37332
G1 X91.122 Y180.774 E12.456
G1 X88.598 Y180.774 E12.53995
G1 X86.072 Y180.845 E12.624
G1 X83.556 Y180.986 E12.70781
G1 X81.044 Y181.199 E12.79166
G1 X78.555 Y181.482 E12.87498
G1 X77.322 Y181.657 E12.9164
G1 X76.462 Y181.768 E12.94524
G1 X75.212 Y181.857 E12.98692
G1 X74.358 Y181.868 E13.01533
G1 X52.597 Y181.868 E13.7391
G1 X51.913 Y181.858 E13.76185
G1 X50.977 Y181.804 E13.79304
G1 X50.049 Y181.671 E13.82422
G1 X49.135 Y181.459 E13.85542
G1 X48.243 Y181.17 E13.88661
G1 X47.378 Y180.806 E13.91782
G1 X46.365 Y180.262 E13.95607
G1 X45.557 Y179.724 E13.98835
G1 X44.824 Y179.139 E14.01955
G1 X44.143 Y178.494 E14.05074
G1 X43.52 Y177.793 E14.08194
G1 X42.959 Y177.041 E14.11314
G1 X42.601 Y176.48 E14.13527
G1 X42.135 Y175.697 E14.16558
G1 X31.249 Y156.84 E14.88978
G1 X30.945 Y156.294 E14.91056
G1 X30.524 Y155.456 E14.94175
G1 X30.176 Y154.585 E14.97295
G1 X29.904 Y153.688 E15.00412
G1 X29.709 Y152.77 E15.03534
G1 X29.593 Y151.84 E15.06651
G1 X29.556 Y150.902 E15.09773
G1 X29.6 Y149.966 E15.1289
G1 X29.723 Y149.036 E15.1601
G1 X29.924 Y148.12 E15.19129
G1 X30.13 Y147.437 E15.21502
G1 X30.96 Y144.968 E15.30165
G1 X31.697 Y142.558 E15.38547
G1 X32.358 Y140.153 E15.46843
G1 X32.963 Y137.681 E15.55308
G1 X33.5 Y135.186 E15.63796
G1 X33.946 Y132.773 E15.71958
G1 X34.341 Y130.249 E15.80455
G1 X34.657 Y127.771 E15.88763
G1 X34.904 Y125.275 E15.97106
G1 X35.082 Y122.746 E16.05538
G1 X35.187 Y120.248 E16.13854
G1 X35.222 Y117.717 E16.22273
G1 X35.185 Y115.202 E16.30638
G1 X35.077 Y112.68 E16.39034
G1 X34.901 Y110.201 E16.473
G1 X34.648 Y107.674 E16.55747
G1 X34.326 Y105.163 E16.64167
G1 X33.936 Y102.688 E16.72501
G1 X33.477 Y100.223 E16.8084
G1 X32.942 Y97.74 E16.89288
G1 X32.351 Y95.331 E16.97538
G1 X32.099 Y94.413 E17.00704
G1 X31.866 Y93.519 E17.03777
G1 X31.668 Y92.602 E17.06897
G1 X31.549 Y91.672 E17.10016
G1 X31.51 Y90.735 E17.13135
G1 X31.551 Y89.798 E17.16254
G1 X31.671 Y88.868 E17.19373
G1 X31.871 Y87.952 E17.22492
G1 X32.147 Y87.055 E17.25613
G1 X32.499 Y86.186 E17.28732
G1 X32.907 Y85.381 E17.31733
G1 X33.356 Y84.579 E17.3479
G1 X44.205 Y65.792 E18.06947
G1 X44.559 Y65.199 E18.09244
G1 X44.907 Y64.643 E18.11425
G1 X45.467 Y63.891 E18.14544
G1 X46.088 Y63.189 E18.17661
G1 X46.768 Y62.542 E18.20783
G1 X47.5 Y61.956 E18.23902
G0 F6000 X47.887 Y62.17
G1 F1200 X48.662 Y61.672 E18.26966
G1 X49.476 Y61.243 E18.30026
G1 X50.325 Y60.886 E18.33089
G1 X51.201 Y60.604 E18.3615
G1 X52.099 Y60.4 E18.39213
G1 X53.011 Y60.274 E18.42275
G1 X53.852 Y60.228 E18.45076
G1 X54.701 Y60.217 E18.479
G1 X76.466 Y60.217 E19.20291
G1 X77.176 Y60.228 E19.22653
G1 X78.095 Y60.282 E19.25715
G1 X79.006 Y60.416 E19.28777
G1 X79.825 Y60.607 E19.31574
G1 X80.165 Y60.701 E19.32748
G1 X82.705 Y61.361 E19.41476
G1 X85.179 Y61.931 E19.4992
G1 X87.655 Y62.426 E19.58319
G1 X90.121 Y62.848 E19.6664
G1 X92.656 Y63.209 E19.75156
G1 X95.136 Y63.491 E19.83458
G1 X97.667 Y63.705 E19.91906
G1 X100.188 Y63.848 E20.00304
G1 X102.725 Y63.919 E20.08746
G1 X105.236 Y63.919 E20.17097
G1 X107.787 Y63.846 E20.25586
G1 X110.293 Y63.704 E20.33934
G1 X112.821 Y63.489 E20.42372
G1 X115.337 Y63.202 E20.50795
G1 X117.848 Y62.844 E20.59231
G1 X120.324 Y62.42 E20.67586
G1 X122.783 Y61.927 E20.75928
G1 X125.26 Y61.357 E20.84381
G1 X127.719 Y60.716 E20.92833
G1 X130.147 Y60.01 E21.01243
G1 X132.55 Y59.237 E21.09639
G1 X134.934 Y58.395 E21.18048
G1 X137.293 Y57.486 E21.26457
G1 X139.651 Y56.499 E21.34959
G1 X141.92 Y55.475 E21.43239
G1 X144.193 Y54.369 E21.51646
G1 X146.448 Y53.193 E21.60105
G1 X147.465 Y52.626 E21.63978
G1 X148.216 Y52.219 E21.66819
G1 X149.044 Y51.815 E21.69883
G1 X149.904 Y51.486 E21.72945
G1 X150.789 Y51.232 E21.76008
G1 X151.692 Y51.056 E21.79068
G1 X152.608 Y50.959 E21.82131
G1 X153.115 Y50.939 E21.83819
G1 X153.963 Y50.928 E21.8664
G1 X175.564 Y50.927 E22.58485
G1 X176.417 Y50.938 E22.61322
G1 X177.336 Y50.991 E22.64384
G1 X178.247 Y51.124 E22.67446
G1 X179.143 Y51.335 E22.70508
G1 X180.018 Y51.623 E22.73572
G1 X180.864 Y51.986 E22.76633
G1 X181.675 Y52.421 E22.79694
G1 X182.446 Y52.925 E22.82758
G1 X183.17 Y53.493 E22.85819
G1 X183.842 Y54.123 E22.88882
G1 X184.456 Y54.808 E22.91942
G1 X185.009 Y55.544 E22.95004
G1 X185.365 Y56.099 E22.97197
G1 X185.807 Y56.841 E23.00069
G1 X196.616 Y75.563 E23.71972
G1 X197.017 Y76.279 E23.74701
G1 X197.431 Y77.101 E23.77763
G1 X197.773 Y77.956 E23.80825
G1 X198.038 Y78.837 E23.83885
G1 X198.226 Y79.739 E23.8695
G1 X198.336 Y80.653 E23.90012
G1 X198.365 Y81.573 E23.93073
G1 X198.315 Y82.492 E23.96134
G1 X198.185 Y83.404 E23.99198
G1 X197.976 Y84.3 E24.02258
G1 X197.691 Y85.176 E24.05322
G1 X197.33 Y86.023 E24.08385
G1 X197.018 Y86.625 E24.1064
G1 X196.585 Y87.399 E24.1359
G1 X194.482 Y91.039 E24.27572
G1 X193.203 Y93.328 E24.36293
G1 X192.05 Y95.535 E24.44575
G1 X190.918 Y97.861 E24.53179
G1 X189.904 Y100.104 E24.61366
G1 X188.91 Y102.478 E24.69926
G1 X187.993 Y104.853 E24.78393
G1 X187.158 Y107.221 E24.86745
G1 X186.39 Y109.607 E24.95082
G1 X185.68 Y112.044 E25.03524
G1 X185.036 Y114.514 E25.12014
G1 X184.477 Y116.935 E25.20278
G1 X183.964 Y119.481 E25.28916
G1 X183.545 Y121.931 E25.37183
G1 X183.191 Y124.413 E25.45522
G1 X182.901 Y126.96 E25.54048
G1 X182.689 Y129.44 E25.62327
G1 X182.544 Y131.98 E25.70789
G1 X182.471 Y134.528 E25.79267
G1 X182.469 Y137.039 E25.87618
G1 X182.54 Y139.584 E25.96086
G1 X182.682 Y142.101 E26.04471
G1 X182.894 Y144.611 E26.12849
G1 X183.178 Y147.116 E26.21234
G1 X183.535 Y149.632 E26.29686
G1 X183.962 Y152.125 E26.38099
G1 X184.454 Y154.594 E26.46472
G1 X185.017 Y157.041 E26.54824
G1 X185.675 Y159.575 E26.63531
G1 X186.016 Y160.785 E26.67713
G1 X186.136 Y161.189 E26.69114
G1 X186.36 Y162.082 E26.72176
G1 X186.506 Y162.991 E26.75239
G1 X186.573 Y163.91 E26.78303
G1 X186.559 Y164.83 E26.81364
G1 X186.466 Y165.746 E26.84426
G1 X186.293 Y166.65 E26.87487
G1 X186.043 Y167.536 E26.90549
G1 X185.717 Y168.397 E26.93611
G1 X185.228 Y169.39 E26.97293
G1 X184.804 Y170.146 E27.00176
G1 X173.97 Y188.907 E27.72232
G1 X173.589 Y189.548 E27.74712
G1 X173.085 Y190.318 E27.77773
G1 X172.515 Y191.042 E27.80838
G1 X171.885 Y191.713 E27.83899
G1 X171.2 Y192.327 E27.86959
G1 X170.463 Y192.88 E27.90023
G1 X169.682 Y193.366 E27.93083
G1 X168.861 Y193.783 E27.96145
G1 X168.007 Y194.127 E27.99208
G1 X167.126 Y194.396 E28.02271
G1 X166.225 Y194.587 E28.05335
G1 X165.312 Y194.699 E28.08394
G1 X164.63 Y194.731 E28.10665
G1 X163.785 Y194.742 E28.13476
G1 X142.029 Y194.742 E28.85836
G1 X141.343 Y194.732 E28.88118
G1 X140.424 Y194.678 E28.9118
G1 X139.513 Y194.546 E28.94242
G1 X138.661 Y194.346 E28.97153
G1 X138.625 Y194.336 E28.97277
G1 X137.749 Y194.052 E29.0034
G1 X136.902 Y193.692 E29.03401
G1 X136.173 Y193.309 E29.0614
G1 X135.304 Y192.807 E29.09478
G1 X134.515 Y192.336 E29.12534
G1 X132.31 Y191.105 E29.20933
G1 X130.077 Y189.939 E29.29312
G1 X127.794 Y188.829 E29.37755
G1 X125.503 Y187.794 E29.46116
G1 X123.14 Y186.804 E29.54638
G1 X120.777 Y185.892 E29.63062
G1 X118.406 Y185.057 E29.71423
G1 X116.016 Y184.288 E29.79773
G1 X113.58 Y183.579 E29.88212
G1 X111.114 Y182.938 E29.96686
G1 X108.687 Y182.377 E30.04971
G1 X106.159 Y181.868 E30.13548
G1 X103.692 Y181.447 E30.21872
G1 X101.196 Y181.091 E30.30258
G1 X98.69 Y180.806 E30.38647
G1 X96.157 Y180.59 E30.47102
G1 X93.642 Y180.447 E30.5548
G1 X91.098 Y180.374 E30.63945
G1 X88.587 Y180.374 E30.72297
G1 X86.039 Y180.445 E30.80775
G1 X83.534 Y180.586 E30.8912
G1 X81.001 Y180.801 E30.97575
G1 X78.525 Y181.082 E31.05863
G1 X77.271 Y181.26 E31.10075
G1 X76.411 Y181.371 E31.1296
G1 X75.206 Y181.457 E31.16978
G1 X74.357 Y181.468 E31.19802
G1 X52.603 Y181.468 E31.92156
G1 X51.919 Y181.458 E31.94431
G1 X51 Y181.404 E31.97493
G1 X50.089 Y181.271 E32.00555
G1 X49.193 Y181.06 E32.03617
G1 X48.319 Y180.771 E32.06678
G1 X47.473 Y180.408 E32.0974
G1 X46.573 Y179.92 E32.13145
G1 X45.779 Y179.391 E32.16319
G1 X45.061 Y178.815 E32.1938
G1 X44.396 Y178.179 E32.22441
G1 X43.788 Y177.488 E32.25502
G1 X43.242 Y176.746 E32.28566
G1 X42.944 Y176.275 E32.3042
G1 X42.481 Y175.497 E32.33431
G1 X31.68 Y156.789 E33.0528
G1 X31.295 Y156.099 E33.07908
G1 X30.882 Y155.276 E33.10971
G1 X30.543 Y154.421 E33.1403
G1 X30.279 Y153.539 E33.17092
G1 X30.092 Y152.637 E33.20156
G1 X29.985 Y151.723 E33.23216
G1 X29.957 Y150.802 E33.26281
G1 X30.009 Y149.883 E33.29343
G1 X30.141 Y148.972 E33.32404
G1 X30.351 Y148.076 E33.35465
G1 X30.509 Y147.564 E33.37247
G1 X31.339 Y145.097 E33.45904
G1 X32.079 Y142.676 E33.54324
G1 X32.753 Y140.222 E33.62789
G1 X33.351 Y137.782 E33.71144
G1 X33.889 Y135.278 E33.79663
G1 X34.341 Y132.836 E33.87923
G1 X34.733 Y130.326 E33.96372
G1 X35.057 Y127.79 E34.04876
G1 X35.303 Y125.31 E34.13165
G1 X35.48 Y122.79 E34.21567
G1 X35.587 Y120.235 E34.30072
G1 X35.622 Y117.717 E34.38448
G1 X35.585 Y115.177 E34.46897
G1 X35.478 Y112.67 E34.55243
G1 X35.299 Y110.168 E34.63586
G1 X35.045 Y107.62 E34.72103
G1 X34.724 Y105.121 E34.80483
G1 X34.328 Y102.608 E34.88944
G1 X33.867 Y100.13 E34.97327
G1 X33.335 Y97.665 E35.05715
G1 X32.741 Y95.243 E35.14009
G1 X32.524 Y94.457 E35.16721
G1 X32.253 Y93.418 E35.20292
G1 X32.059 Y92.518 E35.23354
G1 X31.945 Y91.605 E35.26415
G1 X31.91 Y90.685 E35.29477
G1 X31.955 Y89.765 E35.3254
G1 X32.08 Y88.853 E35.35602
G1 X32.284 Y87.955 E35.38665
G1 X32.564 Y87.078 E35.41727
G1 X32.92 Y86.229 E35.44789
G1 X33.256 Y85.576 E35.47232
G1 X33.702 Y84.779 E35.50269
G1 X44.548 Y65.997 E36.22406
G1 X44.786 Y65.599 E36.23948
G1 X44.903 Y65.405 E36.24702
G1 X45.305 Y64.771 E36.27199
G1 X45.863 Y64.039 E36.3026
G1 X46.483 Y63.358 E36.33323
G1 X47.159 Y62.733 E36.36385
G1 X47.887 Y62.17 E36.39446
G0 F6000 X48.274 Y62.389
G1 F1200 X49.043 Y61.915 E36.42451
G1 X49.85 Y61.511 E36.45452
G1 X50.691 Y61.18 E36.48459
G1 X51.557 Y60.925 E36.51461
G1 X52.442 Y60.747 E36.54464
G1 X53.34 Y60.649 E36.57468
G1 X53.858 Y60.628 E36.59192
G1 X54.701 Y60.617 E36.61996
G1 X76.46 Y60.617 E37.34367
G1 X77.17 Y60.628 E37.36729
G1 X78.072 Y60.682 E37.39734
G1 X78.965 Y60.816 E37.42738
G1 X79.719 Y60.993 E37.45314
G1 X80.039 Y61.081 E37.46418
G1 X82.62 Y61.752 E37.55287
G1 X85.108 Y62.326 E37.6378
G1 X87.547 Y62.813 E37.72052
G1 X90.075 Y63.245 E37.80582
G1 X92.586 Y63.603 E37.89018
G1 X95.093 Y63.888 E37.9741
G1 X97.646 Y64.104 E38.05932
G1 X100.188 Y64.248 E38.144
G1 X102.714 Y64.319 E38.22805
G1 X105.247 Y64.319 E38.3123
G1 X107.787 Y64.246 E38.39681
G1 X110.349 Y64.101 E38.48216
G1 X112.864 Y63.887 E38.56611
