;FLAVOR:Marlin
;TIME:8474
;Filament used: 5.44997m
;Layer height: 0.2
;MINX:47.741
;MINY:65.846
;MINZ:0.2
;MAXX:187.252
;MAXY:169.141
;MAXZ:4
;Generated with Cura_SteamEngine master
M140 S60
M105
M190 S60
M104 S200
M105
M109 S200
M82 ;absolute extrusion mode
; Ender 3 Custom Start G-code
G92 E0 ; Reset Extruder
G28 ; Home all axes
G1 Z2.0 F3000 ; Move Z Axis up little to prevent scratching of Heat Bed
G1 X0.1 Y20 Z0.3 F5000.0 ; Move to start position
G1 X0.1 Y200.0 Z0.3 F1500.0 E15 ; Draw the first line
G1 X0.4 Y200.0 Z0.3 F5000.0 ; Move to side a little
G1 X0.4 Y20 Z0.3 F1500.0 E30 ; Draw the second line
G92 E0 ; Reset Extruder
G1 Z2.0 F3000 ; Move Z Axis up little to prevent scratching of Heat Bed
G1 X5 Y20 Z0.3 F5000.0 ; Move over to prevent blob squish
G92 E0
G92 E0
G1 F1500 E-6.5
;LAYER_COUNT:20
;LAYER:0
M107
G0 F6000 X62.995 Y68.601 Z0.2
;TYPE:SKIRT
G1 F1500 E0
G1 F1200 X63.727 Y68.015 E0.03119
G1 X64.506 Y67.493 E0.06238
G1 X65.327 Y67.04 E0.09356
G1 X66.184 Y66.658 E0.12477
G1 X67.07 Y66.35 E0.15597
G1 X67.979 Y66.119 E0.18716
G1 X68.904 Y65.966 E0.21835
G1 X70.073 Y65.887 E0.25732
G1 X70.927 Y65.876 E0.28572
G1 X92.69 Y65.876 E1.00956
G1 X93.374 Y65.886 E1.03232
G1 X94.057 Y65.917 E1.05506
G1 X94.988 Y66.026 E1.08623
G1 X95.895 Y66.21 E1.11701
G1 X96.168 Y66.278 E1.12637
G1 X98.683 Y66.857 E1.21221
G1 X101.19 Y67.362 E1.29727
G1 X103.644 Y67.78 E1.38006
G1 X106.129 Y68.134 E1.46355
G1 X108.657 Y68.421 E1.54817
G1 X111.146 Y68.633 E1.63125
G1 X113.63 Y68.774 E1.71401
G1 X116.188 Y68.846 E1.79912
G1 X118.677 Y68.846 E1.8819
G1 X121.235 Y68.774 E1.96702
G1 X123.694 Y68.634 E2.04894
G1 X126.253 Y68.417 E2.13435
G1 X128.702 Y68.138 E2.21633
G1 X131.231 Y67.779 E2.30129
G1 X133.729 Y67.351 E2.38559
G1 X136.147 Y66.867 E2.46761
G1 X138.689 Y66.281 E2.55437
G1 X139.128 Y66.173 E2.56941
G1 X140.048 Y65.989 E2.60061
G1 X140.98 Y65.884 E2.63181
G1 X141.589 Y65.858 E2.65208
G1 X142.443 Y65.847 E2.68049
G1 X164.044 Y65.846 E3.39894
G1 X164.907 Y65.857 E3.42765
G1 X165.843 Y65.91 E3.45883
G1 X166.772 Y66.043 E3.49004
G1 X167.685 Y66.255 E3.52121
G1 X168.578 Y66.543 E3.55242
G1 X169.442 Y66.907 E3.58361
G1 X170.273 Y67.342 E3.6148
G1 X171.063 Y67.847 E3.64599
G1 X171.808 Y68.418 E3.67721
G1 X172.501 Y69.049 E3.70838
G1 X173.138 Y69.738 E3.73959
G1 X173.713 Y70.478 E3.77076
G1 X174.224 Y71.265 E3.80197
G1 X174.256 Y71.324 E3.8042
G1 X174.651 Y71.989 E3.82993
G1 X185.517 Y90.812 E4.55281
G1 X185.847 Y91.402 E4.57529
G1 X186.27 Y92.24 E4.60651
G1 X186.62 Y93.11 E4.6377
G1 X186.894 Y94.007 E4.6689
G1 X187.091 Y94.924 E4.7001
G1 X187.209 Y95.854 E4.73128
G1 X187.247 Y96.791 E4.76247
G1 X187.205 Y97.728 E4.79366
G1 X187.034 Y98.927 E4.83394
G1 X186.85 Y99.848 E4.86518
G1 X186.364 Y102.462 E4.95361
G1 X185.976 Y104.939 E5.037
G1 X185.656 Y107.445 E5.12103
G1 X185.408 Y109.944 E5.20456
G1 X185.231 Y112.444 E5.28791
G1 X185.125 Y114.952 E5.37141
G1 X185.089 Y117.479 E5.45546
G1 X185.125 Y119.999 E5.53929
G1 X185.233 Y122.532 E5.62361
G1 X185.409 Y125.007 E5.70614
G1 X185.66 Y127.534 E5.7906
G1 X185.978 Y130.016 E5.87383
G1 X186.371 Y132.523 E5.95823
G1 X186.844 Y135.06 E6.04406
G1 X187.043 Y136.056 E6.07784
G1 X187.187 Y136.982 E6.10901
G1 X187.252 Y137.918 E6.14022
G1 X187.237 Y138.856 E6.17142
G1 X187.142 Y139.789 E6.20261
G1 X186.968 Y140.71 E6.23379
G1 X186.716 Y141.614 E6.265
G1 X186.389 Y142.493 E6.29619
G1 X185.859 Y143.576 E6.3363
G1 X185.43 Y144.341 E6.36547
G1 X174.583 Y163.125 E7.08691
G1 X174.209 Y163.752 E7.11119
G1 X173.859 Y164.311 E7.13313
G1 X173.299 Y165.063 E7.16432
G1 X172.678 Y165.765 E7.19549
G1 X171.998 Y166.412 E7.22671
G1 X171.266 Y166.998 E7.25789
G1 X170.487 Y167.52 E7.28908
G1 X169.666 Y167.973 E7.32027
G1 X168.809 Y168.355 E7.35148
G1 X167.923 Y168.663 E7.38268
G1 X167.014 Y168.894 E7.41387
G1 X166.089 Y169.047 E7.44505
G1 X164.92 Y169.126 E7.48402
G1 X164.066 Y169.137 E7.51243
G1 X142.308 Y169.137 E8.2361
G1 X141.602 Y169.127 E8.25959
G1 X140.666 Y169.074 E8.29077
G1 X139.737 Y168.941 E8.32198
G1 X139.143 Y168.813 E8.34219
G1 X138.759 Y168.719 E8.35534
G1 X136.255 Y168.142 E8.44081
G1 X133.785 Y167.647 E8.52459
G1 X131.303 Y167.221 E8.60835
G1 X128.804 Y166.865 E8.69231
G1 X126.314 Y166.582 E8.77566
G1 X123.808 Y166.368 E8.85931
G1 X121.291 Y166.226 E8.94316
G1 X118.796 Y166.154 E9.02618
G1 X116.271 Y166.154 E9.11016
G1 X113.721 Y166.225 E9.19501
G1 X111.26 Y166.365 E9.27699
G1 X108.718 Y166.58 E9.36184
G1 X106.231 Y166.863 E9.4451
G1 X103.698 Y167.223 E9.53019
G1 X101.247 Y167.642 E9.61289
G1 X98.823 Y168.127 E9.69511
G1 X96.168 Y168.74 E9.78574
G1 X95.889 Y168.809 E9.7953
G1 X94.97 Y168.995 E9.82649
G1 X94.039 Y169.103 E9.85766
G1 X93.405 Y169.13 E9.87877
G1 X92.549 Y169.141 E9.90724
G1 X70.789 Y169.141 E10.63098
G1 X70.103 Y169.131 E10.6538
G1 X69.166 Y169.077 E10.68502
G1 X68.238 Y168.944 E10.7162
G1 X67.324 Y168.732 E10.7474
G1 X66.432 Y168.443 E10.77859
G1 X65.568 Y168.08 E10.80976
G1 X64.737 Y167.643 E10.84099
G1 X64.217 Y167.322 E10.86131
G1 X63.455 Y166.775 E10.89251
G1 X62.742 Y166.166 E10.9237
G1 X62.083 Y165.498 E10.95491
G1 X61.484 Y164.777 E10.98608
G1 X60.792 Y163.753 E11.02719
G1 X60.317 Y162.955 E11.05808
G1 X49.476 Y144.176 E11.77928
G1 X49.15 Y143.594 E11.80146
G1 X48.727 Y142.757 E11.83266
G1 X48.377 Y141.887 E11.86385
G1 X48.102 Y140.99 E11.89505
G1 X47.905 Y140.073 E11.92625
G1 X47.786 Y139.143 E11.95743
G1 X47.747 Y138.206 E11.98862
G1 X47.788 Y137.269 E12.01982
G1 X47.959 Y136.067 E12.0602
G1 X48.164 Y135.041 E12.095
G1 X48.63 Y132.521 E12.18023
G1 X49.02 Y130.031 E12.26406
G1 X49.34 Y127.517 E12.34835
G1 X49.585 Y125.038 E12.43121
G1 X49.763 Y122.504 E12.5157
G1 X49.867 Y120.018 E12.59845
G1 X49.902 Y117.479 E12.68291
G1 X49.865 Y114.97 E12.76637
G1 X49.756 Y112.44 E12.85059
G1 X49.58 Y109.963 E12.93319
G1 X49.326 Y107.422 E13.01812
G1 X49.009 Y104.956 E13.10082
G1 X48.614 Y102.443 E13.18542
G1 X48.144 Y99.925 E13.27062
G1 X47.952 Y98.967 E13.30312
G1 X47.807 Y98.041 E13.33429
G1 X47.741 Y97.105 E13.3655
G1 X47.755 Y96.167 E13.3967
G1 X47.849 Y95.234 E13.42789
G1 X48.022 Y94.313 E13.45906
G1 X48.273 Y93.409 E13.49026
G1 X48.6 Y92.53 E13.52146
G1 X49.134 Y91.437 E13.56192
G1 X49.563 Y90.671 E13.59112
G1 X60.351 Y71.988 E14.30867
G1 X60.786 Y71.258 E14.33693
G1 X61.134 Y70.702 E14.35875
G1 X61.694 Y69.95 E14.38993
G1 X62.315 Y69.248 E14.42111
G1 X62.995 Y68.601 E14.45233
G0 F6000 X63.386 Y68.792
G1 F1200 X64.114 Y68.229 E14.48294
G1 X64.889 Y67.731 E14.51357
G1 X65.703 Y67.302 E14.54418
G1 X66.552 Y66.945 E14.57481
G1 X67.428 Y66.663 E14.60542
G1 X68.326 Y66.459 E14.63605
G1 X69.238 Y66.333 E14.66667
G1 X70.079 Y66.287 E14.69468
G1 X70.928 Y66.276 E14.72292
G1 X92.684 Y66.276 E15.44653
G1 X93.368 Y66.286 E15.46928
G1 X94.028 Y66.316 E15.49126
G1 X94.942 Y66.423 E15.52187
G1 X95.799 Y66.598 E15.55096
G1 X96.109 Y66.675 E15.56158
G1 X98.62 Y67.253 E15.64728
G1 X101.11 Y67.754 E15.73176
G1 X103.561 Y68.172 E15.81446
G1 X106.094 Y68.533 E15.89956
G1 X108.576 Y68.815 E15.98264
G1 X111.127 Y69.032 E16.06779
G1 X113.632 Y69.174 E16.15124
G1 X116.177 Y69.246 E16.23592
G1 X118.688 Y69.246 E16.31944
G1 X121.233 Y69.174 E16.40412
G1 X123.752 Y69.031 E16.48804
G1 X126.265 Y68.818 E16.57192
G1 X128.763 Y68.534 E16.65554
G1 X131.289 Y68.175 E16.7404
G1 X133.797 Y67.745 E16.82503
G1 X136.218 Y67.26 E16.90715
G1 X138.864 Y66.65 E16.99747
G1 X139.223 Y66.562 E17.00976
G1 X140.126 Y66.382 E17.04039
G1 X141.041 Y66.281 E17.07101
G1 X141.595 Y66.258 E17.08945
G1 X142.444 Y66.247 E17.11769
G1 X164.045 Y66.246 E17.83614
G1 X164.901 Y66.257 E17.86461
G1 X165.82 Y66.31 E17.89523
G1 X166.731 Y66.443 E17.92585
G1 X167.627 Y66.654 E17.95647
G1 X168.502 Y66.942 E17.98711
G1 X169.348 Y67.305 E18.01772
G1 X170.159 Y67.74 E18.04833
G1 X170.93 Y68.243 E18.07895
G1 X171.654 Y68.812 E18.10958
G1 X172.326 Y69.441 E18.14019
G1 X172.941 Y70.127 E18.17084
G1 X173.494 Y70.863 E18.20146
G1 X173.847 Y71.429 E18.22364
G1 X173.851 Y71.426 E18.22381
G1 X174.305 Y72.189 E18.25334
G1 X185.097 Y90.882 E18.97125
G1 X185.498 Y91.598 E18.99854
G1 X185.912 Y92.42 E19.02915
G1 X186.254 Y93.275 E19.05978
G1 X186.519 Y94.156 E19.09038
G1 X186.707 Y95.058 E19.12102
G1 X186.817 Y95.972 E19.15164
G1 X186.846 Y96.892 E19.18226
G1 X186.796 Y97.811 E19.21287
G1 X186.642 Y98.849 E19.24777
G1 X186.434 Y99.89 E19.28308
G1 X185.975 Y102.359 E19.36661
G1 X185.579 Y104.894 E19.45194
G1 X185.258 Y107.396 E19.53584
G1 X185.009 Y109.909 E19.61983
G1 X184.833 Y112.399 E19.70286
G1 X184.725 Y114.965 E19.78828
G1 X184.689 Y117.479 E19.8719
G1 X184.725 Y120.022 E19.95649
G1 X184.833 Y122.541 E20.04035
G1 X185.01 Y125.042 E20.12374
G1 X185.263 Y127.588 E20.20884
G1 X185.579 Y130.058 E20.29166
G1 X185.977 Y132.586 E20.37678
G1 X186.451 Y135.133 E20.46295
G1 X186.651 Y136.134 E20.4969
G1 X186.792 Y137.044 E20.52753
G1 X186.853 Y137.962 E20.55813
G1 X186.835 Y138.883 E20.58877
G1 X186.736 Y139.798 E20.61938
G1 X186.559 Y140.702 E20.65001
G1 X186.304 Y141.586 E20.68062
G1 X185.973 Y142.446 E20.71126
G1 X185.51 Y143.381 E20.74597
G1 X185.084 Y144.141 E20.77495
G1 X174.316 Y162.79 E21.49119
G1 X173.986 Y163.344 E21.51263
G1 X173.954 Y163.406 E21.51495
G1 X173.461 Y164.183 E21.54556
G1 X172.903 Y164.915 E21.57617
G1 X172.283 Y165.596 E21.6068
G1 X171.607 Y166.221 E21.63743
G1 X170.879 Y166.784 E21.66803
G1 X170.104 Y167.282 E21.69867
G1 X169.29 Y167.711 E21.72928
G1 X168.441 Y168.068 E21.75991
G1 X167.565 Y168.35 E21.79052
G1 X166.667 Y168.554 E21.82115
G1 X165.755 Y168.68 E21.85177
G1 X164.914 Y168.726 E21.87978
G1 X164.065 Y168.737 E21.90802
G1 X142.314 Y168.737 E22.63146
G1 X141.608 Y168.727 E22.65495
G1 X140.689 Y168.674 E22.68557
G1 X139.778 Y168.541 E22.71619
G1 X139.238 Y168.424 E22.73456
G1 X138.865 Y168.333 E22.74733
G1 X136.359 Y167.755 E22.83287
G1 X133.853 Y167.253 E22.91788
G1 X131.356 Y166.825 E23.00214
G1 X128.87 Y166.47 E23.08566
G1 X126.364 Y166.185 E23.16955
G1 X123.827 Y165.969 E23.25424
G1 X121.324 Y165.827 E23.33762
G1 X118.772 Y165.754 E23.42253
G1 X116.26 Y165.754 E23.50608
G1 X113.723 Y165.825 E23.5905
G1 X111.202 Y165.968 E23.67448
G1 X108.675 Y166.182 E23.75883
G1 X106.201 Y166.463 E23.84165
G1 X103.646 Y166.826 E23.92748
G1 X101.173 Y167.249 E24.01093
G1 X98.72 Y167.74 E24.09413
G1 X96.109 Y168.343 E24.18326
G1 X95.793 Y168.421 E24.19408
G1 X94.891 Y168.603 E24.22469
G1 X93.976 Y168.706 E24.25531
G1 X93.399 Y168.73 E24.27452
G1 X92.548 Y168.741 E24.30283
G1 X70.794 Y168.741 E25.02637
G1 X70.108 Y168.731 E25.04919
G1 X69.189 Y168.677 E25.07981
G1 X68.278 Y168.545 E25.11042
G1 X67.382 Y168.333 E25.14105
G1 X66.508 Y168.045 E25.17166
G1 X65.662 Y167.681 E25.20229
G1 X64.462 Y167.004 E25.24811
G1 X63.688 Y166.45 E25.27977
G1 X62.99 Y165.85 E25.31039
G1 X62.346 Y165.192 E25.34101
G1 X61.761 Y164.481 E25.37163
G1 X61.135 Y163.548 E25.409
G1 X60.663 Y162.755 E25.43969
G1 X49.825 Y143.98 E26.16073
G1 X49.499 Y143.398 E26.18292
G1 X49.084 Y142.576 E26.21354
G1 X48.743 Y141.721 E26.24416
G1 X48.476 Y140.84 E26.27478
G1 X48.288 Y139.939 E26.30539
G1 X48.178 Y139.025 E26.33601
G1 X48.148 Y138.105 E26.36662
G1 X48.197 Y137.185 E26.39727
G1 X48.352 Y136.145 E26.43224
G1 X48.544 Y135.184 E26.46483
G1 X49.025 Y132.584 E26.55278
G1 X49.418 Y130.073 E26.63731
G1 X49.736 Y127.572 E26.72116
G1 X49.984 Y125.073 E26.80469
G1 X50.161 Y122.548 E26.88888
G1 X50.267 Y120.005 E26.97353
G1 X50.302 Y117.479 E27.05755
G1 X50.265 Y114.947 E27.14178
G1 X50.156 Y112.428 E27.22564
G1 X49.978 Y109.93 E27.30893
G1 X49.722 Y107.368 E27.39457
G1 X49.402 Y104.879 E27.47804
G1 X49.015 Y102.414 E27.56103
G1 X48.537 Y99.852 E27.64771
G1 X48.344 Y98.889 E27.68038
G1 X48.203 Y97.979 E27.711
G1 X48.14 Y97.06 E27.74164
G1 X48.158 Y96.14 E27.77225
G1 X48.255 Y95.224 E27.80288
G1 X48.431 Y94.321 E27.83348
G1 X48.686 Y93.436 E27.86412
G1 X49.016 Y92.576 E27.89475
G1 X49.483 Y91.632 E27.92978
G1 X49.909 Y90.871 E27.95879
G1 X60.697 Y72.188 E28.67634
G1 X61.013 Y71.658 E28.69686
G1 X61.13 Y71.464 E28.7044
G1 X61.532 Y70.83 E28.72937
G1 X62.09 Y70.098 E28.75998
G1 X62.71 Y69.417 E28.79061
G1 X63.386 Y68.792 E28.82123
G0 F6000 X63.777 Y68.988
G1 F1200 X64.501 Y68.448 E28.85127
G1 X65.27 Y67.974 E28.88132
G1 X66.077 Y67.57 E28.91134
G1 X66.918 Y67.239 E28.9414
G1 X67.784 Y66.984 E28.97142
G1 X68.669 Y66.806 E29.00145
G1 X69.567 Y66.708 E29.03149
G1 X70.085 Y66.687 E29.04874
G1 X70.928 Y66.676 E29.07678
G1 X92.678 Y66.676 E29.80018
G1 X93.362 Y66.686 E29.82294
G1 X93.998 Y66.715 E29.84411
G1 X94.895 Y66.821 E29.87415
G1 X95.703 Y66.986 E29.90158
G1 X95.99 Y67.057 E29.91142
G1 X98.557 Y67.648 E29.99903
G1 X101.029 Y68.146 E30.0829
G1 X103.51 Y68.569 E30.16661
G1 X106.029 Y68.928 E30.25124
G1 X108.569 Y69.216 E30.33626
G1 X111.071 Y69.429 E30.41978
G1 X113.632 Y69.574 E30.50509
G1 X116.166 Y69.646 E30.58941
G1 X118.699 Y69.646 E30.67366
G1 X121.233 Y69.574 E30.75797
G1 X123.773 Y69.43 E30.84259
G1 X126.342 Y69.212 E30.92834
G1 X128.833 Y68.929 E31.01172
G1 X131.336 Y68.573 E31.09581
G1 X133.843 Y68.143 E31.18041
G1 X136.314 Y67.649 E31.26422
G1 X138.917 Y67.048 E31.35308
G1 X139.319 Y66.95 E31.36684
G1 X140.204 Y66.774 E31.39685
G1 X141.102 Y66.677 E31.42689
G1 X141.601 Y66.658 E31.4435
G1 X142.444 Y66.647 E31.47154
G1 X164.045 Y66.646 E32.19
G1 X164.895 Y66.657 E32.21827
G1 X165.797 Y66.71 E32.24832
G1 X166.69 Y66.842 E32.27835
G1 X167.569 Y67.053 E32.30841
G1 X168.425 Y67.341 E32.33845
G1 X169.252 Y67.703 E32.36848
G1 X170.044 Y68.137 E32.39851
G1 X170.794 Y68.639 E32.42853
G1 X171.498 Y69.206 E32.4586
G1 X172.148 Y69.833 E32.48863
G1 X172.74 Y70.514 E32.51865
G1 X173.27 Y71.246 E32.5487
G1 X173.502 Y71.635 E32.56377
G1 X173.507 Y71.632 E32.56396
G1 X173.959 Y72.389 E32.59329
G1 X184.751 Y91.082 E33.31119
G1 X185.149 Y91.793 E33.3383
G1 X185.555 Y92.6 E33.36834
G1 X185.887 Y93.439 E33.39835
G1 X186.144 Y94.305 E33.4284
G1 X186.324 Y95.19 E33.45844
G1 X186.424 Y96.088 E33.48849
G1 X186.445 Y96.991 E33.51853
G1 X186.385 Y97.892 E33.54856
G1 X186.249 Y98.771 E33.57815
G1 X186.054 Y99.747 E33.61125
G1 X185.581 Y102.29 E33.69728
G1 X185.18 Y104.858 E33.78373
G1 X184.862 Y107.338 E33.86689
G1 X184.61 Y109.881 E33.95188
G1 X184.433 Y112.388 E34.03547
G1 X184.325 Y114.942 E34.1205
G1 X184.289 Y117.479 E34.20489
G1 X184.325 Y120.011 E34.28911
G1 X184.435 Y122.587 E34.37487
G1 X184.611 Y125.071 E34.45769
G1 X184.864 Y127.611 E34.54259
G1 X185.191 Y130.168 E34.62833
G1 X185.577 Y132.622 E34.71095
G1 X186.069 Y135.265 E34.80037
G1 X186.258 Y136.212 E34.83249
G1 X186.396 Y137.105 E34.86254
G1 X186.454 Y138.006 E34.89257
G1 X186.432 Y138.909 E34.92261
G1 X186.33 Y139.806 E34.95264
G1 X186.15 Y140.691 E34.98268
G1 X185.892 Y141.557 E35.01273
G1 X185.558 Y142.396 E35.04277
G1 X185.16 Y143.186 E35.07219
G1 X184.737 Y143.941 E35.10097
G1 X173.896 Y162.715 E35.82203
G1 X173.599 Y163.212 E35.84129
G1 X173.555 Y163.296 E35.84444
G1 X173.064 Y164.053 E35.87445
G1 X172.507 Y164.764 E35.90449
G1 X171.889 Y165.424 E35.93456
G1 X171.216 Y166.025 E35.96457
G1 X170.492 Y166.565 E35.99461
G1 X169.723 Y167.039 E36.02466
G1 X168.916 Y167.443 E36.05468
G1 X168.075 Y167.774 E36.08474
G1 X167.209 Y168.029 E36.11476
G1 X166.324 Y168.207 E36.14479
G1 X165.426 Y168.305 E36.17483
G1 X164.908 Y168.326 E36.19207
G1 X164.065 Y168.337 E36.22012
G1 X142.32 Y168.337 E36.94336
G1 X141.614 Y168.327 E36.96684
G1 X140.712 Y168.274 E36.99689
G1 X139.819 Y168.142 E37.02692
G1 X139.334 Y168.036 E37.04343
G1 X138.988 Y167.951 E37.05528
G1 X136.422 Y167.36 E37.14286
G1 X133.894 Y166.853 E37.22862
G1 X131.449 Y166.434 E37.31112
G1 X128.9 Y166.071 E37.39676
G1 X126.407 Y165.787 E37.48021
G1 X123.883 Y165.572 E37.56446
G1 X121.323 Y165.427 E37.64975
G1 X118.784 Y165.354 E37.73423
G1 X116.249 Y165.354 E37.81854
G1 X113.723 Y165.425 E37.90259
G1 X111.181 Y165.569 E37.98727
G1 X108.633 Y165.785 E38.07233
G1 X106.097 Y166.073 E38.15722
G1 X103.627 Y166.424 E38.24019
G1 X101.098 Y166.856 E38.32553
G1 X98.623 Y167.351 E38.40948
G1 X96.051 Y167.946 E38.49728
G1 X95.697 Y168.033 E38.5094
G1 X94.812 Y168.21 E38.53942
G1 X93.914 Y168.309 E38.56947
G1 X93.394 Y168.33 E38.58678
G1 X92.548 Y168.341 E38.61492
