;FLAVOR:Marlin
;TIME:949
;Filament used: 0.509941m
;Layer height: 0.2
;MINX:58.172
;MINY:65.131
;MINZ:0.2
;MAXX:138.394
;MAXY:140.239
;MAXZ:3.4
;Generated with Cura_SteamEngine master
M140 S60
M105
M190 S60
M104 S200
M105
M109 S200
M82 ;absolute extrusion mode
; Ender 3 Custom Start G-code
G92 E0 ; Reset Extruder
G28 ; Home all axes
G1 Z2.0 F3000 ; Move Z Axis up little to prevent scratching of Heat Bed
G1 X0.1 Y20 Z0.3 F5000.0 ; Move to start position
G1 X0.1 Y200.0 Z0.3 F1500.0 E15 ; Draw the first line
G1 X0.4 Y200.0 Z0.3 F5000.0 ; Move to side a little
G1 X0.4 Y20 Z0.3 F1500.0 E30 ; Draw the second line
G92 E0 ; Reset Extruder
G1 Z2.0 F3000 ; Move Z Axis up little to prevent scratching of Heat Bed
G1 X5 Y20 Z0.3 F5000.0 ; Move over to prevent blob squish
G92 E0
G92 E0
G1 F1500 E-6.5
;LAYER_COUNT:17
;LAYER:0
M107
G0 F6000 X80.234 Y71.948 Z0.2
;TYPE:SKIRT
G1 F1500 E0
G1 F1200 X80.453 Y71.71 E0.01076
G1 X80.667 Y71.484 E0.02111
G1 X81.075 Y71.065 E0.04056
G1 X81.537 Y70.618 E0.06194
G1 X81.802 Y70.379 E0.07381
G1 X82.062 Y70.152 E0.08529
G1 X82.288 Y69.96 E0.09515
G1 X82.738 Y69.588 E0.11457
G1 X83.232 Y69.203 E0.1354
G1 X83.573 Y68.956 E0.14941
G1 X83.781 Y68.811 E0.15784
G1 X83.992 Y68.668 E0.16632
G1 X84.488 Y68.339 E0.18612
G1 X85.06 Y67.985 E0.20849
G1 X85.384 Y67.8 E0.2209
G1 X85.651 Y67.653 E0.23104
G1 X85.919 Y67.51 E0.24114
G1 X86.451 Y67.236 E0.26104
G1 X87.05 Y66.95 E0.28312
G1 X87.397 Y66.8 E0.29569
G1 X87.674 Y66.685 E0.30567
G1 X87.936 Y66.58 E0.31506
G1 X88.473 Y66.373 E0.3342
G1 X89.027 Y66.176 E0.35375
G1 X89.15 Y66.136 E0.35806
G1 X89.476 Y66.036 E0.3694
G1 X89.785 Y65.946 E0.3801
G1 X90.049 Y65.873 E0.38921
G1 X90.62 Y65.722 E0.40886
G1 X91.206 Y65.584 E0.42888
G1 X91.601 Y65.506 E0.44227
G1 X91.906 Y65.451 E0.45258
G1 X92.223 Y65.398 E0.46327
G1 X92.815 Y65.309 E0.48318
G1 X93.413 Y65.236 E0.50322
G1 X93.8 Y65.203 E0.51614
G1 X94.139 Y65.18 E0.52744
G1 X94.412 Y65.165 E0.53653
G1 X94.994 Y65.14 E0.55591
G1 X95.586 Y65.131 E0.5756
G1 X95.964 Y65.138 E0.58817
G1 X96.316 Y65.151 E0.59989
G1 X96.621 Y65.167 E0.61005
G1 X97.192 Y65.204 E0.62908
G1 X97.756 Y65.255 E0.64791
G1 X98.203 Y65.312 E0.6629
G1 X98.529 Y65.36 E0.67386
G1 X98.804 Y65.404 E0.68312
G1 X99.364 Y65.501 E0.70203
G1 X100.089 Y65.652 E0.72666
G1 X100.39 Y65.727 E0.73698
G1 X100.722 Y65.814 E0.74839
G1 X100.982 Y65.886 E0.75736
G1 X101.927 Y66.16 E0.79009
G1 X104.016 Y66.795 E0.86271
G1 X106.476 Y67.466 E0.94752
G1 X108.905 Y68.056 E1.03066
G1 X111.38 Y68.584 E1.11483
G1 X113.837 Y69.036 E1.19792
G1 X116.336 Y69.422 E1.28202
G1 X118.785 Y69.73 E1.36412
G1 X122.712 Y70.084 E1.49526
G1 X124.151 Y70.182 E1.54323
G1 X124.872 Y70.255 E1.56733
G1 X125.028 Y70.276 E1.57257
G1 X125.492 Y70.349 E1.58819
G1 X125.789 Y70.402 E1.59823
G1 X126.427 Y70.535 E1.6199
G1 X126.581 Y70.572 E1.62517
G1 X127.089 Y70.707 E1.64265
G1 X127.415 Y70.802 E1.65395
G1 X128.028 Y71.001 E1.67538
G1 X128.174 Y71.053 E1.68054
G1 X128.744 Y71.274 E1.70087
G1 X129.051 Y71.403 E1.71195
G1 X129.688 Y71.695 E1.73525
G1 X129.873 Y71.787 E1.74213
G1 X130.297 Y72.009 E1.75804
G1 X130.543 Y72.145 E1.76739
G1 X131.008 Y72.417 E1.78531
G1 X131.126 Y72.49 E1.78993
G1 X131.658 Y72.841 E1.81112
G1 X131.943 Y73.041 E1.8227
G1 X132.41 Y73.387 E1.84204
G1 X132.521 Y73.474 E1.84673
G1 X132.979 Y73.854 E1.86652
G1 X133.243 Y74.085 E1.87819
G1 X133.777 Y74.585 E1.90252
G1 X133.884 Y74.692 E1.90755
G1 X134.188 Y75.007 E1.92211
G1 X134.405 Y75.242 E1.93275
G1 X134.925 Y75.849 E1.95933
G1 X135.035 Y75.987 E1.9652
G1 X135.268 Y76.289 E1.97789
G1 X135.449 Y76.533 E1.988
G1 X135.845 Y77.104 E2.01111
G1 X135.95 Y77.266 E2.01753
G1 X136.234 Y77.729 E2.03559
G1 X136.386 Y77.991 E2.04567
G1 X136.678 Y78.528 E2.066
G1 X136.741 Y78.652 E2.07062
G1 X136.987 Y79.17 E2.0897
G1 X137.13 Y79.492 E2.10142
G1 X137.321 Y79.949 E2.11789
G1 X137.366 Y80.064 E2.122
G1 X137.595 Y80.707 E2.1447
G1 X137.711 Y81.068 E2.15731
G1 X137.919 Y81.805 E2.18278
G1 X137.95 Y81.931 E2.1871
G1 X138.039 Y82.321 E2.2004
G1 X138.108 Y82.653 E2.21168
G1 X138.242 Y83.437 E2.23813
G1 X138.266 Y83.617 E2.24417
G1 X138.316 Y84.062 E2.25907
G1 X138.344 Y84.366 E2.26922
G1 X138.383 Y84.991 E2.29005
G1 X138.388 Y85.134 E2.29481
G1 X138.394 Y85.682 E2.31304
G1 X138.389 Y86.018 E2.32421
G1 X138.363 Y86.623 E2.34435
G1 X138.352 Y86.78 E2.34959
G1 X138.298 Y87.339 E2.36827
G1 X138.257 Y87.676 E2.37956
G1 X138.155 Y88.346 E2.4021
G1 X138.126 Y88.503 E2.40741
G1 X138.007 Y89.065 E2.42652
G1 X137.934 Y89.37 E2.43695
G1 X137.778 Y89.952 E2.45699
G1 X137.733 Y90.103 E2.46223
G1 X137.574 Y90.593 E2.47936
G1 X137.468 Y90.896 E2.49004
G1 X137.184 Y91.623 E2.516
G1 X135.996 Y94.375 E2.6157
G1 X135.064 Y96.715 E2.69947
G1 X134.191 Y99.103 E2.78404
G1 X133.404 Y101.461 E2.86672
G1 X132.669 Y103.886 E2.951
G1 X132.002 Y106.337 E3.03548
G1 X131.422 Y108.716 E3.11693
G1 X131.291 Y109.214 E3.13405
G1 X131.178 Y109.605 E3.14759
G1 X130.966 Y110.259 E3.17046
G1 X130.908 Y110.421 E3.17618
G1 X130.731 Y110.883 E3.19263
G1 X130.579 Y111.254 E3.20597
G1 X130.34 Y111.796 E3.22567
G1 X130.267 Y111.95 E3.23134
G1 X130.011 Y112.455 E3.25017
G1 X129.446 Y113.503 E3.28977
G1 X128.237 Y115.828 E3.37693
G1 X127.126 Y118.12 E3.46165
G1 X126.577 Y119.317 E3.50545
G1 X126.171 Y120.22 E3.53838
G1 X125.875 Y120.826 E3.56081
G1 X125.718 Y121.123 E3.57198
G1 X125.621 Y121.301 E3.57872
G1 X125.457 Y121.591 E3.5898
G1 X125.178 Y122.068 E3.60818
G1 X124.712 Y122.796 E3.63693
G1 X124.433 Y123.197 E3.65318
G1 X124.248 Y123.456 E3.66377
G1 X123.93 Y123.886 E3.68156
G1 X123.511 Y124.418 E3.70408
G1 X123.299 Y124.666 E3.71493
G1 X123.132 Y124.857 E3.72337
G1 X122.952 Y125.058 E3.73234
G1 X122.58 Y125.463 E3.75063
G1 X122.139 Y125.917 E3.77168
G1 X121.876 Y126.169 E3.7838
G1 X121.686 Y126.346 E3.79244
G1 X121.426 Y126.58 E3.80407
G1 X120.99 Y126.961 E3.82333
G1 X120.59 Y127.294 E3.84064
G1 X120.235 Y127.568 E3.85555
G1 X119.973 Y127.762 E3.8664
G1 X119.733 Y127.935 E3.87624
G1 X119.257 Y128.268 E3.89556
G1 X118.771 Y128.589 E3.91493
G1 X118.601 Y128.695 E3.92159
G1 X118.283 Y128.886 E3.93393
G1 X117.996 Y129.05 E3.94493
G1 X117.469 Y129.342 E3.96497
G1 X116.958 Y129.608 E3.98413
G1 X116.554 Y129.798 E3.99897
G1 X116.039 Y130.026 E4.01771
G1 X115.525 Y130.243 E4.03626
G1 X114.899 Y130.485 E4.05859
G1 X114.551 Y130.605 E4.07083
G1 X114.298 Y130.688 E4.07969
G1 X114.008 Y130.779 E4.0898
G1 X113.474 Y130.938 E4.10833
G1 X112.924 Y131.086 E4.12727
G1 X112.701 Y131.14 E4.1349
G1 X112.32 Y131.226 E4.14789
G1 X112.044 Y131.281 E4.15725
G1 X111.402 Y131.401 E4.17898
G1 X111.11 Y131.451 E4.18883
G1 X110.442 Y131.556 E4.21132
G1 X108.844 Y131.786 E4.26502
G1 X106.398 Y132.21 E4.34758
G1 X103.88 Y132.72 E4.43303
G1 X101.484 Y133.277 E4.51485
G1 X98.994 Y133.928 E4.60045
G1 X96.591 Y134.631 E4.68373
G1 X94.207 Y135.403 E4.76707
G1 X91.849 Y136.24 E4.85029
G1 X89.456 Y137.167 E4.93565
G1 X87.319 Y138.061 E5.01269
G1 X86.066 Y138.604 E5.05811
G1 X85.814 Y138.71 E5.06721
G1 X85.319 Y138.91 E5.08496
G1 X84.746 Y139.123 E5.1053
G1 X84.334 Y139.259 E5.11973
G1 X84.09 Y139.335 E5.12823
G1 X83.81 Y139.419 E5.13795
G1 X83.265 Y139.573 E5.15679
G1 X82.585 Y139.742 E5.18009
G1 X82.222 Y139.82 E5.19244
G1 X81.778 Y139.905 E5.20748
G1 X81.209 Y140.003 E5.22668
G1 X80.606 Y140.09 E5.24694
G1 X80.188 Y140.134 E5.26092
G1 X79.882 Y140.161 E5.27114
G1 X79.623 Y140.181 E5.27978
G1 X79.08 Y140.216 E5.29788
G1 X78.441 Y140.239 E5.31914
G1 X77.987 Y140.238 E5.33424
G1 X77.496 Y140.225 E5.35058
G1 X76.94 Y140.201 E5.36909
G1 X76.344 Y140.159 E5.38896
G1 X76.211 Y140.146 E5.39341
G1 X75.573 Y140.065 E5.4148
G1 X74.695 Y139.927 E5.44436
G1 X73.969 Y139.787 E5.46895
G1 X73.418 Y139.662 E5.48774
G1 X73.064 Y139.576 E5.49986
G1 X72.835 Y139.516 E5.50773
G1 X72.023 Y139.269 E5.53596
G1 X71.333 Y139.03 E5.56025
G1 X71.009 Y138.912 E5.57172
G1 X70.7 Y138.794 E5.58272
G1 X70.041 Y138.518 E5.60648
G1 X69.729 Y138.375 E5.6179
G1 X69.337 Y138.185 E5.63239
G1 X68.848 Y137.937 E5.65062
G1 X68.088 Y137.514 E5.67955
G1 X67.52 Y137.167 E5.70169
G1 X67.229 Y136.982 E5.71316
G1 X66.919 Y136.779 E5.72548
G1 X66.366 Y136.393 E5.74791
G1 X66.061 Y136.163 E5.76062
G1 X65.895 Y136.034 E5.76761
G1 X65.665 Y135.85 E5.77741
G1 X65.218 Y135.483 E5.79664
G1 X64.78 Y135.103 E5.81593
G1 X64.653 Y134.987 E5.82165
G1 X64.217 Y134.567 E5.84179
G1 X63.559 Y133.896 E5.87304
G1 X63.02 Y133.305 E5.89965
G1 X62.898 Y133.161 E5.90593
G1 X62.664 Y132.875 E5.91822
G1 X62.27 Y132.377 E5.93934
G1 X61.866 Y131.832 E5.9619
G1 X61.656 Y131.528 E5.97419
G1 X61.544 Y131.361 E5.98088
G1 X61.386 Y131.117 E5.99055
G1 X61.06 Y130.602 E6.01082
G1 X60.724 Y130.036 E6.03271
G1 X60.543 Y129.701 E6.04538
G1 X60.428 Y129.48 E6.05366
G1 X60.301 Y129.227 E6.06308
G1 X60.055 Y128.723 E6.08173
G1 X59.784 Y128.124 E6.1036
G1 X59.642 Y127.778 E6.11604
G1 X59.544 Y127.529 E6.12494
G1 X59.438 Y127.247 E6.13496
G1 X59.246 Y126.717 E6.15371
G1 X59.045 Y126.107 E6.17507
G1 X58.945 Y125.762 E6.18701
G1 X58.878 Y125.518 E6.19543
G1 X58.8 Y125.217 E6.20577
G1 X58.668 Y124.677 E6.22426
G1 X58.547 Y124.12 E6.24322
G1 X58.52 Y123.978 E6.24803
G1 X58.462 Y123.645 E6.25927
G1 X58.423 Y123.399 E6.26755
G1 X58.385 Y123.139 E6.27629
G1 X58.306 Y122.55 E6.29606
G1 X58.245 Y121.991 E6.31476
G1 X58.231 Y121.821 E6.32044
G1 X58.207 Y121.446 E6.33293
G1 X58.187 Y120.978 E6.34851
G1 X58.172 Y120.408 E6.36748
G1 X58.174 Y119.753 E6.38926
G1 X58.188 Y119.404 E6.40088
G1 X58.201 Y119.164 E6.40888
G1 X58.221 Y118.864 E6.41888
G1 X58.269 Y118.276 E6.4385
G1 X58.348 Y117.586 E6.4616
G1 X58.393 Y117.277 E6.47198
G1 X58.463 Y116.852 E6.48631
G1 X58.568 Y116.287 E6.50542
G1 X58.747 Y115.543 E6.53087
G1 X58.736 Y115.54 E6.53125
G1 X59.4 Y112.94 E6.6205
G1 X59.972 Y110.377 E6.70785
G1 X60.083 Y109.85 E6.72576
G1 X60.314 Y108.941 E6.75695
G1 X60.622 Y108.056 E6.78812
G1 X61.005 Y107.199 E6.81934
G1 X61.459 Y106.379 E6.85052
G1 X61.952 Y105.64 E6.88006
G1 X62.242 Y105.243 E6.89642
G1 X63.452 Y103.636 E6.96332
G1 X64.903 Y101.587 E7.04683
G1 X66.298 Y99.496 E7.13043
G1 X67.654 Y97.333 E7.21534
G1 X68.899 Y95.214 E7.29709
G1 X70.133 Y92.975 E7.38212
G1 X71.281 Y90.742 E7.46563
G1 X72.372 Y88.466 E7.54957
G1 X73.381 Y86.196 E7.6322
G1 X74.353 Y83.834 E7.71715
G1 X75.247 Y81.477 E7.80099
G1 X75.975 Y79.387 E7.8746
G1 X76.086 Y79.06 E7.88609
G1 X76.295 Y78.465 E7.90706
G1 X76.545 Y77.819 E7.9301
G1 X76.68 Y77.506 E7.94144
G1 X76.806 Y77.224 E7.95171
G1 X76.927 Y76.961 E7.96134
G1 X77.175 Y76.443 E7.98044
G1 X77.453 Y75.902 E8.00067
G1 X77.532 Y75.758 E8.00614
G1 X77.691 Y75.479 E8.01682
G1 X77.957 Y75.03 E8.03418
G1 X78.271 Y74.522 E8.05404
G1 X78.644 Y73.959 E8.0765
G1 X78.858 Y73.66 E8.08873
G1 X79.042 Y73.411 E8.09903
G1 X79.222 Y73.174 E8.10893
G1 X79.587 Y72.707 E8.12864
G1 X80.006 Y72.203 E8.15044
G1 X80.234 Y71.948 E8.16182
G0 F6000 X80.529 Y72.218
G1 F1200 X80.748 Y71.98 E8.17257
G1 X80.954 Y71.763 E8.18253
G1 X81.362 Y71.344 E8.20198
G1 X81.806 Y70.913 E8.22256
G1 X82.066 Y70.68 E8.23417
G1 X82.326 Y70.453 E8.24565
G1 X82.543 Y70.268 E8.25513
G1 X82.993 Y69.896 E8.27455
G1 X83.469 Y69.525 E8.29463
G1 X83.802 Y69.284 E8.3083
G1 X84.01 Y69.139 E8.31673
G1 X84.709 Y68.673 E8.34467
G1 X85.26 Y68.331 E8.36624
G1 X85.577 Y68.15 E8.37838
G1 X85.844 Y68.003 E8.38852
G1 X86.103 Y67.865 E8.39828
G1 X86.635 Y67.591 E8.41818
G1 X87.211 Y67.316 E8.43941
G1 X87.551 Y67.169 E8.45173
G1 X87.828 Y67.054 E8.46171
G1 X88.079 Y66.953 E8.47071
G1 X88.616 Y66.746 E8.48985
G1 X89.151 Y66.557 E8.50872
G1 X89.588 Y66.42 E8.52395
G1 X89.897 Y66.33 E8.53466
G1 X90.151 Y66.259 E8.54343
G1 X90.722 Y66.108 E8.56308
G1 X91.287 Y65.975 E8.58238
G1 X91.672 Y65.899 E8.59543
G1 X91.977 Y65.844 E8.60574
G1 X92.282 Y65.794 E8.61602
G1 X92.874 Y65.705 E8.63593
G1 X93.45 Y65.634 E8.65523
G1 X93.827 Y65.602 E8.66782
G1 X94.166 Y65.579 E8.67912
G1 X94.429 Y65.565 E8.68788
G1 X95.011 Y65.54 E8.70726
G1 X95.581 Y65.531 E8.72622
G1 X95.949 Y65.538 E8.73846
G1 X96.301 Y65.551 E8.75017
G1 X96.595 Y65.566 E8.75996
G1 X97.166 Y65.603 E8.779
G1 X97.709 Y65.652 E8.79713
G1 X98.145 Y65.708 E8.81175
G1 X98.471 Y65.756 E8.82271
G1 X98.736 Y65.799 E8.83164
G1 X99.296 Y65.896 E8.85054
G1 X99.995 Y66.041 E8.87429
G1 X100.289 Y66.114 E8.88436
G1 X100.621 Y66.201 E8.89578
G1 X100.871 Y66.27 E8.9044
G1 X101.811 Y66.542 E8.93695
G1 X103.932 Y67.187 E9.01068
G1 X106.382 Y67.855 E9.09515
G1 X108.799 Y68.442 E9.17787
G1 X111.296 Y68.975 E9.26279
G1 X113.775 Y69.431 E9.34663
G1 X116.296 Y69.821 E9.43148
G1 X118.756 Y70.13 E9.51394
G1 X122.648 Y70.481 E9.64391
G1 X124.124 Y70.581 E9.69312
G1 X124.818 Y70.652 E9.71632
G1 X124.974 Y70.673 E9.72155
G1 X125.422 Y70.743 E9.73664
G1 X125.719 Y70.796 E9.74667
G1 X126.333 Y70.924 E9.76753
G1 X126.487 Y70.961 E9.7728
G1 X126.977 Y71.091 E9.78966
G1 X127.303 Y71.186 E9.80095
G1 X127.893 Y71.377 E9.82158
G1 X128.039 Y71.429 E9.82674
G1 X128.589 Y71.643 E9.84636
G1 X128.896 Y71.772 E9.85744
G1 X129.51 Y72.053 E9.8799
G1 X129.695 Y72.145 E9.88677
G1 X130.104 Y72.359 E9.90212
G1 X130.35 Y72.495 E9.91147
G1 X130.798 Y72.758 E9.92875
G1 X130.916 Y72.831 E9.93337
G1 X131.428 Y73.168 E9.95375
G1 X131.713 Y73.368 E9.96533
G1 X132.163 Y73.702 E9.98397
G1 X132.274 Y73.789 E9.98866
G1 X132.715 Y74.155 E10.00772
G1 X132.979 Y74.386 E10.01939
G1 X133.494 Y74.868 E10.04285
G1 X133.601 Y74.975 E10.04789
G1 X133.894 Y75.279 E10.06193
G1 X134.111 Y75.514 E10.07257
G1 X134.612 Y76.098 E10.09816
G1 X134.722 Y76.236 E10.10403
G1 X134.946 Y76.528 E10.11627
G1 X135.127 Y76.772 E10.12637
G1 X135.509 Y77.322 E10.14865
G1 X135.614 Y77.484 E10.15507
G1 X135.888 Y77.93 E10.17248
G1 X136.04 Y78.192 E10.18255
G1 X136.321 Y78.71 E10.20215
G1 X136.384 Y78.834 E10.20678
G1 X136.622 Y79.333 E10.22517
G1 X136.765 Y79.655 E10.23688
G1 X136.948 Y80.094 E10.2527
G1 X136.993 Y80.209 E10.25681
G1 X137.214 Y80.829 E10.2787
G1 X137.33 Y81.19 E10.29131
G1 X137.531 Y81.901 E10.31589
G1 X137.562 Y82.027 E10.32021
G1 X137.647 Y82.402 E10.33299
G1 X137.716 Y82.734 E10.34427
G1 X137.845 Y83.49 E10.36978
G1 X137.869 Y83.67 E10.37582
G1 X137.917 Y84.099 E10.39018
G1 X137.945 Y84.403 E10.40033
G1 X137.984 Y85.005 E10.4204
G1 X137.989 Y85.148 E10.42516
G1 X137.994 Y85.676 E10.44272
G1 X137.989 Y86.012 E10.45389
G1 X137.964 Y86.595 E10.4733
G1 X137.953 Y86.752 E10.47854
G1 X137.901 Y87.291 E10.49655
G1 X137.86 Y87.628 E10.50784
G1 X137.762 Y88.273 E10.52954
G1 X137.733 Y88.43 E10.53485
G1 X137.618 Y88.972 E10.55328
G1 X137.545 Y89.277 E10.56371
G1 X137.394 Y89.837 E10.583
G1 X137.349 Y89.988 E10.58824
G1 X137.196 Y90.461 E10.60477
G1 X137.09 Y90.764 E10.61545
G1 X136.817 Y91.465 E10.64047
G1 X135.616 Y94.247 E10.74126
G1 X134.688 Y96.578 E10.8247
G1 X133.827 Y98.933 E10.9081
G1 X133.014 Y101.369 E10.99352
G1 X132.291 Y103.755 E11.07644
G1 X131.611 Y106.252 E11.16251
G1 X131.033 Y108.623 E11.24368
G1 X130.906 Y109.103 E11.2602
G1 X130.793 Y109.494 E11.27373
G1 X130.59 Y110.124 E11.29575
G1 X130.532 Y110.286 E11.30147
G1 X130.361 Y110.732 E11.31736
G1 X130.209 Y111.103 E11.33069
G1 X129.978 Y111.624 E11.34965
G1 X129.905 Y111.778 E11.35532
G1 X129.659 Y112.265 E11.37346
G1 X129.083 Y113.335 E11.41388
G1 X127.887 Y115.633 E11.50004
G1 X126.751 Y117.976 E11.58665
G1 X126.244 Y119.083 E11.62715
G1 X125.806 Y120.056 E11.66264
G1 X125.521 Y120.639 E11.68422
G1 X125.367 Y120.931 E11.6952
G1 X125.27 Y121.109 E11.70194
G1 X125.112 Y121.389 E11.71264
G1 X124.833 Y121.866 E11.73102
G1 X124.384 Y122.568 E11.75873
G1 X124.105 Y122.969 E11.77498
G1 X123.927 Y123.218 E11.78516
G1 X123.609 Y123.648 E11.80295
G1 X123.204 Y124.16 E11.82466
G1 X122.998 Y124.403 E11.83526
G1 X122.658 Y124.788 E11.85234
G1 X122.286 Y125.193 E11.87063
G1 X121.86 Y125.629 E11.8909
G1 X121.603 Y125.876 E11.90276
G1 X121.413 Y126.053 E11.9114
G1 X121.163 Y126.279 E11.92261
G1 X120.727 Y126.66 E11.94186
G1 X120.342 Y126.981 E11.95854
G1 X119.997 Y127.247 E11.97303
G1 X119.735 Y127.441 E11.98387
G1 X119.503 Y127.608 E11.99338
G1 X119.027 Y127.941 E12.0127
G1 X118.559 Y128.25 E12.03135
G1 X118.389 Y128.356 E12.03801
G1 X118.083 Y128.54 E12.04989
G1 X117.802 Y128.7 E12.06064
G1 X117.275 Y128.992 E12.08068
