;FLAVOR:Marlin
;TIME:3307
;Filament used: 1.7849m
;Layer height: 0.2
;MINX:75.012
;MINY:78.215
;MINZ:0.2
;MAXX:144.989
;MAXY:141.785
;MAXZ:28
;Generated with Cura_SteamEngine master
M140 S60
M105
M190 S60
M104 S200
M105
M109 S200
M82 ;absolute extrusion mode
; Ender 3 Custom Start G-code
G92 E0 ; Reset Extruder
G28 ; Home all axes
G1 Z2.0 F3000 ; Move Z Axis up little to prevent scratching of Heat Bed
G1 X0.1 Y20 Z0.3 F5000.0 ; Move to start position
G1 X0.1 Y200.0 Z0.3 F1500.0 E15 ; Draw the first line
G1 X0.4 Y200.0 Z0.3 F5000.0 ; Move to side a little
G1 X0.4 Y20 Z0.3 F1500.0 E30 ; Draw the second line
G92 E0 ; Reset Extruder
G1 Z2.0 F3000 ; Move Z Axis up little to prevent scratching of Heat Bed
G1 X5 Y20 Z0.3 F5000.0 ; Move over to prevent blob squish
G92 E0
G92 E0
G1 F1500 E-6.5
;LAYER_COUNT:140
;LAYER:0
M107
G0 F6000 X89.647 Y82.073 Z0.2
;TYPE:SKIRT
G1 F1500 E0
G1 F1200 X90.287 Y81.387 E0.0312
G1 X90.982 Y80.758 E0.06238
G1 X91.729 Y80.191 E0.09357
G1 X92.521 Y79.689 E0.12476
G1 X93.354 Y79.257 E0.15597
G1 X94.22 Y78.897 E0.18716
G1 X95.113 Y78.612 E0.21834
G1 X96.028 Y78.404 E0.24955
G1 X96.957 Y78.275 E0.28075
G1 X97.845 Y78.226 E0.31033
G1 X98.692 Y78.215 E0.3385
G1 X121.293 Y78.215 E1.09021
G1 X122.151 Y78.226 E1.11875
G1 X123.087 Y78.279 E1.14993
G1 X124.016 Y78.412 E1.18115
G1 X124.929 Y78.624 E1.21232
G1 X125.822 Y78.912 E1.24353
G1 X126.686 Y79.276 E1.27471
G1 X127.517 Y79.712 E1.30592
G1 X128.307 Y80.217 E1.33711
G1 X129.051 Y80.787 E1.36828
G1 X129.744 Y81.419 E1.39948
G1 X130.381 Y82.108 E1.43069
G1 X130.957 Y82.848 E1.46188
G1 X131.44 Y83.589 E1.4913
G1 X131.881 Y84.33 E1.51998
G1 X143.259 Y104.04 E2.27692
G1 X143.589 Y104.63 E2.29941
G1 X144.012 Y105.468 E2.33063
G1 X144.362 Y106.338 E2.36182
G1 X144.636 Y107.235 E2.39301
G1 X144.833 Y108.152 E2.42421
G1 X144.951 Y109.082 E2.45539
G1 X144.989 Y110.019 E2.48658
G1 X144.947 Y110.956 E2.51777
G1 X144.826 Y111.886 E2.54897
G1 X144.626 Y112.802 E2.58015
G1 X144.349 Y113.698 E2.61134
G1 X143.996 Y114.567 E2.64254
G1 X143.586 Y115.376 E2.67271
G1 X143.157 Y116.139 E2.70182
G1 X131.832 Y135.754 E3.45515
G1 X131.449 Y136.398 E3.48007
G1 X130.936 Y137.183 E3.51126
G1 X130.358 Y137.921 E3.54244
G1 X129.719 Y138.607 E3.57362
G1 X129.023 Y139.237 E3.60484
G1 X128.277 Y139.805 E3.63603
G1 X127.485 Y140.307 E3.66722
G1 X126.653 Y140.74 E3.69841
G1 X125.787 Y141.101 E3.72962
G1 X124.894 Y141.386 E3.7608
G1 X123.979 Y141.595 E3.79201
G1 X123.051 Y141.724 E3.82317
G1 X122.155 Y141.774 E3.85302
G1 X121.308 Y141.785 E3.8812
G1 X98.55 Y141.784 E4.63813
G1 X97.849 Y141.774 E4.66145
G1 X96.913 Y141.721 E4.69263
G1 X95.984 Y141.588 E4.72384
G1 X95.071 Y141.376 E4.75502
G1 X94.178 Y141.088 E4.78622
G1 X93.314 Y140.724 E4.81741
G1 X92.483 Y140.288 E4.84862
G1 X91.693 Y139.783 E4.87981
G1 X90.949 Y139.213 E4.91098
G1 X90.256 Y138.581 E4.94217
G1 X89.619 Y137.892 E4.97338
G1 X89.043 Y137.152 E5.00457
G1 X88.558 Y136.409 E5.03408
G1 X88.096 Y135.631 E5.06418
G1 X76.734 Y115.947 E5.82011
G1 X76.405 Y115.357 E5.84258
G1 X75.983 Y114.519 E5.87378
G1 X75.635 Y113.649 E5.90495
G1 X75.362 Y112.751 E5.93617
G1 X75.166 Y111.834 E5.96736
G1 X75.049 Y110.904 E5.99853
G1 X75.012 Y109.967 E6.02972
G1 X75.055 Y109.03 E6.06092
G1 X75.177 Y108.1 E6.09212
G1 X75.379 Y107.184 E6.12331
G1 X75.657 Y106.288 E6.15452
G1 X76.011 Y105.42 E6.18569
G1 X76.409 Y104.635 E6.21497
G1 X76.843 Y103.861 E6.24448
G1 X88.199 Y84.192 E6.99988
G1 X88.554 Y83.596 E7.02295
G1 X89.068 Y82.811 E7.05416
G1 X89.647 Y82.073 E7.08536
G0 F6000 X89.973 Y82.308
G1 F1200 X90.604 Y81.637 E7.116
G1 X91.29 Y81.023 E7.14662
G1 X92.027 Y80.472 E7.17722
G1 X92.809 Y79.986 E7.20785
G1 X93.63 Y79.57 E7.23846
G1 X94.485 Y79.227 E7.2691
G1 X95.365 Y78.959 E7.2997
G1 X96.266 Y78.769 E7.33032
G1 X97.18 Y78.657 E7.36095
G1 X97.851 Y78.626 E7.38329
G1 X98.692 Y78.615 E7.41126
G1 X121.293 Y78.615 E8.16298
G1 X122.145 Y78.626 E8.19132
G1 X123.064 Y78.679 E8.22193
G1 X123.975 Y78.812 E8.25255
G1 X124.871 Y79.023 E8.28317
G1 X125.746 Y79.311 E8.31381
G1 X126.592 Y79.674 E8.34443
G1 X127.403 Y80.109 E8.37504
G1 X128.174 Y80.613 E8.40567
G1 X128.898 Y81.182 E8.4363
G1 X129.57 Y81.811 E8.46692
G1 X130.185 Y82.496 E8.49753
G1 X130.738 Y83.232 E8.52815
G1 X131.097 Y83.793 E8.55031
G1 X131.535 Y84.53 E8.57882
G1 X142.839 Y104.11 E9.33079
G1 X143.24 Y104.826 E9.35809
G1 X143.654 Y105.648 E9.3887
G1 X143.996 Y106.503 E9.41933
G1 X144.261 Y107.384 E9.44992
G1 X144.449 Y108.286 E9.48057
G1 X144.559 Y109.2 E9.51119
G1 X144.588 Y110.12 E9.5418
G1 X144.538 Y111.039 E9.57241
G1 X144.408 Y111.951 E9.60305
G1 X144.199 Y112.847 E9.63366
G1 X143.914 Y113.723 E9.66429
G1 X143.553 Y114.57 E9.69492
G1 X143.237 Y115.181 E9.7178
G1 X142.811 Y115.939 E9.74672
G1 X131.489 Y135.549 E10.49985
G1 X131.106 Y136.193 E10.52477
G1 X130.601 Y136.963 E10.5554
G1 X130.032 Y137.687 E10.58603
G1 X129.402 Y138.358 E10.61664
G1 X128.716 Y138.972 E10.64726
G1 X127.979 Y139.524 E10.67789
G1 X127.197 Y140.011 E10.70853
G1 X126.376 Y140.427 E10.73914
G1 X125.522 Y140.771 E10.76976
G1 X124.641 Y141.039 E10.80039
G1 X123.741 Y141.23 E10.83099
G1 X122.827 Y141.342 E10.86162
G1 X122.149 Y141.374 E10.88419
G1 X121.308 Y141.385 E10.91217
G1 X98.556 Y141.384 E11.6689
G1 X97.855 Y141.374 E11.69222
G1 X96.936 Y141.321 E11.72284
G1 X96.025 Y141.188 E11.75346
G1 X95.129 Y140.977 E11.78407
G1 X94.254 Y140.689 E11.81471
G1 X93.408 Y140.326 E11.84533
G1 X92.597 Y139.891 E11.87594
G1 X91.826 Y139.387 E11.90658
G1 X91.102 Y138.818 E11.9372
G1 X90.43 Y138.189 E11.96782
G1 X89.815 Y137.504 E11.99844
G1 X89.262 Y136.768 E12.02906
G1 X88.902 Y136.204 E12.05131
G1 X88.442 Y135.431 E12.08123
G1 X77.161 Y115.89 E12.83169
G1 X76.754 Y115.162 E12.85943
G1 X76.341 Y114.34 E12.89003
G1 X76.001 Y113.484 E12.92066
G1 X75.736 Y112.602 E12.9513
G1 X75.549 Y111.701 E12.9819
G1 X75.441 Y110.787 E13.01251
G1 X75.413 Y109.866 E13.04316
G1 X75.464 Y108.947 E13.07377
G1 X75.596 Y108.036 E13.10439
G1 X75.805 Y107.139 E13.13502
G1 X76.092 Y106.265 E13.16562
G1 X76.454 Y105.418 E13.19625
G1 X76.758 Y104.83 E13.21827
G1 X77.189 Y104.061 E13.24759
G1 X88.543 Y84.397 E14.00281
G1 X88.898 Y83.801 E14.02589
G1 X89.403 Y83.031 E14.05651
G1 X89.973 Y82.308 E14.08713
G0 F6000 X90.299 Y82.543
G1 F1200 X90.92 Y81.887 E14.11718
G1 X91.597 Y81.289 E14.14722
G1 X92.324 Y80.754 E14.17724
G1 X93.095 Y80.284 E14.20728
G1 X93.905 Y79.885 E14.23731
G1 X94.748 Y79.559 E14.26737
G1 X95.615 Y79.309 E14.29738
G1 X96.502 Y79.136 E14.32744
G1 X97.4 Y79.043 E14.35747
G1 X97.857 Y79.026 E14.37268
G1 X98.692 Y79.015 E14.40045
G1 X121.293 Y79.015 E15.15216
G1 X122.139 Y79.026 E15.18031
G1 X123.041 Y79.079 E15.21036
G1 X123.934 Y79.211 E15.24038
G1 X124.813 Y79.422 E15.27045
G1 X125.669 Y79.71 E15.30049
G1 X126.496 Y80.072 E15.33051
G1 X127.288 Y80.506 E15.36055
G1 X128.038 Y81.009 E15.39059
G1 X128.741 Y81.576 E15.42063
G1 X129.391 Y82.202 E15.45064
G1 X129.984 Y82.884 E15.4807
G1 X130.513 Y83.616 E15.51074
G1 X130.753 Y83.998 E15.52574
G1 X131.189 Y84.73 E15.55408
G1 X142.493 Y104.31 E16.30605
G1 X142.891 Y105.021 E16.33315
G1 X143.297 Y105.828 E16.3632
G1 X143.629 Y106.667 E16.39321
G1 X143.886 Y107.533 E16.42325
G1 X144.066 Y108.418 E16.45329
G1 X144.166 Y109.316 E16.48334
G1 X144.187 Y110.219 E16.51339
G1 X144.127 Y111.12 E16.54342
G1 X143.989 Y112.012 E16.57344
G1 X143.771 Y112.889 E16.6035
G1 X143.478 Y113.743 E16.63353
G1 X143.109 Y114.567 E16.66356
G1 X142.888 Y114.985 E16.67928
G1 X142.465 Y115.739 E16.70804
G1 X131.145 Y135.345 E17.46102
G1 X130.762 Y135.989 E17.48594
G1 X130.266 Y136.744 E17.51599
G1 X129.706 Y137.452 E17.54601
G1 X129.085 Y138.108 E17.57606
G1 X128.409 Y138.706 E17.60608
G1 X127.682 Y139.243 E17.63614
G1 X126.911 Y139.712 E17.66615
G1 X126.101 Y140.112 E17.6962
G1 X125.259 Y140.439 E17.72624
G1 X124.391 Y140.69 E17.7563
G1 X123.505 Y140.863 E17.78632
G1 X122.607 Y140.957 E17.81635
G1 X122.143 Y140.974 E17.83179
G1 X121.308 Y140.985 E17.85957
G1 X98.562 Y140.984 E18.6161
G1 X97.861 Y140.974 E18.63942
G1 X96.959 Y140.921 E18.66947
G1 X96.066 Y140.789 E18.6995
G1 X95.187 Y140.578 E18.72956
G1 X94.331 Y140.29 E18.7596
G1 X93.504 Y139.928 E18.78963
G1 X92.712 Y139.494 E18.81967
G1 X91.962 Y138.991 E18.8497
G1 X91.259 Y138.424 E18.87974
G1 X90.609 Y137.798 E18.90976
G1 X90.016 Y137.116 E18.93982
G1 X89.487 Y136.384 E18.96985
G1 X89.245 Y135.999 E18.98498
G1 X88.788 Y135.231 E19.0147
G1 X77.432 Y115.558 E19.77022
G1 X77.103 Y114.968 E19.79269
G1 X76.699 Y114.16 E19.82273
G1 X76.367 Y113.32 E19.85277
G1 X76.112 Y112.454 E19.8828
G1 X75.933 Y111.569 E19.91283
G1 X75.834 Y110.671 E19.94288
G1 X75.815 Y109.768 E19.97292
G1 X75.875 Y108.867 E20.00295
G1 X76.015 Y107.975 E20.03299
G1 X76.233 Y107.099 E20.06301
G1 X76.528 Y106.245 E20.09306
G1 X77.107 Y105.025 E20.13798
G1 X77.535 Y104.261 E20.1671
G1 X88.816 Y84.721 E20.91754
G1 X89.242 Y84.005 E20.94525
G1 X89.738 Y83.251 E20.97527
G1 X90.299 Y82.543 E21.00531
G1 F1500 E14.50531
;MESH:TM_ocean_tiles_stand_FIX.stl
G0 F6000 X101.372 Y101.901
G0 X100.311 Y100.903
G0 X98.659 Y103.765
G0 X97.969 Y105.236
G0 X97.467 Y106.782
G0 X97.162 Y108.378
G0 X97.06 Y110
G0 X97.162 Y111.622
G0 X97.467 Y113.218
G0 X97.969 Y114.764
G0 X98.659 Y116.235
G0 X99.531 Y117.606
G0 X100.567 Y118.858
G0 X101.751 Y119.969
G0 X103.067 Y120.925
G0 X104.491 Y121.708
G0 X105.85 Y122.248
G0 X109.177 Y123.075
;TYPE:WALL-INNER
G1 F1500 E21.00531
G1 F1200 X110.823 Y123.075 E21.06006
G1 X112.455 Y122.87 E21.11477
G1 X114.049 Y122.46 E21.16951
G1 X115.578 Y121.854 E21.22421
G1 X117.02 Y121.061 E21.27895
G1 X118.351 Y120.094 E21.33367
G1 X119.55 Y118.968 E21.38837
G1 X120.599 Y117.701 E21.44308
G1 X121.481 Y116.312 E21.49781
G1 X122.181 Y114.823 E21.55253
G1 X122.689 Y113.259 E21.60723
G1 X122.998 Y111.642 E21.66198
G1 X123.101 Y110 E21.7167
G1 X122.998 Y108.358 E21.77142
G1 X122.689 Y106.741 E21.82618
G1 X122.181 Y105.177 E21.88087
G1 X121.481 Y103.688 E21.93559
G1 X120.599 Y102.299 E21.99032
G1 X119.55 Y101.032 E22.04503
G1 X118.351 Y99.906 E22.09974
G1 X117.02 Y98.939 E22.15446
G1 X115.578 Y98.146 E22.20919
G1 X114.049 Y97.54 E22.26389
G1 X112.455 Y97.13 E22.31864
G1 X110.823 Y96.925 E22.37334
G1 X109.177 Y96.925 E22.42809
G1 X107.545 Y97.13 E22.4828
G1 X105.951 Y97.54 E22.53754
G1 X104.422 Y98.146 E22.59224
G1 X102.98 Y98.939 E22.64698
G1 X101.649 Y99.906 E22.7017
G1 X100.45 Y101.032 E22.7564
G1 X99.401 Y102.299 E22.81111
G1 X98.519 Y103.688 E22.86584
G1 X97.819 Y105.177 E22.92056
G1 X97.311 Y106.741 E22.97526
G1 X97.002 Y108.358 E23.03001
G1 X96.899 Y110 E23.08473
G1 X97.002 Y111.642 E23.13945
G1 X97.311 Y113.259 E23.19421
G1 X97.819 Y114.823 E23.2489
G1 X98.519 Y116.312 E23.30363
G1 X99.401 Y117.701 E23.35835
G1 X100.45 Y118.968 E23.41306
G1 X101.649 Y120.094 E23.46777
G1 X102.98 Y121.061 E23.52249
G1 X104.422 Y121.854 E23.57722
G1 X105.951 Y122.46 E23.63193
G1 X107.545 Y122.87 E23.68667
G1 X109.177 Y123.075 E23.74137
G0 F6000 X109.202 Y122.675
;TYPE:WALL-OUTER
G1 F1200 X110.798 Y122.675 E23.79446
G1 X112.38 Y122.476 E23.84749
G1 X113.925 Y122.079 E23.90055
G1 X115.407 Y121.491 E23.95358
G1 X116.805 Y120.723 E24.00663
G1 X118.096 Y119.785 E24.0597
G1 X119.258 Y118.694 E24.11272
G1 X120.275 Y117.465 E24.16577
G1 X121.13 Y116.119 E24.21881
G1 X121.808 Y114.676 E24.27184
G1 X122.301 Y113.159 E24.32489
G1 X122.6 Y111.592 E24.37795
G1 X122.7 Y110 E24.43101
G1 X122.6 Y108.408 E24.48406
G1 X122.301 Y106.841 E24.53712
G1 X121.808 Y105.324 E24.59017
G1 X121.13 Y103.881 E24.6432
G1 X120.275 Y102.535 E24.69624
G1 X119.258 Y101.306 E24.74929
G1 X118.096 Y100.215 E24.80231
G1 X116.805 Y99.277 E24.85538
G1 X115.407 Y98.509 E24.90844
G1 X113.925 Y97.921 E24.96147
G1 X112.38 Y97.524 E25.01452
G1 X110.798 Y97.325 E25.06755
G1 X109.202 Y97.325 E25.12064
G1 X107.62 Y97.524 E25.17367
G1 X106.075 Y97.921 E25.22673
G1 X104.593 Y98.509 E25.27975
G1 X103.195 Y99.277 E25.33281
G1 X101.904 Y100.215 E25.38588
G1 X100.742 Y101.306 E25.4389
G1 X99.725 Y102.535 E25.49195
G1 X98.87 Y103.881 E25.54499
G1 X98.192 Y105.324 E25.59802
G1 X97.699 Y106.841 E25.65107
G1 X97.4 Y108.408 E25.70413
G1 X97.3 Y110 E25.75718
G1 X97.4 Y111.592 E25.81024
G1 X97.699 Y113.159 E25.8633
G1 X98.192 Y114.676 E25.91635
G1 X98.87 Y116.119 E25.96938
G1 X99.725 Y117.465 E26.02242
G1 X100.742 Y118.694 E26.07547
G1 X101.904 Y119.785 E26.12849
G1 X103.195 Y120.723 E26.18156
G1 X104.593 Y121.491 E26.23461
G1 X106.075 Y122.079 E26.28764
G1 X107.62 Y122.476 E26.3407
G1 X109.202 Y122.675 E26.39373
G0 F6000 X109.175 Y123.114
G1 F1500 E19.89373
G0 F6000 X112.491 Y123.058
G0 X112.218 Y121.625
G0 X112.491 Y131.45
G0 X112.491 Y129.975
G0 X121.654 Y130.185
;TYPE:WALL-INNER
G1 F1500 E26.39373
G1 F1200 X98.346 Y130.185 E27.16896
G1 X86.692 Y110 E27.94418
G1 X98.346 Y89.815 E28.7194
G1 X121.654 Y89.815 E29.49462
G1 X133.308 Y110 E30.26984
G1 X121.654 Y130.185 E31.04506
G0 F6000 X121.885 Y130.585
;TYPE:WALL-OUTER
G1 F1200 X98.115 Y130.585 E31.83565
G1 X86.231 Y110 E32.62622
G1 X98.115 Y89.415 E33.41678
G1 X121.885 Y89.415 E34.20737
G1 X133.769 Y110 E34.99794
G1 X121.885 Y130.585 E35.7885
G0 F6000 X121.614 Y130.175
G0 X121.429 Y129.795
;TYPE:SKIN
G1 F1200 X98.571 Y129.795 E36.54876
G1 X87.143 Y110 E37.30899
G1 X98.571 Y90.205 E38.06922
G1 X121.429 Y90.205 E38.82948
G1 X132.857 Y110 E39.5897
G1 X121.429 Y129.795 E40.34993
G1 F1500 E33.84993
G0 F6000 X121.67 Y129.937
G0 X124.239 Y125.288
G0 X125.516 Y126.025
G0 X117.542 Y119.12
G0 X118.473 Y120.241
G0 X117.08 Y121.154
G0 X117.229 Y121.391
G1 F1500 E40.34993
G1 F1200 X118.6 Y120.395 E40.40629
G1 X119.835 Y119.235 E40.46265
G1 X120.915 Y117.931 E40.51896
G1 X121.824 Y116.501 E40.57532
G1 X122.544 Y114.967 E40.63168
G1 X123.067 Y113.356 E40.68801
G1 X123.386 Y111.691 E40.7444
G1 X123.491 Y110 E40.80075
G1 X123.386 Y108.309 E40.8571
G1 X123.067 Y106.644 E40.91349
G1 X122.544 Y105.033 E40.96982
G1 X121.824 Y103.499 E41.02618
G1 X120.915 Y102.069 E41.08254
G1 X119.835 Y100.765 E41.13886
G1 X118.6 Y99.605 E41.19521
G1 X117.229 Y98.609 E41.25157
G1 X115.744 Y97.793 E41.30793
G1 X114.17 Y97.168 E41.36426
G1 X112.529 Y96.746 E41.42061
G1 X110.848 Y96.535 E41.47696
G1 X109.152 Y96.535 E41.53337
G1 X107.471 Y96.746 E41.58972
G1 X105.83 Y97.168 E41.64608
G1 X104.256 Y97.793 E41.7024
G1 X102.771 Y98.609 E41.75876
G1 X101.4 Y99.605 E41.81512
G1 X100.165 Y100.765 E41.87148
G1 X99.085 Y102.069 E41.92779
G1 X98.176 Y103.499 E41.98415
G1 X97.456 Y105.033 E42.04051
G1 X96.933 Y106.644 E42.09685
G1 X96.614 Y108.309 E42.15323
G1 X96.509 Y110 E42.20958
G1 X96.614 Y111.691 E42.26594
G1 X96.933 Y113.356 E42.32232
G1 X97.456 Y114.967 E42.37866
G1 X98.176 Y116.501 E42.43502
G1 X99.085 Y117.931 E42.49137
G1 X100.165 Y119.235 E42.54769
G1 X101.4 Y120.395 E42.60404
G1 X102.771 Y121.391 E42.66041
G1 X104.256 Y122.207 E42.71676
G1 X105.83 Y122.832 E42.77309
G1 X107.471 Y123.254 E42.82945
G1 X109.152 Y123.465 E42.8858
G1 X110.848 Y123.465 E42.94221
G1 X112.529 Y123.254 E42.99855
G1 X114.17 Y122.832 E43.05491
G1 X115.744 Y122.207 E43.11124
G1 X117.229 Y121.391 E43.16759
G1 F1500 E36.66759
G0 F6000 X117.08 Y121.154
G0 X114.586 Y122.088
G0 X110.835 Y123.266
G0 X110.745 Y121.811
G0 X110.835 Y131.45
G0 X110.835 Y129.975
G0 X99.087 Y130.075
G0 X99.087 Y129.634
G1 F1500 E43.16759
G1 F1200 X98.083 Y128.63 E43.21482
G0 F6000 X97.702 Y128.849
G0 X96.929 Y127.51
G0 X97.31 Y127.291
G1 F1200 X99.653 Y129.634 E43.32503
G0 F6000 X100.218 Y129.634
G1 F1200 X96.538 Y125.954 E43.49812
G0 F6000 X96.157 Y126.173
G0 X95.384 Y124.834
G0 X95.765 Y124.615
G1 F1200 X100.784 Y129.634 E43.7342
G0 F6000 X101.35 Y129.634
G1 F1200 X94.993 Y123.277 E44.03321
G0 F6000 X94.612 Y123.497
G0 X93.839 Y122.158
G0 X94.22 Y121.939
G1 F1200 X101.916 Y129.634 E44.39519
G0 F6000 X102.481 Y129.634
G1 F1200 X93.448 Y120.601 E44.82007
G0 F6000 X93.067 Y120.821
G0 X92.294 Y119.482
G0 X92.675 Y119.262
G1 F1200 X103.047 Y129.634 E45.30794
G0 F6000 X103.613 Y129.634
G1 F1200 X91.902 Y117.924 E45.85877
G0 F6000 X91.521 Y118.143
G0 X90.749 Y116.806
G0 X91.13 Y116.586
G1 F1200 X104.178 Y129.634 E46.4725
G0 F6000 X104.744 Y129.634
G1 F1200 X90.357 Y115.247 E47.14922
G0 F6000 X89.976 Y115.467
