;FLAVOR:Marlin
;TIME:3649
;Filament used: 1.72901m
;Layer height: 0.2
;MINX:100.337
;MINY:90.235
;MINZ:0.24
;MAXX:149.666
;MAXY:119.026
;MAXZ:22.09
;Generated with Cura_SteamEngine master
M140 S60
M105
M190 S60
M104 S200
M105
M109 S200
M82 ;absolute extrusion mode
; Ender 3 Custom Start G-code
G92 E0 ; Reset Extruder
G28 ; Home all axes
G1 Z2.0 F3000 ; Move Z Axis up little to prevent scratching of Heat Bed
G1 X0.1 Y20 Z0.3 F5000.0 ; Move to start position
G1 X0.1 Y200.0 Z0.3 F1500.0 E15 ; Draw the first line
G1 X0.4 Y200.0 Z0.3 F5000.0 ; Move to side a little
G1 X0.4 Y20 Z0.3 F1500.0 E30 ; Draw the second line
G92 E0 ; Reset Extruder
G1 Z2.0 F3000 ; Move Z Axis up little to prevent scratching of Heat Bed
G1 X5 Y20 Z0.3 F5000.0 ; Move over to prevent blob squish
G92 E0
G92 E0
G1 F1500 E-6.5
;LAYER_COUNT:106
;LAYER:-6
M107
G0 F9000 X102.56 Y94.788 Z0.24
;TYPE:SUPPORT-INTERFACE
G1 F1500 E0
G1 F1125 X102.78 Y94.555 E0.02558
G1 X102.982 Y94.368 E0.04755
G1 X103.212 Y94.18 E0.07127
G1 X103.44 Y94.016 E0.09368
G1 X103.699 Y93.854 E0.11807
G1 X103.938 Y93.726 E0.13971
G1 X104.213 Y93.599 E0.16389
G1 X104.474 Y93.497 E0.18626
G1 X104.777 Y93.402 E0.21161
G1 X105.007 Y93.345 E0.23052
G1 X105.346 Y93.288 E0.25796
G1 X105.906 Y93.238 E0.30284
G1 X106.124 Y93.228 E0.32026
G1 X106.71 Y93.227 E0.36704
G1 X106.852 Y93.232 E0.37838
G1 X107.207 Y93.253 E0.40677
G1 X108.144 Y93.37 E0.48215
G1 X108.821 Y93.367 E0.53619
G1 X109.36 Y93.305 E0.5795
G1 X109.463 Y93.287 E0.58784
G1 X110.01 Y93.239 E0.63167
G1 X110.232 Y93.229 E0.64941
G1 X110.925 Y93.229 E0.70473
G1 X111.051 Y93.233 E0.71479
G1 X111.428 Y93.257 E0.74495
G1 X111.726 Y93.294 E0.76892
G1 X112.015 Y93.35 E0.79242
G1 X112.278 Y93.418 E0.8141
G1 X112.31 Y93.429 E0.8168
G1 X112.961 Y93.6 E0.87053
G1 X113.638 Y93.689 E0.92504
G1 X114.321 Y93.691 E0.97956
G1 X114.997 Y93.608 E1.03392
G1 X115.617 Y93.452 E1.08496
G1 X115.763 Y93.406 E1.09718
G1 X116.007 Y93.345 E1.11725
G1 X116.346 Y93.288 E1.14469
G1 X116.906 Y93.238 E1.18957
G1 X117.124 Y93.228 E1.20699
G1 X117.71 Y93.227 E1.25377
G1 X117.852 Y93.232 E1.26511
G1 X118.207 Y93.253 E1.2935
G1 X119.144 Y93.37 E1.36888
G1 X119.821 Y93.367 E1.42292
G1 X120.36 Y93.305 E1.46623
G1 X120.463 Y93.287 E1.47457
G1 X121.01 Y93.239 E1.5184
G1 X121.232 Y93.229 E1.53614
G1 X121.925 Y93.229 E1.59146
G1 X122.051 Y93.233 E1.60152
G1 X122.428 Y93.257 E1.63168
G1 X122.726 Y93.294 E1.65565
G1 X123.015 Y93.35 E1.67915
G1 X123.278 Y93.418 E1.70083
G1 X123.31 Y93.429 E1.70353
G1 X123.961 Y93.6 E1.75726
G1 X124.638 Y93.689 E1.81177
G1 X125.321 Y93.691 E1.86629
G1 X125.997 Y93.608 E1.92065
G1 X126.617 Y93.452 E1.97169
G1 X126.763 Y93.406 E1.98391
G1 X127.007 Y93.345 E2.00398
G1 X127.346 Y93.288 E2.03142
G1 X127.906 Y93.238 E2.0763
G1 X128.124 Y93.228 E2.09372
G1 X128.71 Y93.227 E2.1405
G1 X128.852 Y93.232 E2.15184
G1 X129.207 Y93.253 E2.18023
G1 X130.144 Y93.37 E2.25561
G1 X130.821 Y93.367 E2.30965
G1 X131.36 Y93.305 E2.35296
G1 X131.463 Y93.287 E2.3613
G1 X132.01 Y93.239 E2.40514
G1 X132.232 Y93.229 E2.42287
G1 X132.925 Y93.229 E2.47819
G1 X133.051 Y93.233 E2.48826
G1 X133.428 Y93.257 E2.51841
G1 X133.726 Y93.294 E2.54238
G1 X134.015 Y93.35 E2.56588
G1 X134.278 Y93.418 E2.58756
G1 X134.31 Y93.429 E2.59026
G1 X134.961 Y93.6 E2.64399
G1 X135.638 Y93.689 E2.6985
G1 X136.321 Y93.691 E2.75302
G1 X136.997 Y93.608 E2.80739
G1 X137.617 Y93.452 E2.85842
G1 X137.763 Y93.406 E2.87064
G1 X138.007 Y93.345 E2.89071
G1 X138.346 Y93.288 E2.91815
G1 X138.906 Y93.238 E2.96303
G1 X139.124 Y93.228 E2.98045
G1 X139.71 Y93.227 E3.02723
G1 X139.852 Y93.232 E3.03857
G1 X140.207 Y93.253 E3.06696
G1 X141.144 Y93.37 E3.14234
G1 X141.821 Y93.367 E3.19638
G1 X142.36 Y93.305 E3.23969
G1 X142.463 Y93.287 E3.24803
G1 X143.01 Y93.239 E3.29187
G1 X143.232 Y93.229 E3.3096
G1 X143.925 Y93.229 E3.36492
G1 X144.051 Y93.233 E3.37499
G1 X144.428 Y93.257 E3.40514
G1 X144.726 Y93.294 E3.42911
G1 X145.01 Y93.349 E3.4522
G1 X145.301 Y93.425 E3.47621
G1 X145.559 Y93.509 E3.49787
G1 X145.838 Y93.62 E3.52184
G1 X146.096 Y93.742 E3.54462
G1 X146.354 Y93.885 E3.56817
G1 X146.593 Y94.037 E3.59077
G1 X146.84 Y94.219 E3.61527
G1 X147.041 Y94.388 E3.63623
G1 X147.274 Y94.608 E3.66181
G1 X147.461 Y94.81 E3.68378
G1 X147.649 Y95.04 E3.70749
G1 X147.813 Y95.268 E3.72991
G1 X147.975 Y95.527 E3.7543
G1 X148.103 Y95.766 E3.77594
G1 X148.23 Y96.041 E3.80012
G1 X148.332 Y96.302 E3.82249
G1 X148.427 Y96.605 E3.84784
G1 X148.481 Y96.826 E3.866
G1 X148.541 Y97.182 E3.89481
G1 X148.591 Y97.736 E3.93922
G1 X148.601 Y97.958 E3.95696
G1 X148.601 Y112.096 E5.08551
G1 X148.597 Y112.222 E5.09558
G1 X148.573 Y112.599 E5.12573
G1 X148.536 Y112.897 E5.1497
G1 X148.481 Y113.181 E5.17279
G1 X148.405 Y113.472 E5.1968
G1 X148.321 Y113.73 E5.21846
G1 X148.21 Y114.009 E5.24243
G1 X148.088 Y114.267 E5.26521
G1 X147.945 Y114.525 E5.28875
G1 X147.793 Y114.764 E5.31136
G1 X147.62 Y114.999 E5.33466
G1 X147.439 Y115.216 E5.35721
G1 X147.225 Y115.442 E5.38206
G1 X147.02 Y115.632 E5.40437
G1 X146.79 Y115.82 E5.42808
G1 X146.562 Y115.984 E5.4505
G1 X146.303 Y116.146 E5.47489
G1 X146.064 Y116.274 E5.49653
G1 X145.789 Y116.401 E5.52071
G1 X145.528 Y116.503 E5.54308
G1 X145.226 Y116.598 E5.56835
G1 X144.995 Y116.655 E5.58734
G1 X144.656 Y116.712 E5.61478
G1 X144.096 Y116.762 E5.65966
G1 X143.878 Y116.772 E5.67708
G1 X143.189 Y116.773 E5.73208
G1 X143.047 Y116.768 E5.74342
G1 X142.692 Y116.747 E5.77181
G1 X141.755 Y116.63 E5.84719
G1 X141.742 Y116.633 E5.84825
G1 X141.062 Y116.635 E5.90253
G1 X140.546 Y116.696 E5.94401
G1 X140.438 Y116.713 E5.95274
G1 X139.891 Y116.762 E5.99657
G1 X139.669 Y116.772 E6.01431
G1 X139.077 Y116.772 E6.06157
G1 X138.951 Y116.768 E6.07163
G1 X138.574 Y116.744 E6.10179
G1 X138.276 Y116.707 E6.12576
G1 X137.987 Y116.651 E6.14926
G1 X137.708 Y116.579 E6.17226
G1 X137.673 Y116.567 E6.17521
G1 X137.023 Y116.397 E6.22884
G1 X136.345 Y116.311 E6.28339
G1 X135.662 Y116.311 E6.33791
G1 X134.986 Y116.396 E6.3923
G1 X134.388 Y116.547 E6.44153
G1 X134.24 Y116.594 E6.45393
G1 X133.995 Y116.655 E6.47408
G1 X133.656 Y116.712 E6.50152
G1 X133.096 Y116.762 E6.5464
G1 X132.878 Y116.772 E6.56382
G1 X132.189 Y116.773 E6.61882
G1 X132.047 Y116.768 E6.63016
G1 X131.692 Y116.747 E6.65855
G1 X130.755 Y116.63 E6.73393
G1 X130.742 Y116.633 E6.73499
G1 X130.062 Y116.635 E6.78927
G1 X129.546 Y116.696 E6.83075
G1 X129.438 Y116.713 E6.83948
G1 X128.891 Y116.762 E6.88332
G1 X128.669 Y116.772 E6.90105
G1 X128.077 Y116.772 E6.94831
G1 X127.951 Y116.768 E6.95837
G1 X127.574 Y116.744 E6.98853
G1 X127.276 Y116.707 E7.0125
G1 X126.987 Y116.651 E7.036
G1 X126.708 Y116.579 E7.059
G1 X126.673 Y116.567 E7.06195
G1 X126.023 Y116.397 E7.11558
G1 X125.345 Y116.311 E7.17014
G1 X124.662 Y116.311 E7.22466
G1 X123.986 Y116.396 E7.27904
G1 X123.388 Y116.547 E7.32828
G1 X123.24 Y116.594 E7.34067
G1 X122.995 Y116.655 E7.36083
G1 X122.656 Y116.712 E7.38827
G1 X122.096 Y116.762 E7.43315
G1 X121.878 Y116.772 E7.45057
G1 X121.189 Y116.773 E7.50556
G1 X121.047 Y116.768 E7.51691
G1 X120.692 Y116.747 E7.54529
G1 X119.755 Y116.63 E7.62067
G1 X119.742 Y116.633 E7.62173
G1 X119.062 Y116.635 E7.67602
G1 X118.546 Y116.696 E7.71749
G1 X118.438 Y116.713 E7.72622
G1 X117.891 Y116.762 E7.77006
G1 X117.669 Y116.772 E7.7878
G1 X117.077 Y116.772 E7.83505
G1 X116.951 Y116.768 E7.84512
G1 X116.574 Y116.744 E7.87527
G1 X116.276 Y116.707 E7.89924
G1 X115.987 Y116.651 E7.92274
G1 X115.708 Y116.579 E7.94574
G1 X115.673 Y116.567 E7.94869
G1 X115.023 Y116.397 E8.00232
G1 X114.345 Y116.311 E8.05688
G1 X113.662 Y116.311 E8.1114
G1 X112.986 Y116.396 E8.16578
G1 X112.388 Y116.547 E8.21502
G1 X112.24 Y116.594 E8.22741
G1 X111.995 Y116.655 E8.24757
G1 X111.656 Y116.712 E8.27501
G1 X111.096 Y116.762 E8.31989
G1 X110.878 Y116.772 E8.33731
G1 X110.189 Y116.773 E8.39231
G1 X110.047 Y116.768 E8.40365
G1 X109.692 Y116.747 E8.43204
G1 X108.755 Y116.63 E8.50741
G1 X108.742 Y116.633 E8.50848
G1 X108.062 Y116.635 E8.56276
G1 X107.546 Y116.696 E8.60423
G1 X107.438 Y116.713 E8.61296
G1 X106.891 Y116.762 E8.6568
G1 X106.669 Y116.772 E8.67454
G1 X106.077 Y116.772 E8.72179
G1 X105.951 Y116.768 E8.73186
G1 X105.574 Y116.744 E8.76201
G1 X105.276 Y116.707 E8.78598
G1 X104.992 Y116.652 E8.80907
G1 X104.701 Y116.576 E8.83308
G1 X104.441 Y116.491 E8.85492
G1 X104.164 Y116.381 E8.87871
G1 X103.905 Y116.258 E8.9016
G1 X103.648 Y116.116 E8.92503
G1 X103.409 Y115.964 E8.94764
G1 X103.162 Y115.782 E8.97213
G1 X102.961 Y115.613 E8.9931
G1 X102.728 Y115.393 E9.01868
G1 X102.541 Y115.191 E9.04065
G1 X102.349 Y114.956 E9.06487
G1 X102.189 Y114.733 E9.08678
G1 X102.027 Y114.474 E9.11117
G1 X101.899 Y114.235 E9.13281
G1 X101.772 Y113.96 E9.15699
G1 X101.67 Y113.699 E9.17936
G1 X101.575 Y113.396 E9.2047
G1 X101.519 Y113.167 E9.22352
G1 X101.461 Y112.819 E9.25169
G1 X101.411 Y112.265 E9.29609
G1 X101.401 Y112.043 E9.31383
G1 X101.401 Y97.904 E10.44246
G1 X101.405 Y97.778 E10.45253
G1 X101.429 Y97.401 E10.48268
G1 X101.466 Y97.103 E10.50665
G1 X101.521 Y96.819 E10.52974
G1 X101.597 Y96.528 E10.55375
G1 X101.681 Y96.27 E10.57541
G1 X101.792 Y95.991 E10.59938
G1 X101.914 Y95.733 E10.62216
G1 X102.06 Y95.47 E10.64617
G1 X102.209 Y95.236 E10.66831
G1 X102.391 Y94.989 E10.69281
G1 X102.56 Y94.788 E10.71377
G0 F9000 X102.4 Y94.978
G1 F1125 X102.4 Y115.018 E12.31345
G0 F9000 X104 Y116.303
G1 F1125 X104 Y93.697 E14.11796
G0 F9000 X105.6 Y93.265
G1 F1125 X105.6 Y116.745 E15.99223
G0 F9000 X107.2 Y116.735
G1 F1125 X107.2 Y93.253 E17.86667
G0 F9000 X108.8 Y93.367
G1 F1125 X108.8 Y116.635 E19.72402
G0 F9000 X110.4 Y116.773
G1 F1125 X110.4 Y93.229 E21.6034
G0 F9000 X112 Y93.348
G1 F1125 X112 Y116.654 E23.46379
G0 F9000 X113.6 Y116.319
G1 F1125 X113.6 Y93.685 E25.27053
G0 F9000 X115.2 Y93.556
G1 F1125 X115.2 Y116.443 E27.09747
G0 F9000 X116.8 Y116.758
G1 F1125 X116.8 Y93.247 E28.97422
G0 F9000 X118.4 Y93.278
G1 F1125 X118.4 Y116.717 E30.84522
G0 F9000 X120 Y116.66
G1 F1125 X120 Y93.346 E32.70625
G0 F9000 X121.6 Y93.229
G1 F1125 X121.6 Y116.773 E34.58563
G0 F9000 X123.2 Y116.604
G1 F1125 X123.2 Y93.398 E36.43803
G0 F9000 X124.8 Y93.69
G1 F1125 X124.8 Y116.311 E38.24374
G0 F9000 X126.4 Y116.495
G1 F1125 X126.4 Y93.506 E40.07882
G0 F9000 X128 Y93.233
G1 F1125 X128 Y116.769 E41.95757
G0 F9000 X129.6 Y116.69
G1 F1125 X129.6 Y93.303 E43.82442
G0 F9000 X131.2 Y93.323
G1 F1125 X131.2 Y116.685 E45.68927
G0 F9000 X132.8 Y116.773
G1 F1125 X132.8 Y93.229 E47.56866
G0 F9000 X134.4 Y93.453
G1 F1125 X134.4 Y116.544 E49.41188
G0 F9000 X136 Y116.311
G1 F1125 X136 Y93.691 E51.21751
G0 F9000 X137.6 Y93.456
G1 F1125 X137.6 Y116.547 E53.06073
G0 F9000 X139.2 Y116.772
G1 F1125 X139.2 Y93.227 E54.9402
G0 F9000 X140.8 Y93.328
G1 F1125 X140.8 Y116.666 E56.80314
G0 F9000 X142.4 Y116.71
G1 F1125 X142.4 Y93.298 E58.67198
G0 F9000 X144 Y93.232
G1 F1125 X144 Y116.767 E60.55065
G0 F9000 X145.6 Y116.475
G1 F1125 X145.6 Y93.526 E62.38254
G0 F9000 X147.2 Y94.539
G1 F1125 X147.2 Y115.466 E64.05302
G1 F1500 E57.55302
G0 F300 X147.2 Y115.466 Z0.54
G0 F9000 X148.234 Y115.924
G0 X148.863 Y115.064
G0 X149.318 Y114.104
G0 X149.588 Y113.065
G0 X149.665 Y112.119
G0 X149.654 Y97.674
G0 X149.489 Y96.567
G0 X149.211 Y95.627
G0 X148.111 Y95.785
;TIME_ELAPSED:51.531206
;LAYER:-5
;TYPE:SUPPORT
G1 F1500 E64.05302
G1 F1125 X146.044 Y93.718 E64.3447
G1 X146.095 Y93.742 E64.35032
G1 X146.353 Y93.884 E64.37971
G1 X146.592 Y94.037 E64.40802
G1 X146.839 Y94.219 E64.43863
G1 X147.04 Y94.388 E64.46484
G1 X147.273 Y94.608 E64.49681
G1 X147.46 Y94.81 E64.52428
G1 X147.648 Y95.04 E64.55392
G1 X147.812 Y95.268 E64.58194
G1 X147.974 Y95.526 E64.61234
G1 X148.102 Y95.766 E64.63948
G0 F9000 X146.044 Y93.718
G1 F1125 X145.837 Y93.62 E64.66233
G1 X145.557 Y93.509 E64.69239
G1 X145.299 Y93.425 E64.71946
G1 X145.009 Y93.349 E64.74937
G1 X144.724 Y93.294 E64.77834
G1 X144.427 Y93.256 E64.80821
G1 X144.151 Y93.239 E64.8358
G1 X148.584 Y97.672 E65.46135
G1 X148.59 Y97.736 E65.46776
G1 X148.6 Y97.957 E65.48984
G1 X148.6 Y99.103 E65.60418
G1 X142.759 Y93.261 E66.42848
G1 X142.462 Y93.287 E66.45823
G1 X142.359 Y93.304 E66.46865
G1 X141.82 Y93.367 E66.5228
G1 X141.452 Y93.369 E66.55952
G1 X148.6 Y100.517 E67.56818
G1 X148.6 Y101.931 E67.70926
G1 X139.904 Y93.235 E68.93636
G1 X139.851 Y93.232 E68.94166
G1 X139.709 Y93.227 E68.95584
G1 X139.123 Y93.227 E69.01431
G1 X138.905 Y93.237 E69.03609
G1 X138.526 Y93.271 E69.07405
G1 X148.6 Y103.345 E70.4956
G1 X148.6 Y104.759 E70.63669
G1 X137.358 Y93.517 E72.22306
G1 X136.996 Y93.608 E72.26031
G1 X136.32 Y93.691 E72.32826
G1 X136.117 Y93.69 E72.34852
G1 X148.6 Y106.174 E74.11008
G1 X148.6 Y107.588 E74.25117
G1 X134.488 Y93.475 E76.24259
G1 X134.309 Y93.428 E76.26106
G1 X134.277 Y93.417 E76.26443
G1 X134.014 Y93.35 E76.29151
G1 X133.725 Y93.294 E76.32089
G1 X133.427 Y93.256 E76.35086
G1 X133.049 Y93.232 E76.38866
G1 X132.924 Y93.229 E76.40113
G1 X132.827 Y93.229 E76.41081
G1 X148.6 Y109.002 E78.63655
G1 X148.6 Y110.416 E78.77764
G1 X131.47 Y93.287 E81.1948
G1 X131.462 Y93.287 E81.1956
G1 X131.359 Y93.305 E81.20603
G1 X130.819 Y93.367 E81.26026
G1 X130.143 Y93.369 E81.32772
G0 F9000 X130.139 Y93.369
G1 F1125 X148.6 Y111.831 E83.93283
G1 X148.599 Y112.096 E83.95928
G1 X148.596 Y112.221 E83.97175
G1 X148.572 Y112.598 E84.00945
G1 X148.535 Y112.897 E84.03951
G1 X148.489 Y113.134 E84.0636
G1 X128.583 Y93.227 E86.87262
G1 X128.123 Y93.227 E86.91852
G1 X127.905 Y93.238 E86.9403
G1 X127.344 Y93.287 E86.99649
G1 X127.245 Y93.304 E87.00651
G1 X148.126 Y114.185 E89.95304
G1 X148.087 Y114.266 E89.96202
G1 X147.944 Y114.525 E89.99154
G1 X147.792 Y114.763 E90.01971
G1 X147.619 Y114.998 E90.04883
G1 X147.577 Y115.05 E90.0555
G1 X126.107 Y93.58 E93.08515
G1 X125.996 Y93.608 E93.09657
G1 X125.319 Y93.69 E93.16462
G1 X124.802 Y93.689 E93.2162
G1 X146.868 Y115.755 E96.32995
G1 X146.789 Y115.819 E96.3401
G1 X146.561 Y115.984 E96.36818
G1 X146.302 Y116.145 E96.39861
G1 X146.062 Y116.273 E96.42575
G1 X146 Y116.302 E96.43258
G1 X123.06 Y93.362 E99.66966
G1 X123.014 Y93.35 E99.67441
G1 X122.725 Y93.294 E99.70378
G1 X122.427 Y93.256 E99.73375
G1 X122.05 Y93.232 E99.77145
G1 X121.924 Y93.228 E99.78403
G1 X121.512 Y93.228 E99.82514
G1 X144.946 Y116.662 E103.13193
G1 X144.655 Y116.712 E103.16139
G1 X144.095 Y116.761 E103.21748
G1 X143.877 Y116.772 E103.23926
G1 X143.642 Y116.772 E103.26271
G1 X120.194 Y93.323 E106.57154
G1 X119.819 Y93.367 E106.60922
G1 X119.143 Y93.37 E106.67667
G1 X118.781 Y93.325 E106.71307
G1 X142.132 Y116.676 E110.00815
G1 X141.754 Y116.629 E110.04615
G1 X141.754 Y116.635 E110.04675
G1 X141.74 Y116.633 E110.04816
G1 X141.061 Y116.635 E110.11591
G1 X140.717 Y116.675 E110.15047
G1 X117.269 Y93.227 E113.45924
G1 X117.123 Y93.227 E113.4738
G1 X116.905 Y93.238 E113.49558
G1 X116.345 Y93.287 E113.55167
G1 X116.006 Y93.345 E113.58599
G1 X115.979 Y93.352 E113.58878
G1 X139.399 Y116.771 E116.89352
G1 X139.076 Y116.771 E116.92575
G1 X138.95 Y116.768 E116.93832
G1 X138.573 Y116.744 E116.97602
G1 X138.275 Y116.707 E117.00598
G1 X137.986 Y116.651 E117.03535
G1 X137.821 Y116.608 E117.05237
G1 X114.841 Y93.628 E120.29509
G1 X114.32 Y93.69 E120.34745
G1 X113.637 Y93.688 E120.4156
G1 X113.465 Y93.666 E120.4329
G1 X136.109 Y116.31 E123.62821
G1 X135.661 Y116.31 E123.67291
G1 X134.985 Y116.395 E123.7409
G1 X134.821 Y116.436 E123.75776
G1 X111.672 Y93.287 E127.02434
G1 X111.427 Y93.257 E127.04897
G1 X111.05 Y93.232 E127.08667
G1 X110.923 Y93.229 E127.09934
G1 X110.23 Y93.229 E127.16849
G1 X110.201 Y93.23 E127.17138
G1 X133.677 Y116.707 E130.48417
G1 X133.655 Y116.711 E130.4864
G1 X133.095 Y116.762 E130.54251
G1 X132.877 Y116.772 E130.56429
G1 X132.328 Y116.772 E130.61907
G1 X108.912 Y93.356 E133.92332
G1 X108.82 Y93.367 E133.93256
G1 X108.142 Y93.369 E134.00021
G1 X107.422 Y93.28 E134.0726
G1 X130.774 Y116.632 E137.36782
G1 X130.753 Y116.63 E137.36993
G1 X130.754 Y116.635 E137.37044
G1 X130.741 Y116.633 E137.37175
G1 X130.061 Y116.635 E137.4396
G1 X129.545 Y116.695 E137.49143
G1 X129.44 Y116.712 E137.50205
G1 X105.964 Y93.236 E140.81476
G1 X105.905 Y93.238 E140.82065
G1 X105.345 Y93.287 E140.87674
G1 X105.006 Y93.345 E140.91106
G1 X104.776 Y93.401 E140.93468
