;FLAVOR:Marlin
;TIME:7329
;Filament used: 3.16191m
;Layer height: 0.2
;MINX:68.258
;MINY:57.075
;MINZ:0.2
;MAXX:166.742
;MAXY:187.387
;MAXZ:21
;Generated with Cura_SteamEngine master
M140 S60
M105
M190 S60
M104 S200
M105
M109 S200
M82 ;absolute extrusion mode
; Ender 3 Custom Start G-code
G92 E0 ; Reset Extruder
G28 ; Home all axes
G1 Z2.0 F3000 ; Move Z Axis up little to prevent scratching of Heat Bed
G1 X0.1 Y20 Z0.3 F5000.0 ; Move to start position
G1 X0.1 Y200.0 Z0.3 F1500.0 E15 ; Draw the first line
G1 X0.4 Y200.0 Z0.3 F5000.0 ; Move to side a little
G1 X0.4 Y20 Z0.3 F1500.0 E30 ; Draw the second line
G92 E0 ; Reset Extruder
G1 Z2.0 F3000 ; Move Z Axis up little to prevent scratching of Heat Bed
G1 X5 Y20 Z0.3 F5000.0 ; Move over to prevent blob squish
G92 E0
G92 E0
G1 F1500 E-6.5
;LAYER_COUNT:106
;LAYER:0
M107
;MESH:player-mat-parts_-_grid_big.stl
G0 F6000 X98.1 Y84.968 Z0.2
;TYPE:WALL-OUTER
G1 F1500 E0
G1 F1200 X98.1 Y76.168 E0.29269
G1 X89.3 Y76.168 E0.58538
G1 X89.3 Y84.968 E0.87807
G1 X98.1 Y84.968 E1.17076
G1 F1500 E-5.32924
G0 F6000 X98.3 Y84.968
G0 X107.528 Y85.096
G0 X107.4 Y84.968
G1 F1500 E1.17076
G1 F1200 X107.4 Y76.168 E1.46345
G1 X98.6 Y76.168 E1.75614
G1 X98.6 Y84.968 E2.04882
G1 X107.4 Y84.968 E2.34151
G0 F6000 X107.6 Y84.968
G0 X135.428 Y85.096
G0 X135.7 Y84.876
;TYPE:WALL-INNER
G1 F1200 X135.7 Y57.658 E3.24679
G1 X136.5 Y57.658 E3.2734
G1 X136.5 Y84.876 E4.17867
G1 X135.7 Y84.876 E4.20528
G1 F1500 E-2.29472
G0 F6000 X135.428 Y85.096
G0 X126.372 Y85.096
G0 X126.5 Y84.968
;TYPE:WALL-OUTER
G1 F1500 E4.20528
G1 F1200 X135.3 Y84.968 E4.49797
G1 X135.3 Y76.168 E4.79066
G1 X126.5 Y76.168 E5.08335
G1 X126.5 Y84.968 E5.37604
G1 F1500 E-1.12396
G0 F6000 X126.3 Y84.968
G0 X117.072 Y85.096
G0 X117.2 Y84.968
G1 F1500 E5.37604
G1 F1200 X126 Y84.968 E5.66872
G1 X126 Y76.168 E5.96141
G1 X117.2 Y76.168 E6.2541
G1 X117.2 Y84.968 E6.54679
G0 F6000 X116.7 Y84.968
G1 F1200 X116.7 Y76.168 E6.83948
G1 X107.9 Y76.168 E7.13217
G1 X107.9 Y84.968 E7.42486
G1 X116.7 Y84.968 E7.71755
G1 F1500 E1.21755
G0 F6000 X116.9 Y84.968
G0 X117 Y66.367
G0 X117.2 Y66.367
G1 F1500 E7.71755
G1 F1200 X126 Y66.367 E8.01024
G1 X126 Y57.567 E8.30293
G1 X117.2 Y57.567 E8.59562
G1 X117.2 Y66.367 E8.88831
G0 F6000 X116.7 Y66.367
G1 F1200 X116.7 Y57.567 E9.18099
G1 X107.9 Y57.567 E9.47368
G1 X107.9 Y66.367 E9.76637
G1 X116.7 Y66.367 E10.05906
G1 F1500 E3.55906
G0 F6000 X116.9 Y66.367
G0 X107.772 Y66.495
G0 X107.4 Y66.367
G1 F1500 E10.05906
G1 F1200 X107.4 Y57.567 E10.35175
G1 X98.6 Y57.567 E10.64444
G1 X98.6 Y66.367 E10.93713
G1 X107.4 Y66.367 E11.22982
G1 F1500 E4.72982
G0 F6000 X107.6 Y66.367
G0 X98.472 Y66.495
G0 X98.1 Y66.367
G1 F1500 E11.22982
G1 F1200 X98.1 Y57.567 E11.52251
G1 X89.3 Y57.567 E11.8152
G1 X89.3 Y66.367 E12.10789
G1 X98.1 Y66.367 E12.40058
G1 F1500 E5.90058
G0 F6000 X98.3 Y66.367
G0 X98.3 Y75.667
G0 X98.1 Y75.667
G1 F1500 E12.40058
G1 F1200 X98.1 Y66.867 E12.69326
G1 X89.3 Y66.867 E12.98595
G1 X89.3 Y75.667 E13.27864
G1 X98.1 Y75.667 E13.57133
G1 F1500 E7.07133
G0 F6000 X98.3 Y75.667
G0 X107.528 Y75.795
G0 X107.4 Y75.667
G1 F1500 E13.57133
G1 F1200 X107.4 Y66.867 E13.86402
G1 X98.6 Y66.867 E14.15671
G1 X98.6 Y75.667 E14.4494
G1 X107.4 Y75.667 E14.74209
G1 F1500 E8.24209
G0 F6000 X107.6 Y75.667
G0 X116.828 Y75.795
G0 X116.7 Y75.667
G1 F1500 E14.74209
G1 F1200 X116.7 Y66.867 E15.03478
G1 X107.9 Y66.867 E15.32747
G1 X107.9 Y75.667 E15.62016
G1 X116.7 Y75.667 E15.91285
G0 F6000 X117.2 Y75.667
G1 F1200 X126 Y75.667 E16.20554
G1 X126 Y66.867 E16.49822
G1 X117.2 Y66.867 E16.79091
G1 X117.2 Y75.667 E17.0836
G1 F1500 E10.5836
G0 F6000 X117 Y75.667
G0 X126.128 Y75.795
G0 X126.5 Y75.667
G1 F1500 E17.0836
G1 F1200 X135.3 Y75.667 E17.37629
G1 X135.3 Y66.867 E17.66898
G1 X126.5 Y66.867 E17.96167
G1 X126.5 Y75.667 E18.25436
G1 F1500 E11.75436
G0 F6000 X126.3 Y75.667
G0 X126.3 Y66.367
G0 X126.5 Y66.367
G1 F1500 E18.25436
G1 F1200 X135.3 Y66.367 E18.54705
G1 X135.3 Y57.567 E18.83974
G1 X126.5 Y57.567 E19.13243
G1 X126.5 Y66.367 E19.42512
G1 F1500 E12.92512
G0 F6000 X126.3 Y66.367
G0 X135.428 Y66.495
G0 X135.882 Y57.84
G0 X136.318 Y57.84
G0 X136.7 Y66.367
G0 X136.9 Y66.367
G1 F1500 E19.42512
G1 F1200 X145.7 Y66.367 E19.71781
G1 X145.7 Y57.567 E20.01049
G1 X136.9 Y57.567 E20.30318
G1 X136.9 Y66.367 E20.59587
G1 F1500 E14.09587
G0 F6000 X136.7 Y66.367
G0 X136.7 Y75.667
G0 X136.9 Y75.667
G1 F1500 E20.59587
G1 F1200 X145.7 Y75.667 E20.88856
G1 X145.7 Y66.867 E21.18125
G1 X136.9 Y66.867 E21.47394
G1 X136.9 Y75.667 E21.76663
G1 F1500 E15.26663
G0 F6000 X136.7 Y75.667
G0 X136.7 Y84.968
G0 X136.9 Y84.968
G1 F1500 E21.76663
G1 F1200 X145.7 Y84.968 E22.05932
G1 X145.7 Y76.168 E22.35201
G1 X136.9 Y76.168 E22.6447
G1 X136.9 Y84.968 E22.93739
G1 F1500 E16.43739
G0 F6000 X136.7 Y84.968
G0 X145.839 Y85.106
G0 X146.009 Y85.276
G1 F1500 E22.93739
G1 F1200 X88.991 Y85.276 E24.83381
G1 X88.991 Y57.258 E25.7657
G1 X146.009 Y57.258 E27.66212
G1 X146.009 Y85.276 E28.594
G0 F6000 X145.839 Y85.106
G0 X136.772 Y85.096
G0 X136.39 Y84.486
G0 X136.11 Y84.486
;TYPE:SKIN
G1 F1200 X136.09 Y84.486 E28.59467
G1 X136.09 Y58.048 E29.474
G1 X136.11 Y58.048 E29.47467
G1 X136.11 Y84.486 E30.354
G0 F6000 X136.39 Y84.486
G0 X136.803 Y75.968
G0 X136.73 Y75.919
;TYPE:SKIN
G1 F1200 X137.011 Y75.917 E30.35757
G1 X145.496 Y75.917 E30.46553
G1 X145.768 Y75.906 E30.469
G0 F6000 X145.809 Y75.971
G0 X145.828 Y66.739
G0 X145.53 Y66.617
G1 F1200 X145.247 Y66.617 E30.47267
G1 X136.762 Y66.617 E30.58271
G0 F6000 X136.687 Y66.542
G0 X136.318 Y57.84
G0 X135.882 Y57.84
G0 X135.47 Y66.697
G0 X135.347 Y66.617
G1 F1200 X135.065 Y66.617 E30.58631
G1 X126.579 Y66.617 E30.69443
G1 X126.273 Y66.593 E30.69834
G1 X126.249 Y64.023 E30.73109
G1 X126.249 Y57.518 E30.81397
G0 F6000 X126.17 Y57.397
G0 X126.128 Y66.495
G0 X125.939 Y66.542
G1 F1200 X126.089 Y66.692 E30.8175
G0 F6000 X126.174 Y66.777
G1 F1200 X126.323 Y66.926 E30.821
G0 F6000 X126.174 Y67.059
G1 F1200 X126.323 Y67.209 E30.82452
G0 F6000 X126.174 Y67.342
G1 F1200 X126.323 Y67.492 E30.82803
G0 F6000 X126.174 Y67.625
G1 F1200 X126.323 Y67.775 E30.83155
G0 F6000 X126.174 Y67.908
G1 F1200 X126.323 Y68.058 E30.83507
G0 F6000 X126.174 Y68.191
G1 F1200 X126.323 Y68.341 E30.83858
G0 F6000 X126.174 Y68.474
G1 F1200 X126.323 Y68.624 E30.8421
G0 F6000 X126.174 Y68.756
G1 F1200 X126.323 Y68.906 E30.84561
G0 F6000 X126.174 Y69.039
G1 F1200 X126.323 Y69.189 E30.84913
G0 F6000 X126.174 Y69.322
G1 F1200 X126.323 Y69.472 E30.85265
G0 F6000 X126.174 Y69.605
G1 F1200 X126.323 Y69.755 E30.85616
G0 F6000 X126.174 Y69.888
G1 F1200 X126.323 Y70.038 E30.85968
G0 F6000 X126.174 Y70.171
G1 F1200 X126.323 Y70.321 E30.86319
G0 F6000 X126.174 Y70.453
G1 F1200 X126.323 Y70.603 E30.86671
G0 F6000 X126.174 Y70.736
G1 F1200 X126.323 Y70.886 E30.87023
G0 F6000 X126.174 Y71.019
G1 F1200 X126.323 Y71.169 E30.87374
G0 F6000 X126.174 Y71.302
G1 F1200 X126.323 Y71.452 E30.87726
G0 F6000 X126.174 Y71.585
G1 F1200 X126.323 Y71.735 E30.88077
G0 F6000 X126.174 Y71.868
G1 F1200 X126.323 Y72.018 E30.88429
G0 F6000 X126.174 Y72.151
G1 F1200 X126.323 Y72.3 E30.8878
G0 F6000 X126.174 Y72.433
G1 F1200 X126.323 Y72.583 E30.89131
G0 F6000 X126.174 Y72.716
G1 F1200 X126.323 Y72.866 E30.89483
G0 F6000 X126.174 Y72.999
G1 F1200 X126.323 Y73.149 E30.89834
G0 F6000 X126.174 Y73.282
G1 F1200 X126.323 Y73.432 E30.90186
G0 F6000 X126.174 Y73.565
G1 F1200 X126.323 Y73.715 E30.90538
G0 F6000 X126.174 Y73.848
G1 F1200 X126.323 Y73.998 E30.90889
G0 F6000 X126.174 Y74.13
G1 F1200 X126.323 Y74.28 E30.91241
G0 F6000 X126.174 Y74.413
G1 F1200 X126.323 Y74.563 E30.91592
G0 F6000 X126.174 Y74.696
G1 F1200 X126.323 Y74.846 E30.91944
G0 F6000 X126.174 Y74.979
G1 F1200 X126.323 Y75.129 E30.92296
G0 F6000 X126.174 Y75.262
G1 F1200 X126.323 Y75.412 E30.92647
G0 F6000 X126.174 Y75.545
G1 F1200 X126.323 Y75.695 E30.92999
G0 F6000 X126.174 Y75.828
G1 F1200 X126.338 Y75.992 E30.93384
G0 F6000 X126.47 Y75.842
G1 F1200 X126.621 Y75.992 E30.93738
G0 F6000 X126.753 Y75.842
G1 F1200 X126.904 Y75.992 E30.94092
G0 F6000 X127.036 Y75.842
G1 F1200 X127.187 Y75.992 E30.94446
G0 F6000 X127.319 Y75.842
G1 F1200 X127.47 Y75.992 E30.948
G0 F6000 X127.677 Y75.917
G1 F1200 X127.96 Y75.917 E30.9517
G1 X135.314 Y75.917 E31.04766
G0 F6000 X135.389 Y75.968
G0 X126.372 Y76.04
G0 X126.324 Y76.261
G1 F1200 X126.174 Y76.11 E31.0512
G0 F6000 X126.055 Y75.992
G1 F1200 X125.905 Y75.842 E31.05473
G0 F6000 X125.773 Y75.992
G1 F1200 X125.622 Y75.842 E31.05827
G0 F6000 X125.49 Y75.992
G1 F1200 X125.339 Y75.842 E31.06181
G0 F6000 X125.207 Y75.992
G1 F1200 X125.056 Y75.842 E31.06535
G0 F6000 X124.924 Y75.992
G1 F1200 X124.773 Y75.842 E31.06889
G0 F6000 X124.566 Y75.917
G1 F1200 X124.283 Y75.917 E31.07242
G1 X117.212 Y75.917 E31.16075
G1 X116.949 Y75.654 E31.16539
G1 X116.949 Y66.885 E31.27493
G1 X116.68 Y66.617 E31.27967
G1 X107.912 Y66.617 E31.3892
G1 X107.649 Y66.354 E31.39385
G1 X107.649 Y57.586 E31.50337
G0 F6000 X107.6 Y57.511
G0 X107.57 Y66.537
G0 X107.639 Y66.626
G1 F1200 X107.649 Y66.919 E31.50708
G1 X107.649 Y75.687 E31.61811
G1 X107.878 Y75.917 E31.62222
G1 X116.646 Y75.917 E31.73325
G1 X116.939 Y75.927 E31.73696
G1 X116.949 Y81.593 E31.80871
G1 X116.949 Y84.987 E31.85169
G0 F6000 X117 Y85.063
G0 X126.128 Y85.096
G0 X126.249 Y84.953
G1 F1200 X126.249 Y84.671 E31.8553
G1 X126.249 Y76.468 E31.9602
G0 F6000 X126.2 Y76.393
G0 X126.128 Y66.739
G0 X125.806 Y66.667
G0 X125.731 Y66.617
G1 F1200 X125.448 Y66.617 E31.9638
G1 X116.956 Y66.61 E32.07179
G1 X116.949 Y60.663 E32.14742
G1 X116.949 Y57.552 E32.18699
G0 F6000 X116.9 Y57.477
G0 X107.772 Y57.439
G0 X107.771 Y66.327
G0 X107.421 Y66.667
G0 X107.346 Y66.617
G1 F1200 X107.063 Y66.617 E32.19058
G1 X98.578 Y66.617 E32.29819
G1 X98.349 Y66.388 E32.30229
G1 X98.349 Y57.619 E32.41351
G0 F6000 X98.3 Y57.545
G0 X98.27 Y66.537
G0 X98.322 Y66.643
G1 F1200 X98.349 Y66.953 E32.41747
G1 X98.349 Y75.721 E32.52909
G1 X98.544 Y75.917 E32.53261
G1 X107.313 Y75.917 E32.64425
G1 X107.622 Y75.943 E32.64819
G1 X107.649 Y78.233 E32.67735
G1 X107.649 Y85.021 E32.76376
G0 F6000 X107.724 Y85.076
G0 X98.472 Y85.096
G0 X98.4 Y84.847
G0 X98.424 Y84.847
G1 F1200 X98.274 Y84.697 E32.76729
G0 F6000 X98.349 Y84.49
G1 F1200 X98.349 Y84.207 E32.77091
G1 X98.349 Y76.287 E32.87213
G1 X98.305 Y75.96 E32.87634
G1 X96.847 Y75.917 E32.89498
G1 X89.493 Y75.917 E32.98897
G1 X89.226 Y75.932 E32.99239
G0 F6000 X89.191 Y75.871
G0 X89.172 Y66.739
G0 X89.244 Y66.617
G1 F1200 X89.527 Y66.617 E32.996
G1 X98.012 Y66.617 E33.10438
G0 F6000 X98.087 Y66.667
G0 X98.3 Y84.98
G0 X98.274 Y84.98
G1 F1200 X98.394 Y85.101 E33.10722
G1 F1500 E26.60722
G0 F6000 X98.394 Y85.076
G0 X107.528 Y85.096
G0 X107.772 Y76.04
G0 X135.428 Y75.795
G0 X135.882 Y57.84
G0 X136.318 Y57.84
G0 X136.772 Y66.739
G0 X145.738 Y66.567
G0 X145.738 Y66.542
G1 F1500 E33.10722
G1 F1200 X145.832 Y66.637 E33.10944
G1 F1500 E26.60944
;MESH:player-mat-parts_-_grid_small.stl(2)
G0 F6000 X145.809 Y66.637
G0 X136.772 Y66.739
G0 X136.318 Y84.694
G0 X135.882 Y84.694
G0 X135.428 Y75.795
G0 X126.372 Y76.04
G0 X126.128 Y85.096
G0 X117 Y85.156
G0 X117 Y87.661
G0 X117 Y96.65
G0 X117.2 Y96.65
;TYPE:WALL-OUTER
G1 F1500 E33.10944
G1 F1200 X126 Y96.65 E33.40213
G1 X126 Y87.85 E33.69482
G1 X117.2 Y87.85 E33.98751
G1 X117.2 Y96.65 E34.2802
G0 F6000 X116.7 Y96.65
G1 F1200 X116.7 Y87.85 E34.57289
G1 X107.9 Y87.85 E34.86558
G1 X107.9 Y96.65 E35.15827
G1 X116.7 Y96.65 E35.45095
G1 F1500 E28.95095
G0 F6000 X116.9 Y96.65
G0 X107.772 Y96.778
G0 X107.4 Y96.65
G1 F1500 E35.45095
G1 F1200 X107.4 Y87.85 E35.74364
G1 X98.6 Y87.85 E36.03633
G1 X98.6 Y96.65 E36.32902
G1 X107.4 Y96.65 E36.62171
G1 F1500 E30.12171
G0 F6000 X107.6 Y96.65
G0 X98.472 Y96.778
G0 X98.1 Y96.65
G1 F1500 E36.62171
G1 F1200 X98.1 Y87.85 E36.9144
G1 X89.3 Y87.85 E37.20709
G1 X89.3 Y96.65 E37.49978
G1 X98.1 Y96.65 E37.79247
G1 F1500 E31.29247
G0 F6000 X98.3 Y96.65
G0 X98.3 Y105.95
G0 X98.1 Y105.95
G1 F1500 E37.79247
G1 F1200 X98.1 Y97.15 E38.08516
G1 X89.3 Y97.15 E38.37785
G1 X89.3 Y105.95 E38.67054
G1 X98.1 Y105.95 E38.96323
G1 F1500 E32.46323
G0 F6000 X98.3 Y105.95
G0 X107.528 Y106.078
G0 X107.4 Y105.95
G1 F1500 E38.96323
G1 F1200 X107.4 Y97.15 E39.25591
G1 X98.6 Y97.15 E39.5486
G1 X98.6 Y105.95 E39.84129
G1 X107.4 Y105.95 E40.13398
G1 F1500 E33.63398
G0 F6000 X107.6 Y105.95
G0 X116.828 Y106.078
G0 X116.7 Y105.95
G1 F1500 E40.13398
G1 F1200 X116.7 Y97.15 E40.42667
G1 X107.9 Y97.15 E40.71936
G1 X107.9 Y105.95 E41.01205
G1 X116.7 Y105.95 E41.30474
G0 F6000 X117.2 Y105.95
G1 F1200 X126 Y105.95 E41.59743
G1 X126 Y97.15 E41.89012
G1 X117.2 Y97.15 E42.18281
G1 X117.2 Y105.95 E42.4755
G0 F6000 X117 Y105.95
G0 X135.428 Y106.078
G0 X135.7 Y105.859
;TYPE:WALL-INNER
G1 F1200 X135.7 Y87.941 E43.07145
G1 X136.5 Y87.941 E43.09806
G1 X136.5 Y105.859 E43.69401
G1 X135.7 Y105.859 E43.72062
G1 F1500 E37.22062
G0 F6000 X135.428 Y106.078
G0 X126.372 Y106.078
G0 X126.5 Y105.95
;TYPE:WALL-OUTER
G1 F1500 E43.72062
G1 F1200 X135.3 Y105.95 E44.01331
G1 X135.3 Y97.15 E44.306
G1 X126.5 Y97.15 E44.59869
G1 X126.5 Y105.95 E44.89138
G1 F1500 E38.39138
G0 F6000 X126.3 Y105.95
G0 X126.3 Y96.65
G0 X126.5 Y96.65
G1 F1500 E44.89138
G1 F1200 X135.3 Y96.65 E45.18407
G1 X135.3 Y87.85 E45.47676
G1 X126.5 Y87.85 E45.76945
G1 X126.5 Y96.65 E46.06214
G1 F1500 E39.56214
G0 F6000 X126.3 Y96.65
G0 X135.428 Y96.778
G0 X135.882 Y88.123
G0 X136.318 Y88.123
G0 X136.7 Y96.65
G0 X136.9 Y96.65
G1 F1500 E46.06214
G1 F1200 X145.7 Y96.65 E46.35482
G1 X145.7 Y87.85 E46.64751
G1 X136.9 Y87.85 E46.9402
G1 X136.9 Y96.65 E47.23289
G1 F1500 E40.73289
G0 F6000 X136.7 Y96.65
G0 X136.7 Y105.95
G0 X136.9 Y105.95
G1 F1500 E47.23289
G1 F1200 X145.7 Y105.95 E47.52558
G1 X145.7 Y97.15 E47.81827
G1 X136.9 Y97.15 E48.11096
G1 X136.9 Y105.95 E48.40365
G1 F1500 E41.90365
G0 F6000 X136.7 Y105.95
G0 X145.839 Y106.089
G0 X146.009 Y106.259
G1 F1500 E48.40365
G1 F1200 X88.991 Y106.259 E50.30008
G1 X88.991 Y87.541 E50.92264
G1 X146.009 Y87.541 E52.81906
G1 X146.009 Y106.259 E53.44163
G0 F6000 X145.839 Y106.089
G0 X136.772 Y106.078
G0 X136.39 Y105.469
G0 X136.11 Y105.469
;TYPE:SKIN
G1 F1200 X136.09 Y105.469 E53.44229
G1 X136.09 Y88.331 E54.01231
G1 X136.11 Y88.331 E54.01297
G1 X136.11 Y105.469 E54.58298
G0 F6000 X136.39 Y105.469
G0 X135.882 Y105.677
G0 X135.47 Y96.98
G0 X135.366 Y96.899
;TYPE:SKIN
G1 F1200 X135.083 Y96.899 E54.58658
G1 X126.598 Y96.899 E54.69442
G1 X126.282 Y96.866 E54.69846
G1 X126.248 Y94.853 E54.72404
G1 X126.252 Y87.786 E54.81386
G0 F6000 X126.182 Y87.741
G0 X126.128 Y96.778
G0 X125.957 Y96.824
G1 F1200 X126.107 Y96.974 E54.81739
G0 F6000 X126.174 Y97.041
G1 F1200 X126.323 Y97.191 E54.8209
G0 F6000 X126.174 Y97.324
G1 F1200 X126.323 Y97.473 E54.82441
G0 F6000 X126.174 Y97.606
G1 F1200 X126.323 Y97.756 E54.82792
G0 F6000 X126.174 Y97.889
G1 F1200 X126.323 Y98.039 E54.83144
G0 F6000 X126.174 Y98.172
G1 F1200 X126.323 Y98.322 E54.83496
G0 F6000 X126.174 Y98.455
G1 F1200 X126.323 Y98.605 E54.83847
G0 F6000 X126.174 Y98.738
G1 F1200 X126.323 Y98.888 E54.84199
G0 F6000 X126.174 Y99.021
G1 F1200 X126.323 Y99.171 E54.8455
G0 F6000 X126.174 Y99.303
G1 F1200 X126.323 Y99.453 E54.84902
G0 F6000 X126.174 Y99.586
G1 F1200 X126.323 Y99.736 E54.85254
G0 F6000 X126.174 Y99.869
G1 F1200 X126.323 Y100.019 E54.85605
G0 F6000 X126.174 Y100.152
G1 F1200 X126.323 Y100.302 E54.85957
G0 F6000 X126.174 Y100.435
G1 F1200 X126.323 Y100.585 E54.86308
G0 F6000 X126.174 Y100.718
G1 F1200 X126.323 Y100.868 E54.8666
G0 F6000 X126.174 Y101.001
G1 F1200 X126.323 Y101.15 E54.8701
G0 F6000 X126.174 Y101.283
G1 F1200 X126.323 Y101.433 E54.87362
G0 F6000 X126.174 Y101.566
G1 F1200 X126.323 Y101.716 E54.87714
G0 F6000 X126.174 Y101.849
G1 F1200 X126.323 Y101.999 E54.88065
G0 F6000 X126.174 Y102.132
G1 F1200 X126.323 Y102.282 E54.88417
G0 F6000 X126.174 Y102.415
G1 F1200 X126.323 Y102.565 E54.88768
G0 F6000 X126.174 Y102.698
G1 F1200 X126.323 Y102.847 E54.89119
G0 F6000 X126.174 Y102.98
G1 F1200 X126.323 Y103.13 E54.8947
G0 F6000 X126.174 Y103.263
G1 F1200 X126.323 Y103.413 E54.89822
G0 F6000 X126.174 Y103.546
G1 F1200 X126.323 Y103.696 E54.90174
G0 F6000 X126.174 Y103.829
G1 F1200 X126.323 Y103.979 E54.90525
