;FLAVOR:Marlin
;TIME:610
;Filament used: 0.281428m
;Layer height: 0.2
;MINX:88.808
;MINY:107.958
;MINZ:0.2
;MAXX:146.192
;MAXY:127.042
;MAXZ:2.4
;Generated with Cura_SteamEngine master
M140 S60
M105
M190 S60
M104 S200
M105
M109 S200
M82 ;absolute extrusion mode
; Ender 3 Custom Start G-code
G92 E0 ; Reset Extruder
G28 ; Home all axes
G1 Z2.0 F3000 ; Move Z Axis up little to prevent scratching of Heat Bed
G1 X0.1 Y20 Z0.3 F5000.0 ; Move to start position
G1 X0.1 Y200.0 Z0.3 F1500.0 E15 ; Draw the first line
G1 X0.4 Y200.0 Z0.3 F5000.0 ; Move to side a little
G1 X0.4 Y20 Z0.3 F1500.0 E30 ; Draw the second line
G92 E0 ; Reset Extruder
G1 Z2.0 F3000 ; Move Z Axis up little to prevent scratching of Heat Bed
G1 X5 Y20 Z0.3 F5000.0 ; Move over to prevent blob squish
G92 E0
G92 E0
G1 F1500 E-6.5
;LAYER_COUNT:12
;LAYER:0
M107
;MESH:player-mat-parts_-_grid_small.stl
G0 F6000 X136.5 Y108.541 Z0.2
;TYPE:WALL-INNER
G1 F1500 E0
G1 F1200 X136.5 Y126.459 E0.59596
G1 X135.7 Y126.459 E0.62256
G1 X135.7 Y108.541 E1.21852
G1 X136.5 Y108.541 E1.24513
G1 F1500 E-5.25487
G0 F6000 X136.7 Y117.25
G0 X136.9 Y117.25
;TYPE:WALL-OUTER
G1 F1500 E1.24513
G1 F1200 X145.7 Y117.25 E1.53782
G1 X145.7 Y108.45 E1.8305
G1 X136.9 Y108.45 E2.12319
G1 X136.9 Y117.25 E2.41588
G1 F1500 E-4.08412
G0 F6000 X136.7 Y117.25
G0 X136.7 Y126.55
G0 X136.9 Y126.55
G1 F1500 E2.41588
G1 F1200 X145.7 Y126.55 E2.70857
G1 X145.7 Y117.75 E3.00126
G1 X136.9 Y117.75 E3.29395
G1 X136.9 Y126.55 E3.58664
G1 F1500 E-2.91336
G0 F6000 X136.7 Y126.55
G0 X135.428 Y126.678
G0 X126.372 Y126.678
G0 X126.5 Y126.55
G1 F1500 E3.58664
G1 F1200 X135.3 Y126.55 E3.87933
G1 X135.3 Y117.75 E4.17202
G1 X126.5 Y117.75 E4.46471
G1 X126.5 Y126.55 E4.7574
G1 F1500 E-1.7426
G0 F6000 X126.3 Y126.55
G0 X126.3 Y117.25
G0 X126.5 Y117.25
G1 F1500 E4.7574
G1 F1200 X135.3 Y117.25 E5.05009
G1 X135.3 Y108.45 E5.34278
G1 X126.5 Y108.45 E5.63546
G1 X126.5 Y117.25 E5.92815
G1 F1500 E-0.57185
G0 F6000 X126.3 Y117.25
G0 X117.072 Y117.378
G0 X117.2 Y117.25
G1 F1500 E5.92815
G1 F1200 X126 Y117.25 E6.22084
G1 X126 Y108.45 E6.51353
G1 X117.2 Y108.45 E6.80622
G1 X117.2 Y117.25 E7.09891
G0 F6000 X116.7 Y117.25
G1 F1200 X116.7 Y108.45 E7.3916
G1 X107.9 Y108.45 E7.68429
G1 X107.9 Y117.25 E7.97698
G1 X116.7 Y117.25 E8.26967
G1 F1500 E1.76967
G0 F6000 X116.9 Y117.25
G0 X107.772 Y117.378
G0 X107.4 Y117.25
G1 F1500 E8.26967
G1 F1200 X107.4 Y108.45 E8.56236
G1 X98.6 Y108.45 E8.85505
G1 X98.6 Y117.25 E9.14773
G1 X107.4 Y117.25 E9.44042
G1 F1500 E2.94042
G0 F6000 X107.6 Y117.25
G0 X98.472 Y117.378
G0 X98.1 Y117.25
G1 F1500 E9.44042
G1 F1200 X98.1 Y108.45 E9.73311
G1 X89.3 Y108.45 E10.0258
G1 X89.3 Y117.25 E10.31849
G1 X98.1 Y117.25 E10.61118
G1 F1500 E4.11118
G0 F6000 X98.3 Y117.25
G0 X98.3 Y126.55
G0 X98.1 Y126.55
G1 F1500 E10.61118
G1 F1200 X98.1 Y117.75 E10.90387
G1 X89.3 Y117.75 E11.19656
G1 X89.3 Y126.55 E11.48925
G1 X98.1 Y126.55 E11.78194
G1 F1500 E5.28194
G0 F6000 X98.3 Y126.55
G0 X107.528 Y126.678
G0 X107.4 Y126.55
G1 F1500 E11.78194
G1 F1200 X107.4 Y117.75 E12.07463
G1 X98.6 Y117.75 E12.36732
G1 X98.6 Y126.55 E12.66
G1 X107.4 Y126.55 E12.95269
G1 F1500 E6.45269
G0 F6000 X107.6 Y126.55
G0 X116.828 Y126.678
G0 X116.7 Y126.55
G1 F1500 E12.95269
G1 F1200 X116.7 Y117.75 E13.24538
G1 X107.9 Y117.75 E13.53807
G1 X107.9 Y126.55 E13.83076
G1 X116.7 Y126.55 E14.12345
G0 F6000 X117.2 Y126.55
G1 F1200 X126 Y126.55 E14.41614
G1 X126 Y117.75 E14.70883
G1 X117.2 Y117.75 E15.00152
G1 X117.2 Y126.55 E15.29421
G1 F1500 E8.79421
G0 F6000 X117 Y126.55
G0 X145.839 Y126.689
G0 X146.009 Y126.859
G1 F1500 E15.29421
G1 F1200 X88.991 Y126.859 E17.19063
G1 X88.991 Y108.141 E17.8132
G1 X146.009 Y108.141 E19.70962
G1 X146.009 Y126.859 E20.33219
G0 F6000 X145.839 Y126.689
G0 X136.772 Y126.678
G0 X136.39 Y126.069
G0 X136.11 Y126.069
;TYPE:SKIN
G1 F1200 X136.09 Y126.069 E20.33285
G1 X136.09 Y108.931 E20.90286
G1 X136.11 Y108.931 E20.90353
G1 X136.11 Y126.069 E21.47354
G0 F6000 X136.39 Y126.069
G0 X136.733 Y118.467
G0 X136.808 Y117.55
G0 X136.733 Y117.5
;TYPE:SKIN
G1 F1200 X137.016 Y117.499 E21.47714
G1 X145.501 Y117.499 E21.58501
G1 X145.771 Y117.486 E21.58845
G0 F6000 X145.809 Y117.549
G0 X136.328 Y117.548
G0 X136.318 Y126.277
G0 X135.882 Y126.277
G0 X135.879 Y123.803
G0 X135.393 Y117.55
G0 X135.318 Y117.499
G1 F1200 X135.036 Y117.499 E21.59204
G1 X126.258 Y117.49 E21.70369
G1 X126.249 Y111.824 E21.77576
G1 X126.249 Y108.43 E21.81893
G0 F6000 X126.2 Y108.355
G0 X126.128 Y117.378
G0 X125.91 Y117.424
G1 F1200 X126.059 Y117.574 E21.82245
G0 F6000 X126.249 Y117.764
G1 F1200 X126.249 Y118.047 E21.82613
G1 X126.249 Y126.532 E21.93656
G0 F6000 X126.3 Y126.608
G0 X126.128 Y117.622
G0 X125.776 Y117.55
G0 X125.701 Y117.499
G1 F1200 X125.418 Y117.499 E21.94014
G1 X117.216 Y117.499 E22.0439
G1 X116.949 Y117.232 E22.04868
G1 X116.949 Y108.464 E22.1596
G0 F6000 X116.9 Y108.389
G0 X116.87 Y117.42
G0 X116.941 Y117.507
G1 F1200 X116.949 Y117.798 E22.1634
G1 X116.949 Y126.566 E22.27784
G0 F6000 X117 Y126.642
G0 X116.828 Y117.622
G0 X116.65 Y117.499
G1 F1200 X116.367 Y117.499 E22.28144
G1 X107.882 Y117.499 E22.38919
G1 X107.649 Y117.266 E22.39338
G1 X107.649 Y108.498 E22.50472
G0 F6000 X107.6 Y108.423
G0 X107.57 Y117.42
G0 X107.624 Y117.524
G1 F1200 X107.649 Y117.832 E22.50878
G1 X107.649 Y126.6 E22.62374
G0 F6000 X107.73 Y126.72
G0 X107.528 Y117.622
G0 X107.317 Y117.499
G1 F1200 X107.034 Y117.499 E22.62734
G1 X98.549 Y117.499 E22.73537
G1 X98.349 Y117.299 E22.73897
G1 X98.349 Y108.531 E22.85061
G0 F6000 X98.3 Y108.456
G0 X98.228 Y117.378
G0 X98.307 Y117.541
G1 F1200 X98.349 Y117.865 E22.85493
G1 X98.349 Y126.35 E22.96713
G1 X98.336 Y126.62 E22.97071
G0 F6000 X98.399 Y126.659
G0 X98.228 Y117.622
G0 X97.983 Y117.499
G1 F1200 X97.7 Y117.499 E22.97438
G1 X89.497 Y117.499 E23.0809
G0 F6000 X89.289 Y117.574
G1 F1200 X89.165 Y117.449 E23.08383
G1 F1500 E16.58383
;MESH:NONMESH
G0 F300 X89.165 Y117.449 Z0.4
G0 F6000 X89.191 Y117.449
G0 X116.828 Y117.378
G0 X117.072 Y108.322
G0 X135.428 Y108.322
G0 X136.5 Y108.524
;TIME_ELAPSED:59.307466
;LAYER:1
M106 S85
;TYPE:WALL-INNER
;MESH:player-mat-parts_-_grid_small.stl
G1 F1500 E23.08383
G1 F1350 X136.5 Y126.476 E23.68091
G1 X135.7 Y126.476 E23.70752
G1 X135.7 Y108.524 E24.30461
G1 X136.5 Y108.524 E24.33121
G1 F1500 E17.83121
G0 F7500 X136.7 Y117.25
G0 X136.9 Y117.25
;TYPE:WALL-OUTER
G1 F1500 E24.33121
G1 F1350 X145.7 Y117.25 E24.6239
G1 X145.7 Y108.45 E24.91659
G1 X136.9 Y108.45 E25.20928
G1 X136.9 Y117.25 E25.50197
G1 F1500 E19.00197
G0 F7500 X136.7 Y117.25
G0 X136.7 Y126.55
G0 X136.9 Y126.55
G1 F1500 E25.50197
G1 F1350 X145.7 Y126.55 E25.79466
G1 X145.7 Y117.75 E26.08735
G1 X136.9 Y117.75 E26.38004
G1 X136.9 Y126.55 E26.67273
G1 F1500 E20.17273
G0 F7500 X136.7 Y126.55
G0 X135.428 Y126.678
G0 X126.372 Y126.678
G0 X126.5 Y126.55
G1 F1500 E26.67273
G1 F1350 X135.3 Y126.55 E26.96542
G1 X135.3 Y117.75 E27.25811
G1 X126.5 Y117.75 E27.55079
G1 X126.5 Y126.55 E27.84348
G1 F1500 E21.34348
G0 F7500 X126.3 Y126.55
G0 X126.3 Y117.25
G0 X126.5 Y117.25
G1 F1500 E27.84348
G1 F1350 X135.3 Y117.25 E28.13617
G1 X135.3 Y108.45 E28.42886
G1 X126.5 Y108.45 E28.72155
G1 X126.5 Y117.25 E29.01424
G1 F1500 E22.51424
G0 F7500 X126.3 Y117.25
G0 X117.072 Y117.378
G0 X117.2 Y117.25
G1 F1500 E29.01424
G1 F1350 X126 Y117.25 E29.30693
G1 X126 Y108.45 E29.59962
G1 X117.2 Y108.45 E29.89231
G1 X117.2 Y117.25 E30.185
G0 F7500 X116.7 Y117.25
G1 F1350 X116.7 Y108.45 E30.47769
G1 X107.9 Y108.45 E30.77038
G1 X107.9 Y117.25 E31.06307
G1 X116.7 Y117.25 E31.35575
G1 F1500 E24.85575
G0 F7500 X116.9 Y117.25
G0 X107.772 Y117.378
G0 X107.4 Y117.25
G1 F1500 E31.35575
G1 F1350 X107.4 Y108.45 E31.64844
G1 X98.6 Y108.45 E31.94113
G1 X98.6 Y117.25 E32.23382
G1 X107.4 Y117.25 E32.52651
G1 F1500 E26.02651
G0 F7500 X107.6 Y117.25
G0 X98.472 Y117.378
G0 X98.1 Y117.25
G1 F1500 E32.52651
G1 F1350 X98.1 Y108.45 E32.8192
G1 X89.3 Y108.45 E33.11189
G1 X89.3 Y117.25 E33.40458
G1 X98.1 Y117.25 E33.69727
G1 F1500 E27.19727
G0 F7500 X98.3 Y117.25
G0 X98.3 Y126.55
G0 X98.1 Y126.55
G1 F1500 E33.69727
G1 F1350 X98.1 Y117.75 E33.98996
G1 X89.3 Y117.75 E34.28265
G1 X89.3 Y126.55 E34.57534
G1 X98.1 Y126.55 E34.86802
G1 F1500 E28.36802
G0 F7500 X98.3 Y126.55
G0 X107.528 Y126.678
G0 X107.4 Y126.55
G1 F1500 E34.86802
G1 F1350 X107.4 Y117.75 E35.16071
G1 X98.6 Y117.75 E35.4534
G1 X98.6 Y126.55 E35.74609
G1 X107.4 Y126.55 E36.03878
G1 F1500 E29.53878
G0 F7500 X107.6 Y126.55
G0 X116.828 Y126.678
G0 X116.7 Y126.55
G1 F1500 E36.03878
G1 F1350 X116.7 Y117.75 E36.33147
G1 X107.9 Y117.75 E36.62416
G1 X107.9 Y126.55 E36.91685
G1 X116.7 Y126.55 E37.20954
G0 F7500 X117.2 Y126.55
G1 F1350 X126 Y126.55 E37.50223
G1 X126 Y117.75 E37.79492
G1 X117.2 Y117.75 E38.08761
G1 X117.2 Y126.55 E38.38029
G1 F1500 E31.88029
G0 F7500 X117 Y126.55
G0 X145.856 Y126.706
G0 X146.026 Y126.876
G1 F1500 E38.38029
G1 F1350 X88.974 Y126.876 E40.27785
G1 X88.974 Y108.124 E40.90155
G1 X146.026 Y108.124 E42.7991
G1 X146.026 Y126.876 E43.4228
G0 F7500 X145.856 Y126.706
G0 X136.772 Y126.678
G0 X136.39 Y126.086
G0 X136.11 Y126.086
;TYPE:SKIN
G1 F1350 X136.09 Y126.086 E43.42346
G1 X136.09 Y108.914 E43.99461
G1 X136.11 Y108.914 E43.99527
G1 X136.11 Y126.086 E44.56641
G0 F7500 X136.39 Y126.086
G0 X136.7 Y117.574
G0 X136.775 Y117.499
;TYPE:SKIN
G1 F1350 X137.058 Y117.499 E44.57005
G1 X145.543 Y117.499 E44.67918
G1 X145.8 Y117.524 E44.6825
G0 F7500 X145.826 Y117.475
G0 X136.33 Y117.423
G0 X136.318 Y108.706
G0 X135.882 Y108.706
G0 X135.47 Y117.42
G0 X135.361 Y117.499
G1 F1350 X135.078 Y117.499 E44.68609
G1 X126.593 Y117.499 E44.79378
G1 X126.28 Y117.529 E44.79777
G1 X126.249 Y119.539 E44.82328
G1 X126.249 Y126.61 E44.91303
G0 F7500 X126.17 Y126.72
G0 X126.128 Y117.622
G0 X125.952 Y117.574
G1 F1350 X126.103 Y117.424 E44.91656
G0 F7500 X126.174 Y117.352
G1 F1350 X126.324 Y117.202 E44.92009
G0 F7500 X126.249 Y116.995
G1 F1350 X126.249 Y116.712 E44.92377
G1 X126.249 Y108.509 E45.0303
G0 F7500 X126.3 Y108.434
G0 X126.128 Y117.378
G0 X125.82 Y117.45
G0 X125.82 Y117.424
G1 F1350 X125.669 Y117.574 E45.03384
G0 F7500 X125.462 Y117.499
G1 F1350 X125.179 Y117.499 E45.03744
G1 X117.259 Y117.499 E45.1383
G1 X116.963 Y117.512 E45.14207
G1 X116.95 Y122.334 E45.20347
G1 X116.95 Y126.577 E45.2575
G0 F7500 X116.87 Y126.72
G0 X116.828 Y117.622
G0 X116.618 Y117.574
G1 F1350 X116.769 Y117.424 E45.26104
G0 F7500 X116.949 Y117.243
G1 F1350 X116.949 Y116.96 E45.26468
G1 X116.949 Y108.475 E45.37384
G0 F7500 X117 Y108.4
G0 X116.828 Y117.378
G0 X116.486 Y117.45
G0 X116.411 Y117.499
G1 F1350 X116.128 Y117.499 E45.37742
G1 X107.925 Y117.499 E45.4811
G1 X107.649 Y117.775 E45.48604
G1 X107.649 Y126.543 E45.59686
G0 F7500 X107.6 Y126.618
G0 X107.567 Y117.574
G0 X107.646 Y117.495
G1 F1350 X107.649 Y117.209 E45.60059
G1 X107.649 Y108.441 E45.71476
G0 F7500 X107.7 Y108.366
G0 X107.528 Y117.378
G0 X107.36 Y117.499
G1 F1350 X107.077 Y117.499 E45.71834
G1 X98.591 Y117.499 E45.82586
G1 X98.35 Y117.741 E45.83019
G1 X98.35 Y126.509 E45.94129
G0 F7500 X98.3 Y126.584
G0 X98.27 Y117.58
G0 X98.329 Y117.479
G1 F1350 X98.349 Y117.176 E45.94526
G1 X98.349 Y108.408 E46.05998
G0 F7500 X98.43 Y108.28
G0 X98.228 Y117.378
G0 X98.101 Y117.424
G1 F1350 X97.951 Y117.574 E46.06351
G0 F7500 X97.744 Y117.499
G1 F1350 X97.461 Y117.499 E46.06718
G1 X89.258 Y117.499 E46.1737
G0 F7500 X89.474 Y117.368
G1 F1500 E39.6737
;MESH:NONMESH
G0 F300 X89.474 Y117.368 Z0.6
G0 F7500 X89.474 Y117.45
G0 X116.828 Y117.378
G0 X117.072 Y108.322
G0 X135.428 Y108.322
G0 X136.5 Y108.508
;TIME_ELAPSED:110.613988
;LAYER:2
M106 S170
;TYPE:WALL-INNER
;MESH:player-mat-parts_-_grid_small.stl
G1 F1500 E46.1737
G1 X136.5 Y126.492 E46.77185
G1 X135.7 Y126.492 E46.79846
G1 X135.7 Y108.508 E47.39661
G1 X136.5 Y108.508 E47.42322
G1 F1500 E40.92322
G0 F9000 X136.7 Y117.25
G0 X136.9 Y117.25
;TYPE:WALL-OUTER
G1 F1500 E47.42322
G1 X145.7 Y117.25 E47.7159
G1 X145.7 Y108.45 E48.00859
G1 X136.9 Y108.45 E48.30128
G1 X136.9 Y117.25 E48.59397
G1 F1500 E42.09397
G0 F9000 X136.7 Y117.25
G0 X136.7 Y126.55
G0 X136.9 Y126.55
G1 F1500 E48.59397
G1 X145.7 Y126.55 E48.88666
G1 X145.7 Y117.75 E49.17935
G1 X136.9 Y117.75 E49.47204
G1 X136.9 Y126.55 E49.76473
G1 F1500 E43.26473
G0 F9000 X136.7 Y126.55
G0 X135.428 Y126.678
G0 X126.372 Y126.678
G0 X126.5 Y126.55
G1 F1500 E49.76473
G1 X135.3 Y126.55 E50.05742
G1 X135.3 Y117.75 E50.35011
G1 X126.5 Y117.75 E50.6428
G1 X126.5 Y126.55 E50.93549
G1 F1500 E44.43549
G0 F9000 X126.3 Y126.55
G0 X126.3 Y117.25
G0 X126.5 Y117.25
G1 F1500 E50.93549
G1 X135.3 Y117.25 E51.22818
G1 X135.3 Y108.45 E51.52086
G1 X126.5 Y108.45 E51.81355
G1 X126.5 Y117.25 E52.10624
G1 F1500 E45.60624
G0 F9000 X126.3 Y117.25
G0 X117.072 Y117.378
G0 X117.2 Y117.25
G1 F1500 E52.10624
G1 X126 Y117.25 E52.39893
G1 X126 Y108.45 E52.69162
G1 X117.2 Y108.45 E52.98431
G1 X117.2 Y117.25 E53.277
G0 F9000 X116.7 Y117.25
G1 F1500 X116.7 Y108.45 E53.56969
G1 X107.9 Y108.45 E53.86238
G1 X107.9 Y117.25 E54.15507
G1 X116.7 Y117.25 E54.44776
G1 F1500 E47.94776
G0 F9000 X116.9 Y117.25
G0 X107.772 Y117.378
G0 X107.4 Y117.25
G1 F1500 E54.44776
G1 X107.4 Y108.45 E54.74045
G1 X98.6 Y108.45 E55.03313
G1 X98.6 Y117.25 E55.32582
G1 X107.4 Y117.25 E55.61851
G1 F1500 E49.11851
G0 F9000 X107.6 Y117.25
G0 X98.472 Y117.378
G0 X98.1 Y117.25
G1 F1500 E55.61851
G1 X98.1 Y108.45 E55.9112
G1 X89.3 Y108.45 E56.20389
G1 X89.3 Y117.25 E56.49658
G1 X98.1 Y117.25 E56.78927
G1 F1500 E50.28927
G0 F9000 X98.3 Y117.25
G0 X98.3 Y126.55
G0 X98.1 Y126.55
G1 F1500 E56.78927
G1 X98.1 Y117.75 E57.08196
G1 X89.3 Y117.75 E57.37465
G1 X89.3 Y126.55 E57.66734
G1 X98.1 Y126.55 E57.96003
G1 F1500 E51.46003
G0 F9000 X98.3 Y126.55
G0 X107.528 Y126.678
G0 X107.4 Y126.55
G1 F1500 E57.96003
G1 X107.4 Y117.75 E58.25272
G1 X98.6 Y117.75 E58.5454
G1 X98.6 Y126.55 E58.83809
G1 X107.4 Y126.55 E59.13078
G1 F1500 E52.63078
G0 F9000 X107.6 Y126.55
G0 X116.828 Y126.678
G0 X116.7 Y126.55
G1 F1500 E59.13078
G1 X116.7 Y117.75 E59.42347
G1 X107.9 Y117.75 E59.71616
G1 X107.9 Y126.55 E60.00885
G1 X116.7 Y126.55 E60.30154
G0 F9000 X117.2 Y126.55
G1 F1500 X126 Y126.55 E60.59423
G1 X126 Y117.75 E60.88692
G1 X117.2 Y117.75 E61.17961
G1 X117.2 Y126.55 E61.4723
G1 F1500 E54.9723
G0 F9000 X117 Y126.55
G0 X145.872 Y126.722
G0 X146.042 Y126.892
G1 F1500 E61.4723
G1 X88.958 Y126.892 E63.37092
G1 X88.958 Y108.108 E63.99568
G1 X146.042 Y108.108 E65.8943
G1 X146.042 Y126.892 E66.51906
G0 F9000 X145.872 Y126.722
G0 X136.772 Y126.678
G0 X136.39 Y126.102
G0 X136.11 Y126.102
;TYPE:SKIN
G1 F1500 X136.09 Y126.102 E66.51972
G1 X136.09 Y108.898 E67.09193
G1 X136.11 Y108.898 E67.09259
G1 X136.11 Y126.102 E67.6648
G0 F9000 X136.39 Y126.102
G0 X136.733 Y118.47
G0 X136.808 Y117.55
G0 X136.733 Y117.5
;TYPE:SKIN
G1 F1500 X137.016 Y117.499 E67.66841
G1 X145.784 Y117.499 E67.78031
G0 F9000 X145.842 Y117.574
G0 X136.33 Y117.551
G0 X136.318 Y126.31
G0 X135.882 Y126.31
G0 X135.876 Y121.344
G0 X135.393 Y117.55
G0 X135.318 Y117.499
G1 F1500 X135.036 Y117.499 E67.7839
G1 X126.55 Y117.499 E67.89187
G1 X126.258 Y117.489 E67.89558
G1 X126.249 Y111.824 E67.96766
G1 X126.249 Y108.429 E68.01086
G0 F9000 X126.2 Y108.354
G0 X126.128 Y117.378
G0 X125.91 Y117.424
G1 F1500 X126.059 Y117.574 E68.01437
G0 F9000 X126.249 Y117.764
G1 F1500 X126.249 Y118.047 E68.01804
G1 X126.249 Y126.532 E68.12809
G0 F9000 X126.3 Y126.607
G0 X126.128 Y117.622
G0 X125.776 Y117.55
G0 X125.701 Y117.499
G1 F1500 X125.418 Y117.499 E68.13167
G1 X117.216 Y117.499 E68.23535
G1 X116.949 Y117.232 E68.24012
G1 X116.949 Y108.463 E68.35097
G0 F9000 X116.9 Y108.388
G0 X116.87 Y117.42
G0 X116.941 Y117.507
G1 F1500 X116.949 Y117.798 E68.35477
G1 X116.949 Y126.566 E68.46921
G0 F9000 X117 Y126.642
G0 X116.828 Y117.622
G0 X116.65 Y117.499
G1 F1500 X116.367 Y117.499 E68.4728
G1 X107.882 Y117.499 E68.58056
G1 X107.649 Y117.266 E68.58474
G1 X107.649 Y108.498 E68.69609
G0 F9000 X107.6 Y108.423
G0 X107.57 Y117.42
G0 X107.624 Y117.524
G1 F1500 X107.649 Y117.832 E68.70014
G1 X107.649 Y126.6 E68.81511
G0 F9000 X107.73 Y126.72
G0 X107.528 Y117.622
G0 X107.317 Y117.499
G1 F1500 X107.034 Y117.499 E68.81868
G1 X98.549 Y117.499 E68.92577
G1 X98.349 Y117.299 E68.92934
G1 X98.349 Y108.531 E69.04001
