;FLAVOR:Marlin
;TIME:3299
;Filament used: 1.37033m
;Layer height: 0.2
;MINX:95.001
;MINY:86.822
;MINZ:0.2
;MAXX:155.001
;MAXY:123.179
;MAXZ:21
;Generated with Cura_SteamEngine master
M140 S60
M105
M190 S60
M104 S200
M105
M109 S200
M82 ;absolute extrusion mode
; Ender 3 Custom Start G-code
G92 E0 ; Reset Extruder
G28 ; Home all axes
G1 Z2.0 F3000 ; Move Z Axis up little to prevent scratching of Heat Bed
G1 X0.1 Y20 Z0.3 F5000.0 ; Move to start position
G1 X0.1 Y200.0 Z0.3 F1500.0 E15 ; Draw the first line
G1 X0.4 Y200.0 Z0.3 F5000.0 ; Move to side a little
G1 X0.4 Y20 Z0.3 F1500.0 E30 ; Draw the second line
G92 E0 ; Reset Extruder
G1 Z2.0 F3000 ; Move Z Axis up little to prevent scratching of Heat Bed
G1 X5 Y20 Z0.3 F5000.0 ; Move over to prevent blob squish
G92 E0
G92 E0
G1 F1500 E-6.5
;LAYER_COUNT:106
;LAYER:0
M107
G0 F6000 X98.213 Y90.091 Z0.2
;TYPE:SKIRT
G1 F1500 E0
G1 F1200 X98.903 Y89.455 E0.03121
G1 X99.644 Y88.88 E0.06241
G1 X100.431 Y88.371 E0.09358
G1 X101.259 Y87.93 E0.12478
G1 X102.121 Y87.561 E0.15597
G1 X103.011 Y87.267 E0.18714
G1 X103.924 Y87.05 E0.21836
G1 X104.851 Y86.911 E0.24953
G1 X105.756 Y86.853 E0.2797
G1 X106.402 Y86.838 E0.30119
G1 X106.806 Y86.836 E0.31462
G1 X107.041 Y86.839 E0.32244
G1 X109.238 Y86.822 E0.39552
G1 X109.596 Y86.835 E0.40743
G1 X110.261 Y86.83 E0.42955
G1 X110.49 Y86.831 E0.43717
G1 X112.076 Y86.853 E0.48992
G1 X112.874 Y86.875 E0.51647
G1 X116.353 Y86.862 E0.63219
G1 X117.42 Y86.838 E0.66768
G1 X117.826 Y86.836 E0.68119
G1 X118.049 Y86.839 E0.6886
G1 X120.238 Y86.822 E0.76141
G1 X120.596 Y86.835 E0.77333
G1 X121.261 Y86.83 E0.79545
G1 X121.49 Y86.831 E0.80306
G1 X123.076 Y86.853 E0.85582
G1 X123.874 Y86.875 E0.88237
G1 X127.353 Y86.862 E0.99808
G1 X128.42 Y86.838 E1.03358
G1 X128.826 Y86.836 E1.04709
G1 X129.049 Y86.839 E1.0545
G1 X131.238 Y86.822 E1.12731
G1 X131.596 Y86.835 E1.13923
G1 X132.261 Y86.83 E1.16135
G1 X132.49 Y86.831 E1.16896
G1 X134.076 Y86.853 E1.22172
G1 X134.874 Y86.875 E1.24827
G1 X138.353 Y86.862 E1.36398
G1 X139.42 Y86.838 E1.39948
G1 X139.826 Y86.836 E1.41298
G1 X140.049 Y86.839 E1.4204
G1 X142.238 Y86.822 E1.49321
G1 X142.596 Y86.835 E1.50512
G1 X143.261 Y86.83 E1.52724
G1 X143.488 Y86.831 E1.53479
G1 X144.143 Y86.84 E1.55658
G1 X145.08 Y86.893 E1.5878
G1 X146.008 Y87.025 E1.61897
G1 X146.922 Y87.236 E1.65017
G1 X147.814 Y87.524 E1.68135
G1 X148.679 Y87.888 E1.71256
G1 X149.51 Y88.323 E1.74376
G1 X150.3 Y88.828 E1.77494
G1 X151.045 Y89.398 E1.80614
G1 X151.738 Y90.029 E1.83731
G1 X152.376 Y90.717 E1.86852
G1 X152.952 Y91.457 E1.89971
G1 X153.463 Y92.244 E1.93092
G1 X153.905 Y93.071 E1.96211
G1 X154.275 Y93.933 E1.99331
G1 X154.57 Y94.823 E2.02449
G1 X154.789 Y95.735 E2.05569
G1 X154.929 Y96.662 E2.08687
G1 X154.988 Y97.53 E2.11581
G1 X154.997 Y97.85 E2.12646
G1 X155.001 Y98.159 E2.13673
G1 X155 Y111.575 E2.58295
G1 X154.991 Y112.289 E2.6067
G1 X154.939 Y113.225 E2.63788
G1 X154.808 Y114.154 E2.66909
G1 X154.598 Y115.068 E2.70028
G1 X154.311 Y115.961 E2.73147
G1 X153.949 Y116.826 E2.76266
G1 X153.514 Y117.657 E2.79386
G1 X153.011 Y118.448 E2.82504
G1 X152.441 Y119.193 E2.85624
G1 X151.811 Y119.888 E2.88744
G1 X151.123 Y120.525 E2.91862
G1 X150.384 Y121.102 E2.94981
G1 X149.598 Y121.614 E2.981
G1 X148.771 Y122.057 E3.01221
G1 X147.91 Y122.429 E3.0434
G1 X147.02 Y122.725 E3.0746
G1 X146.108 Y122.944 E3.1058
G1 X145.181 Y123.086 E3.13699
G1 X144.235 Y123.147 E3.16852
G1 X143.556 Y123.162 E3.19111
G1 X143.181 Y123.164 E3.20358
G1 X142.902 Y123.161 E3.21286
G1 X140.62 Y123.179 E3.28876
G1 X140.244 Y123.166 E3.30127
G1 X139.676 Y123.17 E3.32017
G1 X139.44 Y123.169 E3.32802
G1 X137.657 Y123.143 E3.38732
G1 X136.944 Y123.124 E3.41105
G1 X133.652 Y123.138 E3.52054
G1 X132.541 Y123.162 E3.5575
G1 X132.164 Y123.164 E3.57004
G1 X131.897 Y123.161 E3.57892
G1 X129.62 Y123.179 E3.65466
G1 X129.244 Y123.166 E3.66717
G1 X128.676 Y123.17 E3.68606
G1 X128.44 Y123.169 E3.69391
G1 X126.657 Y123.143 E3.75322
G1 X125.944 Y123.124 E3.77694
G1 X122.652 Y123.138 E3.88644
G1 X121.541 Y123.162 E3.9234
G1 X121.164 Y123.164 E3.93594
G1 X120.897 Y123.161 E3.94482
G1 X118.62 Y123.179 E4.02055
G1 X118.244 Y123.166 E4.03307
G1 X117.676 Y123.17 E4.05196
G1 X117.44 Y123.169 E4.05981
G1 X115.657 Y123.143 E4.11912
G1 X114.944 Y123.124 E4.14284
G1 X111.652 Y123.138 E4.25233
G1 X110.541 Y123.162 E4.2893
G1 X110.164 Y123.164 E4.30183
G1 X109.897 Y123.161 E4.31072
G1 X107.62 Y123.179 E4.38645
G1 X107.244 Y123.166 E4.39896
G1 X106.676 Y123.17 E4.41786
G1 X106.443 Y123.169 E4.42561
G1 X105.859 Y123.161 E4.44503
G1 X104.923 Y123.108 E4.47621
G1 X103.994 Y122.976 E4.50742
G1 X103.081 Y122.765 E4.53859
G1 X102.188 Y122.477 E4.5698
G1 X101.323 Y122.114 E4.601
G1 X100.493 Y121.678 E4.63218
G1 X99.702 Y121.174 E4.66338
G1 X98.957 Y120.604 E4.69458
G1 X98.264 Y119.972 E4.72577
G1 X97.627 Y119.284 E4.75696
G1 X97.051 Y118.544 E4.78815
G1 X96.54 Y117.758 E4.81933
G1 X96.097 Y116.93 E4.85056
G1 X95.727 Y116.069 E4.88173
G1 X95.432 Y115.179 E4.91292
G1 X95.213 Y114.267 E4.94411
G1 X95.073 Y113.339 E4.97533
G1 X95.014 Y112.46 E5.00463
G1 X95.005 Y112.128 E5.01567
G1 X95.001 Y111.83 E5.02559
G1 X95.002 Y98.335 E5.47443
G1 X95.012 Y97.682 E5.49615
G1 X95.067 Y96.745 E5.52737
G1 X95.2 Y95.817 E5.55855
G1 X95.413 Y94.904 E5.58973
G1 X95.702 Y94.011 E5.62095
G1 X96.067 Y93.147 E5.65215
G1 X96.504 Y92.317 E5.68335
G1 X97.01 Y91.528 E5.71452
G1 X97.581 Y90.784 E5.74571
G1 X98.213 Y90.091 E5.77691
G0 F6000 X98.605 Y90.266
G1 F1200 X99.291 Y89.652 E5.80753
G1 X100.028 Y89.1 E5.83816
G1 X100.809 Y88.614 E5.86875
G1 X101.63 Y88.197 E5.89938
G1 X102.485 Y87.854 E5.93002
G1 X103.365 Y87.585 E5.96062
G1 X104.266 Y87.395 E5.99125
G1 X105.18 Y87.283 E6.02188
G1 X105.765 Y87.253 E6.04136
G1 X106.411 Y87.238 E6.06285
G1 X106.801 Y87.236 E6.07582
G1 X107.039 Y87.239 E6.08374
G1 X109.241 Y87.222 E6.15698
G1 X109.593 Y87.235 E6.1687
G1 X110.264 Y87.23 E6.19102
G1 X110.484 Y87.231 E6.19833
G1 X112.231 Y87.256 E6.25644
G1 X112.895 Y87.275 E6.27854
G1 X116.364 Y87.262 E6.39392
G1 X117.429 Y87.238 E6.42935
G1 X117.821 Y87.236 E6.44239
G1 X118.046 Y87.239 E6.44987
G1 X120.241 Y87.222 E6.52288
G1 X120.593 Y87.235 E6.5346
G1 X121.264 Y87.23 E6.55691
G1 X121.484 Y87.231 E6.56423
G1 X123.231 Y87.256 E6.62234
G1 X123.895 Y87.275 E6.64444
G1 X127.364 Y87.262 E6.75982
G1 X128.429 Y87.238 E6.79525
G1 X128.821 Y87.236 E6.80829
G1 X129.046 Y87.239 E6.81577
G1 X131.241 Y87.222 E6.88878
G1 X131.593 Y87.235 E6.90049
G1 X132.264 Y87.23 E6.92281
G1 X132.484 Y87.231 E6.93013
G1 X134.231 Y87.256 E6.98824
G1 X134.895 Y87.275 E7.01033
G1 X138.364 Y87.262 E7.12571
G1 X139.429 Y87.238 E7.16114
G1 X139.821 Y87.236 E7.17418
G1 X140.046 Y87.239 E7.18167
G1 X142.241 Y87.222 E7.25468
G1 X142.593 Y87.235 E7.26639
G1 X143.264 Y87.23 E7.28871
G1 X143.483 Y87.231 E7.29599
G1 X144.138 Y87.24 E7.31778
G1 X145.057 Y87.293 E7.3484
G1 X145.968 Y87.425 E7.37901
G1 X146.864 Y87.636 E7.40963
G1 X147.739 Y87.923 E7.44026
G1 X148.585 Y88.286 E7.47088
G1 X149.397 Y88.72 E7.5015
G1 X150.167 Y89.224 E7.53211
G1 X150.892 Y89.792 E7.56274
G1 X151.564 Y90.421 E7.59336
G1 X152.179 Y91.106 E7.62397
G1 X152.732 Y91.842 E7.65459
G1 X153.22 Y92.623 E7.68522
G1 X153.638 Y93.443 E7.71584
G1 X153.983 Y94.297 E7.74647
G1 X154.252 Y95.177 E7.77708
G1 X154.445 Y96.077 E7.80769
G1 X154.558 Y96.991 E7.83832
G1 X154.588 Y97.541 E7.85664
G1 X154.597 Y97.861 E7.86729
G1 X154.601 Y98.159 E7.8772
G1 X154.6 Y111.57 E8.32325
G1 X154.591 Y112.284 E8.347
G1 X154.54 Y113.203 E8.37762
G1 X154.408 Y114.114 E8.40823
G1 X154.199 Y115.011 E8.43887
G1 X153.912 Y115.885 E8.46946
G1 X153.55 Y116.732 E8.5001
G1 X153.117 Y117.544 E8.53071
G1 X152.614 Y118.316 E8.56135
G1 X152.047 Y119.041 E8.59196
G1 X151.419 Y119.714 E8.62258
G1 X150.734 Y120.329 E8.6532
G1 X149.999 Y120.884 E8.68383
G1 X149.219 Y121.372 E8.71443
G1 X148.399 Y121.791 E8.74506
G1 X147.545 Y122.137 E8.77571
G1 X146.666 Y122.407 E8.80629
G1 X145.765 Y122.601 E8.83695
G1 X144.852 Y122.715 E8.86755
G1 X144.226 Y122.747 E8.8884
G1 X143.547 Y122.762 E8.91099
G1 X143.186 Y122.764 E8.92299
G1 X142.904 Y122.761 E8.93237
G1 X140.617 Y122.779 E9.00844
G1 X140.247 Y122.766 E9.02075
G1 X139.673 Y122.77 E9.03985
G1 X139.445 Y122.769 E9.04743
G1 X137.668 Y122.743 E9.10654
G1 X136.953 Y122.724 E9.13033
G1 X133.641 Y122.738 E9.24049
G1 X132.532 Y122.762 E9.27738
G1 X132.169 Y122.764 E9.28945
G1 X131.899 Y122.761 E9.29844
G1 X129.617 Y122.779 E9.37434
G1 X129.247 Y122.766 E9.38665
G1 X128.673 Y122.77 E9.40574
G1 X128.445 Y122.769 E9.41333
G1 X126.668 Y122.743 E9.47244
G1 X125.953 Y122.724 E9.49623
G1 X122.641 Y122.738 E9.60638
G1 X121.532 Y122.762 E9.64328
G1 X121.169 Y122.764 E9.65535
G1 X120.899 Y122.761 E9.66433
G1 X118.617 Y122.779 E9.74023
G1 X118.247 Y122.766 E9.75255
G1 X117.673 Y122.77 E9.77164
G1 X117.445 Y122.769 E9.77922
G1 X115.668 Y122.743 E9.83833
G1 X114.953 Y122.724 E9.86212
G1 X111.641 Y122.738 E9.97228
G1 X110.532 Y122.762 E10.00918
G1 X110.169 Y122.764 E10.02125
G1 X109.899 Y122.761 E10.03023
G1 X107.617 Y122.779 E10.10613
G1 X107.247 Y122.766 E10.11845
G1 X106.673 Y122.77 E10.13754
G1 X106.449 Y122.769 E10.14499
G1 X105.865 Y122.761 E10.16441
G1 X104.946 Y122.708 E10.19503
G1 X104.035 Y122.576 E10.22565
G1 X103.138 Y122.366 E10.25629
G1 X102.264 Y122.078 E10.28689
G1 X101.417 Y121.715 E10.31754
G1 X100.606 Y121.281 E10.34814
G1 X99.835 Y120.778 E10.37876
G1 X99.111 Y120.209 E10.40938
G1 X98.438 Y119.58 E10.44002
G1 X97.823 Y118.895 E10.47064
G1 X97.27 Y118.159 E10.50126
G1 X96.782 Y117.378 E10.53189
G1 X96.365 Y116.558 E10.56249
G1 X96.019 Y115.705 E10.5931
G1 X95.75 Y114.824 E10.62374
G1 X95.557 Y113.924 E10.65436
G1 X95.444 Y113.01 E10.68499
G1 X95.414 Y112.449 E10.70367
G1 X95.405 Y112.117 E10.71472
G1 X95.401 Y111.83 E10.72426
G1 X95.402 Y98.341 E11.17291
G1 X95.412 Y97.688 E11.19463
G1 X95.466 Y96.769 E11.22525
G1 X95.6 Y95.858 E11.25588
G1 X95.812 Y94.962 E11.2865
G1 X96.101 Y94.088 E11.31712
G1 X96.465 Y93.242 E11.34775
G1 X96.901 Y92.431 E11.37838
G1 X97.405 Y91.661 E11.40898
G1 X97.975 Y90.938 E11.43961
G1 X98.605 Y90.266 E11.47024
G0 F6000 X98.996 Y90.445
G1 F1200 X99.679 Y89.854 E11.50028
G1 X100.411 Y89.325 E11.53032
G1 X101.187 Y88.863 E11.56036
G1 X102.001 Y88.472 E11.59039
G1 X102.846 Y88.154 E11.62042
G1 X103.716 Y87.912 E11.65046
G1 X104.604 Y87.748 E11.68049
G1 X105.774 Y87.653 E11.71954
G1 X106.42 Y87.638 E11.74103
G1 X106.796 Y87.636 E11.75353
G1 X107.037 Y87.639 E11.76155
G1 X109.244 Y87.622 E11.83496
G1 X109.591 Y87.635 E11.84651
G1 X110.267 Y87.63 E11.86899
G1 X110.478 Y87.631 E11.87601
G1 X112.219 Y87.656 E11.93392
G1 X112.885 Y87.675 E11.95608
G1 X116.374 Y87.662 E12.07213
G1 X117.438 Y87.638 E12.10752
G1 X117.815 Y87.636 E12.12006
G1 X118.044 Y87.639 E12.12768
G1 X120.244 Y87.622 E12.20085
G1 X120.591 Y87.635 E12.2124
G1 X121.267 Y87.63 E12.23489
G1 X121.478 Y87.631 E12.24191
G1 X123.219 Y87.656 E12.29982
G1 X123.885 Y87.675 E12.32198
G1 X127.374 Y87.662 E12.43802
G1 X128.438 Y87.638 E12.47342
G1 X128.815 Y87.636 E12.48596
G1 X129.044 Y87.639 E12.49358
G1 X131.244 Y87.622 E12.56675
G1 X131.591 Y87.635 E12.5783
G1 X132.267 Y87.63 E12.60079
G1 X132.478 Y87.631 E12.6078
G1 X134.219 Y87.656 E12.66572
G1 X134.885 Y87.675 E12.68788
G1 X138.374 Y87.662 E12.80392
G1 X139.438 Y87.638 E12.83932
G1 X139.815 Y87.636 E12.85186
G1 X140.044 Y87.639 E12.85948
G1 X142.244 Y87.622 E12.93265
G1 X142.591 Y87.635 E12.9442
G1 X143.267 Y87.63 E12.96668
G1 X143.477 Y87.631 E12.97367
G1 X144.132 Y87.64 E12.99546
G1 X145.034 Y87.692 E13.02551
G1 X145.927 Y87.824 E13.05553
G1 X146.805 Y88.035 E13.08557
G1 X147.662 Y88.322 E13.11563
G1 X148.489 Y88.684 E13.14565
G1 X149.281 Y89.118 E13.17569
G1 X150.032 Y89.62 E13.20573
G1 X150.735 Y90.186 E13.23575
G1 X151.386 Y90.812 E13.26579
G1 X151.978 Y91.494 E13.29583
G1 X152.508 Y92.225 E13.32586
G1 X152.971 Y93.001 E13.35591
G1 X153.364 Y93.814 E13.38595
G1 X153.683 Y94.659 E13.41599
G1 X153.927 Y95.528 E13.44601
G1 X154.092 Y96.416 E13.47605
G1 X154.188 Y97.552 E13.51397
G1 X154.197 Y97.872 E13.52462
G1 X154.201 Y98.159 E13.53416
G1 X154.2 Y111.565 E13.98005
G1 X154.191 Y112.279 E14.0038
G1 X154.14 Y113.18 E14.03381
G1 X154.009 Y114.074 E14.06387
G1 X153.8 Y114.952 E14.09388
G1 X153.513 Y115.809 E14.12394
G1 X153.152 Y116.637 E14.15399
G1 X152.719 Y117.429 E14.18401
G1 X152.218 Y118.181 E14.21406
G1 X151.653 Y118.885 E14.24409
G1 X151.027 Y119.536 E14.27412
G1 X150.346 Y120.129 E14.30416
G1 X149.615 Y120.66 E14.33421
G1 X148.841 Y121.124 E14.36422
G1 X148.028 Y121.518 E14.39427
G1 X147.183 Y121.838 E14.42433
G1 X146.314 Y122.082 E14.45435
G1 X145.426 Y122.249 E14.4844
G1 X144.217 Y122.348 E14.52474
G1 X143.538 Y122.363 E14.54733
G1 X143.191 Y122.364 E14.55888
G1 X142.906 Y122.361 E14.56835
G1 X140.614 Y122.379 E14.64459
G1 X140.249 Y122.366 E14.65674
G1 X139.67 Y122.37 E14.676
G1 X139.451 Y122.369 E14.68328
G1 X137.678 Y122.343 E14.74226
G1 X136.961 Y122.324 E14.76611
G1 X133.687 Y122.338 E14.87501
G1 X132.523 Y122.363 E14.91373
G1 X132.174 Y122.364 E14.92534
G1 X131.901 Y122.361 E14.93442
G1 X129.614 Y122.379 E15.01049
G1 X129.249 Y122.366 E15.02263
G1 X128.67 Y122.37 E15.04189
G1 X128.451 Y122.369 E15.04918
G1 X126.678 Y122.343 E15.10815
G1 X125.961 Y122.324 E15.13201
G1 X122.687 Y122.338 E15.2409
G1 X121.523 Y122.363 E15.27963
G1 X121.174 Y122.364 E15.29124
G1 X120.901 Y122.361 E15.30032
G1 X118.614 Y122.379 E15.37638
G1 X118.249 Y122.366 E15.38853
G1 X117.67 Y122.37 E15.40779
G1 X117.451 Y122.369 E15.41507
G1 X115.678 Y122.343 E15.47405
G1 X114.961 Y122.324 E15.49791
G1 X111.687 Y122.338 E15.6068
G1 X110.523 Y122.363 E15.64552
G1 X110.174 Y122.364 E15.65713
G1 X109.901 Y122.361 E15.66621
G1 X107.614 Y122.379 E15.74228
G1 X107.249 Y122.366 E15.75443
G1 X106.67 Y122.37 E15.77369
G1 X106.454 Y122.369 E15.78087
G1 X105.87 Y122.361 E15.8003
G1 X104.969 Y122.309 E15.83031
G1 X104.075 Y122.177 E15.86037
G1 X103.197 Y121.966 E15.89041
G1 X102.341 Y121.679 E15.92043
G1 X101.513 Y121.317 E15.95049
G1 X100.721 Y120.884 E15.98051
G1 X99.97 Y120.382 E16.01056
G1 X99.267 Y119.815 E16.0406
G1 X98.617 Y119.189 E16.07061
G1 X98.024 Y118.507 E16.10067
G1 X97.494 Y117.776 E16.1307
G1 X97.031 Y117.001 E16.16073
G1 X96.638 Y116.188 E16.19076
G1 X96.319 Y115.343 E16.2208
G1 X96.075 Y114.473 E16.25085
G1 X95.91 Y113.585 E16.2809
G1 X95.814 Y112.438 E16.31918
G1 X95.805 Y112.106 E16.33022
G1 X95.801 Y111.83 E16.33941
G1 X95.802 Y98.347 E16.78785
G1 X95.812 Y97.694 E16.80957
G1 X95.866 Y96.792 E16.83963
G1 X95.999 Y95.899 E16.86966
G1 X96.211 Y95.021 E16.8997
G1 X96.5 Y94.165 E16.92975
G1 X96.863 Y93.339 E16.95976
G1 X97.298 Y92.547 E16.98981
G1 X97.801 Y91.797 E17.01985
G1 X98.369 Y91.095 E17.04988
G1 X98.996 Y90.445 E17.07992
G1 F1500 E10.57992
;MESH:MARS_Terraforming_-_player_mat_holder_v2.1.3mf(3)
G0 F6000 X109.437 Y98.143
G0 X110.417 Y98.143
G0 X110.473 Y111.772
G0 X110.302 Y111.973
;TYPE:WALL-OUTER
G1 F1500 E17.07992
G1 F1200 X110.303 Y98.029 E17.5437
G1 X110.801 Y98.029 E17.56026
G1 X110.801 Y111.972 E18.02401
G1 X110.302 Y111.973 E18.0406
G0 F6000 X110.551 Y111.682
;TYPE:SKIN
G1 F1200 X110.551 Y111.399 E18.04421
G1 X110.551 Y98.388 E18.21017
G1 F1500 E11.71017
G0 F6000 X110.502 Y98.314
G0 X110.422 Y111.319
G0 X109.437 Y111.319
G0 X108.465 Y111.319
G0 X107.48 Y111.319
G0 X107.6 Y111.487
;TYPE:WALL-OUTER
G1 F1500 E18.21017
G1 F1200 X107 Y111.487 E18.23012
G1 X107 Y98.513 E18.66164
G1 X107.6 Y98.513 E18.68159
G1 X107.6 Y111.487 E19.11311
G0 F6000 X107.262 Y111.222
;TYPE:SKIN
G1 F1200 X107.299 Y110.976 E19.11841
G1 X107.299 Y98.814 E19.37749
G1 F1500 E12.87749
G0 F6000 X107.2 Y98.713
G0 X107.114 Y111.373
G0 X106.497 Y111.373
G0 X106.397 Y111.801
G0 X106.598 Y111.972
;TYPE:WALL-OUTER
G1 F1500 E19.37749
G1 F1200 X106.201 Y111.972 E19.39069
G1 X106.201 Y98.028 E19.85447
G1 X106.597 Y98.027 E19.86764
G1 X106.598 Y111.972 E20.33145
G1 F1500 E13.83145
;MESH:MARS_Terraforming_-_player_mat_holder_v2.1.3mf(1)
G0 F6000 X106.397 Y111.801
G0 X107.451 Y112.34
G0 X109.449 Y112.827
G0 X111.654 Y112.824
G0 X116.336 Y111.858
G0 X117.321 Y111.858
G0 X117.201 Y111.972
;TYPE:WALL-OUTER
G1 F1500 E20.33145
