;FLAVOR:Marlin
;TIME:909
;Filament used: 0.401555m
;Layer height: 0.2
;MINX:88.808
;MINY:103.308
;MINZ:0.2
;MAXX:146.192
;MAXY:131.692
;MAXZ:2.4
;Generated with Cura_SteamEngine master
M140 S60
M105
M190 S60
M104 S200
M105
M109 S200
M82 ;absolute extrusion mode
; Ender 3 Custom Start G-code
G92 E0 ; Reset Extruder
G28 ; Home all axes
G1 Z2.0 F3000 ; Move Z Axis up little to prevent scratching of Heat Bed
G1 X0.1 Y20 Z0.3 F5000.0 ; Move to start position
G1 X0.1 Y200.0 Z0.3 F1500.0 E15 ; Draw the first line
G1 X0.4 Y200.0 Z0.3 F5000.0 ; Move to side a little
G1 X0.4 Y20 Z0.3 F1500.0 E30 ; Draw the second line
G92 E0 ; Reset Extruder
G1 Z2.0 F3000 ; Move Z Axis up little to prevent scratching of Heat Bed
G1 X5 Y20 Z0.3 F5000.0 ; Move over to prevent blob squish
G92 E0
G92 E0
G1 F1500 E-6.5
;LAYER_COUNT:12
;LAYER:0
M107
;MESH:player-mat-parts_-_grid_big.stl
G0 F6000 X98.1 Y112.6 Z0.2
;TYPE:WALL-OUTER
G1 F1500 E0
G1 F1200 X98.1 Y103.8 E0.29269
G1 X89.3 Y103.8 E0.58538
G1 X89.3 Y112.6 E0.87807
G1 X98.1 Y112.6 E1.17076
G1 F1500 E-5.32924
G0 F6000 X98.3 Y112.6
G0 X107.528 Y112.728
G0 X107.4 Y112.6
G1 F1500 E1.17076
G1 F1200 X107.4 Y103.8 E1.46345
G1 X98.6 Y103.8 E1.75614
G1 X98.6 Y112.6 E2.04882
G1 X107.4 Y112.6 E2.34151
G1 F1500 E-4.15849
G0 F6000 X107.6 Y112.6
G0 X116.828 Y112.728
G0 X116.7 Y112.6
G1 F1500 E2.34151
G1 F1200 X116.7 Y103.8 E2.6342
G1 X107.9 Y103.8 E2.92689
G1 X107.9 Y112.6 E3.21958
G1 X116.7 Y112.6 E3.51227
G0 F6000 X117.2 Y112.6
G1 F1200 X126 Y112.6 E3.80496
G1 X126 Y103.8 E4.09765
G1 X117.2 Y103.8 E4.39034
G1 X117.2 Y112.6 E4.68303
G0 F6000 X117 Y112.6
G0 X126.128 Y112.728
G0 X126.372 Y103.672
G0 X135.428 Y103.672
G0 X135.7 Y103.891
;TYPE:WALL-INNER
G1 F1200 X136.5 Y103.891 E4.70964
G1 X136.5 Y131.109 E5.61491
G1 X135.7 Y131.109 E5.64152
G1 X135.7 Y103.891 E6.54679
G1 F1500 E0.04679
G0 F6000 X135.428 Y112.728
G0 X126.372 Y112.728
G0 X126.5 Y112.6
;TYPE:WALL-OUTER
G1 F1500 E6.54679
G1 F1200 X135.3 Y112.6 E6.83948
G1 X135.3 Y103.8 E7.13217
G1 X126.5 Y103.8 E7.42486
G1 X126.5 Y112.6 E7.71755
G1 F1500 E1.21755
G0 F6000 X126.3 Y112.6
G0 X135.428 Y112.728
G0 X135.882 Y104.073
G0 X136.318 Y104.073
G0 X136.7 Y112.6
G0 X136.9 Y112.6
G1 F1500 E7.71755
G1 F1200 X145.7 Y112.6 E8.01024
G1 X145.7 Y103.8 E8.30293
G1 X136.9 Y103.8 E8.59562
G1 X136.9 Y112.6 E8.88831
G1 F1500 E2.38831
G0 F6000 X136.7 Y112.6
G0 X136.7 Y121.9
G0 X136.9 Y121.9
G1 F1500 E8.88831
G1 F1200 X145.7 Y121.9 E9.18099
G1 X145.7 Y113.1 E9.47368
G1 X136.9 Y113.1 E9.76637
G1 X136.9 Y121.9 E10.05906
G1 F1500 E3.55906
G0 F6000 X136.7 Y121.9
G0 X136.7 Y131.2
G0 X136.9 Y131.2
G1 F1500 E10.05906
G1 F1200 X145.7 Y131.2 E10.35175
G1 X145.7 Y122.4 E10.64444
G1 X136.9 Y122.4 E10.93713
G1 X136.9 Y131.2 E11.22982
G1 F1500 E4.72982
G0 F6000 X136.7 Y131.2
G0 X135.428 Y131.328
G0 X126.372 Y131.328
G0 X126.5 Y131.2
G1 F1500 E11.22982
G1 F1200 X135.3 Y131.2 E11.52251
G1 X135.3 Y122.4 E11.8152
G1 X126.5 Y122.4 E12.10789
G1 X126.5 Y131.2 E12.40058
G1 F1500 E5.90058
G0 F6000 X126.3 Y131.2
G0 X126.3 Y121.9
G0 X126.5 Y121.9
G1 F1500 E12.40058
G1 F1200 X135.3 Y121.9 E12.69326
G1 X135.3 Y113.1 E12.98595
G1 X126.5 Y113.1 E13.27864
G1 X126.5 Y121.9 E13.57133
G1 F1500 E7.07133
G0 F6000 X126.3 Y121.9
G0 X117.072 Y122.028
G0 X117.2 Y121.9
G1 F1500 E13.57133
G1 F1200 X126 Y121.9 E13.86402
G1 X126 Y113.1 E14.15671
G1 X117.2 Y113.1 E14.4494
G1 X117.2 Y121.9 E14.74209
G0 F6000 X116.7 Y121.9
G1 F1200 X116.7 Y113.1 E15.03478
G1 X107.9 Y113.1 E15.32747
G1 X107.9 Y121.9 E15.62016
G1 X116.7 Y121.9 E15.91285
G1 F1500 E9.41285
G0 F6000 X116.9 Y121.9
G0 X107.772 Y122.028
G0 X107.4 Y121.9
G1 F1500 E15.91285
G1 F1200 X107.4 Y113.1 E16.20554
G1 X98.6 Y113.1 E16.49822
G1 X98.6 Y121.9 E16.79091
G1 X107.4 Y121.9 E17.0836
G1 F1500 E10.5836
G0 F6000 X107.6 Y121.9
G0 X98.472 Y122.028
G0 X98.1 Y121.9
G1 F1500 E17.0836
G1 F1200 X98.1 Y113.1 E17.37629
G1 X89.3 Y113.1 E17.66898
G1 X89.3 Y121.9 E17.96167
G1 X98.1 Y121.9 E18.25436
G1 F1500 E11.75436
G0 F6000 X98.3 Y121.9
G0 X98.3 Y131.2
G0 X98.1 Y131.2
G1 F1500 E18.25436
G1 F1200 X98.1 Y122.4 E18.54705
G1 X89.3 Y122.4 E18.83974
G1 X89.3 Y131.2 E19.13243
G1 X98.1 Y131.2 E19.42512
G1 F1500 E12.92512
G0 F6000 X98.3 Y131.2
G0 X107.528 Y131.328
G0 X107.4 Y131.2
G1 F1500 E19.42512
G1 F1200 X107.4 Y122.4 E19.71781
G1 X98.6 Y122.4 E20.01049
G1 X98.6 Y131.2 E20.30318
G1 X107.4 Y131.2 E20.59587
G1 F1500 E14.09587
G0 F6000 X107.6 Y131.2
G0 X116.828 Y131.328
G0 X116.7 Y131.2
G1 F1500 E20.59587
G1 F1200 X116.7 Y122.4 E20.88856
G1 X107.9 Y122.4 E21.18125
G1 X107.9 Y131.2 E21.47394
G1 X116.7 Y131.2 E21.76663
G0 F6000 X117.2 Y131.2
G1 F1200 X126 Y131.2 E22.05932
G1 X126 Y122.4 E22.35201
G1 X117.2 Y122.4 E22.6447
G1 X117.2 Y131.2 E22.93739
G1 F1500 E16.43739
G0 F6000 X117 Y131.2
G0 X145.839 Y131.339
G0 X146.009 Y131.509
G1 F1500 E22.93739
G1 F1200 X88.991 Y131.509 E24.83381
G1 X88.991 Y103.491 E25.7657
G1 X146.009 Y103.491 E27.66212
G1 X146.009 Y131.509 E28.594
G0 F6000 X145.839 Y131.339
G0 X136.772 Y131.328
G0 X136.39 Y130.719
G0 X136.11 Y130.719
;TYPE:SKIN
G1 F1200 X136.09 Y130.719 E28.59467
G1 X136.09 Y104.281 E29.474
G1 X136.11 Y104.281 E29.47467
G1 X136.11 Y130.719 E30.354
G0 F6000 X136.39 Y130.719
G0 X135.882 Y130.927
G0 X135.518 Y122.224
G0 X135.443 Y122.149
;TYPE:SKIN
G1 F1200 X135.16 Y122.149 E30.35766
G1 X126.675 Y122.149 E30.46761
G1 X126.32 Y122.078 E30.4723
G1 X126.179 Y122.219 E30.47488
G1 X126.249 Y123.138 E30.48683
G1 X126.249 Y131.058 E30.58945
G1 X126.207 Y131.299 E30.59262
G0 F6000 X126.241 Y131.309
G0 X126.128 Y122.272
G0 X125.826 Y122.149
G1 F1200 X125.543 Y122.149 E30.5962
G1 X117.34 Y122.149 E30.7
G1 X117.003 Y122.095 E30.70431
G1 X116.949 Y120.909 E30.71934
G1 X116.949 Y113.272 E30.81597
G1 X116.879 Y112.92 E30.82051
G1 X115.96 Y112.849 E30.83217
G1 X108.04 Y112.849 E30.93239
G1 X107.703 Y112.794 E30.93671
G1 X107.649 Y111.609 E30.95172
G1 X107.649 Y103.972 E31.04835
G1 X107.675 Y103.715 E31.05162
G0 F6000 X107.625 Y103.691
G0 X107.528 Y112.728
G0 X107.399 Y112.773
G1 F1200 X107.55 Y112.924 E31.05517
G0 F6000 X107.649 Y113.023
G1 F1200 X107.649 Y113.306 E31.05879
G1 X107.649 Y121.792 E31.16718
G1 X107.686 Y122.111 E31.17128
G1 X109.421 Y122.149 E31.19345
G1 X116.775 Y122.149 E31.28739
G0 F6000 X116.949 Y122.323
G1 F1200 X116.949 Y122.606 E31.291
G1 X116.949 Y131.091 E31.39937
G1 X116.891 Y131.316 E31.40234
G0 F6000 X116.908 Y131.309
G0 X107.772 Y131.328
G0 X107.649 Y131.125
G1 F1200 X107.649 Y130.842 E31.4059
G1 X107.649 Y122.357 E31.51279
G1 X107.442 Y122.149 E31.51649
G1 X98.673 Y122.149 E31.62696
G1 X98.37 Y122.128 E31.63078
G1 X98.349 Y118.996 E31.67024
G1 X98.349 Y113.057 E31.74505
G1 X98.141 Y112.849 E31.74876
G1 X89.373 Y112.849 E31.85921
G0 F6000 X89.298 Y112.8
G0 X94.361 Y112.761
G0 X98.3 Y112.699
G0 X98.386 Y112.811
G1 F1200 X98.706 Y112.848 E31.8635
G1 X107.192 Y112.848 E31.97636
G0 F6000 X107.268 Y112.9
G0 X98.472 Y112.728
G0 X98.349 Y112.491
G1 F1200 X98.349 Y112.208 E31.98003
G1 X98.358 Y103.732 E32.09008
G0 F6000 X98.291 Y103.691
G0 X98.228 Y122.028
G0 X98.032 Y122.074
G1 F1200 X98.183 Y122.224 E32.09362
G0 F6000 X98.35 Y122.391
G1 F1200 X98.35 Y122.674 E32.09729
G1 X98.35 Y131.159 E32.20733
G0 F6000 X98.4 Y131.234
G0 X98.228 Y122.272
G0 X97.9 Y122.2
G0 X97.9 Y122.224
G1 F1200 X97.749 Y122.074 E32.21087
G0 F6000 X97.617 Y122.224
G1 F1200 X97.466 Y122.074 E32.21441
G0 F6000 X97.259 Y122.149
G1 F1200 X96.976 Y122.149 E32.2181
G1 X89.339 Y122.149 E32.3176
G1 F1500 E25.8176
G0 F6000 X89.264 Y122.1
G0 X98.228 Y122.028
G0 X98.472 Y112.972
G0 X116.828 Y112.728
G0 X116.874 Y112.632
G1 F1500 E32.3176
G1 F1200 X117.167 Y112.924 E32.32448
G0 F6000 X117.3 Y112.775
G1 F1200 X117.45 Y112.924 E32.32799
G0 F6000 X117.583 Y112.775
G1 F1200 X117.733 Y112.924 E32.33151
G0 F6000 X117.866 Y112.775
G1 F1200 X118.016 Y112.924 E32.33502
G0 F6000 X118.149 Y112.775
G1 F1200 X118.298 Y112.924 E32.33853
G0 F6000 X118.431 Y112.775
G1 F1200 X118.581 Y112.924 E32.34204
G0 F6000 X118.714 Y112.775
G1 F1200 X118.864 Y112.924 E32.34556
G0 F6000 X118.997 Y112.775
G1 F1200 X119.147 Y112.924 E32.34908
G0 F6000 X119.28 Y112.775
G1 F1200 X119.43 Y112.924 E32.35259
G0 F6000 X119.563 Y112.775
G1 F1200 X119.713 Y112.924 E32.35611
G0 F6000 X119.846 Y112.775
G1 F1200 X119.996 Y112.924 E32.35963
G0 F6000 X120.128 Y112.775
G1 F1200 X120.278 Y112.924 E32.36314
G0 F6000 X120.411 Y112.775
G1 F1200 X120.561 Y112.924 E32.36666
G0 F6000 X120.694 Y112.775
G1 F1200 X120.844 Y112.924 E32.37017
G0 F6000 X120.977 Y112.775
G1 F1200 X121.127 Y112.924 E32.37369
G0 F6000 X121.26 Y112.775
G1 F1200 X121.41 Y112.924 E32.37721
G0 F6000 X121.543 Y112.775
G1 F1200 X121.693 Y112.924 E32.38072
G0 F6000 X121.826 Y112.775
G1 F1200 X121.975 Y112.924 E32.38423
G0 F6000 X122.108 Y112.775
G1 F1200 X122.258 Y112.924 E32.38774
G0 F6000 X122.391 Y112.775
G1 F1200 X122.541 Y112.924 E32.39126
G0 F6000 X122.674 Y112.775
G1 F1200 X122.824 Y112.924 E32.39477
G0 F6000 X122.957 Y112.775
G1 F1200 X123.107 Y112.924 E32.39829
G0 F6000 X123.24 Y112.775
G1 F1200 X123.39 Y112.924 E32.40181
G0 F6000 X123.523 Y112.775
G1 F1200 X123.672 Y112.924 E32.40531
G0 F6000 X123.805 Y112.775
G1 F1200 X123.955 Y112.924 E32.40883
G0 F6000 X124.088 Y112.775
G1 F1200 X124.238 Y112.924 E32.41234
G0 F6000 X124.371 Y112.775
G1 F1200 X124.521 Y112.924 E32.41586
G0 F6000 X124.654 Y112.775
G1 F1200 X124.804 Y112.924 E32.41937
G0 F6000 X124.937 Y112.775
G1 F1200 X125.087 Y112.924 E32.42289
G0 F6000 X125.22 Y112.775
G1 F1200 X125.37 Y112.924 E32.42641
G0 F6000 X125.502 Y112.775
G1 F1200 X125.652 Y112.924 E32.42992
G0 F6000 X125.785 Y112.775
G1 F1200 X125.935 Y112.924 E32.43344
G0 F6000 X126.068 Y112.775
G1 F1200 X126.324 Y113.031 E32.43946
G0 F6000 X126.249 Y113.238
G1 F1200 X126.249 Y113.521 E32.44313
G1 X126.249 Y121.724 E32.54965
G0 F6000 X126.3 Y121.799
G0 X126.372 Y112.972
G0 X126.501 Y112.924
G1 F1200 X126.351 Y112.775 E32.55317
G0 F6000 X126.249 Y112.673
G1 F1200 X126.249 Y112.39 E32.55677
G1 X126.249 Y103.905 E32.6647
G1 X126.308 Y103.681 E32.66764
G0 F6000 X126.293 Y103.691
G0 X126.372 Y112.728
G0 X126.634 Y112.8
G0 X126.634 Y112.775
G1 F1200 X126.784 Y112.924 E32.67116
G0 F6000 X126.917 Y112.775
G1 F1200 X127.067 Y112.924 E32.67467
G0 F6000 X127.2 Y112.775
G1 F1200 X127.349 Y112.924 E32.67818
G0 F6000 X127.482 Y112.775
G1 F1200 X127.632 Y112.924 E32.6817
G0 F6000 X127.765 Y112.775
G1 F1200 X127.915 Y112.924 E32.68521
G0 F6000 X128.048 Y112.775
G1 F1200 X128.198 Y112.924 E32.68873
G0 F6000 X128.331 Y112.775
G1 F1200 X128.481 Y112.924 E32.69224
G0 F6000 X128.614 Y112.775
G1 F1200 X128.764 Y112.924 E32.69576
G0 F6000 X128.897 Y112.775
G1 F1200 X129.046 Y112.924 E32.69926
G0 F6000 X129.179 Y112.775
G1 F1200 X129.329 Y112.924 E32.70278
G0 F6000 X129.462 Y112.775
G1 F1200 X129.612 Y112.924 E32.7063
G0 F6000 X129.745 Y112.775
G1 F1200 X129.895 Y112.924 E32.70981
G0 F6000 X130.028 Y112.775
G1 F1200 X130.178 Y112.924 E32.71333
G0 F6000 X130.311 Y112.775
G1 F1200 X130.461 Y112.924 E32.71684
G0 F6000 X130.594 Y112.775
G1 F1200 X130.744 Y112.924 E32.72036
G0 F6000 X130.876 Y112.775
G1 F1200 X131.026 Y112.924 E32.72388
G0 F6000 X131.159 Y112.775
G1 F1200 X131.309 Y112.924 E32.72739
G0 F6000 X131.442 Y112.775
G1 F1200 X131.592 Y112.924 E32.73091
G0 F6000 X131.725 Y112.775
G1 F1200 X131.875 Y112.924 E32.73442
G0 F6000 X132.008 Y112.775
G1 F1200 X132.158 Y112.924 E32.73794
G0 F6000 X132.291 Y112.775
G1 F1200 X132.441 Y112.924 E32.74146
G0 F6000 X132.574 Y112.775
G1 F1200 X132.723 Y112.924 E32.74496
G0 F6000 X132.856 Y112.775
G1 F1200 X133.006 Y112.924 E32.74848
G0 F6000 X133.139 Y112.775
G1 F1200 X133.289 Y112.924 E32.75199
G0 F6000 X133.422 Y112.775
G1 F1200 X133.572 Y112.924 E32.75551
G0 F6000 X133.705 Y112.775
G1 F1200 X133.855 Y112.924 E32.75902
G0 F6000 X133.988 Y112.775
G1 F1200 X134.138 Y112.924 E32.76254
G0 F6000 X134.271 Y112.775
G1 F1200 X134.42 Y112.924 E32.76604
G0 F6000 X134.553 Y112.775
G1 F1200 X134.703 Y112.924 E32.76956
G0 F6000 X134.836 Y112.775
G1 F1200 X134.986 Y112.924 E32.77308
G0 F6000 X135.119 Y112.775
G1 F1200 X135.269 Y112.924 E32.77659
G0 F6000 X135.402 Y112.775
G1 F1200 X135.539 Y112.912 E32.77981
G0 F6000 X135.882 Y104.073
G0 X136.318 Y104.073
G0 X136.326 Y111.175
G0 X136.816 Y112.8
G0 X136.816 Y112.775
G1 F1200 X136.966 Y112.924 E32.78333
G0 F6000 X137.099 Y112.775
G1 F1200 X137.249 Y112.924 E32.78685
G0 F6000 X137.382 Y112.775
G1 F1200 X137.532 Y112.924 E32.79036
G0 F6000 X137.665 Y112.775
G1 F1200 X137.815 Y112.924 E32.79388
G0 F6000 X137.948 Y112.775
G1 F1200 X138.097 Y112.924 E32.79738
G0 F6000 X138.23 Y112.775
G1 F1200 X138.38 Y112.924 E32.8009
G0 F6000 X138.513 Y112.775
G1 F1200 X138.663 Y112.924 E32.80442
G0 F6000 X138.796 Y112.775
G1 F1200 X138.946 Y112.924 E32.80793
G0 F6000 X139.079 Y112.775
G1 F1200 X139.229 Y112.924 E32.81145
G0 F6000 X139.362 Y112.775
G1 F1200 X139.512 Y112.924 E32.81496
G0 F6000 X139.645 Y112.775
G1 F1200 X139.795 Y112.924 E32.81848
G0 F6000 X139.927 Y112.775
G1 F1200 X140.077 Y112.924 E32.822
G0 F6000 X140.21 Y112.775
G1 F1200 X140.36 Y112.924 E32.82551
G0 F6000 X140.493 Y112.775
G1 F1200 X140.643 Y112.924 E32.82903
G0 F6000 X140.776 Y112.775
G1 F1200 X140.926 Y112.924 E32.83254
G0 F6000 X141.059 Y112.775
G1 F1200 X141.209 Y112.924 E32.83606
G0 F6000 X141.342 Y112.775
G1 F1200 X141.492 Y112.924 E32.83958
G0 F6000 X141.625 Y112.775
G1 F1200 X141.774 Y112.924 E32.84308
G0 F6000 X141.907 Y112.775
G1 F1200 X142.057 Y112.924 E32.8466
G0 F6000 X142.19 Y112.775
G1 F1200 X142.34 Y112.924 E32.85011
G0 F6000 X142.473 Y112.775
G1 F1200 X142.623 Y112.924 E32.85363
G0 F6000 X142.756 Y112.775
G1 F1200 X142.906 Y112.924 E32.85714
G0 F6000 X143.039 Y112.775
G1 F1200 X143.189 Y112.924 E32.86066
G0 F6000 X143.322 Y112.775
G1 F1200 X143.471 Y112.924 E32.86416
G0 F6000 X143.604 Y112.775
G1 F1200 X143.754 Y112.924 E32.86768
G0 F6000 X143.887 Y112.775
G1 F1200 X144.037 Y112.924 E32.8712
G0 F6000 X144.17 Y112.775
G1 F1200 X144.32 Y112.924 E32.87471
G0 F6000 X144.453 Y112.775
G1 F1200 X144.603 Y112.924 E32.87823
G0 F6000 X144.736 Y112.775
G1 F1200 X144.886 Y112.924 E32.88174
G0 F6000 X145.019 Y112.775
G1 F1200 X145.169 Y112.924 E32.88526
G0 F6000 X145.301 Y112.775
G1 F1200 X145.451 Y112.924 E32.88878
G0 F6000 X145.584 Y112.775
G1 F1200 X145.734 Y112.924 E32.89229
G0 F6000 X145.734 Y112.9
G0 X145.828 Y122.028
G0 X145.55 Y122.1
G0 X145.625 Y122.149
G1 F1200 X145.342 Y122.149 E32.89591
G1 X136.857 Y122.149 E33.00429
G1 F1500 E26.50429
G0 F6000 X136.73 Y122.07
G0 X136.318 Y130.927
G0 X135.882 Y130.927
G0 X135.428 Y122.028
G0 X126.372 Y122.028
G0 X126.128 Y112.972
G0 X117.072 Y112.728
G0 X116.949 Y112.424
G1 F1500 E33.00429
G1 F1200 X116.949 Y112.141 E33.00796
G1 X116.949 Y103.938 E33.1145
G0 F6000 X117.024 Y103.731
G1 F1200 X116.959 Y103.666 E33.11603
;MESH:NONMESH
G0 F300 X116.959 Y103.666 Z0.4
G0 F6000 X116.959 Y103.691
G0 X107.772 Y103.672
G0 X107.528 Y112.728
G0 X98.472 Y112.728
G0 X98.1 Y112.6
;TIME_ELAPSED:89.746941
;LAYER:1
M106 S85
;TYPE:WALL-OUTER
;MESH:player-mat-parts_-_grid_big.stl
G1 F1350 X98.1 Y103.8 E33.40871
G1 X89.3 Y103.8 E33.7014
G1 X89.3 Y112.6 E33.99409
G1 X98.1 Y112.6 E34.28678
G1 F1500 E27.78678
G0 F7500 X98.3 Y112.6
G0 X107.528 Y112.728
G0 X107.4 Y112.6
G1 F1500 E34.28678
G1 F1350 X107.4 Y103.8 E34.57947
G1 X98.6 Y103.8 E34.87216
G1 X98.6 Y112.6 E35.16485
G1 X107.4 Y112.6 E35.45754
G1 F1500 E28.95754
G0 F7500 X107.6 Y112.6
G0 X116.828 Y112.728
G0 X116.7 Y112.6
G1 F1500 E35.45754
G1 F1350 X116.7 Y103.8 E35.75023
G1 X107.9 Y103.8 E36.04292
G1 X107.9 Y112.6 E36.33561
G1 X116.7 Y112.6 E36.6283
G0 F7500 X117.2 Y112.6
G1 F1350 X126 Y112.6 E36.92098
G1 X126 Y103.8 E37.21367
G1 X117.2 Y103.8 E37.50636
G1 X117.2 Y112.6 E37.79905
G0 F7500 X117 Y112.6
G0 X126.128 Y112.728
G0 X126.372 Y103.672
G0 X135.428 Y103.672
G0 X135.7 Y103.874
;TYPE:WALL-INNER
G1 F1350 X136.5 Y103.874 E37.82566
G1 X136.5 Y131.126 E38.73207
G1 X135.7 Y131.126 E38.75867
G1 X135.7 Y103.874 E39.66508
G1 F1500 E33.16508
G0 F7500 X135.428 Y112.728
G0 X126.372 Y112.728
G0 X126.5 Y112.6
;TYPE:WALL-OUTER
G1 F1500 E39.66508
G1 F1350 X135.3 Y112.6 E39.95777
G1 X135.3 Y103.8 E40.25046
G1 X126.5 Y103.8 E40.54315
