;FLAVOR:Marlin
;TIME:14696
;Filament used: 9.19943m
;Layer height: 0.2
;MINX:2.745
;MINY:36.363
;MINZ:0.2
;MAXX:225.015
;MAXY:198.636
;MAXZ:3
;Generated with Cura_SteamEngine master
M140 S60
M105
M190 S60
M104 S200
M105
M109 S200
M82 ;absolute extrusion mode
; Ender 3 Custom Start G-code
G92 E0 ; Reset Extruder
G28 ; Home all axes
G1 Z2.0 F3000 ; Move Z Axis up little to prevent scratching of Heat Bed
G1 X0.1 Y20 Z0.3 F5000.0 ; Move to start position
G1 X0.1 Y200.0 Z0.3 F1500.0 E15 ; Draw the first line
G1 X0.4 Y200.0 Z0.3 F5000.0 ; Move to side a little
G1 X0.4 Y20 Z0.3 F1500.0 E30 ; Draw the second line
G92 E0 ; Reset Extruder
G1 Z2.0 F3000 ; Move Z Axis up little to prevent scratching of Heat Bed
G1 X5 Y20 Z0.3 F5000.0 ; Move over to prevent blob squish
G92 E0
G92 E0
G1 F1500 E-6.5
;LAYER_COUNT:15
;LAYER:0
M107
;MESH:player-mat-parts_-_body-no-wall_EDITED.stl
G0 F6000 X195.362 Y121.042 Z0.2
;TYPE:WALL-INNER
G1 F1500 E0
G1 F1200 X195.676 Y121.241 E0.01236
G1 X196.092 Y121.378 E0.02693
G1 X196.353 Y121.4 E0.03564
G1 X213.417 Y121.4 E0.60319
G1 X213.867 Y121.33 E0.61834
G1 X214.352 Y121.078 E0.63652
G1 X214.716 Y120.689 E0.65424
G1 X214.938 Y120.177 E0.6728
G1 X214.979 Y119.829 E0.68445
G1 X214.979 Y94.913 E1.51316
G1 X214.914 Y94.533 E1.52599
G1 X214.744 Y94.156 E1.53974
G1 X214.367 Y93.737 E1.55849
G1 X214.138 Y93.588 E1.56758
G1 X213.813 Y93.458 E1.57922
G1 X213.417 Y93.4 E1.59253
G1 X196.342 Y93.4 E2.16045
G1 X195.993 Y93.446 E2.17215
G1 X195.597 Y93.599 E2.18627
G1 X195.18 Y93.933 E2.20404
G1 X194.958 Y94.259 E2.21716
G1 X194.809 Y94.674 E2.23183
G1 X194.78 Y94.923 E2.24017
G1 X194.779 Y119.841 E3.06894
G1 X194.85 Y120.287 E3.08396
G1 X195.024 Y120.659 E3.09762
G1 X195.362 Y121.042 E3.11461
G0 F6000 X195.625 Y120.735
;TYPE:WALL-OUTER
G1 F1200 X195.848 Y120.877 E3.1234
G1 X196.172 Y120.983 E3.13474
G1 X196.37 Y121 E3.14135
G1 X213.386 Y121 E3.70731
G1 X213.741 Y120.945 E3.71926
G1 X214.107 Y120.755 E3.73297
G1 X214.377 Y120.466 E3.74613
G1 X214.548 Y120.072 E3.76041
G1 X214.579 Y119.806 E3.76932
G1 X214.579 Y94.947 E4.59613
G1 X214.528 Y94.651 E4.60612
G1 X214.405 Y94.377 E4.61611
G1 X214.105 Y94.044 E4.63102
G1 X213.953 Y93.945 E4.63705
G1 X213.708 Y93.847 E4.64583
G1 X213.388 Y93.8 E4.65659
G1 X196.368 Y93.8 E5.22267
G1 X196.093 Y93.836 E5.2319
G1 X195.799 Y93.95 E5.24239
G1 X195.477 Y94.208 E5.25611
G1 X195.317 Y94.442 E5.26554
G1 X195.201 Y94.766 E5.27698
G1 X195.18 Y94.946 E5.28301
G1 X195.179 Y119.809 E6.10996
G1 X195.236 Y120.168 E6.12205
G1 X195.362 Y120.437 E6.13193
G1 X195.625 Y120.735 E6.14515
G0 F6000 X195.34 Y121.069
G1 F1500 E-0.35485
G0 F6000 X194.863 Y120.765
G0 X196.065 Y119.915
G0 X129.449 Y89.827
G0 X129.508 Y91.29
G0 X71.544 Y90.897
G0 X70.881 Y89.893
G0 X69.49 Y91.062
;TYPE:WALL-INNER
G1 F1500 E6.14515
G1 F1200 X69.866 Y90.923 E6.15848
G1 X70.222 Y90.672 E6.17297
G1 X70.485 Y90.352 E6.18674
G1 X70.663 Y89.971 E6.20073
G1 X70.683 Y89.84 E6.20514
G1 X70.729 Y89.538 E6.2153
G1 X70.729 Y45.454 E7.68154
G1 X70.688 Y45.137 E7.69217
G1 X70.688 Y45.135 E7.69224
G1 X70.688 Y45.134 E7.69227
G1 X70.684 Y45.107 E7.69318
G1 X70.679 Y45.095 E7.69361
G1 X70.469 Y44.62 E7.71088
G1 X70.221 Y44.327 E7.72365
G1 X69.887 Y44.088 E7.73731
G1 X69.521 Y43.947 E7.75036
G1 X69.162 Y43.9 E7.7624
G1 X12.346 Y43.898 E9.65211
G1 X12.043 Y43.928 E9.66223
G1 X11.72 Y44.033 E9.67353
G1 X11.427 Y44.203 E9.6848
G1 X11.179 Y44.429 E9.69596
G1 X10.983 Y44.695 E9.70695
G1 X10.847 Y45.002 E9.71811
G1 X10.776 Y45.329 E9.72924
G1 X10.779 Y89.532 E11.19944
G1 X10.823 Y89.887 E11.21134
G1 X10.979 Y90.282 E11.22546
G1 X11.27 Y90.659 E11.2413
G1 X11.718 Y90.962 E11.25929
G1 X12.098 Y91.078 E11.27251
G1 X12.353 Y91.1 E11.28102
G1 X69.162 Y91.1 E13.1705
G1 X69.49 Y91.062 E13.18148
G0 F6000 X69.396 Y90.67
;TYPE:WALL-OUTER
G1 F1200 X69.678 Y90.566 E13.19147
G1 X69.947 Y90.376 E13.20243
G1 X70.144 Y90.137 E13.21273
G1 X70.276 Y89.854 E13.22312
G1 X70.329 Y89.508 E13.23476
G1 X70.329 Y45.48 E14.69914
G1 X70.295 Y45.216 E14.70799
G1 X70.126 Y44.834 E14.72188
G1 X69.948 Y44.623 E14.73106
G1 X69.696 Y44.443 E14.74136
G1 X69.422 Y44.337 E14.75114
G1 X69.136 Y44.3 E14.76073
G1 X12.366 Y44.298 E16.6489
G1 X12.125 Y44.322 E16.65696
G1 X11.884 Y44.4 E16.66539
G1 X11.665 Y44.527 E16.67381
G1 X11.478 Y44.698 E16.68223
G1 X11.331 Y44.897 E16.69046
G1 X11.229 Y45.127 E16.69883
G1 X11.176 Y45.372 E16.70717
G1 X11.179 Y89.507 E18.1751
G1 X11.214 Y89.788 E18.18452
G1 X11.33 Y90.083 E18.19507
G1 X11.547 Y90.364 E18.20687
G1 X11.892 Y90.597 E18.22072
G1 X12.174 Y90.683 E18.23053
G1 X12.37 Y90.7 E18.23707
G1 X69.139 Y90.7 E20.12521
G1 X69.396 Y90.67 E20.13382
G0 F6000 X69.498 Y91.097
G1 F1500 E13.63382
G0 F6000 X70.881 Y89.893
G0 X71.83 Y91.096
G0 X130.279 Y91.031
G0 X131.123 Y89.908
G0 X131.667 Y90.582
G0 X132.836 Y91.1
;TYPE:WALL-INNER
G1 F1500 E20.13382
G1 F1200 X215.412 Y91.1 E22.88031
G1 X215.77 Y91.054 E22.89231
G1 X216.134 Y90.917 E22.90525
G1 X216.533 Y90.613 E22.92193
G1 X216.755 Y90.322 E22.93411
G1 X216.905 Y89.989 E22.94625
G1 X216.979 Y89.54 E22.96139
G1 X216.982 Y45.465 E24.42733
G1 X216.95 Y45.161 E24.4375
G1 X216.844 Y44.839 E24.44877
G1 X216.678 Y44.55 E24.45986
G1 X216.453 Y44.303 E24.47097
G1 X216.184 Y44.104 E24.4821
G1 X215.877 Y43.968 E24.49327
G1 X215.55 Y43.897 E24.5044
G1 X201.977 Y43.9 E24.95584
G1 X132.844 Y43.9 E27.25521
G1 X132.519 Y43.938 E27.26609
G1 X132.166 Y44.064 E27.27856
G1 X131.789 Y44.322 E27.29375
G1 X131.49 Y44.696 E27.30968
G1 X131.332 Y45.078 E27.32343
G1 X131.329 Y45.087 E27.32374
G1 X131.317 Y45.184 E27.32699
G1 X131.279 Y45.468 E27.33652
G1 X131.279 Y89.524 E28.80183
G1 X131.279 Y89.541 E28.8024
G1 X131.305 Y89.748 E28.80934
G1 X131.324 Y89.887 E28.814
G1 X131.332 Y89.91 E28.81481
G1 X131.455 Y90.238 E28.82646
G1 X131.705 Y90.593 E28.84091
G1 X132.034 Y90.863 E28.85506
G1 X132.371 Y91.021 E28.86744
G1 X132.836 Y91.1 E28.88313
G0 F6000 X132.87 Y90.7
;TYPE:WALL-OUTER
G1 F1200 X215.386 Y90.7 E31.62762
G1 X215.673 Y90.663 E31.63725
G1 X215.938 Y90.563 E31.64667
G1 X216.248 Y90.327 E31.65963
G1 X216.409 Y90.116 E31.66845
G1 X216.519 Y89.872 E31.67736
G1 X216.579 Y89.507 E31.68966
G1 X216.582 Y45.486 E33.1538
G1 X216.557 Y45.245 E33.16186
G1 X216.477 Y45.003 E33.17034
G1 X216.353 Y44.787 E33.17862
G1 X216.184 Y44.601 E33.18698
G1 X215.982 Y44.452 E33.19533
G1 X215.752 Y44.35 E33.2037
G1 X215.507 Y44.297 E33.21204
G1 X201.977 Y44.3 E33.66204
G1 X132.867 Y44.3 E35.96065
G1 X132.61 Y44.33 E35.96926
G1 X132.349 Y44.423 E35.97847
G1 X132.064 Y44.618 E35.98996
G1 X131.838 Y44.901 E36.00201
G1 X131.719 Y45.191 E36.01243
G1 X131.679 Y45.494 E36.0226
G1 X131.679 Y89.515 E37.48674
G1 X131.715 Y89.79 E37.49597
G1 X131.812 Y90.05 E37.5052
G1 X132.001 Y90.318 E37.5161
G1 X132.249 Y90.522 E37.52678
G1 X132.492 Y90.636 E37.53571
G1 X132.87 Y90.7 E37.54846
G0 F6000 X132.834 Y91.138
G0 X131.303 Y90.319
G0 X131.123 Y89.908
G0 X130.851 Y90.247
G0 X129.49 Y91.099
;TYPE:WALL-INNER
G1 F1200 X129.833 Y91.036 E37.56006
G1 X130.192 Y90.882 E37.57305
G1 X130.505 Y90.641 E37.58619
G1 X130.776 Y90.291 E37.60092
G1 X130.947 Y89.817 E37.61768
G1 X130.955 Y89.794 E37.61849
G1 X130.979 Y89.524 E37.62606
G1 X130.979 Y45.469 E38.72777
G1 X130.978 Y45.454 E38.72827
G1 X130.94 Y45.135 E38.73748
G1 X130.937 Y45.126 E38.73779
G1 X130.803 Y44.761 E38.75073
G1 X130.599 Y44.459 E38.76285
G1 X130.234 Y44.143 E38.77891
G1 X129.792 Y43.951 E38.79493
G1 X129.408 Y43.9 E38.80782
G1 X72.552 Y43.9 E40.69886
G1 X72.355 Y43.924 E40.70546
G1 X71.991 Y44.027 E40.71804
G1 X71.618 Y44.254 E40.73256
G1 X71.311 Y44.586 E40.7476
G1 X71.083 Y45.083 E40.76579
G1 X71.083 Y45.086 E40.76589
G1 X71.073 Y45.148 E40.76798
G1 X71.072 Y45.162 E40.76844
G1 X71.029 Y45.457 E40.77836
G1 X71.029 Y89.538 E41.88071
G1 X71.029 Y89.549 E41.88103
G1 X71.08 Y89.851 E41.88997
G1 X71.107 Y90.005 E41.89517
G1 X71.233 Y90.29 E41.90553
G1 X71.564 Y90.701 E41.92308
G1 X71.971 Y90.964 E41.9392
G1 X72.376 Y91.081 E41.95322
G1 X72.605 Y91.1 E41.96087
G1 X129.49 Y91.099 E43.85287
G0 F6000 X129.454 Y90.699
;TYPE:WALL-OUTER
G1 F1200 X129.716 Y90.651 E43.86173
G1 X129.988 Y90.534 E43.87158
G1 X130.22 Y90.355 E43.88132
G1 X130.421 Y90.096 E43.89223
G1 X130.561 Y89.707 E43.90598
G1 X130.579 Y89.506 E43.91269
G1 X130.578 Y45.478 E45.37707
G1 X130.548 Y45.229 E45.38541
G1 X130.444 Y44.944 E45.3955
G1 X130.297 Y44.727 E45.40422
G1 X130.018 Y44.485 E45.4165
G1 X129.684 Y44.34 E45.42861
G1 X129.382 Y44.3 E45.43874
G1 X72.576 Y44.3 E47.32812
G1 X72.434 Y44.317 E47.33287
G1 X72.153 Y44.397 E47.34259
G1 X71.874 Y44.567 E47.35346
G1 X71.648 Y44.811 E47.36452
G1 X71.471 Y45.197 E47.37864
G1 X71.429 Y45.486 E47.38836
G1 X71.429 Y89.515 E48.85277
G1 X71.493 Y89.888 E48.86535
G1 X71.578 Y90.08 E48.87234
G1 X71.835 Y90.4 E48.88599
G1 X72.139 Y90.596 E48.89802
G1 X72.449 Y90.686 E48.90876
G1 X72.621 Y90.7 E48.9145
G1 X129.454 Y90.699 E50.80477
G0 F6000 X129.493 Y91.137
G1 F1500 E44.30477
G0 F6000 X129.398 Y89.835
G0 X129.509 Y116.165
G0 X129.508 Y114.691
G0 X131.372 Y115.143
G0 X131.674 Y115.296
G0 X132.095 Y115.728
G0 X132.244 Y116.036
G0 X132.318 Y116.466
G0 X132.292 Y125.273
G0 X132.114 Y125.745
G0 X131.88 Y126.036
G0 X130.914 Y126.6
;TYPE:WALL-INNER
G1 F1500 E50.80477
G1 F1200 X131.305 Y126.547 E50.81789
G1 X131.71 Y126.372 E50.83257
G1 X131.993 Y126.151 E50.84451
G1 X132.255 Y125.826 E50.85839
G1 X132.451 Y125.31 E50.87675
G1 X132.479 Y125.03 E50.88611
G1 X132.479 Y116.452 E51.17142
G1 X132.399 Y115.986 E51.18714
G1 X132.232 Y115.643 E51.19983
G1 X132.078 Y115.437 E51.20839
G1 X131.765 Y115.162 E51.22224
G1 X131.424 Y114.988 E51.23498
G1 X130.922 Y114.9 E51.25193
G1 X12.34 Y114.901 E55.19598
G1 X12.009 Y114.94 E55.20707
G1 X11.576 Y115.111 E55.22255
G1 X11.223 Y115.389 E55.2375
G1 X10.979 Y115.719 E55.25115
G1 X10.808 Y116.177 E55.26741
G1 X10.779 Y116.47 E55.2772
G1 X10.779 Y125.032 E55.56197
G1 X10.824 Y125.388 E55.57391
G1 X10.958 Y125.744 E55.58656
G1 X11.152 Y126.031 E55.59808
G1 X11.401 Y126.271 E55.60958
G1 X11.834 Y126.511 E55.62605
G1 X12.288 Y126.599 E55.64143
G1 X130.914 Y126.6 E59.58695
G0 F6000 X130.887 Y126.2
;TYPE:WALL-OUTER
G1 F1200 X131.197 Y126.158 E59.59735
G1 X131.504 Y126.025 E59.60848
G1 X131.711 Y125.864 E59.6172
G1 X131.904 Y125.625 E59.62742
G1 X132.058 Y125.218 E59.64189
G1 X132.079 Y125.01 E59.64885
G1 X132.079 Y116.486 E59.93236
G1 X132.014 Y116.11 E59.94505
G1 X131.889 Y115.852 E59.95458
G1 X131.783 Y115.71 E59.96048
G1 X131.539 Y115.496 E59.97127
G1 X131.296 Y115.372 E59.98034
G1 X130.887 Y115.3 E59.99416
G1 X12.363 Y115.301 E63.93628
G1 X12.107 Y115.331 E63.94485
G1 X11.778 Y115.461 E63.95662
G1 X11.513 Y115.67 E63.96784
G1 X11.334 Y115.912 E63.97786
G1 X11.201 Y116.268 E63.9905
G1 X11.179 Y116.49 E63.99792
G1 X11.179 Y125.007 E64.28119
G1 X11.215 Y125.291 E64.29071
G1 X11.316 Y125.559 E64.30024
G1 X11.46 Y125.772 E64.30879
G1 X11.641 Y125.946 E64.31714
G1 X11.973 Y126.13 E64.32977
G1 X12.327 Y126.199 E64.34176
G1 X130.887 Y126.2 E68.28508
G0 F6000 X130.916 Y126.639
G1 F1500 E61.78508
G0 F6000 X131.357 Y126.732
G0 X130.96 Y125.324
G0 X145.544 Y151.986
G0 X144.088 Y151.963
G0 X144.44 Y189.524
G0 X144.496 Y189.873
G0 X144.863 Y190.741
;TYPE:WALL-INNER
G1 F1500 E68.28508
G1 F1200 X145.295 Y190.996 E68.30177
G1 X145.783 Y191.099 E68.31836
G1 X215.438 Y191.101 E70.63509
G1 X215.718 Y191.071 E70.64446
G1 X216.038 Y190.967 E70.65565
G1 X216.328 Y190.799 E70.6668
G1 X216.576 Y190.577 E70.67787
G1 X216.775 Y190.304 E70.6891
G1 X216.911 Y189.998 E70.70024
G1 X216.982 Y189.671 E70.71137
G1 X216.979 Y151.949 E71.96601
G1 X216.864 Y151.39 E71.98499
G1 X216.649 Y151.022 E71.99917
G1 X216.337 Y150.713 E72.01377
G1 X215.93 Y150.493 E72.02916
G1 X215.427 Y150.4 E72.04617
G1 X145.843 Y150.4 E74.36055
G1 X145.427 Y150.461 E74.37453
G1 X144.99 Y150.665 E74.39057
G1 X144.709 Y150.904 E74.40284
G1 X144.431 Y151.311 E74.41923
G1 X144.314 Y151.652 E74.43122
G1 X144.279 Y151.973 E74.44196
G1 X144.279 Y189.537 E75.69135
G1 X144.356 Y190.01 E75.70729
G1 X144.611 Y190.483 E75.72516
G1 X144.863 Y190.741 E75.73715
G0 F6000 X145.112 Y190.424
;TYPE:WALL-OUTER
G1 F1200 X145.442 Y190.618 E75.74989
G1 X145.825 Y190.699 E75.76291
G1 X215.417 Y190.701 E78.07755
G1 X215.634 Y190.678 E78.0848
G1 X215.874 Y190.6 E78.0932
G1 X216.092 Y190.474 E78.10157
G1 X216.278 Y190.307 E78.10989
G1 X216.427 Y190.103 E78.11829
G1 X216.529 Y189.873 E78.12666
G1 X216.582 Y189.628 E78.13499
G1 X216.579 Y151.99 E79.38684
G1 X216.485 Y151.535 E79.40229
G1 X216.33 Y151.269 E79.41253
G1 X216.096 Y151.038 E79.42347
G1 X215.795 Y150.875 E79.43485
G1 X215.39 Y150.8 E79.44855
G1 X145.872 Y150.8 E81.76073
G1 X145.543 Y150.848 E81.77179
G1 X145.208 Y151.005 E81.78409
G1 X145.009 Y151.174 E81.79278
G1 X144.792 Y151.492 E81.80558
G1 X144.707 Y151.74 E81.8143
G1 X144.679 Y151.995 E81.82283
G1 X144.679 Y189.505 E83.07042
G1 X144.74 Y189.879 E83.08303
G1 X144.937 Y190.244 E83.09682
G1 X145.112 Y190.424 E83.10517
G0 F6000 X144.841 Y190.77
G1 F1500 E76.60517
G0 F6000 X144.172 Y190.073
G0 X143.565 Y190.126
G0 X143.281 Y190.307
G0 X141.917 Y191.1
;TYPE:WALL-INNER
G1 F1500 E83.10517
G1 F1200 X142.295 Y191.049 E83.11786
G1 X142.637 Y190.911 E83.13012
G1 X142.925 Y190.715 E83.14171
G1 X143.181 Y190.435 E83.15433
G1 X143.383 Y190.061 E83.16847
G1 X143.479 Y189.546 E83.18589
G1 X143.479 Y151.963 E84.43591
G1 X143.452 Y151.693 E84.44493
G1 X143.334 Y151.331 E84.45759
G1 X143.123 Y150.988 E84.47099
G1 X142.793 Y150.681 E84.48598
G1 X142.456 Y150.505 E84.49862
G1 X142.069 Y150.41 E84.51188
G1 X141.896 Y150.4 E84.51764
G1 X12.331 Y150.4 E88.82699
G1 X11.786 Y150.507 E88.84546
G1 X11.397 Y150.733 E88.86043
G1 X11.096 Y151.036 E88.87463
G1 X10.881 Y151.428 E88.8895
G1 X10.796 Y151.757 E88.9008
G1 X10.779 Y151.978 E88.90818
G1 X10.777 Y189.526 E90.15703
G1 X10.808 Y189.829 E90.16716
G1 X10.91 Y190.155 E90.17852
G1 X11.079 Y190.449 E90.1898
G1 X11.302 Y190.697 E90.20089
G1 X11.575 Y190.896 E90.21213
G1 X11.881 Y191.032 E90.22327
G1 X12.208 Y191.103 E90.2344
G1 X141.917 Y191.1 E94.54853
G0 F6000 X141.89 Y190.7
;TYPE:WALL-OUTER
G1 F1200 X142.192 Y190.659 E94.55867
G1 X142.448 Y190.556 E94.56785
G1 X142.661 Y190.411 E94.57642
G1 X142.852 Y190.202 E94.58584
G1 X143.001 Y189.926 E94.59627
G1 X143.079 Y189.509 E94.61038
G1 X143.079 Y151.983 E95.8585
G1 X143.058 Y151.776 E95.86542
G1 X142.968 Y151.5 E95.87507
G1 X142.811 Y151.244 E95.88506
G1 X142.56 Y151.011 E95.89645
G1 X142.313 Y150.882 E95.90572
G1 X142.009 Y150.807 E95.91613
G1 X141.885 Y150.8 E95.92027
G1 X12.37 Y150.8 E100.22795
G1 X11.929 Y150.887 E100.2429
G1 X11.644 Y151.052 E100.25386
G1 X11.42 Y151.278 E100.26444
G1 X11.256 Y151.577 E100.27578
G1 X11.192 Y151.823 E100.28424
G1 X11.179 Y151.993 E100.28991
G1 X11.177 Y189.505 E101.53756
G1 X11.202 Y189.748 E101.54569
G1 X11.279 Y189.994 E101.55426
G1 X11.405 Y190.213 E101.56266
G1 X11.572 Y190.399 E101.57098
G1 X11.776 Y190.548 E101.57938
G1 X12.006 Y190.65 E101.58775
G1 X12.251 Y190.703 E101.59608
G1 X141.89 Y190.7 E105.9079
G0 F6000 X141.919 Y191.139
G1 F1500 E99.4079
G0 F6000 X143.337 Y190.547
G0 X142.105 Y189.747
G0 X143.338 Y198.635
G0 X143.337 Y197.161
G0 X218.078 Y197.369
;TYPE:WALL-INNER
G1 F1500 E105.9079
G1 F1200 X4.206 Y197.372 E113.02131
G1 X4.007 Y197.372 E113.02793
G1 X4.007 Y197.173 E113.03221
G1 X4.011 Y195.056 E113.10262
G1 X4.009 Y37.629 E118.33866
G1 X43.394 Y37.628 E119.64861
G1 X106.383 Y37.632 E121.74364
G1 X223.553 Y37.627 E125.64073
G1 X223.752 Y37.627 E125.64734
G1 X223.752 Y37.826 E125.65163
G1 X223.749 Y197.173 E130.95153
G1 X223.749 Y197.372 E130.95815
G1 X223.55 Y197.372 E130.96243
G1 X218.078 Y197.369 E131.14443
G0 F6000 X218.078 Y197.769
;TYPE:WALL-OUTER
G1 F1200 X3.921 Y197.772 E138.26732
G1 X3.734 Y197.714 E138.27383
G1 X3.619 Y197.556 E138.28033
G1 X3.607 Y197.481 E138.28286
G1 X3.611 Y195.055 E138.36355
G1 X3.609 Y37.507 E143.60362
G1 X3.687 Y37.325 E143.6102
G1 X3.819 Y37.243 E143.61537
G1 X3.898 Y37.229 E143.61804
G1 X43.394 Y37.228 E144.93168
G1 X106.383 Y37.232 E147.0267
G1 X223.84 Y37.227 E150.93334
G1 X224.059 Y37.311 E150.94114
G1 X224.139 Y37.444 E150.9463
G1 X224.152 Y37.536 E150.94939
