;FLAVOR:Marlin
;TIME:7421
;Filament used: 5.49447m
;Layer height: 0.2
;MINX:74.49
;MINY:59.65
;MINZ:0.2
;MAXX:145.5
;MAXY:160.3
;MAXZ:23
;Generated with Cura_SteamEngine master
M140 S60
M105
M190 S60
M104 S200
M105
M109 S200
M82 ;absolute extrusion mode
; Ender 3 Custom Start G-code
G92 E0 ; Reset Extruder
G28 ; Home all axes
G1 Z2.0 F3000 ; Move Z Axis up little to prevent scratching of Heat Bed
G1 X0.1 Y20 Z0.3 F5000.0 ; Move to start position
G1 X0.1 Y200.0 Z0.3 F1500.0 E15 ; Draw the first line
G1 X0.4 Y200.0 Z0.3 F5000.0 ; Move to side a little
G1 X0.4 Y20 Z0.3 F1500.0 E30 ; Draw the second line
G92 E0 ; Reset Extruder
G1 Z2.0 F3000 ; Move Z Axis up little to prevent scratching of Heat Bed
G1 X5 Y20 Z0.3 F5000.0 ; Move over to prevent blob squish
G92 E0
G92 E0
G1 F1500 E-6.5
;LAYER_COUNT:115
;LAYER:0
M107
G0 F6000 X77.078 Y63.595 Z0.2
;TYPE:SKIRT
G1 F1500 E0
G1 F1200 X77.71 Y62.902 E0.03119
G1 X78.399 Y62.266 E0.06238
G1 X79.14 Y61.691 E0.09358
G1 X79.927 Y61.181 E0.12477
G1 X80.755 Y60.74 E0.15597
G1 X81.617 Y60.371 E0.18716
G1 X82.508 Y60.077 E0.21836
G1 X83.42 Y59.859 E0.24955
G1 X84.347 Y59.721 E0.28072
G1 X85.201 Y59.663 E0.30919
G1 X85.521 Y59.654 E0.31984
G1 X85.83 Y59.65 E0.33012
G1 X133.793 Y59.65 E1.92537
G1 X134.649 Y59.661 E1.95385
G1 X135.585 Y59.715 E1.98503
G1 X136.513 Y59.847 E2.01621
G1 X137.427 Y60.059 E2.04741
G1 X138.319 Y60.348 E2.0786
G1 X139.184 Y60.711 E2.1098
G1 X140.014 Y61.147 E2.14098
G1 X140.805 Y61.652 E2.1722
G1 X141.549 Y62.223 E2.20339
G1 X142.242 Y62.855 E2.23459
G1 X142.879 Y63.543 E2.26577
G1 X143.454 Y64.284 E2.29697
G1 X143.965 Y65.07 E2.32815
G1 X144.407 Y65.898 E2.35937
G1 X144.776 Y66.76 E2.39055
G1 X145.071 Y67.65 E2.42174
G1 X145.289 Y68.562 E2.45292
G1 X145.429 Y69.49 E2.48414
G1 X145.487 Y70.351 E2.51284
G1 X145.496 Y70.671 E2.52349
G1 X145.5 Y70.98 E2.53377
G1 X145.499 Y109.088 E3.80124
G1 X145.488 Y109.825 E3.82576
G1 X145.398 Y111.075 E3.86744
G1 X145.326 Y111.623 E3.88583
G1 X145.075 Y113.381 E3.94489
G1 X144.791 Y115.875 E4.02838
G1 X144.575 Y118.4 E4.11267
G1 X144.431 Y120.918 E4.19655
G1 X144.359 Y123.424 E4.27994
G1 X144.35 Y124.788 E4.3253
G1 X144.349 Y148.715 E5.12112
G1 X144.339 Y149.442 E5.1453
G1 X144.286 Y150.379 E5.17652
G1 X144.154 Y151.307 E5.20769
G1 X143.943 Y152.221 E5.23889
G1 X143.654 Y153.113 E5.27008
G1 X143.291 Y153.978 E5.30128
G1 X142.856 Y154.809 E5.33247
G1 X142.351 Y155.599 E5.36366
G1 X141.781 Y156.344 E5.39486
G1 X141.15 Y157.038 E5.42606
G1 X140.461 Y157.675 E5.45727
G1 X139.721 Y158.251 E5.48846
G1 X138.935 Y158.762 E5.51964
G1 X138.108 Y159.204 E5.55083
G1 X137.246 Y159.574 E5.58203
G1 X136.356 Y159.869 E5.61321
G1 X135.444 Y160.088 E5.64441
G1 X134.517 Y160.228 E5.67559
G1 X133.649 Y160.287 E5.70452
G1 X133.329 Y160.296 E5.71517
G1 X133.02 Y160.3 E5.72545
G1 X86.044 Y160.298 E7.28788
G1 X85.365 Y160.288 E7.31046
G1 X84.429 Y160.234 E7.34165
G1 X83.5 Y160.101 E7.37286
G1 X82.587 Y159.889 E7.40404
G1 X81.694 Y159.6 E7.43525
G1 X80.83 Y159.236 E7.46644
G1 X80 Y158.8 E7.49762
G1 X79.21 Y158.294 E7.52882
G1 X78.466 Y157.723 E7.56002
G1 X77.773 Y157.091 E7.59121
G1 X77.183 Y156.457 E7.62002
G1 X76.601 Y155.722 E7.6512
G1 X76.083 Y154.939 E7.68242
G1 X75.634 Y154.116 E7.71361
G1 X75.257 Y153.257 E7.74481
G1 X74.955 Y152.369 E7.776
G1 X74.729 Y151.459 E7.80719
G1 X74.581 Y150.533 E7.83838
G1 X74.512 Y149.554 E7.87102
G1 X74.504 Y149.248 E7.8812
G1 X74.5 Y148.961 E7.89075
G1 X74.501 Y113.227 E9.07927
G1 X74.507 Y112.784 E9.094
G1 X74.49 Y110.523 E9.16921
G1 X74.505 Y110.098 E9.18335
G1 X74.5 Y109.417 E9.206
G1 X74.501 Y71.159 E10.47847
G1 X74.511 Y70.494 E10.50059
G1 X74.565 Y69.557 E10.5318
G1 X74.699 Y68.629 E10.56299
G1 X74.911 Y67.715 E10.5942
G1 X75.2 Y66.823 E10.62538
G1 X75.565 Y65.959 E10.65658
G1 X76.001 Y65.129 E10.68776
G1 X76.507 Y64.339 E10.71896
G1 X77.078 Y63.595 E10.75016
G0 F6000 X77.472 Y63.749
G1 F1200 X78.102 Y63.077 E10.78079
G1 X78.788 Y62.463 E10.81142
G1 X79.524 Y61.911 E10.84202
G1 X80.306 Y61.424 E10.87266
G1 X81.127 Y61.008 E10.90327
G1 X81.981 Y60.664 E10.93389
G1 X82.861 Y60.395 E10.9645
G1 X83.762 Y60.204 E10.99513
G1 X84.676 Y60.092 E11.02576
G1 X85.212 Y60.063 E11.04361
G1 X85.532 Y60.054 E11.05426
G1 X85.83 Y60.05 E11.06417
G1 X133.793 Y60.05 E12.65943
G1 X134.643 Y60.061 E12.6877
G1 X135.562 Y60.114 E12.71832
G1 X136.473 Y60.247 E12.74894
G1 X137.369 Y60.458 E12.77955
G1 X138.243 Y60.746 E12.81016
G1 X139.09 Y61.109 E12.84081
G1 X139.901 Y61.544 E12.87142
G1 X140.671 Y62.048 E12.90203
G1 X141.395 Y62.617 E12.93265
G1 X142.067 Y63.247 E12.96329
G1 X142.682 Y63.932 E12.99391
G1 X143.235 Y64.668 E13.02453
G1 X143.722 Y65.449 E13.05514
G1 X144.139 Y66.27 E13.08577
G1 X144.484 Y67.124 E13.1164
G1 X144.753 Y68.004 E13.14701
G1 X144.945 Y68.905 E13.17765
G1 X145.058 Y69.818 E13.20825
G1 X145.087 Y70.362 E13.22637
G1 X145.096 Y70.682 E13.23701
G1 X145.1 Y70.98 E13.24693
G1 X145.099 Y109.082 E14.5142
G1 X145.088 Y109.819 E14.53872
G1 X145.001 Y111.023 E14.57887
G1 X144.93 Y111.567 E14.59712
G1 X144.677 Y113.34 E14.65668
G1 X144.39 Y115.863 E14.74114
G1 X144.178 Y118.342 E14.82389
G1 X144.033 Y120.885 E14.90861
G1 X143.959 Y123.456 E14.99416
G1 X143.95 Y124.785 E15.03836
G1 X143.949 Y148.71 E15.83411
G1 X143.939 Y149.437 E15.85829
G1 X143.886 Y150.356 E15.88891
G1 X143.754 Y151.267 E15.91953
G1 X143.543 Y152.163 E15.95014
G1 X143.256 Y153.038 E15.98077
G1 X142.893 Y153.884 E16.01139
G1 X142.459 Y154.696 E16.04201
G1 X141.955 Y155.467 E16.07265
G1 X141.387 Y156.191 E16.10326
G1 X140.758 Y156.863 E16.13387
G1 X140.073 Y157.478 E16.16449
G1 X139.337 Y158.031 E16.19511
G1 X138.556 Y158.519 E16.22574
G1 X137.736 Y158.937 E16.25635
G1 X136.882 Y159.282 E16.28698
G1 X136.002 Y159.551 E16.31759
G1 X135.101 Y159.744 E16.34824
G1 X134.188 Y159.857 E16.37884
G1 X133.638 Y159.887 E16.39716
G1 X133.318 Y159.896 E16.4078
G1 X133.02 Y159.9 E16.41772
G1 X86.05 Y159.898 E17.97994
G1 X85.371 Y159.888 E18.00253
G1 X84.452 Y159.834 E18.03315
G1 X83.541 Y159.701 E18.06377
G1 X82.645 Y159.49 E18.09439
G1 X81.771 Y159.201 E18.125
G1 X80.925 Y158.838 E18.15562
G1 X80.113 Y158.402 E18.18628
G1 X79.343 Y157.898 E18.21689
G1 X78.619 Y157.329 E18.24751
G1 X77.948 Y156.699 E18.27813
G1 X77.486 Y156.195 E18.30087
G1 X76.915 Y155.473 E18.33148
G1 X76.409 Y154.704 E18.3621
G1 X75.971 Y153.894 E18.39273
G1 X75.606 Y153.049 E18.42334
G1 X75.315 Y152.175 E18.45398
G1 X75.101 Y151.28 E18.48459
G1 X74.965 Y150.369 E18.51522
G1 X74.912 Y149.544 E18.54272
G1 X74.904 Y149.238 E18.5529
G1 X74.9 Y148.961 E18.56211
G1 X74.901 Y113.233 E19.75043
G1 X74.907 Y112.787 E19.76527
G1 X74.89 Y110.52 E19.84067
G1 X74.905 Y110.102 E19.85458
G1 X74.9 Y109.414 E19.87746
G1 X74.901 Y71.165 E21.14963
G1 X74.911 Y70.5 E21.17175
G1 X74.965 Y69.581 E21.20237
G1 X75.098 Y68.67 E21.23299
G1 X75.31 Y67.774 E21.26362
G1 X75.599 Y66.899 E21.29426
G1 X75.963 Y66.054 E21.32487
G1 X76.398 Y65.243 E21.35548
G1 X76.903 Y64.472 E21.38613
G1 X77.472 Y63.749 E21.41673
G0 F6000 X77.866 Y63.906
G1 F1200 X78.493 Y63.256 E21.44677
G1 X79.175 Y62.664 E21.47681
G1 X79.907 Y62.135 E21.50684
G1 X80.683 Y61.673 E21.53688
G1 X81.497 Y61.282 E21.56692
G1 X82.342 Y60.963 E21.59696
G1 X83.212 Y60.721 E21.62699
G1 X84.1 Y60.557 E21.65703
G1 X85.223 Y60.463 E21.69451
G1 X85.543 Y60.454 E21.70516
G1 X85.83 Y60.45 E21.7147
G1 X133.793 Y60.45 E23.30996
G1 X134.637 Y60.461 E23.33803
G1 X135.539 Y60.514 E23.36809
G1 X136.432 Y60.646 E23.39811
G1 X137.31 Y60.857 E23.42814
G1 X138.166 Y61.145 E23.45818
G1 X138.993 Y61.507 E23.48821
G1 X139.785 Y61.942 E23.51826
G1 X140.536 Y62.444 E23.54831
G1 X141.239 Y63.011 E23.57835
G1 X141.889 Y63.638 E23.60838
G1 X142.481 Y64.32 E23.63842
G1 X143.011 Y65.051 E23.66845
G1 X143.473 Y65.827 E23.69849
G1 X143.866 Y66.64 E23.72852
G1 X144.184 Y67.485 E23.75855
G1 X144.427 Y68.355 E23.7886
G1 X144.592 Y69.243 E23.81864
G1 X144.687 Y70.373 E23.85635
G1 X144.696 Y70.693 E23.867
G1 X144.7 Y70.98 E23.87655
G1 X144.699 Y109.076 E25.14363
G1 X144.688 Y109.813 E25.16814
G1 X144.604 Y110.972 E25.20679
G1 X144.534 Y111.51 E25.22484
G1 X144.278 Y113.305 E25.28514
G1 X143.996 Y115.785 E25.36816
G1 X143.776 Y118.356 E25.45398
G1 X143.633 Y120.851 E25.5371
G1 X143.559 Y123.442 E25.62332
G1 X143.55 Y124.782 E25.66789
G1 X143.549 Y148.704 E26.46353
G1 X143.539 Y149.431 E26.48772
G1 X143.487 Y150.333 E26.51777
G1 X143.355 Y151.226 E26.54779
G1 X143.144 Y152.105 E26.57786
G1 X142.857 Y152.961 E26.60789
G1 X142.495 Y153.788 E26.63791
G1 X142.061 Y154.58 E26.66795
G1 X141.559 Y155.331 E26.69799
G1 X140.993 Y156.034 E26.72801
G1 X140.366 Y156.685 E26.75807
G1 X139.685 Y157.277 E26.78809
G1 X138.954 Y157.807 E26.81812
G1 X138.178 Y158.27 E26.84817
G1 X137.365 Y158.663 E26.87821
G1 X136.52 Y158.983 E26.90826
G1 X135.651 Y159.226 E26.93827
G1 X134.763 Y159.391 E26.96831
G1 X133.627 Y159.487 E27.00623
G1 X133.307 Y159.496 E27.01688
G1 X133.02 Y159.5 E27.02642
G1 X86.056 Y159.498 E28.58845
G1 X85.377 Y159.488 E28.61104
G1 X84.475 Y159.435 E28.64109
G1 X83.582 Y159.302 E28.67112
G1 X82.704 Y159.091 E28.70115
G1 X81.848 Y158.802 E28.7312
G1 X81.021 Y158.44 E28.76123
G1 X80.229 Y158.005 E28.79128
G1 X79.479 Y157.503 E28.8213
G1 X78.776 Y156.935 E28.85136
G1 X78.126 Y156.308 E28.8814
G1 X77.788 Y155.934 E28.89817
G1 X77.229 Y155.225 E28.92819
G1 X76.734 Y154.469 E28.95825
G1 X76.309 Y153.673 E28.98826
G1 X75.955 Y152.842 E29.0183
G1 X75.676 Y151.983 E29.04834
G1 X75.475 Y151.103 E29.07837
G1 X75.351 Y150.208 E29.10842
G1 X75.311 Y149.534 E29.13088
G1 X75.303 Y149.228 E29.14106
G1 X75.3 Y148.961 E29.14994
G1 X75.301 Y113.239 E30.33806
G1 X75.307 Y112.79 E30.35299
G1 X75.29 Y110.516 E30.42863
G1 X75.305 Y110.105 E30.44231
G1 X75.3 Y109.411 E30.46539
G1 X75.301 Y71.171 E31.73726
G1 X75.311 Y70.506 E31.75938
G1 X75.365 Y69.604 E31.78943
G1 X75.498 Y68.711 E31.81946
G1 X75.709 Y67.833 E31.84949
G1 X75.998 Y66.977 E31.87954
G1 X76.361 Y66.15 E31.90958
G1 X76.795 Y65.359 E31.93959
G1 X77.298 Y64.608 E31.96966
G1 X77.866 Y63.906 E31.99969
G1 F1500 E25.49969
;MESH:TM_Player_Cubes_-_Parametric_compartment_box.stl
G0 F6000 X84.847 Y110.303
G0 X85.92 Y112.036
G0 X85.92 Y113.121
G0 X132.568 Y113.483
G0 X132.75 Y148.7
;TYPE:WALL-INNER
G1 F1500 E31.99969
G1 F1200 X132.551 Y148.7 E32.00631
G1 X86.1 Y148.699 E33.55128
G1 X86.1 Y113.301 E34.72862
G1 X132.75 Y113.301 E36.2802
G1 X132.75 Y148.501 E37.45096
G1 X132.75 Y148.7 E37.45524
G0 F6000 X133.15 Y149.1
;TYPE:WALL-OUTER
G1 F1200 X85.7 Y149.099 E39.03344
G1 X85.7 Y112.901 E40.23739
G1 X133.15 Y112.901 E41.81558
G1 X133.15 Y149.1 E43.01956
G0 F6000 X132.88 Y148.83
G0 X132.359 Y148.589
G0 X132.36 Y148.31
;TYPE:SKIN
G1 F1200 X86.49 Y148.309 E44.5452
G1 X86.49 Y113.691 E45.6966
G1 X132.36 Y113.691 E47.22225
G1 X132.36 Y148.31 E48.37368
G1 F1500 E41.87368
G0 F6000 X132.359 Y148.589
G0 X132.64 Y114.098
G0 X132.199 Y114.098
G1 F1500 E48.37368
G1 F1200 X131.953 Y113.851 E48.38527
G0 F6000 X131.387 Y113.851
G1 F1200 X132.199 Y114.663 E48.42347
G0 F6000 X132.199 Y115.229
G1 F1200 X130.821 Y113.851 E48.48828
G0 F6000 X130.256 Y113.851
G1 F1200 X132.199 Y115.795 E48.5797
G0 F6000 X132.199 Y116.36
G1 F1200 X129.69 Y113.851 E48.69772
G0 F6000 X129.124 Y113.851
G1 F1200 X132.199 Y116.926 E48.84236
G0 F6000 X132.199 Y117.492
G1 F1200 X128.559 Y113.851 E49.01359
G0 F6000 X127.993 Y113.851
G1 F1200 X132.199 Y118.057 E49.21143
G0 F6000 X132.199 Y118.623
G1 F1200 X127.427 Y113.851 E49.43589
G0 F6000 X126.862 Y113.851
G1 F1200 X132.199 Y119.189 E49.68695
G0 F6000 X132.199 Y119.754
G1 F1200 X126.296 Y113.851 E49.96461
G0 F6000 X125.73 Y113.851
G1 F1200 X132.199 Y120.32 E50.26889
G0 F6000 X132.199 Y120.886
G1 F1200 X125.164 Y113.851 E50.5998
G0 F6000 X124.599 Y113.851
G1 F1200 X132.199 Y121.451 E50.95728
G0 F6000 X132.199 Y122.017
G1 F1200 X124.033 Y113.851 E51.34138
G0 F6000 X123.467 Y113.851
G1 F1200 X132.199 Y122.583 E51.75211
G0 F6000 X132.199 Y123.149
G1 F1200 X122.902 Y113.851 E52.18943
G0 F6000 X122.336 Y113.851
G1 F1200 X132.199 Y123.714 E52.65336
G0 F6000 X132.199 Y124.28
G1 F1200 X121.77 Y113.851 E53.14391
G0 F6000 X121.205 Y113.851
G1 F1200 X132.199 Y124.846 E53.66105
G0 F6000 X132.199 Y125.411
G1 F1200 X120.639 Y113.851 E54.2048
G0 F6000 X120.073 Y113.851
G1 F1200 X132.199 Y125.977 E54.77517
G0 F6000 X132.199 Y126.543
G1 F1200 X119.508 Y113.851 E55.37214
G0 F6000 X118.942 Y113.851
G1 F1200 X132.199 Y127.108 E55.99571
G0 F6000 X132.199 Y127.674
G1 F1200 X118.376 Y113.851 E56.6459
G0 F6000 X117.811 Y113.851
G1 F1200 X132.199 Y128.24 E57.32269
G0 F6000 X132.199 Y128.805
G1 F1200 X117.245 Y113.851 E58.02608
G0 F6000 X116.679 Y113.851
G1 F1200 X132.199 Y129.371 E58.75609
G0 F6000 X132.199 Y129.937
G1 F1200 X116.114 Y113.851 E59.51271
G0 F6000 X115.548 Y113.851
G1 F1200 X132.199 Y130.502 E60.29592
G0 F6000 X132.199 Y131.068
G1 F1200 X114.982 Y113.851 E61.10575
G0 F6000 X114.416 Y113.851
G1 F1200 X132.199 Y131.634 E61.94221
G0 F6000 X132.199 Y132.199
G1 F1200 X113.851 Y113.851 E62.80525
G0 F6000 X113.285 Y113.851
G1 F1200 X132.199 Y132.765 E63.6949
G0 F6000 X132.199 Y133.331
G1 F1200 X112.719 Y113.851 E64.61118
G0 F6000 X112.154 Y113.851
G1 F1200 X132.199 Y133.897 E65.55406
G0 F6000 X132.199 Y134.462
G1 F1200 X111.588 Y113.851 E66.52354
G0 F6000 X111.022 Y113.851
G1 F1200 X132.199 Y135.028 E67.51964
G0 F6000 X132.199 Y135.594
G1 F1200 X110.457 Y113.851 E68.54234
G0 F6000 X109.891 Y113.851
G1 F1200 X132.199 Y136.159 E69.59164
G0 F6000 X132.199 Y136.725
G1 F1200 X109.325 Y113.851 E70.66756
G0 F6000 X108.76 Y113.851
G1 F1200 X132.199 Y137.291 E71.77009
G0 F6000 X132.199 Y137.856
G1 F1200 X108.194 Y113.851 E72.89921
G0 F6000 X107.628 Y113.851
G1 F1200 X132.199 Y138.422 E74.05495
G0 F6000 X132.199 Y138.988
G1 F1200 X107.063 Y113.851 E75.2373
G0 F6000 X106.497 Y113.851
G1 F1200 X132.199 Y139.553 E76.44624
G0 F6000 X132.199 Y140.119
G1 F1200 X105.931 Y113.851 E77.6818
G0 F6000 X105.365 Y113.851
G1 F1200 X132.199 Y140.685 E78.94399
G0 F6000 X132.199 Y141.25
G1 F1200 X104.8 Y113.851 E80.23276
G0 F6000 X104.234 Y113.851
G1 F1200 X132.199 Y141.816 E81.54815
G0 F6000 X132.199 Y142.382
G1 F1200 X103.668 Y113.851 E82.89016
G0 F6000 X103.103 Y113.851
G1 F1200 X132.199 Y142.947 E84.25874
G0 F6000 X132.199 Y143.513
G1 F1200 X102.537 Y113.851 E85.65395
G0 F6000 X101.971 Y113.851
G1 F1200 X132.199 Y144.079 E87.07579
G0 F6000 X132.199 Y144.645
G1 F1200 X101.406 Y113.851 E88.52422
G0 F6000 X100.84 Y113.851
G1 F1200 X132.199 Y145.21 E89.99925
G0 F6000 X132.199 Y145.776
G1 F1200 X100.274 Y113.851 E91.5009
G0 F6000 X99.709 Y113.851
G1 F1200 X132.199 Y146.342 E93.02916
G0 F6000 X132.199 Y146.907
G1 F1200 X99.143 Y113.851 E94.58401
G0 F6000 X98.577 Y113.851
G1 F1200 X132.199 Y147.473 E96.16549
G0 F6000 X132.199 Y148.039
G1 F1200 X98.012 Y113.851 E97.77356
G0 F6000 X97.446 Y113.851
G1 F1200 X131.743 Y148.148 E99.38679
G0 F6000 X131.178 Y148.148
G1 F1200 X96.88 Y113.851 E101.00004
G0 F6000 X96.315 Y113.851
G1 F1200 X130.612 Y148.148 E102.61326
G0 F6000 X130.046 Y148.148
G1 F1200 X95.749 Y113.851 E104.22649
G0 F6000 X95.183 Y113.851
G1 F1200 X129.481 Y148.148 E105.83974
G0 F6000 X128.915 Y148.148
G1 F1200 X94.617 Y113.851 E107.45299
G0 F6000 X94.052 Y113.851
G1 F1200 X128.349 Y148.148 E109.06621
G0 F6000 X127.784 Y148.148
G1 F1200 X93.486 Y113.851 E110.67946
G0 F6000 X92.92 Y113.851
G1 F1200 X127.218 Y148.148 E112.29271
G0 F6000 X126.652 Y148.148
G1 F1200 X92.355 Y113.851 E113.90594
G0 F6000 X91.789 Y113.851
G1 F1200 X126.087 Y148.148 E115.51918
G0 F6000 X125.521 Y148.148
G1 F1200 X91.223 Y113.851 E117.13243
G0 F6000 X90.658 Y113.851
G1 F1200 X124.955 Y148.148 E118.74566
G0 F6000 X124.389 Y148.148
G1 F1200 X90.092 Y113.851 E120.35889
G0 F6000 X89.526 Y113.851
G1 F1200 X123.824 Y148.148 E121.97213
G0 F6000 X123.258 Y148.148
G1 F1200 X88.961 Y113.851 E123.58536
G0 F6000 X88.395 Y113.851
G1 F1200 X122.692 Y148.148 E125.19859
G0 F6000 X122.127 Y148.148
G1 F1200 X87.829 Y113.851 E126.81184
G0 F6000 X87.264 Y113.851
G1 F1200 X121.561 Y148.148 E128.42506
G0 F6000 X120.995 Y148.148
G1 F1200 X86.698 Y113.851 E130.03829
G0 F6000 X86.649 Y114.368
G1 F1200 X120.43 Y148.148 E131.62722
