;FLAVOR:Marlin
;TIME:17790
;Filament used: 8.15297m
;Layer height: 0.2
;MINX:76.235
;MINY:19.701
;MINZ:0.2
;MAXX:158.765
;MAXY:216.164
;MAXZ:2.2
;Generated with Cura_SteamEngine master
M140 S60
M105
M190 S60
M104 S200
M105
M109 S200
M82 ;absolute extrusion mode
; Ender 3 Custom Start G-code
G92 E0 ; Reset Extruder
G28 ; Home all axes
G1 Z2.0 F3000 ; Move Z Axis up little to prevent scratching of Heat Bed
G1 X0.1 Y20 Z0.3 F5000.0 ; Move to start position
G1 X0.1 Y200.0 Z0.3 F1500.0 E15 ; Draw the first line
G1 X0.4 Y200.0 Z0.3 F5000.0 ; Move to side a little
G1 X0.4 Y20 Z0.3 F1500.0 E30 ; Draw the second line
G92 E0 ; Reset Extruder
G1 Z2.0 F3000 ; Move Z Axis up little to prevent scratching of Heat Bed
G1 X5 Y20 Z0.3 F5000.0 ; Move over to prevent blob squish
G92 E0
G92 E0
G1 F1500 E-6.5
;LAYER_COUNT:11
;LAYER:0
M107
;MESH:TM_resource_box_lid_other_lid_pattern_hex.stl
G0 F6000 X144.905 Y126.752 Z0.2
;TYPE:WALL-INNER
G1 F1500 E0
G1 F1200 X148.505 Y124.673 E0.13827
G1 X148.505 Y120.517 E0.2765
G1 X144.905 Y118.438 E0.41477
G1 X141.305 Y120.517 E0.55304
G1 X141.305 Y124.673 E0.69126
G1 X144.905 Y126.752 E0.82953
G0 F6000 X144.905 Y126.29
;TYPE:WALL-OUTER
G1 F1200 X148.105 Y124.442 E0.95244
G1 X148.105 Y120.748 E1.0753
G1 X144.905 Y118.9 E1.19821
G1 X141.705 Y120.748 E1.32111
G1 X141.705 Y124.442 E1.44398
G1 X144.905 Y126.29 E1.56688
G1 F1500 E-4.93312
G0 F6000 X144.804 Y126.461
G0 X146.845 Y125.828
G0 X146.128 Y124.587
G0 X146.642 Y128.042
G0 X146.564 Y130.875
G0 X147.124 Y131.273
G0 X148.544 Y140.8
G0 X148.905 Y140.676
G0 X151.246 Y144.731
G0 X149.309 Y145.931
G0 X150.737 Y155.515
G0 X151.246 Y155.884
G0 X151.246 Y158.588
G0 X151.713 Y162.064
G0 X150.564 Y162.812
G0 X150.564 Y165.516
G0 X152.397 Y166.649
G0 X154.369 Y179.872
G0 X155.305 Y181.492
G0 X155.605 Y182.143
G0 X155.905 Y188.183
;TYPE:WALL-INNER
G1 F1500 E1.56688
G1 F1200 X155.905 Y182.063 E1.77043
G1 X155.305 Y181.715 E1.7935
G1 X153.305 Y182.871 E1.87034
G1 X153.305 Y187.027 E2.00856
G1 X155.607 Y188.356 E2.09697
G1 X155.905 Y188.528 E2.10842
G1 X155.905 Y188.184 E2.11491
G1 X155.905 Y188.183 E2.11494
G0 F6000 X155.505 Y187.835
;TYPE:WALL-OUTER
G1 F1200 X155.505 Y182.293 E2.29927
G1 X155.305 Y182.177 E2.30696
G1 X153.705 Y183.102 E2.36843
G1 X153.705 Y186.796 E2.49129
G1 X155.505 Y187.835 E2.56042
G1 F1500 E-3.93958
G0 F6000 X155.406 Y188.007
G0 X153.212 Y187.193
G0 X152.905 Y188.067
G0 X149.571 Y189.952
G0 X149.305 Y193.955
;TYPE:WALL-INNER
G1 F1500 E2.56042
G1 F1200 X152.905 Y196.034 E2.69869
G1 X155.905 Y194.301 E2.81392
G1 X155.905 Y189.452 E2.9752
G1 X152.905 Y187.72 E3.09042
G1 X149.305 Y189.799 E3.22868
G1 X149.305 Y193.955 E3.36691
G0 F6000 X149.705 Y193.724
;TYPE:WALL-OUTER
G1 F1200 X152.905 Y195.572 E3.48982
G1 X155.505 Y194.07 E3.58969
G1 X155.505 Y189.683 E3.7356
G1 X152.905 Y188.182 E3.83545
G1 X149.705 Y190.03 E3.95836
G1 X149.705 Y193.724 E4.08122
G1 F1500 E-2.41878
G0 F6000 X149.603 Y193.896
G0 X152.905 Y196.257
G0 X153.112 Y196.615
G0 X153.305 Y200.883
;TYPE:WALL-INNER
G1 F1500 E4.08122
G1 F1200 X155.607 Y202.212 E4.16963
G1 X155.905 Y202.384 E4.18107
G1 X155.905 Y202.04 E4.18757
G1 X155.905 Y202.039 E4.1876
G1 X155.905 Y195.571 E4.40273
G1 X155.905 Y195.57 E4.40276
G1 X155.905 Y195.226 E4.4142
G1 X155.607 Y195.398 E4.4207
G1 X153.305 Y196.727 E4.50911
G1 X153.305 Y200.883 E4.64734
G0 F6000 X153.705 Y200.652
;TYPE:WALL-OUTER
G1 F1200 X155.505 Y201.691 E4.71646
G1 X155.505 Y195.919 E4.90844
G1 X153.705 Y196.958 E4.97757
G1 X153.705 Y200.652 E5.10043
G1 F1500 E-1.39957
G0 F6000 X153.605 Y200.824
G0 X153.212 Y201.049
G0 X152.905 Y201.923
G0 X149.571 Y203.808
G0 X149.305 Y207.811
;TYPE:WALL-INNER
G1 F1500 E5.10043
G1 F1200 X152.905 Y209.89 E5.2387
G1 X155.905 Y208.158 E5.35391
G1 X155.905 Y203.309 E5.51519
G1 X152.905 Y201.576 E5.63042
G1 X149.305 Y203.655 E5.76869
G1 X149.305 Y207.811 E5.90692
G0 F6000 X149.705 Y207.58
;TYPE:WALL-OUTER
G1 F1200 X152.905 Y209.428 E6.02983
G1 X155.505 Y207.927 E6.12968
G1 X155.505 Y203.54 E6.27559
G1 X152.905 Y202.038 E6.37546
G1 X149.705 Y203.886 E6.49837
G1 X149.705 Y207.58 E6.62123
G1 F1500 E0.12123
G0 F6000 X149.603 Y207.752
G0 X149.252 Y208
G0 X149.04 Y208.362
G0 X148.168 Y209.241
G0 X148.095 Y210
;TYPE:WALL-INNER
G1 F1500 E6.62123
G1 F1200 X149.715 Y210 E6.67511
G1 X149.955 Y209.112 E6.7057
G1 X148.905 Y208.504 E6.74606
G1 X147.855 Y209.112 E6.78642
G1 X148.095 Y210 E6.81701
G0 F6000 X148.401 Y209.6
;TYPE:WALL-OUTER
G1 F1200 X149.409 Y209.6 E6.85054
G1 X149.489 Y209.304 E6.86073
G1 X148.905 Y208.966 E6.88318
G1 X148.321 Y209.304 E6.90562
G1 X148.401 Y209.6 E6.91582
G1 F1500 E0.41582
G0 F6000 X148.401 Y209.8
G0 X147.628 Y209.018
G0 X146.692 Y207.399
G0 X143.117 Y207.398
G0 X142.182 Y209.018
G0 X141.51 Y209.731
G0 X140.095 Y210
;TYPE:WALL-INNER
G1 F1500 E6.91582
G1 F1200 X141.715 Y210 E6.9697
G1 X141.955 Y209.112 E7.00029
G1 X140.905 Y208.504 E7.04065
G1 X139.855 Y209.112 E7.08101
G1 X140.095 Y210 E7.1116
G0 F6000 X140.401 Y209.6
;TYPE:WALL-OUTER
G1 F1200 X141.409 Y209.6 E7.14513
G1 X141.489 Y209.304 E7.15532
G1 X140.905 Y208.966 E7.17777
G1 X140.321 Y209.304 E7.20021
G1 X140.401 Y209.6 E7.21041
G1 F1500 E0.71041
G0 F6000 X140.401 Y209.8
G0 X140.168 Y209.241
G0 X140.998 Y208.338
G0 X141.199 Y207.992
G0 X141.305 Y207.811
;TYPE:WALL-INNER
G1 F1500 E7.21041
G1 F1200 X144.905 Y209.89 E7.34868
G1 X148.505 Y207.811 E7.48695
G1 X148.505 Y203.655 E7.62517
G1 X144.905 Y201.576 E7.76344
G1 X141.305 Y203.655 E7.90171
G1 X141.305 Y207.811 E8.03994
G0 F6000 X141.705 Y207.58
;TYPE:WALL-OUTER
G1 F1200 X144.905 Y209.428 E8.16285
G1 X148.105 Y207.58 E8.28575
G1 X148.105 Y203.886 E8.40862
G1 X144.905 Y202.038 E8.53152
G1 X141.705 Y203.886 E8.65443
G1 X141.705 Y207.58 E8.77729
G1 F1500 E2.27729
G0 F6000 X141.603 Y207.752
G0 X141.571 Y203.808
G0 X144.998 Y201.41
G0 X145.199 Y201.064
G0 X145.305 Y200.883
;TYPE:WALL-INNER
G1 F1500 E8.77729
G1 F1200 X148.905 Y202.962 E8.91556
G1 X152.505 Y200.883 E9.05383
G1 X152.505 Y196.727 E9.19206
G1 X148.905 Y194.648 E9.33032
G1 X145.305 Y196.727 E9.46859
G1 X145.305 Y200.883 E9.60682
G0 F6000 X145.705 Y200.652
;TYPE:WALL-OUTER
G1 F1200 X148.905 Y202.5 E9.72973
G1 X152.105 Y200.652 E9.85263
G1 X152.105 Y196.958 E9.9755
G1 X148.905 Y195.11 E10.0984
G1 X145.705 Y196.958 E10.22131
G1 X145.705 Y200.652 E10.34417
G1 F1500 E3.84417
G0 F6000 X145.603 Y200.824
G0 X145.135 Y198.867
G0 X146.57 Y198.867
G0 X144.601 Y194.471
G0 X142.564 Y193.229
G0 X142.564 Y190.525
G0 X142.748 Y190.332
G0 X141.446 Y187.424
G0 X140.905 Y187.652
G0 X138.564 Y183.597
G0 X139.461 Y182.992
G0 X138.127 Y180.012
G0 X138.845 Y181.254
G0 X136.905 Y182.178
;TYPE:WALL-INNER
G1 F1500 E10.34417
G1 F1200 X140.505 Y180.098 E10.48246
G1 X140.505 Y175.942 E10.62069
G1 X136.905 Y173.863 E10.75895
G1 X133.305 Y175.942 E10.89722
G1 X133.305 Y180.098 E11.03545
G1 X136.905 Y182.178 E11.17374
G0 F6000 X136.905 Y181.716
;TYPE:WALL-OUTER
G1 F1200 X140.105 Y179.867 E11.29666
G1 X140.105 Y176.173 E11.41952
G1 X136.905 Y174.325 E11.54243
G1 X133.705 Y176.173 E11.66533
G1 X133.705 Y179.867 E11.7882
G1 X136.905 Y181.716 E11.91112
G1 F1500 E5.41112
G0 F6000 X136.804 Y181.887
G0 X136.803 Y182.362
G0 X136.205 Y183.044
G0 X136.239 Y186.874
G0 X132.905 Y189.106
;TYPE:WALL-INNER
G1 F1500 E11.91112
G1 F1200 X136.505 Y187.027 E12.04939
G1 X136.505 Y182.871 E12.18762
G1 X132.905 Y180.792 E12.32589
G1 X129.305 Y182.871 E12.46415
G1 X129.305 Y187.027 E12.60238
G1 X132.905 Y189.106 E12.74065
G0 F6000 X132.905 Y188.644
;TYPE:WALL-OUTER
G1 F1200 X136.105 Y186.796 E12.86356
G1 X136.105 Y183.102 E12.98642
G1 X132.905 Y181.254 E13.10933
G1 X129.705 Y183.102 E13.23223
G1 X129.705 Y186.796 E13.35509
G1 X132.905 Y188.644 E13.478
G1 F1500 E6.978
G0 F6000 X132.804 Y188.815
G0 X129.571 Y186.874
G0 X129.583 Y183.343
G0 X129.2 Y182.69
G0 X129.01 Y182.36
G0 X128.905 Y182.178
;TYPE:WALL-INNER
G1 F1500 E13.478
G1 F1200 X132.505 Y180.098 E13.61629
G1 X132.505 Y175.942 E13.75451
G1 X128.905 Y173.863 E13.89278
G1 X125.305 Y175.942 E14.03105
G1 X125.305 Y180.098 E14.16928
G1 X128.905 Y182.178 E14.30757
G0 F6000 X128.905 Y181.716
;TYPE:WALL-OUTER
G1 F1200 X132.105 Y179.867 E14.43049
G1 X132.105 Y176.173 E14.55335
G1 X128.905 Y174.325 E14.67626
G1 X125.705 Y176.173 E14.79916
G1 X125.705 Y179.867 E14.92203
G1 X128.905 Y181.716 E15.04495
G1 F1500 E8.54495
G0 F6000 X128.804 Y181.887
G0 X127.075 Y181.318
G0 X127.793 Y180.075
G0 X123.314 Y177.35
G0 X123.246 Y176.668
G0 X120.905 Y175.317
G0 X120.358 Y175.552
G0 X117.26 Y173.668
G0 X116.905 Y173.795
G0 X114.564 Y172.444
G0 X114.494 Y171.985
G0 X111.314 Y170.051
G0 X111.246 Y169.74
G0 X108.905 Y168.389
G0 X105.573 Y166.559
G0 X104.905 Y166.867
G0 X102.564 Y165.516
G0 X102.495 Y164.687
G0 X93.886 Y159.451
G0 X92.905 Y159.939
G0 X90.564 Y158.588
G0 X90.495 Y157.388
G0 X82.128 Y152.3
G0 X82.845 Y153.541
G0 X81.112 Y154.133
G0 X80.305 Y154.349
;TYPE:WALL-INNER
G1 F1500 E15.04495
G1 F1200 X80.705 Y154.58 E15.06031
G1 X84.505 Y152.386 E15.20625
G1 X84.505 Y148.23 E15.34448
G1 X80.705 Y146.036 E15.49042
G1 X80.305 Y146.267 E15.50579
G1 X80.305 Y154.349 E15.7746
G0 F6000 X80.705 Y154.118
;TYPE:WALL-OUTER
G1 F1200 X84.105 Y152.155 E15.90517
G1 X84.105 Y148.461 E16.02804
G1 X80.705 Y146.498 E16.15862
G1 X80.705 Y154.118 E16.41206
G0 F6000 X80.486 Y154.499
G1 F1500 E9.91206
G0 F6000 X80.571 Y146.42
G0 X82.535 Y146.896
G0 X81.819 Y148.138
G0 X81.57 Y138.476
G0 X80.135 Y138.476
G0 X80.305 Y140.492
;TYPE:WALL-INNER
G1 F1500 E16.41206
G1 F1200 X80.705 Y140.723 E16.42742
G1 X84.505 Y138.529 E16.57336
G1 X84.505 Y134.373 E16.71159
G1 X80.705 Y132.179 E16.85753
G1 X80.305 Y132.41 E16.8729
G1 X80.305 Y140.492 E17.14171
G0 F6000 X80.705 Y140.261
;TYPE:WALL-OUTER
G1 F1200 X84.105 Y138.298 E17.27229
G1 X84.105 Y134.604 E17.39515
G1 X80.705 Y132.641 E17.52573
G1 X80.705 Y140.261 E17.77917
G0 F6000 X80.486 Y140.642
G1 F1500 E11.27917
G0 F6000 X80.571 Y132.563
G0 X82.535 Y133.039
G0 X81.819 Y134.281
G0 X83.745 Y127.495
G0 X82.781 Y125.874
G0 X80.905 Y126.752
;TYPE:WALL-INNER
G1 F1500 E17.77917
G1 F1200 X82.572 Y125.788 E17.84322
G1 X82.332 Y124.9 E17.87381
G1 X80.305 Y124.9 E17.94123
G1 X80.305 Y126.404 E17.99125
G1 X80.905 Y126.752 E18.01432
G0 F6000 X80.905 Y126.29
;TYPE:WALL-OUTER
G1 F1200 X82.106 Y125.596 E18.06046
G1 X82.026 Y125.3 E18.07066
G1 X80.705 Y125.3 E18.11459
G1 X80.705 Y126.174 E18.14366
G1 X80.905 Y126.29 E18.15135
G1 F1500 E11.65135
G0 F6000 X80.803 Y126.462
G0 X82.781 Y125.874
G0 X83.745 Y127.495
G0 X98.498 Y115.202
G0 X98.564 Y114.315
G0 X100.905 Y112.964
G0 X103.793 Y110.793
G0 X103.075 Y112.036
G0 X104.905 Y112.896
;TYPE:WALL-INNER
G1 F1500 E18.15135
G1 F1200 X108.505 Y110.816 E18.28964
G1 X108.505 Y106.66 E18.42787
G1 X104.905 Y104.581 E18.56614
G1 X101.305 Y106.66 E18.7044
G1 X101.305 Y110.816 E18.84263
G1 X104.905 Y112.896 E18.98092
G0 F6000 X104.905 Y112.434
;TYPE:WALL-OUTER
G1 F1200 X108.105 Y110.585 E19.10384
G1 X108.105 Y106.891 E19.2267
G1 X104.905 Y105.043 E19.34961
G1 X101.705 Y106.891 E19.47252
G1 X101.705 Y110.585 E19.59538
G1 X104.905 Y112.434 E19.7183
G1 F1500 E13.2183
G0 F6000 X104.804 Y112.605
G0 X108.698 Y110.928
G0 X109.112 Y110.928
G0 X112.905 Y112.896
;TYPE:WALL-INNER
G1 F1500 E19.7183
G1 F1200 X116.505 Y110.816 E19.85659
G1 X116.505 Y106.66 E19.99481
G1 X112.905 Y104.581 E20.13308
G1 X109.305 Y106.66 E20.27135
G1 X109.305 Y110.816 E20.40958
G1 X112.905 Y112.896 E20.54787
G0 F6000 X112.905 Y112.434
;TYPE:WALL-OUTER
G1 F1200 X116.105 Y110.585 E20.67079
G1 X116.105 Y106.891 E20.79365
G1 X112.905 Y105.043 E20.91656
G1 X109.705 Y106.891 E21.03946
G1 X109.705 Y110.585 E21.16233
G1 X112.905 Y112.434 E21.28525
G1 F1500 E14.78525
G0 F6000 X112.804 Y112.605
G0 X116.698 Y110.928
G0 X117.112 Y110.928
G0 X120.905 Y112.896
;TYPE:WALL-INNER
G1 F1500 E21.28525
G1 F1200 X124.505 Y110.816 E21.42353
G1 X124.505 Y106.66 E21.56176
G1 X120.905 Y104.581 E21.70003
G1 X117.305 Y106.66 E21.8383
G1 X117.305 Y110.816 E21.97653
G1 X120.905 Y112.896 E22.11481
G0 F6000 X120.905 Y112.434
;TYPE:WALL-OUTER
G1 F1200 X124.105 Y110.585 E22.23774
G1 X124.105 Y106.891 E22.3606
G1 X120.905 Y105.043 E22.48351
G1 X117.705 Y106.891 E22.60641
G1 X117.705 Y110.585 E22.72927
G1 X120.905 Y112.434 E22.8522
G1 F1500 E16.3522
G0 F6000 X120.804 Y112.605
G0 X122.845 Y111.972
G0 X122.127 Y110.73
G0 X127.607 Y110.754
G0 X128.905 Y111.441
G0 X130.18 Y110.766
G0 X135.793 Y110.793
G0 X135.075 Y112.036
G0 X136.905 Y112.896
;TYPE:WALL-INNER
G1 F1500 E22.8522
G1 F1200 X140.505 Y110.816 E22.99048
G1 X140.505 Y106.66 E23.12871
G1 X136.905 Y104.581 E23.26698
G1 X133.305 Y106.66 E23.40525
G1 X133.305 Y110.816 E23.54348
G1 X136.905 Y112.896 E23.68176
G0 F6000 X136.905 Y112.434
;TYPE:WALL-OUTER
G1 F1200 X140.105 Y110.585 E23.80468
G1 X140.105 Y106.891 E23.92755
G1 X136.905 Y105.043 E24.05045
G1 X133.705 Y106.891 E24.17336
G1 X133.705 Y110.585 E24.29622
G1 X136.905 Y112.434 E24.41914
G1 F1500 E17.91914
G0 F6000 X136.804 Y112.605
G0 X133.571 Y110.663
G0 X133.571 Y106.813
G0 X134.965 Y105.505
G0 X135.682 Y106.746
G0 X135.17 Y96.661
G0 X134.564 Y96.234
G0 X134.564 Y93.53
G0 X134.994 Y93.199
G0 X134.813 Y89.636
G0 X135.246 Y89.306
G0 X135.246 Y86.602
G0 X134.638 Y86.173
G0 X134.127 Y76.089
G0 X134.845 Y77.331
G0 X132.905 Y78.255
;TYPE:WALL-INNER
G1 F1500 E24.41914
G1 F1200 X136.505 Y76.175 E24.55743
G1 X136.505 Y72.019 E24.69566
G1 X132.905 Y69.94 E24.83393
G1 X129.305 Y72.019 E24.9722
G1 X129.305 Y76.175 E25.11043
G1 X132.905 Y78.255 E25.24871
G0 F6000 X132.905 Y77.793
;TYPE:WALL-OUTER
G1 F1200 X136.105 Y75.944 E25.37163
G1 X136.105 Y72.25 E25.4945
G1 X132.905 Y70.402 E25.6174
G1 X129.705 Y72.25 E25.74031
G1 X129.705 Y75.944 E25.86317
G1 X132.905 Y77.793 E25.98609
G1 F1500 E19.48609
G0 F6000 X132.804 Y77.964
G0 X129.112 Y76.287
G0 X128.698 Y76.287
G0 X124.905 Y78.255
;TYPE:WALL-INNER
G1 F1500 E25.98609
G1 F1200 X128.505 Y76.175 E26.12438
G1 X128.505 Y72.019 E26.26261
G1 X124.905 Y69.94 E26.40088
G1 X121.305 Y72.019 E26.53914
G1 X121.305 Y76.175 E26.67737
G1 X124.905 Y78.255 E26.81566
G0 F6000 X124.905 Y77.793
;TYPE:WALL-OUTER
G1 F1200 X128.105 Y75.944 E26.93858
G1 X128.105 Y72.25 E27.06144
G1 X124.905 Y70.402 E27.18435
G1 X121.705 Y72.25 E27.30725
G1 X121.705 Y75.944 E27.43012
G1 X124.905 Y77.793 E27.55304
G1 F1500 E21.05304
G0 F6000 X124.804 Y77.964
G0 X121.112 Y76.287
G0 X120.698 Y76.287
G0 X116.905 Y78.255
;TYPE:WALL-INNER
G1 F1500 E27.55304
G1 F1200 X120.505 Y76.175 E27.69133
G1 X120.505 Y72.019 E27.82955
G1 X116.905 Y69.94 E27.96782
G1 X113.305 Y72.019 E28.10609
G1 X113.305 Y76.175 E28.24432
G1 X116.905 Y78.255 E28.38261
G0 F6000 X116.905 Y77.793
;TYPE:WALL-OUTER
G1 F1200 X120.105 Y75.944 E28.50553
G1 X120.105 Y72.25 E28.62839
G1 X116.905 Y70.402 E28.7513
G1 X113.705 Y72.25 E28.8742
G1 X113.705 Y75.944 E28.99707
G1 X116.905 Y77.793 E29.11999
G1 F1500 E22.61999
G0 F6000 X116.804 Y77.964
G0 X113.112 Y76.287
G0 X112.698 Y76.287
G0 X108.905 Y78.255
;TYPE:WALL-INNER
G1 F1500 E29.11999
G1 F1200 X112.505 Y76.175 E29.25827
G1 X112.505 Y72.019 E29.3965
G1 X108.905 Y69.94 E29.53477
G1 X105.305 Y72.019 E29.67304
G1 X105.305 Y76.175 E29.81127
G1 X108.905 Y78.255 E29.94955
G0 F6000 X108.905 Y77.793
;TYPE:WALL-OUTER
G1 F1200 X112.105 Y75.944 E30.07248
G1 X112.105 Y72.25 E30.19534
G1 X108.905 Y70.402 E30.31824
G1 X105.705 Y72.25 E30.44115
G1 X105.705 Y75.944 E30.56401
G1 X108.905 Y77.793 E30.68694
G1 F1500 E24.18694
G0 F6000 X108.804 Y77.964
G0 X105.112 Y76.287
G0 X104.698 Y76.287
G0 X100.905 Y78.255
;TYPE:WALL-INNER
G1 F1500 E30.68694
G1 F1200 X104.505 Y76.175 E30.82522
G1 X104.505 Y72.019 E30.96345
G1 X100.905 Y69.94 E31.10172
G1 X97.305 Y72.019 E31.23999
G1 X97.305 Y76.175 E31.37822
G1 X100.905 Y78.255 E31.5165
G0 F6000 X100.905 Y77.793
;TYPE:WALL-OUTER
G1 F1200 X104.105 Y75.944 E31.63942
G1 X104.105 Y72.25 E31.76229
G1 X100.905 Y70.402 E31.88519
G1 X97.705 Y72.25 E32.0081
G1 X97.705 Y75.944 E32.13096
G1 X100.905 Y77.793 E32.25388
G1 F1500 E25.75388
G0 F6000 X100.804 Y77.964
G0 X99.075 Y77.395
G0 X99.793 Y76.152
G0 X91.116 Y79.523
G0 X88.905 Y78.323
G0 X86.564 Y79.674
G0 X86.492 Y81.32
G0 X82.128 Y83.018
G0 X82.845 Y84.259
G0 X81.112 Y84.851
G0 X80.305 Y85.067
