;FLAVOR:Marlin
;TIME:9111
;Filament used: 6.82962m
;Layer height: 0.2
;MINX:76
;MINY:48.65
;MINZ:0.2
;MAXX:144
;MAXY:171.3
;MAXZ:27
;Generated with Cura_SteamEngine master
M140 S60
M105
M190 S60
M104 S200
M105
M109 S200
M82 ;absolute extrusion mode
; Ender 3 Custom Start G-code
G92 E0 ; Reset Extruder
G28 ; Home all axes
G1 Z2.0 F3000 ; Move Z Axis up little to prevent scratching of Heat Bed
G1 X0.1 Y20 Z0.3 F5000.0 ; Move to start position
G1 X0.1 Y200.0 Z0.3 F1500.0 E15 ; Draw the first line
G1 X0.4 Y200.0 Z0.3 F5000.0 ; Move to side a little
G1 X0.4 Y20 Z0.3 F1500.0 E30 ; Draw the second line
G92 E0 ; Reset Extruder
G1 Z2.0 F3000 ; Move Z Axis up little to prevent scratching of Heat Bed
G1 X5 Y20 Z0.3 F5000.0 ; Move over to prevent blob squish
G92 E0
G92 E0
G1 F1500 E-6.5
;LAYER_COUNT:135
;LAYER:0
M107
G0 F6000 X77.996 Y53.353 Z0.2
;TYPE:SKIRT
G1 F1500 E0
G1 F1200 X78.566 Y52.608 E0.0312
G1 X79.198 Y51.914 E0.06242
G1 X79.886 Y51.277 E0.0936
G1 X80.626 Y50.701 E0.12479
G1 X81.412 Y50.189 E0.15599
G1 X82.239 Y49.747 E0.18718
G1 X83.101 Y49.377 E0.21838
G1 X83.991 Y49.081 E0.24958
G1 X84.903 Y48.863 E0.28077
G1 X85.83 Y48.722 E0.31195
G1 X86.701 Y48.663 E0.34099
G1 X87.022 Y48.654 E0.35167
G1 X87.33 Y48.65 E0.36191
G1 X132.293 Y48.65 E1.85739
G1 X133.149 Y48.661 E1.88586
G1 X134.085 Y48.715 E1.91705
G1 X135.013 Y48.847 E1.94822
G1 X135.927 Y49.059 E1.97943
G1 X136.819 Y49.348 E2.01061
G1 X137.684 Y49.711 E2.04182
G1 X138.514 Y50.147 E2.073
G1 X139.305 Y50.652 E2.10421
G1 X140.049 Y51.223 E2.1354
G1 X140.742 Y51.855 E2.1666
G1 X141.379 Y52.543 E2.19778
G1 X141.954 Y53.284 E2.22898
G1 X142.465 Y54.07 E2.26016
G1 X142.907 Y54.898 E2.29138
G1 X143.276 Y55.76 E2.32257
G1 X143.571 Y56.65 E2.35375
G1 X143.789 Y57.562 E2.38494
G1 X143.929 Y58.49 E2.41615
G1 X143.987 Y59.351 E2.44486
G1 X143.996 Y59.671 E2.4555
G1 X144 Y59.98 E2.46578
G1 X143.999 Y108.088 E4.06586
G1 X143.988 Y108.825 E4.09038
G1 X143.898 Y110.075 E4.13206
G1 X143.826 Y110.623 E4.15044
G1 X143.572 Y112.4 E4.21015
G1 X143.291 Y114.875 E4.29299
G1 X143.075 Y117.4 E4.37728
G1 X142.931 Y119.918 E4.46117
G1 X142.859 Y122.424 E4.54455
G1 X142.85 Y123.788 E4.58992
G1 X142.849 Y159.715 E5.78486
G1 X142.839 Y160.442 E5.80904
G1 X142.786 Y161.379 E5.84025
G1 X142.654 Y162.307 E5.87143
G1 X142.443 Y163.221 E5.90263
G1 X142.154 Y164.113 E5.93382
G1 X141.791 Y164.978 E5.96502
G1 X141.356 Y165.809 E5.99621
G1 X140.851 Y166.599 E6.0274
G1 X140.281 Y167.344 E6.0586
G1 X139.65 Y168.038 E6.08979
G1 X138.961 Y168.675 E6.121
G1 X138.221 Y169.251 E6.15219
G1 X137.435 Y169.762 E6.18338
G1 X136.608 Y170.204 E6.21456
G1 X135.746 Y170.574 E6.24576
G1 X134.856 Y170.869 E6.27695
G1 X133.944 Y171.088 E6.30814
G1 X133.017 Y171.228 E6.33933
G1 X132.149 Y171.287 E6.36826
G1 X131.829 Y171.296 E6.37891
G1 X131.52 Y171.3 E6.38919
G1 X87.544 Y171.298 E7.85184
G1 X86.865 Y171.288 E7.87442
G1 X85.929 Y171.234 E7.9056
G1 X85 Y171.101 E7.93682
G1 X84.087 Y170.889 E7.96799
G1 X83.194 Y170.6 E7.99921
G1 X82.33 Y170.236 E8.03039
G1 X81.5 Y169.8 E8.06158
G1 X80.71 Y169.294 E8.09278
G1 X79.966 Y168.723 E8.12397
G1 X79.273 Y168.091 E8.15517
G1 X78.657 Y167.427 E8.18529
G1 X78.078 Y166.689 E8.21649
G1 X77.563 Y165.905 E8.24769
G1 X77.117 Y165.08 E8.27888
G1 X76.743 Y164.22 E8.31007
G1 X76.444 Y163.331 E8.34127
G1 X76.222 Y162.42 E8.37246
G1 X76.077 Y161.493 E8.40366
G1 X76.014 Y160.59 E8.43377
G1 X76.005 Y160.283 E8.44399
G1 X76 Y159.961 E8.4547
G1 X76.001 Y114.236 E9.97552
G1 X76.027 Y112.381 E10.03722
G1 X76.027 Y109.769 E10.1241
G1 X76.002 Y108.566 E10.16412
G1 X76 Y108.337 E10.17173
G1 X76.001 Y60.175 E11.77361
G1 X76.01 Y59.51 E11.79573
G1 X76.063 Y58.574 E11.82691
G1 X76.195 Y57.645 E11.85812
G1 X76.406 Y56.731 E11.88932
G1 X76.694 Y55.839 E11.92049
G1 X77.057 Y54.974 E11.95169
G1 X77.492 Y54.143 E11.98289
G1 X77.996 Y53.353 E12.01406
G0 F6000 X78.392 Y53.485
G1 F1200 X78.961 Y52.761 E12.04469
G1 X79.589 Y52.089 E12.07528
G1 X80.274 Y51.473 E12.10592
G1 X81.01 Y50.92 E12.13654
G1 X81.791 Y50.432 E12.16717
G1 X82.611 Y50.014 E12.19778
G1 X83.465 Y49.669 E12.22841
G1 X84.345 Y49.399 E12.25903
G1 X85.245 Y49.207 E12.28964
G1 X86.159 Y49.093 E12.32027
G1 X86.712 Y49.063 E12.33869
G1 X87.033 Y49.054 E12.34937
G1 X87.33 Y49.05 E12.35925
G1 X132.293 Y49.05 E13.85473
G1 X133.143 Y49.061 E13.883
G1 X134.062 Y49.114 E13.91362
G1 X134.973 Y49.247 E13.94424
G1 X135.869 Y49.458 E13.97486
G1 X136.743 Y49.746 E14.00546
G1 X137.59 Y50.109 E14.03611
G1 X138.401 Y50.544 E14.06672
G1 X139.171 Y51.048 E14.09733
G1 X139.895 Y51.617 E14.12796
G1 X140.567 Y52.247 E14.15859
G1 X141.182 Y52.932 E14.18921
G1 X141.735 Y53.668 E14.21983
G1 X142.222 Y54.449 E14.25044
G1 X142.639 Y55.27 E14.28107
G1 X142.984 Y56.124 E14.31171
G1 X143.253 Y57.004 E14.34231
G1 X143.445 Y57.905 E14.37295
G1 X143.558 Y58.818 E14.40355
G1 X143.587 Y59.362 E14.42167
G1 X143.596 Y59.682 E14.43232
G1 X143.6 Y59.98 E14.44223
G1 X143.599 Y108.082 E16.04211
G1 X143.588 Y108.819 E16.06662
G1 X143.501 Y110.023 E16.10677
G1 X143.43 Y110.567 E16.12502
G1 X143.177 Y112.34 E16.18459
G1 X142.89 Y114.863 E16.26904
G1 X142.678 Y117.342 E16.3518
G1 X142.533 Y119.885 E16.43651
G1 X142.459 Y122.456 E16.52206
G1 X142.45 Y123.785 E16.56627
G1 X142.449 Y159.71 E17.76114
G1 X142.439 Y160.437 E17.78532
G1 X142.386 Y161.356 E17.81594
G1 X142.254 Y162.267 E17.84655
G1 X142.043 Y163.163 E17.87717
G1 X141.756 Y164.038 E17.9078
G1 X141.393 Y164.884 E17.93842
G1 X140.959 Y165.696 E17.96904
G1 X140.455 Y166.467 E17.99967
G1 X139.887 Y167.191 E18.03028
G1 X139.258 Y167.863 E18.0609
G1 X138.573 Y168.478 E18.09151
G1 X137.837 Y169.031 E18.12213
G1 X137.056 Y169.519 E18.15276
G1 X136.236 Y169.937 E18.18338
G1 X135.382 Y170.282 E18.21401
G1 X134.502 Y170.551 E18.24462
G1 X133.601 Y170.744 E18.27526
G1 X132.688 Y170.857 E18.30586
G1 X132.138 Y170.887 E18.32418
G1 X131.818 Y170.896 E18.33483
G1 X131.52 Y170.9 E18.34474
G1 X87.55 Y170.898 E19.80719
G1 X86.871 Y170.888 E19.82978
G1 X85.952 Y170.834 E19.86039
G1 X85.041 Y170.701 E19.89102
G1 X84.145 Y170.49 E19.92163
G1 X83.271 Y170.201 E19.95225
G1 X82.425 Y169.838 E19.98287
G1 X81.613 Y169.402 E20.01352
G1 X80.843 Y168.898 E20.04413
G1 X80.119 Y168.329 E20.07476
G1 X79.448 Y167.699 E20.10537
G1 X78.961 Y167.166 E20.12938
G1 X78.393 Y166.442 E20.15999
G1 X77.889 Y165.671 E20.19063
G1 X77.455 Y164.859 E20.22125
G1 X77.093 Y164.013 E20.25186
G1 X76.805 Y163.138 E20.28249
G1 X76.594 Y162.242 E20.31311
G1 X76.462 Y161.331 E20.34373
G1 X76.414 Y160.579 E20.36879
G1 X76.405 Y160.272 E20.379
G1 X76.4 Y159.961 E20.38935
G1 X76.401 Y114.241 E21.91
G1 X76.427 Y112.386 E21.97171
G1 X76.427 Y109.76 E22.05905
G1 X76.402 Y108.557 E22.09907
G1 X76.4 Y108.337 E22.10639
G1 X76.401 Y60.181 E23.70806
G1 X76.41 Y59.516 E23.73018
G1 X76.462 Y58.596 E23.76083
G1 X76.594 Y57.685 E23.79145
G1 X76.805 Y56.789 E23.82206
G1 X77.092 Y55.914 E23.85269
G1 X77.455 Y55.068 E23.88331
G1 X77.889 Y54.256 E23.91393
G1 X78.392 Y53.485 E23.94455
G0 F6000 X78.788 Y53.621
G1 F1200 X79.355 Y52.917 E23.97462
G1 X79.981 Y52.267 E24.00463
G1 X80.662 Y51.674 E24.03466
G1 X81.394 Y51.144 E24.06472
G1 X82.169 Y50.681 E24.09475
G1 X82.982 Y50.288 E24.12478
G1 X83.827 Y49.968 E24.15483
G1 X84.696 Y49.725 E24.18485
G1 X85.584 Y49.559 E24.21489
G1 X86.723 Y49.463 E24.25291
G1 X87.044 Y49.454 E24.26359
G1 X87.33 Y49.45 E24.27311
G1 X132.293 Y49.45 E25.76858
G1 X133.137 Y49.461 E25.79665
G1 X134.039 Y49.514 E25.82671
G1 X134.932 Y49.646 E25.85673
G1 X135.81 Y49.857 E25.88676
G1 X136.666 Y50.145 E25.9168
G1 X137.493 Y50.507 E25.94683
G1 X138.285 Y50.942 E25.97688
G1 X139.036 Y51.444 E26.00693
G1 X139.739 Y52.011 E26.03697
G1 X140.389 Y52.638 E26.06701
G1 X140.981 Y53.32 E26.09704
G1 X141.511 Y54.051 E26.12707
G1 X141.973 Y54.827 E26.15711
G1 X142.366 Y55.64 E26.18715
G1 X142.684 Y56.485 E26.21717
G1 X142.927 Y57.355 E26.24722
G1 X143.092 Y58.243 E26.27726
G1 X143.187 Y59.373 E26.31498
G1 X143.196 Y59.693 E26.32562
G1 X143.2 Y59.98 E26.33517
G1 X143.199 Y108.076 E27.93485
G1 X143.188 Y108.813 E27.95936
G1 X143.104 Y109.972 E27.99801
G1 X143.034 Y110.51 E28.01606
G1 X142.778 Y112.305 E28.07636
G1 X142.496 Y114.785 E28.15938
G1 X142.276 Y117.356 E28.24521
G1 X142.133 Y119.851 E28.32833
G1 X142.059 Y122.442 E28.41454
G1 X142.05 Y123.782 E28.45911
G1 X142.049 Y159.704 E29.65388
G1 X142.039 Y160.431 E29.67806
G1 X141.987 Y161.333 E29.70811
G1 X141.855 Y162.226 E29.73814
G1 X141.644 Y163.105 E29.7682
G1 X141.357 Y163.961 E29.79823
G1 X140.995 Y164.788 E29.82826
G1 X140.561 Y165.58 E29.85829
G1 X140.059 Y166.331 E29.88834
G1 X139.493 Y167.034 E29.91836
G1 X138.866 Y167.685 E29.94842
G1 X138.185 Y168.277 E29.97843
G1 X137.454 Y168.807 E30.00846
G1 X136.678 Y169.27 E30.03852
G1 X135.865 Y169.663 E30.06855
G1 X135.02 Y169.983 E30.0986
G1 X134.151 Y170.226 E30.12862
G1 X133.263 Y170.391 E30.15866
G1 X132.127 Y170.487 E30.19657
G1 X131.807 Y170.496 E30.20722
G1 X131.52 Y170.5 E30.21677
G1 X87.556 Y170.498 E31.67902
G1 X86.877 Y170.488 E31.7016
G1 X85.975 Y170.435 E31.73165
G1 X85.082 Y170.302 E31.76168
G1 X84.204 Y170.091 E31.79172
G1 X83.348 Y169.802 E31.82177
G1 X82.521 Y169.44 E31.85179
G1 X81.729 Y169.005 E31.88185
G1 X80.979 Y168.503 E31.91186
G1 X80.276 Y167.935 E31.94192
G1 X79.626 Y167.308 E31.97196
G1 X79.265 Y166.906 E31.98993
G1 X78.708 Y166.195 E32.01997
G1 X78.216 Y165.438 E32.05
G1 X77.793 Y164.64 E32.08004
G1 X77.443 Y163.807 E32.11009
G1 X77.167 Y162.947 E32.14013
G1 X76.969 Y162.066 E32.17017
G1 X76.849 Y161.171 E32.2002
G1 X76.813 Y160.567 E32.22033
G1 X76.804 Y160.26 E32.23054
G1 X76.8 Y159.961 E32.24049
G1 X76.801 Y114.247 E33.76094
G1 X76.827 Y112.392 E33.82264
G1 X76.827 Y109.752 E33.91045
G1 X76.802 Y108.549 E33.95047
G1 X76.8 Y108.337 E33.95752
G1 X76.801 Y60.186 E35.55903
G1 X76.81 Y59.521 E35.58115
G1 X76.862 Y58.619 E35.6112
G1 X76.994 Y57.726 E35.64123
G1 X77.204 Y56.848 E35.67125
G1 X77.491 Y55.991 E35.70131
G1 X77.853 Y55.164 E35.73134
G1 X78.286 Y54.372 E35.76136
G1 X78.788 Y53.621 E35.79141
G1 F1500 E29.29141
;MESH:TM_Resource_Cubes_-_Silver_-_Parametric_compartment_box.stl
G0 F6000 X86.347 Y109.303
G0 X87.42 Y113.036
G0 X87.42 Y114.121
G0 X87.782 Y159.517
G0 X131.25 Y159.7
;TYPE:WALL-INNER
G1 F1500 E35.79141
G1 F1200 X131.051 Y159.7 E35.79802
G1 X87.6 Y159.699 E37.24321
G1 X87.6 Y114.301 E38.75315
G1 X131.25 Y114.301 E40.20496
G1 X131.25 Y159.501 E41.70832
G1 X131.25 Y159.7 E41.7126
G0 F6000 X131.65 Y160.1
;TYPE:WALL-OUTER
G1 F1200 X87.2 Y160.099 E43.19101
G1 X87.2 Y113.901 E44.72756
G1 X131.65 Y113.901 E46.20598
G1 X131.65 Y160.1 E47.74256
G0 F6000 X131.38 Y159.83
G0 X130.859 Y159.589
G0 X130.86 Y159.31
;TYPE:SKIN
G1 F1200 X87.99 Y159.309 E49.16842
G1 X87.99 Y114.691 E50.65242
G1 X130.86 Y114.691 E52.07829
G1 X130.86 Y159.31 E53.56232
G1 F1500 E47.06232
G0 F6000 X130.859 Y159.589
G0 X88.436 Y159.589
G0 X88.437 Y159.147
G1 F1500 E53.56232
G1 F1200 X88.15 Y158.86 E53.57582
G0 F6000 X88.15 Y158.295
G1 F1200 X89.002 Y159.147 E53.6159
G0 F6000 X89.568 Y159.147
G1 F1200 X88.15 Y157.729 E53.68259
G0 F6000 X88.15 Y157.163
G1 F1200 X90.134 Y159.147 E53.77591
G0 F6000 X90.699 Y159.147
G1 F1200 X88.15 Y156.597 E53.89584
G0 F6000 X88.15 Y156.032
G1 F1200 X91.265 Y159.147 E54.04236
G0 F6000 X91.831 Y159.147
G1 F1200 X88.15 Y155.466 E54.2155
G0 F6000 X88.15 Y154.9
G1 F1200 X92.396 Y159.147 E54.41524
G0 F6000 X92.962 Y159.147
G1 F1200 X88.15 Y154.335 E54.64158
G0 F6000 X88.15 Y153.769
G1 F1200 X93.528 Y159.147 E54.89455
G0 F6000 X94.093 Y159.147
G1 F1200 X88.15 Y153.203 E55.17411
G0 F6000 X88.15 Y152.638
G1 F1200 X94.659 Y159.147 E55.48027
G0 F6000 X95.225 Y159.147
G1 F1200 X88.15 Y152.072 E55.81306
G0 F6000 X88.15 Y151.506
G1 F1200 X95.791 Y159.147 E56.17247
G0 F6000 X96.356 Y159.147
G1 F1200 X88.15 Y150.941 E56.55846
G0 F6000 X88.15 Y150.375
G1 F1200 X96.922 Y159.147 E56.97106
G0 F6000 X97.488 Y159.147
G1 F1200 X88.15 Y149.809 E57.41029
G0 F6000 X88.15 Y149.244
G1 F1200 X98.053 Y159.147 E57.8761
G0 F6000 X98.619 Y159.147
G1 F1200 X88.15 Y148.678 E58.36853
G0 F6000 X88.15 Y148.112
G1 F1200 X99.185 Y159.147 E58.88758
G0 F6000 X99.75 Y159.147
G1 F1200 X88.15 Y147.547 E59.43321
G0 F6000 X88.15 Y146.981
G1 F1200 X100.316 Y159.147 E60.00546
G0 F6000 X100.882 Y159.147
G1 F1200 X88.15 Y146.415 E60.60434
G0 F6000 X88.15 Y145.849
G1 F1200 X101.447 Y159.147 E61.22981
G0 F6000 X102.013 Y159.147
G1 F1200 X88.15 Y145.284 E61.88188
G0 F6000 X88.15 Y144.718
G1 F1200 X102.579 Y159.147 E62.56058
G0 F6000 X103.144 Y159.147
G1 F1200 X88.15 Y144.152 E63.26588
G0 F6000 X88.15 Y143.587
G1 F1200 X103.71 Y159.147 E63.99777
G0 F6000 X104.276 Y159.147
G1 F1200 X88.15 Y143.021 E64.75629
G0 F6000 X88.15 Y142.455
G1 F1200 X104.842 Y159.147 E65.54143
G0 F6000 X105.407 Y159.147
G1 F1200 X88.15 Y141.89 E66.35314
G0 F6000 X88.15 Y141.324
G1 F1200 X105.973 Y159.147 E67.19148
G0 F6000 X106.539 Y159.147
G1 F1200 X88.15 Y140.758 E68.05645
G0 F6000 X88.15 Y140.193
G1 F1200 X107.104 Y159.147 E68.94798
G0 F6000 X107.67 Y159.147
G1 F1200 X88.15 Y139.627 E69.86614
G0 F6000 X88.15 Y139.061
G1 F1200 X108.236 Y159.147 E70.81093
G0 F6000 X108.801 Y159.147
G1 F1200 X88.15 Y138.496 E71.78229
G0 F6000 X88.15 Y137.93
G1 F1200 X109.367 Y159.147 E72.78027
G0 F6000 X109.933 Y159.148
G1 F1200 X88.15 Y137.364 E73.8049
G0 F6000 X88.15 Y136.798
G1 F1200 X110.499 Y159.148 E74.85615
G0 F6000 X111.065 Y159.148
G1 F1200 X88.15 Y136.233 E75.934
G0 F6000 X88.15 Y135.667
G1 F1200 X111.63 Y159.148 E77.03845
G0 F6000 X112.196 Y159.148
G1 F1200 X88.15 Y135.101 E78.16953
G0 F6000 X88.15 Y134.536
G1 F1200 X112.762 Y159.148 E79.3272
G0 F6000 X113.328 Y159.148
G1 F1200 X88.15 Y133.97 E80.5115
G0 F6000 X88.15 Y133.404
G1 F1200 X113.893 Y159.148 E81.72239
G0 F6000 X114.459 Y159.148
G1 F1200 X88.15 Y132.839 E82.95989
G0 F6000 X88.15 Y132.273
G1 F1200 X115.025 Y159.148 E84.224
G0 F6000 X115.59 Y159.148
G1 F1200 X88.15 Y131.707 E85.51472
G0 F6000 X88.15 Y131.142
G1 F1200 X116.156 Y159.148 E86.83204
G0 F6000 X116.722 Y159.148
G1 F1200 X88.15 Y130.576 E88.17598
G0 F6000 X88.15 Y130.01
G1 F1200 X117.287 Y159.148 E89.54652
G0 F6000 X117.853 Y159.148
G1 F1200 X88.15 Y129.445 E90.94365
G0 F6000 X88.15 Y128.879
G1 F1200 X118.419 Y159.148 E92.36741
G0 F6000 X118.984 Y159.148
G1 F1200 X88.15 Y128.313 E93.81777
G0 F6000 X88.15 Y127.748
G1 F1200 X119.55 Y159.148 E95.29473
G0 F6000 X120.116 Y159.148
G1 F1200 X88.15 Y127.182 E96.79832
G0 F6000 X88.15 Y126.616
G1 F1200 X120.681 Y159.148 E98.3285
G0 F6000 X121.247 Y159.148
G1 F1200 X88.15 Y126.05 E99.8853
G0 F6000 X88.15 Y125.485
G1 F1200 X121.813 Y159.148 E101.46871
G0 F6000 X122.378 Y159.148
G1 F1200 X88.15 Y124.919 E103.07871
G0 F6000 X88.15 Y124.353
G1 F1200 X122.944 Y159.148 E104.71534
G0 F6000 X123.51 Y159.148
G1 F1200 X88.15 Y123.788 E106.37856
G0 F6000 X88.15 Y123.222
G1 F1200 X124.076 Y159.148 E108.06841
G0 F6000 X124.641 Y159.148
G1 F1200 X88.15 Y122.656 E109.78486
G0 F6000 X88.15 Y122.091
G1 F1200 X125.207 Y159.148 E111.52791
G0 F6000 X125.773 Y159.148
G1 F1200 X88.15 Y121.525 E113.29758
G0 F6000 X88.15 Y120.959
G1 F1200 X126.338 Y159.148 E115.09385
G0 F6000 X126.904 Y159.148
G1 F1200 X88.15 Y120.394 E116.91672
G0 F6000 X88.15 Y119.828
G1 F1200 X127.47 Y159.148 E118.76621
G0 F6000 X128.035 Y159.148
G1 F1200 X88.15 Y119.262 E120.6423
G0 F6000 X88.15 Y118.697
G1 F1200 X128.601 Y159.148 E122.54499
G0 F6000 X129.167 Y159.148
G1 F1200 X88.15 Y118.131 E124.47431
G0 F6000 X88.15 Y117.565
G1 F1200 X129.732 Y159.148 E126.43022
G0 F6000 X130.298 Y159.148
G1 F1200 X88.15 Y117 E128.41273
G0 F6000 X88.15 Y116.434
G1 F1200 X130.699 Y158.983 E130.41411
G0 F6000 X130.699 Y158.418
G1 F1200 X88.15 Y115.868 E132.41551
G0 F6000 X88.15 Y115.302
G1 F1200 X130.699 Y157.852 E134.4169
G0 F6000 X130.699 Y157.286
G1 F1200 X88.263 Y114.851 E136.41294
G0 F6000 X88.829 Y114.851
G1 F1200 X130.699 Y156.721 E138.38238
G0 F6000 X130.699 Y156.155
G1 F1200 X89.395 Y114.851 E140.32519
G0 F6000 X89.96 Y114.851
G1 F1200 X130.699 Y155.589 E142.2414
G0 F6000 X130.699 Y155.023
G1 F1200 X90.526 Y114.851 E144.131
G0 F6000 X91.092 Y114.851
G1 F1200 X130.699 Y154.458 E145.99399
G0 F6000 X130.699 Y153.892
