;FLAVOR:Marlin
;TIME:2627
;Filament used: 0.994032m
;Layer height: 0.2
;MINX:63
;MINY:63
;MINZ:0.2
;MAXX:172.001
;MAXY:172
;MAXZ:1
;Generated with Cura_SteamEngine master
M140 S60
M105
M190 S60
M104 S200
M105
M109 S200
M82 ;absolute extrusion mode
; Ender 3 Custom Start G-code
G92 E0 ; Reset Extruder
G28 ; Home all axes
G1 Z2.0 F3000 ; Move Z Axis up little to prevent scratching of Heat Bed
G1 X0.1 Y20 Z0.3 F5000.0 ; Move to start position
G1 X0.1 Y200.0 Z0.3 F1500.0 E15 ; Draw the first line
G1 X0.4 Y200.0 Z0.3 F5000.0 ; Move to side a little
G1 X0.4 Y20 Z0.3 F1500.0 E30 ; Draw the second line
G92 E0 ; Reset Extruder
G1 Z2.0 F3000 ; Move Z Axis up little to prevent scratching of Heat Bed
G1 X5 Y20 Z0.3 F5000.0 ; Move over to prevent blob squish
G92 E0
G92 E0
G1 F2400 E-4
;LAYER_COUNT:5
;LAYER:0
M107
M204 S500
G0 F7500 X79.666 Y74.015 Z0.2
M204 S550
;TYPE:SKIRT
G1 F2400 E0
G1 F1500 X79.811 Y73.861 E0.00639
G1 X80.178 Y73.49 E0.02217
G1 X80.5 Y73.179 E0.0357
G1 X80.929 Y72.786 E0.05329
G1 X81.066 Y72.667 E0.05878
G1 X81.483 Y72.322 E0.07514
G1 X81.847 Y72.036 E0.08913
G1 X82.319 Y71.686 E0.1069
G1 X82.467 Y71.582 E0.11236
G1 X82.942 Y71.266 E0.12961
G1 X83.345 Y71.013 E0.14399
G1 X83.852 Y70.713 E0.1618
G1 X84.005 Y70.628 E0.16709
G1 X84.495 Y70.372 E0.18381
G1 X84.908 Y70.169 E0.19772
G1 X85.444 Y69.923 E0.21555
G1 X85.655 Y69.833 E0.22248
G1 X86.227 Y69.608 E0.24106
G1 X86.622 Y69.465 E0.25376
G1 X87.146 Y69.29 E0.27046
G1 X87.391 Y69.215 E0.27821
G1 X87.65 Y69.139 E0.28637
G1 X88.421 Y68.924 E0.31056
G1 X89.436 Y68.653 E0.34232
G1 X91.843 Y67.939 E0.41822
G1 X94.232 Y67.156 E0.49422
G1 X96.623 Y66.297 E0.57102
G1 X98.186 Y65.694 E0.62167
G1 X99.074 Y65.342 E0.65054
G1 X99.368 Y65.23 E0.66006
G1 X99.827 Y65.063 E0.67482
G1 X100.487 Y64.846 E0.69582
G1 X100.681 Y64.789 E0.70194
G1 X101.114 Y64.671 E0.7155
G1 X101.518 Y64.57 E0.72809
G1 X102.103 Y64.441 E0.7462
G1 X102.3 Y64.403 E0.75227
G1 X102.803 Y64.318 E0.76769
G1 X103.244 Y64.254 E0.78116
G1 X103.918 Y64.177 E0.80167
G1 X104.148 Y64.158 E0.80864
G1 X104.647 Y64.129 E0.82375
G1 X105.079 Y64.113 E0.83682
G1 X105.688 Y64.107 E0.85523
G1 X106.726 Y64.127 E0.88662
G1 X108.118 Y64.167 E0.92872
G1 X110.64 Y64.167 E1.00496
G1 X113.164 Y64.096 E1.08129
G1 X115.684 Y63.955 E1.15759
G1 X118.191 Y63.742 E1.23365
G1 X120.753 Y63.451 E1.31159
G1 X122.067 Y63.273 E1.35168
G1 X122.97 Y63.143 E1.37926
G1 X123.609 Y63.07 E1.3987
G1 X123.798 Y63.054 E1.40443
G1 X124.328 Y63.022 E1.42049
G1 X124.798 Y63.005 E1.4347
G1 X125.389 Y63 E1.45257
G1 X125.56 Y63.003 E1.45774
G1 X126.115 Y63.026 E1.47453
G1 X126.599 Y63.059 E1.4892
G1 X127.208 Y63.118 E1.50769
G1 X127.385 Y63.14 E1.51309
G1 X127.892 Y63.215 E1.52858
G1 X128.334 Y63.291 E1.54214
G1 X129.025 Y63.433 E1.56346
G1 X129.226 Y63.481 E1.56971
G1 X129.665 Y63.595 E1.58342
G1 X130.114 Y63.722 E1.59753
G1 X130.778 Y63.933 E1.61859
G1 X130.968 Y64 E1.62468
G1 X131.43 Y64.175 E1.63961
G1 X131.831 Y64.337 E1.65269
G1 X132.357 Y64.565 E1.67002
G1 X132.548 Y64.654 E1.67639
G1 X133.031 Y64.894 E1.69269
G1 X133.418 Y65.098 E1.70592
G1 X133.939 Y65.391 E1.72399
G1 X134.091 Y65.482 E1.72934
G1 X134.558 Y65.778 E1.74606
G1 X134.96 Y66.047 E1.76068
G1 X135.504 Y66.435 E1.78088
G1 X135.663 Y66.556 E1.78692
G1 X136.042 Y66.858 E1.80157
G1 X136.389 Y67.147 E1.81522
G1 X136.826 Y67.531 E1.83281
G1 X136.99 Y67.683 E1.83957
G1 X137.239 Y67.921 E1.84998
G1 X137.539 Y68.217 E1.86272
G1 X138.955 Y69.633 E1.92326
G1 X140.79 Y71.367 E1.99958
G1 X142.658 Y73.034 E2.07526
G1 X144.623 Y74.69 E2.15295
G1 X145.771 Y75.615 E2.19752
G1 X146.223 Y75.973 E2.21495
G1 X146.459 Y76.165 E2.22414
G1 X146.817 Y76.465 E2.23826
G1 X147.218 Y76.817 E2.25439
G1 X147.363 Y76.951 E2.26036
G1 X147.79 Y77.368 E2.2784
G1 X148.088 Y77.675 E2.29134
G1 X148.298 Y77.898 E2.3006
G1 X148.859 Y78.509 E2.32567
G1 X150.646 Y80.4 E2.40433
G1 X152.421 Y82.175 E2.48021
G1 X154.239 Y83.894 E2.55585
G1 X156.125 Y85.578 E2.63228
G1 X158.071 Y87.219 E2.70923
G1 X159.989 Y88.746 E2.78335
G1 X162.9 Y90.908 E2.89296
G1 X163.694 Y91.474 E2.92244
G1 X163.948 Y91.66 E2.93196
G1 X164.129 Y91.797 E2.93882
G1 X164.532 Y92.118 E2.95439
G1 X164.88 Y92.408 E2.96809
G1 X165.406 Y92.875 E2.98935
G1 X165.56 Y93.021 E2.99577
G1 X165.886 Y93.343 E3.00962
G1 X166.182 Y93.648 E3.02247
G1 X166.56 Y94.058 E3.03932
G1 X166.695 Y94.212 E3.04551
G1 X167.08 Y94.676 E3.06374
G1 X167.363 Y95.037 E3.07761
G1 X167.734 Y95.539 E3.09648
G1 X167.844 Y95.697 E3.1023
G1 X168.112 Y96.101 E3.11695
G1 X168.36 Y96.493 E3.13098
G1 X168.702 Y97.073 E3.15133
G1 X168.79 Y97.233 E3.15685
G1 X169.023 Y97.68 E3.17209
G1 X169.231 Y98.103 E3.18634
G1 X169.489 Y98.667 E3.20509
G1 X169.561 Y98.837 E3.21067
G1 X169.762 Y99.346 E3.22721
G1 X169.93 Y99.805 E3.24199
G1 X170.14 Y100.439 E3.26218
G1 X170.183 Y100.583 E3.26672
G1 X170.305 Y101.024 E3.28055
G1 X170.422 Y101.485 E3.29493
G1 X170.563 Y102.12 E3.3146
G1 X170.6 Y102.313 E3.32054
G1 X170.685 Y102.822 E3.33614
G1 X170.749 Y103.268 E3.34976
G1 X170.821 Y103.894 E3.36881
G1 X170.838 Y104.093 E3.37484
G1 X170.87 Y104.616 E3.39068
G1 X170.887 Y105.068 E3.40436
G1 X170.893 Y105.682 E3.42292
G1 X170.873 Y106.726 E3.45449
G1 X170.833 Y108.118 E3.49658
G1 X170.833 Y110.64 E3.57282
G1 X170.904 Y113.165 E3.64919
G1 X171.045 Y115.684 E3.72545
G1 X171.258 Y118.191 E3.80151
G1 X171.549 Y120.753 E3.87946
G1 X171.727 Y122.066 E3.91952
G1 X171.856 Y122.962 E3.94688
G1 X171.926 Y123.575 E3.96553
G1 X171.943 Y123.77 E3.97145
G1 X171.977 Y124.315 E3.98796
G1 X171.994 Y124.771 E4.00175
G1 X172.001 Y125.358 E4.0195
G1 X171.998 Y125.544 E4.02512
G1 X171.974 Y126.115 E4.0424
G1 X171.941 Y126.599 E4.05707
G1 X171.882 Y127.208 E4.07556
G1 X171.86 Y127.385 E4.08095
G1 X171.785 Y127.891 E4.09642
G1 X171.713 Y128.31 E4.10927
G1 X171.589 Y128.924 E4.1282
G1 X171.537 Y129.149 E4.13519
G1 X171.403 Y129.672 E4.15151
G1 X171.276 Y130.12 E4.16558
G1 X171.067 Y130.778 E4.18645
G1 X171 Y130.968 E4.19254
G1 X170.829 Y131.422 E4.20721
G1 X170.667 Y131.824 E4.22031
G1 X170.425 Y132.378 E4.23859
G1 X170.336 Y132.568 E4.24493
G1 X170.111 Y133.022 E4.26025
G1 X169.908 Y133.408 E4.27343
G1 X169.593 Y133.966 E4.2928
G1 X169.502 Y134.117 E4.29813
G1 X169.227 Y134.551 E4.31366
G1 X168.957 Y134.955 E4.32835
G1 X168.565 Y135.504 E4.34875
G1 X168.444 Y135.663 E4.35479
G1 X168.142 Y136.042 E4.36944
G1 X167.853 Y136.389 E4.38309
G1 X167.456 Y136.84 E4.40125
G1 X167.31 Y136.997 E4.40773
G1 X167.086 Y137.231 E4.41753
G1 X166.794 Y137.527 E4.4301
G1 X165.369 Y138.952 E4.49102
G1 X163.626 Y140.797 E4.56774
G1 X161.975 Y142.646 E4.64268
G1 X160.3 Y144.635 E4.72129
G1 X159.385 Y145.771 E4.76538
G1 X159.027 Y146.223 E4.78281
G1 X158.835 Y146.459 E4.79201
G1 X158.535 Y146.817 E4.80613
G1 X158.183 Y147.218 E4.82226
G1 X158.049 Y147.363 E4.82823
G1 X157.632 Y147.79 E4.84627
G1 X157.325 Y148.088 E4.85921
G1 X157.102 Y148.298 E4.86847
G1 X156.491 Y148.859 E4.89354
G1 X154.6 Y150.646 E4.97219
G1 X152.825 Y152.421 E5.04808
G1 X151.089 Y154.257 E5.12446
G1 X149.419 Y156.127 E5.20026
G1 X147.797 Y158.051 E5.27633
G1 X146.254 Y159.989 E5.35122
G1 X144.092 Y162.9 E5.46083
G1 X143.526 Y163.694 E5.49031
G1 X143.34 Y163.948 E5.49983
G1 X143.203 Y164.129 E5.50669
G1 X142.882 Y164.532 E5.52226
G1 X142.592 Y164.88 E5.53596
G1 X142.125 Y165.406 E5.55722
G1 X141.979 Y165.56 E5.56364
G1 X141.648 Y165.894 E5.57785
G1 X141.332 Y166.2 E5.59115
G1 X140.915 Y166.584 E5.60829
G1 X140.773 Y166.708 E5.61398
G1 X140.334 Y167.072 E5.63122
G1 X139.97 Y167.358 E5.64522
G1 X139.513 Y167.698 E5.66244
G1 X139.357 Y167.808 E5.66821
G1 X138.876 Y168.129 E5.68569
G1 X138.485 Y168.375 E5.69965
G1 X137.903 Y168.716 E5.72004
G1 X137.742 Y168.804 E5.72559
G1 X137.311 Y169.028 E5.74028
G1 X136.887 Y169.236 E5.75455
G1 X136.353 Y169.48 E5.7723
G1 X136.184 Y169.552 E5.77785
G1 X135.647 Y169.764 E5.79531
G1 X135.187 Y169.932 E5.81011
G1 X134.581 Y170.134 E5.82942
G1 X134.438 Y170.177 E5.83394
G1 X133.976 Y170.305 E5.84843
G1 X133.515 Y170.422 E5.86281
G1 X132.88 Y170.563 E5.88247
G1 X132.687 Y170.6 E5.88841
G1 X132.168 Y170.687 E5.90432
G1 X131.719 Y170.751 E5.91803
G1 X131.122 Y170.819 E5.93619
G1 X130.927 Y170.836 E5.94211
G1 X130.381 Y170.87 E5.95865
G1 X129.924 Y170.887 E5.97247
G1 X129.313 Y170.893 E5.99094
G1 X128.274 Y170.873 E6.02236
G1 X126.882 Y170.833 E6.06446
G1 X124.36 Y170.833 E6.1407
G1 X121.836 Y170.904 E6.21703
G1 X119.316 Y171.045 E6.29333
G1 X116.809 Y171.258 E6.36939
G1 X114.247 Y171.549 E6.44733
G1 X112.933 Y171.727 E6.48742
G1 X112.03 Y171.857 E6.515
G1 X111.391 Y171.93 E6.53444
G1 X111.202 Y171.946 E6.54018
G1 X110.672 Y171.978 E6.55623
G1 X110.202 Y171.995 E6.57044
G1 X109.611 Y172 E6.58831
G1 X109.44 Y171.997 E6.59348
G1 X108.885 Y171.974 E6.61027
G1 X108.401 Y171.941 E6.62494
G1 X107.792 Y171.882 E6.64344
G1 X107.615 Y171.86 E6.64883
G1 X107.108 Y171.785 E6.66432
G1 X106.666 Y171.709 E6.67788
G1 X105.975 Y171.567 E6.6992
G1 X105.774 Y171.519 E6.70545
G1 X105.335 Y171.405 E6.71916
G1 X104.886 Y171.278 E6.73327
G1 X104.222 Y171.067 E6.75433
G1 X104.032 Y171 E6.76042
G1 X103.57 Y170.825 E6.77535
G1 X103.169 Y170.663 E6.78843
G1 X102.643 Y170.435 E6.80576
G1 X102.452 Y170.346 E6.81213
G1 X101.969 Y170.106 E6.82843
G1 X101.582 Y169.902 E6.84166
G1 X101.035 Y169.593 E6.86065
G1 X100.869 Y169.493 E6.86651
G1 X100.422 Y169.209 E6.88252
G1 X100.034 Y168.949 E6.89664
G1 X99.487 Y168.558 E6.91696
G1 X99.327 Y168.436 E6.92305
G1 X98.96 Y168.143 E6.93724
G1 X98.614 Y167.855 E6.95085
G1 X98.174 Y167.469 E6.96855
G1 X98.01 Y167.317 E6.97531
G1 X97.762 Y167.08 E6.98568
G1 X97.467 Y166.789 E6.9982
G1 X96.045 Y165.367 E7.059
G1 X94.209 Y163.632 E7.13536
G1 X92.342 Y161.966 E7.211
G1 X90.372 Y160.306 E7.28888
G1 X89.229 Y159.385 E7.33325
G1 X88.777 Y159.027 E7.35069
G1 X88.539 Y158.833 E7.35997
G1 X88.18 Y158.532 E7.37413
G1 X87.784 Y158.184 E7.39007
G1 X87.64 Y158.051 E7.39599
G1 X87.201 Y157.623 E7.41453
G1 X86.894 Y157.306 E7.42787
G1 X86.694 Y157.093 E7.4367
G1 X86.145 Y156.495 E7.46124
G1 X84.354 Y154.6 E7.54006
G1 X82.579 Y152.825 E7.61595
G1 X80.734 Y151.081 E7.6927
G1 X78.873 Y149.419 E7.76812
G1 X76.949 Y147.797 E7.8442
G1 X75.011 Y146.254 E7.91908
G1 X72.1 Y144.092 E8.0287
G1 X71.306 Y143.526 E8.05818
G1 X71.045 Y143.334 E8.06797
G1 X70.863 Y143.196 E8.07488
G1 X70.469 Y142.883 E8.09009
G1 X70.122 Y142.594 E8.10374
G1 X69.594 Y142.125 E8.12509
G1 X69.44 Y141.979 E8.1315
G1 X69.128 Y141.671 E8.14476
G1 X68.829 Y141.364 E8.15771
G1 X68.407 Y140.906 E8.17654
G1 X68.274 Y140.753 E8.18267
G1 X67.922 Y140.326 E8.1994
G1 X67.638 Y139.964 E8.21331
G1 X67.275 Y139.474 E8.23174
G1 X67.166 Y139.318 E8.23749
G1 X66.879 Y138.887 E8.25315
G1 X66.633 Y138.497 E8.26709
G1 X66.282 Y137.9 E8.28802
G1 X66.193 Y137.737 E8.29364
G1 X65.982 Y137.328 E8.30755
G1 X65.773 Y136.904 E8.32184
G1 X65.507 Y136.323 E8.34116
G1 X65.436 Y136.155 E8.34667
G1 X65.241 Y135.661 E8.36272
G1 X65.084 Y135.233 E8.37651
G1 X64.895 Y134.672 E8.3944
G1 X64.841 Y134.496 E8.39997
G1 X64.696 Y133.98 E8.41617
G1 X64.579 Y133.52 E8.43052
G1 X64.437 Y132.88 E8.45034
G1 X64.4 Y132.687 E8.45628
G1 X64.312 Y132.161 E8.4724
G1 X64.248 Y131.71 E8.48617
G1 X64.175 Y131.058 E8.506
G1 X64.157 Y130.837 E8.51271
G1 X64.129 Y130.354 E8.52733
G1 X64.113 Y129.925 E8.54031
G1 X64.107 Y129.313 E8.55881
G1 X64.127 Y128.274 E8.59023
G1 X64.167 Y126.882 E8.63232
G1 X64.167 Y124.36 E8.70856
G1 X64.096 Y121.835 E8.78492
G1 X63.955 Y119.316 E8.86119
G1 X63.742 Y116.808 E8.93728
G1 X63.451 Y114.247 E9.0152
G1 X63.273 Y112.933 E9.05529
G1 X63.143 Y112.03 E9.08287
G1 X63.069 Y111.377 E9.10273
G1 X63.053 Y111.185 E9.10856
G1 X63.023 Y110.681 E9.12382
G1 X63.006 Y110.225 E9.13761
G1 X63 Y109.632 E9.15554
G1 X63.003 Y109.452 E9.16098
G1 X63.025 Y108.908 E9.17744
G1 X63.056 Y108.44 E9.19162
G1 X63.119 Y107.789 E9.21139
G1 X63.144 Y107.591 E9.21743
G1 X63.221 Y107.078 E9.23311
G1 X63.299 Y106.631 E9.24682
G1 X63.422 Y106.024 E9.26555
G1 X63.467 Y105.831 E9.27154
G1 X63.594 Y105.341 E9.28684
G1 X63.721 Y104.891 E9.30098
G1 X63.939 Y104.204 E9.32276
G1 X64.006 Y104.015 E9.32883
G1 X64.171 Y103.579 E9.34292
G1 X64.335 Y103.172 E9.35618
G1 X64.584 Y102.602 E9.37499
G1 X64.671 Y102.417 E9.38117
G1 X64.889 Y101.978 E9.39598
G1 X65.092 Y101.592 E9.40917
G1 X65.442 Y100.976 E9.43059
G1 X65.563 Y100.778 E9.4376
G1 X65.827 Y100.367 E9.45237
G1 X67.312 Y98.092 E9.5345
G1 X68.635 Y95.928 E9.61117
G1 X69.887 Y93.745 E9.68725
G1 X71.068 Y91.545 E9.76273
G1 X72.206 Y89.268 E9.83968
G1 X73.248 Y87.03 E9.91431
G1 X74.258 Y84.69 E9.99136
G1 X75.198 Y82.334 E10.06804
G1 X75.816 Y80.631 E10.12281
G1 X76.149 Y79.739 E10.15159
G1 X76.233 Y79.52 E10.15868
G1 X76.381 Y79.148 E10.17078
G1 X76.637 Y78.557 E10.19025
G1 X76.73 Y78.358 E10.19689
G1 X76.96 Y77.893 E10.21258
G1 X77.171 Y77.492 E10.22627
G1 X77.498 Y76.914 E10.24635
G1 X77.601 Y76.744 E10.25236
G1 X77.882 Y76.304 E10.26814
G1 X78.141 Y75.919 E10.28217
G1 X78.496 Y75.422 E10.30063
G1 X78.611 Y75.27 E10.30639
G1 X78.927 Y74.872 E10.32176
G1 X79.219 Y74.521 E10.33556
G1 X79.666 Y74.015 E10.35597
M204 S500
G0 F7500 X79.958 Y74.29
M204 S550
G1 F1500 X80.103 Y74.136 E10.36236
G1 X80.456 Y73.778 E10.37756
G1 X80.778 Y73.467 E10.39109
G1 X81.191 Y73.088 E10.40804
G1 X81.328 Y72.969 E10.41353
G1 X81.73 Y72.637 E10.42929
G1 X82.094 Y72.351 E10.44328
G1 X82.549 Y72.013 E10.46042
G1 X82.697 Y71.909 E10.46588
G1 X83.155 Y71.604 E10.48252
G1 X83.558 Y71.351 E10.4969
G1 X84.046 Y71.063 E10.51403
G1 X84.199 Y70.978 E10.51932
G1 X84.671 Y70.731 E10.53543
G1 X85.084 Y70.528 E10.54934
G1 X85.601 Y70.291 E10.56653
G1 X85.812 Y70.201 E10.57347
G1 X86.363 Y69.984 E10.59137
G1 X86.758 Y69.841 E10.60407
G1 X87.263 Y69.672 E10.62017
G1 X87.508 Y69.597 E10.62791
G1 X87.758 Y69.524 E10.63579
G1 X88.524 Y69.311 E10.65982
G1 X89.514 Y69.047 E10.69079
G1 X91.977 Y68.317 E10.76845
G1 X94.356 Y67.537 E10.84414
G1 X96.801 Y66.658 E10.92268
G1 X98.236 Y66.104 E10.96918
G1 X99.222 Y65.713 E11.00125
G1 X99.505 Y65.606 E11.01039
G1 X99.964 Y65.439 E11.02516
G1 X100.6 Y65.23 E11.0454
G1 X100.794 Y65.173 E11.05151
G1 X101.211 Y65.059 E11.06458
G1 X101.615 Y64.958 E11.07717
G1 X102.178 Y64.834 E11.09459
G1 X102.375 Y64.796 E11.10066
G1 X102.861 Y64.714 E11.11556
G1 X103.302 Y64.65 E11.12903
G1 X103.951 Y64.576 E11.14878
G1 X104.181 Y64.557 E11.15575
G1 X104.662 Y64.528 E11.17032
G1 X105.094 Y64.512 E11.18339
G1 X105.681 Y64.507 E11.20113
G1 X106.714 Y64.526 E11.23237
G1 X108.141 Y64.567 E11.27552
G1 X110.651 Y64.567 E11.3514
G1 X113.197 Y64.496 E11.4284
G1 X115.706 Y64.355 E11.50436
G1 X118.234 Y64.14 E11.58106
G1 X120.763 Y63.853 E11.658
G1 X122.149 Y63.665 E11.70029
G1 X123.027 Y63.539 E11.7271
G1 X123.643 Y63.469 E11.74584
G1 X123.832 Y63.453 E11.75158
G1 X124.343 Y63.422 E11.76705
G1 X124.813 Y63.405 E11.78127
G1 X125.382 Y63.4 E11.79847
G1 X125.553 Y63.403 E11.80364
G1 X126.088 Y63.426 E11.81983
G1 X126.572 Y63.459 E11.83449
G1 X127.158 Y63.515 E11.85229
G1 X127.335 Y63.537 E11.85768
G1 X127.824 Y63.609 E11.87262
G1 X128.266 Y63.685 E11.88618
G1 X128.932 Y63.822 E11.90674
G1 X129.133 Y63.87 E11.91298
G1 X129.556 Y63.98 E11.9262
G1 X130.005 Y64.107 E11.9403
G1 X130.645 Y64.31 E11.9606
G1 X130.835 Y64.377 E11.96669
G1 X131.281 Y64.546 E11.98111
G1 X131.682 Y64.708 E11.99418
G1 X132.188 Y64.928 E12.01086
G1 X132.379 Y65.017 E12.01723
G1 X132.845 Y65.248 E12.03295
G1 X133.232 Y65.452 E12.04618
G1 X133.734 Y65.734 E12.06359
G1 X133.886 Y65.825 E12.06894
G1 X134.336 Y66.11 E12.08504
G1 X134.738 Y66.379 E12.09967
G1 X135.262 Y66.754 E12.11914
G1 X135.421 Y66.875 E12.12518
G1 X135.786 Y67.165 E12.13928
G1 X136.133 Y67.454 E12.15293
G1 X136.555 Y67.825 E12.16992
G1 X136.719 Y67.977 E12.17667
G1 X136.958 Y68.206 E12.18668
G1 X137.258 Y68.502 E12.19942
G1 X138.663 Y69.907 E12.25949
G1 X140.532 Y71.673 E12.33722
G1 X142.397 Y73.338 E12.4128
G1 X144.379 Y75.008 E12.49115
G1 X145.451 Y75.871 E12.53275
G1 X145.975 Y76.286 E12.55296
G1 X146.202 Y76.471 E12.56181
G1 X146.56 Y76.771 E12.57593
G1 X146.946 Y77.111 E12.59148
G1 X147.091 Y77.245 E12.59745
G1 X147.503 Y77.647 E12.61485
G1 X147.801 Y77.954 E12.62778
G1 X148.004 Y78.169 E12.63672
