;FLAVOR:Marlin
;TIME:2227
;Filament used: 1.48289m
;Layer height: 0.2
;MINX:86.33
;MINY:89.021
;MINZ:0.2
;MAXX:148.671
;MAXY:145.979
;MAXZ:11.4
;Generated with Cura_SteamEngine master
M140 S60
M105
M190 S60
M104 S200
M105
M109 S200
M82 ;absolute extrusion mode
; Ender 3 Custom Start G-code
G92 E0 ; Reset Extruder
G28 ; Home all axes
G1 Z2.0 F3000 ; Move Z Axis up little to prevent scratching of Heat Bed
G1 X0.1 Y20 Z0.3 F5000.0 ; Move to start position
G1 X0.1 Y200.0 Z0.3 F1500.0 E15 ; Draw the first line
G1 X0.4 Y200.0 Z0.3 F5000.0 ; Move to side a little
G1 X0.4 Y20 Z0.3 F1500.0 E30 ; Draw the second line
G92 E0 ; Reset Extruder
G1 Z2.0 F3000 ; Move Z Axis up little to prevent scratching of Heat Bed
G1 X5 Y20 Z0.3 F5000.0 ; Move over to prevent blob squish
G92 E0
G92 E0
G1 F2400 E-4
;LAYER_COUNT:58
;LAYER:0
M107
M204 S500
G0 F7500 X99.057 Y92.879 Z0.2
M204 S550
;TYPE:SKIRT
G1 F2400 E0
G1 F1500 X99.697 Y92.193 E0.02836
G1 X100.392 Y91.564 E0.0567
G1 X101.139 Y90.997 E0.08505
G1 X101.931 Y90.495 E0.1134
G1 X102.764 Y90.063 E0.14176
G1 X103.63 Y89.703 E0.17011
G1 X104.523 Y89.418 E0.19845
G1 X105.438 Y89.21 E0.22682
G1 X106.367 Y89.081 E0.25517
G1 X107.257 Y89.032 E0.28212
G1 X108.109 Y89.021 E0.30787
G1 X126.884 Y89.021 E0.87544
G1 X127.742 Y89.032 E0.90138
G1 X128.678 Y89.085 E0.92972
G1 X129.607 Y89.218 E0.95809
G1 X130.52 Y89.43 E0.98643
G1 X131.413 Y89.718 E1.01479
G1 X132.277 Y90.082 E1.04314
G1 X133.108 Y90.518 E1.0715
G1 X133.898 Y91.023 E1.09985
G1 X134.642 Y91.593 E1.12818
G1 X135.335 Y92.225 E1.15654
G1 X135.972 Y92.914 E1.1849
G1 X136.548 Y93.654 E1.21325
G1 X137.029 Y94.39 E1.23983
G1 X137.467 Y95.126 E1.26572
G1 X146.868 Y111.407 E1.83406
G1 X147.282 Y112.149 E1.85974
G1 X147.703 Y112.987 E1.88809
G1 X148.051 Y113.858 E1.91645
G1 X148.323 Y114.755 E1.94478
G1 X148.518 Y115.673 E1.97315
G1 X148.634 Y116.603 E2.00148
G1 X148.671 Y117.54 E2.02983
G1 X148.627 Y118.477 E2.05819
G1 X148.504 Y119.407 E2.08655
G1 X148.302 Y120.323 E2.1149
G1 X148.023 Y121.218 E2.14324
G1 X147.669 Y122.087 E2.17161
G1 X147.272 Y122.867 E2.19807
G1 X146.842 Y123.634 E2.22465
G1 X137.388 Y140.009 E2.79625
G1 X137.031 Y140.607 E2.8173
G1 X136.516 Y141.391 E2.84566
G1 X135.937 Y142.128 E2.87399
G1 X135.296 Y142.813 E2.90235
G1 X134.6 Y143.442 E2.93071
G1 X133.853 Y144.008 E2.95904
G1 X133.06 Y144.509 E2.9874
G1 X132.227 Y144.941 E3.01576
G1 X131.361 Y145.3 E3.0441
G1 X130.467 Y145.584 E3.07246
G1 X129.552 Y145.791 E3.10082
G1 X128.623 Y145.919 E3.12917
G1 X127.746 Y145.967 E3.15572
G1 X126.83 Y145.979 E3.18341
G1 X107.95 Y145.977 E3.75416
G1 X107.27 Y145.967 E3.77472
G1 X106.334 Y145.913 E3.80306
G1 X105.406 Y145.78 E3.8314
G1 X104.492 Y145.568 E3.85976
G1 X103.6 Y145.279 E3.88811
G1 X102.735 Y144.915 E3.91648
G1 X101.723 Y144.371 E3.95121
G1 X100.915 Y143.833 E3.98056
G1 X100.182 Y143.248 E4.00891
G1 X99.501 Y142.603 E4.03726
G1 X98.878 Y141.902 E4.06561
G1 X98.317 Y141.15 E4.09397
G1 X97.96 Y140.592 E4.114
G1 X97.524 Y139.859 E4.13978
G1 X88.131 Y123.585 E4.70781
G1 X87.739 Y122.887 E4.73201
G1 X87.315 Y122.051 E4.76035
G1 X86.964 Y121.181 E4.78871
G1 X86.688 Y120.285 E4.81705
G1 X86.49 Y119.368 E4.84541
G1 X86.37 Y118.438 E4.87376
G1 X86.33 Y117.501 E4.90211
G1 X86.37 Y116.564 E4.93046
G1 X86.49 Y115.634 E4.95881
G1 X86.688 Y114.717 E4.98717
G1 X86.964 Y113.821 E5.01551
G1 X87.315 Y112.951 E5.04387
G1 X87.717 Y112.154 E5.07086
G1 X88.18 Y111.324 E5.09959
G1 X97.609 Y94.998 E5.66952
G1 X97.964 Y94.402 E5.69049
G1 X98.478 Y93.617 E5.71886
G1 X99.057 Y92.879 E5.74721
M204 S500
G0 F7500 X99.383 Y93.114
M204 S550
G1 F1500 X100.014 Y92.443 E5.77506
G1 X100.7 Y91.829 E5.80289
G1 X101.437 Y91.278 E5.83071
G1 X102.219 Y90.792 E5.85854
G1 X103.04 Y90.376 E5.88637
G1 X103.895 Y90.033 E5.91421
G1 X104.775 Y89.765 E5.94202
G1 X105.676 Y89.575 E5.96986
G1 X106.59 Y89.463 E5.9977
G1 X107.262 Y89.432 E6.01803
G1 X108.109 Y89.421 E6.04364
G1 X126.884 Y89.421 E6.61121
G1 X127.736 Y89.432 E6.63697
G1 X128.655 Y89.485 E6.6648
G1 X129.566 Y89.618 E6.69263
G1 X130.462 Y89.829 E6.72046
G1 X131.337 Y90.117 E6.7483
G1 X132.183 Y90.48 E6.77613
G1 X132.994 Y90.915 E6.80395
G1 X133.765 Y91.419 E6.8318
G1 X134.489 Y91.988 E6.85964
G1 X135.161 Y92.617 E6.88746
G1 X135.776 Y93.302 E6.91529
G1 X136.329 Y94.038 E6.94312
G1 X136.685 Y94.595 E6.9631
G1 X137.121 Y95.327 E6.98886
G1 X146.604 Y111.752 E7.5622
G1 X146.933 Y112.343 E7.58265
G1 X147.345 Y113.166 E7.61047
G1 X147.685 Y114.022 E7.63832
G1 X147.948 Y114.904 E7.66614
G1 X148.135 Y115.806 E7.69399
G1 X148.242 Y116.72 E7.72181
G1 X148.27 Y117.64 E7.74963
G1 X148.218 Y118.559 E7.77746
G1 X148.086 Y119.471 E7.80531
G1 X147.876 Y120.367 E7.83313
G1 X147.588 Y121.242 E7.86098
G1 X147.226 Y122.088 E7.8888
G1 X146.923 Y122.672 E7.90869
G1 X146.496 Y123.434 E7.93509
G1 X137.123 Y139.67 E8.50183
G1 X136.687 Y140.401 E8.52756
G1 X136.182 Y141.171 E8.55539
G1 X135.611 Y141.893 E8.58322
G1 X134.98 Y142.563 E8.61104
G1 X134.293 Y143.176 E8.63888
G1 X133.555 Y143.727 E8.66672
G1 X132.773 Y144.212 E8.69454
G1 X131.951 Y144.628 E8.72239
G1 X131.096 Y144.97 E8.75023
G1 X130.215 Y145.237 E8.77805
G1 X129.314 Y145.426 E8.80588
G1 X128.4 Y145.537 E8.83372
G1 X127.74 Y145.567 E8.85369
G1 X126.83 Y145.579 E8.8812
G1 X107.956 Y145.577 E9.45177
G1 X107.276 Y145.567 E9.47232
G1 X106.357 Y145.513 E9.50015
G1 X105.446 Y145.38 E9.52799
G1 X104.55 Y145.169 E9.55581
G1 X103.676 Y144.88 E9.58364
G1 X102.83 Y144.517 E9.61147
G1 X101.931 Y144.029 E9.64239
G1 X101.137 Y143.5 E9.67123
G1 X100.419 Y142.924 E9.69906
G1 X99.754 Y142.288 E9.72688
G1 X99.146 Y141.597 E9.7547
G1 X98.6 Y140.855 E9.78255
G1 X98.304 Y140.387 E9.79929
G1 X97.871 Y139.659 E9.8249
G1 X88.48 Y123.389 E10.39279
G1 X88.088 Y122.691 E10.41699
G1 X87.672 Y121.87 E10.44482
G1 X87.33 Y121.015 E10.47265
G1 X87.062 Y120.134 E10.50049
G1 X86.873 Y119.234 E10.52829
G1 X86.762 Y118.32 E10.55613
G1 X86.73 Y117.399 E10.58398
G1 X86.779 Y116.48 E10.61181
G1 X86.908 Y115.568 E10.63965
G1 X87.115 Y114.671 E10.66748
G1 X87.399 Y113.796 E10.69529
G1 X87.758 Y112.948 E10.72313
G1 X88.067 Y112.349 E10.7435
G1 X88.527 Y111.524 E10.77206
G1 X97.953 Y95.203 E11.34182
G1 X98.308 Y94.607 E11.36279
G1 X98.813 Y93.837 E11.39062
G1 X99.383 Y93.114 E11.41846
M204 S500
G0 F7500 X99.709 Y93.349
M204 S550
G1 F1500 X100.33 Y92.693 E11.44576
G1 X101.007 Y92.095 E11.47307
G1 X101.734 Y91.56 E11.50036
G1 X102.505 Y91.09 E11.52765
G1 X103.315 Y90.691 E11.55495
G1 X104.158 Y90.365 E11.58227
G1 X105.025 Y90.115 E11.60955
G1 X105.912 Y89.942 E11.63687
G1 X106.81 Y89.849 E11.66416
G1 X107.268 Y89.832 E11.67802
G1 X108.109 Y89.821 E11.70344
G1 X126.884 Y89.821 E12.27101
G1 X127.73 Y89.832 E12.29659
G1 X128.632 Y89.885 E12.3239
G1 X129.525 Y90.017 E12.35119
G1 X130.404 Y90.228 E12.37852
G1 X131.26 Y90.516 E12.40582
G1 X132.087 Y90.878 E12.43311
G1 X132.879 Y91.312 E12.46041
G1 X133.629 Y91.815 E12.48771
G1 X134.332 Y92.382 E12.51502
G1 X134.982 Y93.008 E12.5423
G1 X135.575 Y93.69 E12.56962
G1 X136.342 Y94.8 E12.6104
G1 X136.698 Y95.396 E12.63139
G1 X146.254 Y111.947 E13.20914
G1 X146.583 Y112.538 E13.22958
G1 X146.987 Y113.346 E13.25689
G1 X147.318 Y114.186 E13.28419
G1 X147.573 Y115.052 E13.31148
G1 X147.751 Y115.938 E13.3388
G1 X147.849 Y116.835 E13.36608
G1 X147.868 Y117.738 E13.39338
G1 X147.807 Y118.639 E13.42068
G1 X147.666 Y119.531 E13.44798
G1 X147.448 Y120.407 E13.47527
G1 X147.152 Y121.261 E13.50259
G1 X146.574 Y122.476 E13.54327
G1 X146.15 Y123.234 E13.56952
G1 X136.777 Y139.47 E14.13625
G1 X136.344 Y140.196 E14.16181
G1 X135.847 Y140.951 E14.18913
G1 X135.286 Y141.658 E14.21642
G1 X134.664 Y142.313 E14.24372
G1 X133.986 Y142.91 E14.27103
G1 X133.259 Y143.445 E14.29832
G1 X132.487 Y143.914 E14.32563
G1 X131.676 Y144.312 E14.35294
G1 X130.834 Y144.637 E14.38022
G1 X129.966 Y144.887 E14.40753
G1 X129.079 Y145.058 E14.43483
G1 X127.735 Y145.167 E14.4756
G1 X126.83 Y145.179 E14.50296
G1 X107.962 Y145.177 E15.07334
G1 X107.282 Y145.167 E15.0939
G1 X106.38 Y145.114 E15.12121
G1 X105.487 Y144.981 E15.14851
G1 X104.609 Y144.77 E15.1758
G1 X103.753 Y144.481 E15.20312
G1 X102.926 Y144.119 E15.23041
G1 X102.11 Y143.67 E15.25856
G1 X101.36 Y143.167 E15.28586
G1 X100.657 Y142.601 E15.31315
G1 X100.007 Y141.974 E15.34045
G1 X99.415 Y141.292 E15.36775
G1 X98.647 Y140.181 E15.40858
G1 X98.217 Y139.459 E15.43398
G1 X88.829 Y123.194 E16.0017
G1 X88.437 Y122.496 E16.0259
G1 X88.03 Y121.689 E16.05322
G1 X87.696 Y120.85 E16.08052
G1 X87.437 Y119.985 E16.10782
G1 X87.256 Y119.1 E16.13513
G1 X87.154 Y118.203 E16.16242
G1 X87.132 Y117.3 E16.18972
G1 X87.19 Y116.399 E16.21702
G1 X87.327 Y115.506 E16.24433
G1 X87.543 Y114.629 E16.27163
G1 X87.835 Y113.775 E16.29892
G1 X88.202 Y112.949 E16.32624
G1 X88.416 Y112.543 E16.34011
G1 X88.873 Y111.724 E16.36847
G1 X98.297 Y95.407 E16.93809
G1 X98.652 Y94.811 E16.95906
G1 X99.148 Y94.057 E16.98634
G1 X99.709 Y93.349 E17.01365
M204 S500
G1 F2400 E13.01365
;MESH:TMPassMarkerBase.stl
G0 F7500 X106.714 Y99.898
G0 X107.65 Y100.438
G0 X126.913 Y101.197
G0 X136.327 Y117.499
G0 X127.014 Y133.979
M204 S550
;TYPE:WALL-INNER
G1 F2400 E17.01365
G1 F1500 X107.985 Y133.978 E17.5889
G1 X98.47 Y117.499 E18.16414
G1 X107.987 Y101.021 E18.73939
G1 X127.014 Y101.021 E19.31458
G1 X136.53 Y117.499 E19.88981
G1 X127.014 Y133.979 E20.46509
M204 S500
G0 F7500 X127.245 Y134.379
M204 S550
G1 F1500 X107.754 Y134.378 E21.0543
G1 X98.125 Y117.699 E21.6365
G1 X98.009 Y117.499 E21.64349
G1 X107.756 Y100.621 E22.23269
G1 X127.245 Y100.621 E22.82184
G1 X136.875 Y117.299 E23.40403
G1 X136.991 Y117.499 E23.41102
G1 X127.245 Y134.379 E24.00025
M204 S500
G0 F7500 X127.476 Y134.779
M204 S550
;TYPE:WALL-OUTER
G1 F1500 X107.523 Y134.778 E24.60343
G1 X97.548 Y117.499 E25.20657
G1 X107.525 Y100.221 E25.80972
G1 X127.476 Y100.221 E26.41284
G1 X137.452 Y117.499 E27.01596
G1 X127.476 Y134.779 E27.61914
M204 S500
G0 F7500 X127.205 Y134.368
G0 X126.789 Y133.589
M204 S550
;TYPE:SKIN
G1 F1500 X108.21 Y133.588 E28.18079
G1 X98.921 Y117.499 E28.7424
G1 X108.212 Y101.411 E29.30402
G1 X126.789 Y101.411 E29.86561
G1 X136.079 Y117.499 E30.42721
G1 X126.789 Y133.589 E30.98887
M204 S500
G0 F7500 X126.788 Y133.868
G0 X108.535 Y133.868
G0 X108.536 Y133.426
M204 S550
G1 F1500 X107.98 Y132.871 E31.01262
M204 S500
G0 F7500 X107.6 Y133.09
G0 X108.086 Y133.802
G0 X109.101 Y133.868
G0 X109.102 Y133.426
M204 S550
G1 F1500 X107.207 Y131.532 E31.09361
M204 S500
G0 F7500 X106.827 Y131.751
G0 X106.054 Y130.413
G0 X106.435 Y130.194
M204 S550
G1 F1500 X109.668 Y133.426 E31.23181
M204 S500
G0 F7500 X110.233 Y133.426
M204 S550
G1 F1500 X105.662 Y128.856 E31.4272
M204 S500
G0 F7500 X105.282 Y129.075
G0 X104.509 Y127.737
G0 X104.89 Y127.518
M204 S550
G1 F1500 X110.799 Y133.426 E31.6798
M204 S500
G0 F7500 X111.365 Y133.426
M204 S550
G1 F1500 X104.117 Y126.179 E31.98965
M204 S500
G0 F7500 X103.736 Y126.398
G0 X102.964 Y125.061
G0 X103.345 Y124.841
M204 S550
G1 F1500 X111.93 Y133.426 E32.35667
M204 S500
G0 F7500 X112.496 Y133.426
M204 S550
G1 F1500 X102.572 Y123.503 E32.78092
M204 S500
G0 F7500 X102.191 Y123.722
G0 X101.418 Y122.384
G0 X101.8 Y122.164
M204 S550
G1 F1500 X113.062 Y133.426 E33.26239
M204 S500
G0 F7500 X113.627 Y133.426
M204 S550
G1 F1500 X101.027 Y120.826 E33.80106
M204 S500
G0 F7500 X100.646 Y121.046
G0 X99.873 Y119.708
G0 X100.255 Y119.488
M204 S550
G1 F1500 X114.193 Y133.426 E34.39694
M204 S500
G0 F7500 X114.759 Y133.426
M204 S550
G1 F1500 X99.482 Y118.149 E35.05006
M204 S500
G0 F7500 X99.212 Y117.313
M204 S550
G1 F1500 X115.324 Y133.426 E35.7389
M204 S500
G0 F7500 X115.89 Y133.426
M204 S550
G1 F1500 X99.418 Y116.954 E36.44311
M204 S500
G0 F7500 X99.625 Y116.596
M204 S550
G1 F1500 X116.456 Y133.426 E37.16264
M204 S500
G0 F7500 X117.021 Y133.426
M204 S550
G1 F1500 X99.832 Y116.237 E37.89751
M204 S500
G0 F7500 X100.04 Y115.879
M204 S550
G1 F1500 X117.588 Y133.427 E38.64772
M204 S500
G0 F7500 X118.154 Y133.427
M204 S550
G1 F1500 X100.247 Y115.52 E39.41327
M204 S500
G0 F7500 X100.454 Y115.162
M204 S550
G1 F1500 X118.719 Y133.427 E40.19414
M204 S500
G0 F7500 X119.285 Y133.427
M204 S550
G1 F1500 X100.661 Y114.803 E40.99035
M204 S500
G0 F7500 X100.868 Y114.445
M204 S550
G1 F1500 X119.851 Y133.427 E41.80188
M204 S500
G0 F7500 X120.416 Y133.427
M204 S550
G1 F1500 X101.075 Y114.086 E42.62875
M204 S500
G0 F7500 X101.282 Y113.727
M204 S550
G1 F1500 X120.982 Y133.427 E43.47096
M204 S500
G0 F7500 X121.548 Y133.427
M204 S550
G1 F1500 X101.489 Y113.369 E44.3285
M204 S500
G0 F7500 X101.696 Y113.01
M204 S550
G1 F1500 X122.113 Y133.427 E45.20136
M204 S500
G0 F7500 X122.679 Y133.427
M204 S550
G1 F1500 X101.903 Y112.652 E46.08956
M204 S500
G0 F7500 X102.111 Y112.293
M204 S550
G1 F1500 X123.245 Y133.427 E46.99307
M204 S500
G0 F7500 X123.81 Y133.427
M204 S550
G1 F1500 X102.318 Y111.935 E47.9119
M204 S500
G0 F7500 X102.524 Y111.575
M204 S550
G1 F1500 X124.376 Y133.427 E48.84611
M204 S500
G0 F7500 X124.942 Y133.427
M204 S550
G1 F1500 X102.732 Y111.217 E49.79563
M204 S500
G0 F7500 X102.939 Y110.858
M204 S550
G1 F1500 X125.507 Y133.427 E50.76047
M204 S500
G0 F7500 X126.073 Y133.427
M204 S550
G1 F1500 X103.146 Y110.5 E51.74065
M204 S500
G0 F7500 X103.353 Y110.141
M204 S550
G1 F1500 X126.639 Y133.427 E52.73617
M204 S500
G0 F7500 X126.883 Y133.105
M204 S550
G1 F1500 X103.56 Y109.783 E53.73325
M204 S500
G0 F7500 X103.767 Y109.424
M204 S550
G1 F1500 X127.09 Y132.747 E54.73035
M204 S500
G0 F7500 X127.297 Y132.388
M204 S550
G1 F1500 X103.975 Y109.066 E55.72741
M204 S500
G0 F7500 X104.181 Y108.707
M204 S550
G1 F1500 X127.504 Y132.029 E56.72449
M204 S500
G0 F7500 X127.711 Y131.671
M204 S550
G1 F1500 X104.388 Y108.348 E57.72159
M204 S500
G0 F7500 X104.595 Y107.99
M204 S550
G1 F1500 X127.918 Y131.312 E58.71867
M204 S500
G0 F7500 X128.125 Y130.954
M204 S550
G1 F1500 X104.803 Y107.631 E59.71575
M204 S500
G0 F7500 X105.01 Y107.273
M204 S550
G1 F1500 X128.332 Y130.595 E60.71281
M204 S500
G0 F7500 X128.539 Y130.237
M204 S550
G1 F1500 X105.217 Y106.914 E61.70989
M204 S500
G0 F7500 X105.424 Y106.556
M204 S550
G1 F1500 X128.746 Y129.877 E62.70693
M204 S500
G0 F7500 X128.953 Y129.519
M204 S550
G1 F1500 X105.631 Y106.197 E63.70399
M204 S500
G0 F7500 X105.838 Y105.838
M204 S550
G1 F1500 X129.16 Y129.16 E64.70105
M204 S500
G0 F7500 X129.368 Y128.802
M204 S550
G1 F1500 X106.045 Y105.479 E65.69815
M204 S500
G0 F7500 X106.252 Y105.121
M204 S550
G1 F1500 X129.575 Y128.443 E66.69523
M204 S500
G0 F7500 X129.781 Y128.084
M204 S550
G1 F1500 X106.459 Y104.762 E67.69229
M204 S500
G0 F7500 X106.667 Y104.404
M204 S550
G1 F1500 X129.988 Y127.726 E68.68933
M204 S500
G0 F7500 X130.196 Y127.367
M204 S550
G1 F1500 X106.874 Y104.045 E69.68639
M204 S500
G0 F7500 X107.081 Y103.687
M204 S550
G1 F1500 X130.403 Y127.009 E70.68344
M204 S500
G0 F7500 X130.61 Y126.65
M204 S550
G1 F1500 X107.287 Y103.328 E71.68052
M204 S500
G0 F7500 X107.495 Y102.969
M204 S550
G1 F1500 X130.816 Y126.291 E72.67756
M204 S500
G0 F7500 X131.024 Y125.932
M204 S550
G1 F1500 X107.702 Y102.611 E73.6746
M204 S500
G0 F7500 X107.909 Y102.252
M204 S550
G1 F1500 X131.231 Y125.574 E74.67166
M204 S500
G0 F7500 X131.438 Y125.215
M204 S550
G1 F1500 X108.116 Y101.894 E75.6687
M204 S500
G0 F7500 X108.359 Y101.571
M204 S550
G1 F1500 X131.645 Y124.857 E76.66422
M204 S500
G0 F7500 X131.852 Y124.498
M204 S550
G1 F1500 X108.925 Y101.571 E77.64439
M204 S500
G0 F7500 X109.491 Y101.571
M204 S550
G1 F1500 X132.059 Y124.139 E78.60921
M204 S500
G0 F7500 X132.266 Y123.781
M204 S550
G1 F1500 X110.056 Y101.571 E79.55873
M204 S500
G0 F7500 X110.622 Y101.571
M204 S550
G1 F1500 X132.473 Y123.422 E80.4929
M204 S500
G0 F7500 X132.68 Y123.064
M204 S550
G1 F1500 X111.188 Y101.571 E81.41175
M204 S500
G0 F7500 X111.753 Y101.571
M204 S550
G1 F1500 X132.887 Y122.705 E82.31527
M204 S500
G0 F7500 X133.094 Y122.346
M204 S550
G1 F1500 X112.319 Y101.571 E83.20344
M204 S500
G0 F7500 X112.885 Y101.571
M204 S550
G1 F1500 X133.301 Y121.987 E84.07626
M204 S500
G0 F7500 X133.508 Y121.629
M204 S550
G1 F1500 X113.451 Y101.571 E84.93375
M204 S500
G0 F7500 X114.016 Y101.571
M204 S550
G1 F1500 X133.716 Y121.27 E85.77594
M204 S500
G0 F7500 X133.923 Y120.912
M204 S550
