;FLAVOR:Marlin
;TIME:2990
;Filament used: 2.75523m
;Layer height: 0.2
;MINX:70.513
;MINY:70.515
;MINZ:0.2
;MAXX:164.487
;MAXY:164.485
;MAXZ:2
;Generated with Cura_SteamEngine master
M140 S60
M105
M190 S60
M104 S200
M105
M109 S200
M82 ;absolute extrusion mode
; Ender 3 Custom Start G-code
G92 E0 ; Reset Extruder
G28 ; Home all axes
G1 Z2.0 F3000 ; Move Z Axis up little to prevent scratching of Heat Bed
G1 X0.1 Y20 Z0.3 F5000.0 ; Move to start position
G1 X0.1 Y200.0 Z0.3 F1500.0 E15 ; Draw the first line
G1 X0.4 Y200.0 Z0.3 F5000.0 ; Move to side a little
G1 X0.4 Y20 Z0.3 F1500.0 E30 ; Draw the second line
G92 E0 ; Reset Extruder
G1 Z2.0 F3000 ; Move Z Axis up little to prevent scratching of Heat Bed
G1 X5 Y20 Z0.3 F5000.0 ; Move over to prevent blob squish
G92 E0
G92 E0
G1 F1500 E-6.5
;LAYER_COUNT:10
;LAYER:0
M107
G0 F6000 X119.478 Y71.358 Z0.2
;TYPE:SKIRT
G1 F1500 E0
G1 F1200 X120.035 Y71.384 E0.01855
G1 X120.353 Y71.404 E0.02914
G1 X121.726 Y71.512 E0.07495
G1 X122.456 Y71.582 E0.09934
G1 X123.262 Y71.675 E0.12633
G1 X124.453 Y71.843 E0.16633
G1 X125.334 Y71.984 E0.19601
G1 X125.748 Y72.056 E0.20998
G1 X126.075 Y72.118 E0.22105
G1 X127.602 Y72.437 E0.27294
G1 X128.121 Y72.554 E0.29063
G1 X128.605 Y72.67 E0.30719
G1 X128.912 Y72.749 E0.31773
G1 X130.353 Y73.143 E0.36742
G1 X130.963 Y73.321 E0.38855
G1 X131.427 Y73.462 E0.40468
G1 X131.756 Y73.568 E0.41618
G1 X132.868 Y73.949 E0.45528
G1 X133.665 Y74.237 E0.48346
G1 X134.21 Y74.442 E0.50283
G1 X134.513 Y74.562 E0.51367
G1 X135.578 Y75.003 E0.55201
G1 X136.321 Y75.325 E0.57894
G1 X137.223 Y75.735 E0.61189
G1 X138.035 Y76.131 E0.64194
G1 X138.943 Y76.595 E0.67586
G1 X139.351 Y76.81 E0.6912
G1 X139.661 Y76.98 E0.70295
G1 X141.302 Y77.923 E0.7659
G1 X141.935 Y78.307 E0.79053
G1 X142.23 Y78.493 E0.80213
G1 X143.239 Y79.155 E0.84227
G1 X143.944 Y79.635 E0.87063
G1 X144.626 Y80.119 E0.89845
G1 X145.602 Y80.851 E0.93903
G1 X146.238 Y81.345 E0.96581
G1 X146.667 Y81.687 E0.98406
G1 X146.926 Y81.9 E0.99521
G1 X147.86 Y82.698 E1.03607
G1 X148.477 Y83.243 E1.06345
G1 X148.878 Y83.607 E1.08146
G1 X149.103 Y83.819 E1.09175
G1 X149.94 Y84.629 E1.13049
G1 X150.574 Y85.264 E1.16033
G1 X150.928 Y85.628 E1.17722
G1 X151.154 Y85.868 E1.18818
G1 X151.972 Y86.767 E1.22861
G1 X152.503 Y87.372 E1.25538
G1 X153.095 Y88.069 E1.2858
G1 X153.808 Y88.96 E1.32375
G1 X154.35 Y89.659 E1.35317
G1 X154.657 Y90.067 E1.37016
G1 X154.838 Y90.316 E1.3804
G1 X155.56 Y91.341 E1.4221
G1 X156.022 Y92.022 E1.44947
G1 X156.304 Y92.45 E1.46651
G1 X156.479 Y92.725 E1.47735
G1 X157.132 Y93.79 E1.51891
G1 X157.529 Y94.463 E1.54489
G1 X157.966 Y95.237 E1.57446
G1 X158.521 Y96.284 E1.61387
G1 X158.891 Y97.012 E1.64103
G1 X159.143 Y97.523 E1.65998
G1 X159.287 Y97.828 E1.6712
G1 X159.784 Y98.928 E1.71135
G1 X160.088 Y99.632 E1.73685
G1 X160.325 Y100.201 E1.75735
G1 X160.444 Y100.502 E1.76812
G1 X160.868 Y101.621 E1.80792
G1 X161.132 Y102.361 E1.83405
G1 X161.426 Y103.225 E1.86441
G1 X161.762 Y104.319 E1.90247
G1 X162.009 Y105.171 E1.93197
G1 X162.231 Y105.997 E1.96042
G1 X162.504 Y107.13 E1.99918
G1 X162.693 Y107.981 E2.02818
G1 X162.8 Y108.489 E2.04544
G1 X162.866 Y108.829 E2.05696
G1 X163.067 Y109.987 E2.09606
G1 X163.202 Y110.845 E2.12494
G1 X163.32 Y111.689 E2.15329
G1 X163.448 Y112.851 E2.19217
G1 X163.533 Y113.753 E2.2223
G1 X163.593 Y114.568 E2.24948
G1 X163.651 Y115.779 E2.28981
G1 X163.677 Y116.643 E2.31856
G1 X163.687 Y117.485 E2.34657
G1 X163.669 Y118.661 E2.38568
G1 X163.64 Y119.528 E2.41454
G1 X163.596 Y120.398 E2.44351
G1 X163.506 Y121.545 E2.48178
G1 X163.42 Y122.447 E2.51191
G1 X163.325 Y123.274 E2.5396
G1 X163.159 Y124.437 E2.57867
G1 X163.018 Y125.326 E2.60861
G1 X162.933 Y125.817 E2.62519
G1 X162.872 Y126.136 E2.63599
G1 X162.631 Y127.299 E2.67549
G1 X162.451 Y128.103 E2.70289
G1 X162.236 Y128.981 E2.73296
G1 X161.933 Y130.092 E2.77126
G1 X161.689 Y130.929 E2.80026
G1 X161.426 Y131.774 E2.82969
G1 X161.049 Y132.874 E2.86837
G1 X160.764 Y133.661 E2.89621
G1 X160.439 Y134.512 E2.92651
G1 X159.997 Y135.578 E2.96489
G1 X159.681 Y136.308 E2.99134
G1 X159.424 Y136.88 E3.0122
G1 X159.284 Y137.179 E3.02318
G1 X158.773 Y138.222 E3.06181
G1 X158.399 Y138.954 E3.08915
G1 X158.128 Y139.468 E3.10848
G1 X157.974 Y139.748 E3.11911
G1 X157.403 Y140.751 E3.15749
G1 X156.961 Y141.497 E3.18633
G1 X156.513 Y142.221 E3.21465
G1 X155.835 Y143.256 E3.25581
G1 X155.364 Y143.946 E3.28359
G1 X155.072 Y144.362 E3.3005
G1 X154.893 Y144.608 E3.31061
G1 X154.128 Y145.63 E3.35307
G1 X153.635 Y146.262 E3.37973
G1 X153.29 Y146.694 E3.39812
G1 X153.087 Y146.94 E3.40873
G1 X152.332 Y147.825 E3.44742
G1 X151.804 Y148.422 E3.47393
G1 X151.413 Y148.855 E3.49333
G1 X151.177 Y149.108 E3.50484
G1 X150.333 Y149.978 E3.54516
G1 X149.734 Y150.576 E3.57331
G1 X149.147 Y151.14 E3.60038
G1 X148.234 Y151.972 E3.64147
G1 X147.599 Y152.531 E3.66961
G1 X147.205 Y152.869 E3.68687
G1 X146.948 Y153.082 E3.69797
G1 X146.024 Y153.822 E3.73735
G1 X145.327 Y154.361 E3.76665
G1 X144.66 Y154.856 E3.79428
G1 X143.71 Y155.525 E3.83292
G1 X142.977 Y156.023 E3.8624
G1 X142.177 Y156.545 E3.89417
G1 X141.479 Y156.973 E3.9214
G1 X140.563 Y157.514 E3.95678
G1 X140.105 Y157.776 E3.97433
G1 X139.786 Y157.951 E3.98644
G1 X138.007 Y158.882 E4.05322
G1 X137.477 Y159.143 E4.07287
G1 X137.184 Y159.281 E4.08364
G1 X136.053 Y159.792 E4.12492
G1 X135.368 Y160.088 E4.14974
G1 X134.799 Y160.325 E4.17024
G1 X134.495 Y160.446 E4.18112
G1 X133.393 Y160.862 E4.2203
G1 X132.628 Y161.136 E4.24733
G1 X131.736 Y161.439 E4.27866
G1 X130.809 Y161.726 E4.31093
G1 X129.814 Y162.013 E4.34538
G1 X128.934 Y162.25 E4.37569
G1 X128.05 Y162.464 E4.40594
G1 X127.018 Y162.694 E4.44111
G1 X126.489 Y162.805 E4.45908
G1 X126.158 Y162.868 E4.47029
G1 X124.996 Y163.071 E4.50953
G1 X124.142 Y163.204 E4.53827
G1 X123.262 Y163.327 E4.56783
G1 X122.291 Y163.435 E4.60032
G1 X121.266 Y163.532 E4.63456
G1 X120.329 Y163.602 E4.66582
G1 X119.461 Y163.644 E4.69472
G1 X118.386 Y163.677 E4.73049
G1 X117.901 Y163.685 E4.74662
G1 X117.539 Y163.684 E4.75866
G1 X115.522 Y163.642 E4.82576
G1 X114.965 Y163.616 E4.84431
G1 X114.647 Y163.596 E4.85491
G1 X113.274 Y163.488 E4.90072
G1 X112.544 Y163.418 E4.92511
G1 X111.738 Y163.325 E4.95209
G1 X110.547 Y163.157 E4.9921
G1 X109.666 Y163.016 E5.02177
G1 X109.252 Y162.944 E5.03575
G1 X108.925 Y162.882 E5.04682
G1 X107.398 Y162.563 E5.0987
G1 X106.879 Y162.446 E5.1164
G1 X106.395 Y162.33 E5.13295
G1 X106.088 Y162.251 E5.1435
G1 X104.647 Y161.857 E5.19318
G1 X104.037 Y161.679 E5.21432
G1 X103.573 Y161.538 E5.23045
G1 X103.244 Y161.432 E5.24194
G1 X102.132 Y161.051 E5.28104
G1 X101.335 Y160.763 E5.30923
G1 X100.79 Y160.558 E5.32859
G1 X100.487 Y160.438 E5.33943
G1 X99.422 Y159.997 E5.37777
G1 X98.679 Y159.675 E5.4047
G1 X97.777 Y159.265 E5.43766
G1 X96.965 Y158.869 E5.46771
G1 X96.057 Y158.405 E5.50162
G1 X95.649 Y158.19 E5.51696
G1 X95.339 Y158.02 E5.52872
G1 X93.698 Y157.077 E5.59167
G1 X93.065 Y156.693 E5.61629
G1 X92.77 Y156.507 E5.62789
G1 X91.761 Y155.845 E5.66803
G1 X91.052 Y155.362 E5.69656
G1 X90.375 Y154.881 E5.72419
G1 X89.398 Y154.149 E5.76479
G1 X88.759 Y153.653 E5.79169
G1 X88.329 Y153.31 E5.80999
G1 X88.074 Y153.099 E5.821
G1 X87.14 Y152.302 E5.86183
G1 X86.522 Y151.756 E5.88926
G1 X86.12 Y151.391 E5.90732
G1 X85.894 Y151.178 E5.91765
G1 X85.048 Y150.359 E5.95681
G1 X84.426 Y149.737 E5.98607
G1 X84.071 Y149.372 E6.00301
G1 X83.844 Y149.131 E6.01402
G1 X83.028 Y148.233 E6.05437
G1 X82.497 Y147.628 E6.08115
G1 X81.904 Y146.93 E6.11161
G1 X81.185 Y146.031 E6.1499
G1 X80.65 Y145.341 E6.17894
G1 X80.343 Y144.933 E6.19592
G1 X80.162 Y144.684 E6.20616
G1 X79.44 Y143.659 E6.24786
G1 X78.975 Y142.974 E6.2754
G1 X78.692 Y142.544 E6.29252
G1 X78.521 Y142.275 E6.30312
G1 X77.868 Y141.21 E6.34467
G1 X77.474 Y140.542 E6.37046
G1 X77.185 Y140.037 E6.38982
G1 X77.03 Y139.755 E6.40052
G1 X76.463 Y138.685 E6.4408
G1 X76.105 Y137.981 E6.46706
G1 X75.853 Y137.469 E6.48604
G1 X75.714 Y137.175 E6.49686
G1 X75.216 Y136.072 E6.53711
G1 X74.912 Y135.368 E6.56262
G1 X74.675 Y134.799 E6.58312
G1 X74.556 Y134.498 E6.59388
G1 X74.132 Y133.379 E6.63368
G1 X73.866 Y132.633 E6.66003
G1 X73.574 Y131.773 E6.69023
G1 X73.231 Y130.657 E6.72907
G1 X72.99 Y129.824 E6.75791
G1 X72.769 Y129.004 E6.78615
G1 X72.489 Y127.839 E6.82601
G1 X72.307 Y127.019 E6.85394
G1 X72.2 Y126.511 E6.87121
G1 X72.135 Y126.174 E6.88263
G1 X71.926 Y124.976 E6.92307
G1 X71.797 Y124.152 E6.95081
G1 X71.723 Y123.643 E6.96792
G1 X71.68 Y123.308 E6.97915
G1 X71.548 Y122.117 E7.01901
G1 X71.467 Y121.246 E7.0481
G1 X71.407 Y120.431 E7.07528
G1 X71.349 Y119.221 E7.11557
G1 X71.323 Y118.357 E7.14432
G1 X71.313 Y117.509 E7.17253
G1 X71.332 Y116.312 E7.21235
G1 X71.36 Y115.472 E7.2403
G1 X71.385 Y114.924 E7.25855
G1 X71.405 Y114.601 E7.26931
G1 X71.497 Y113.428 E7.30845
G1 X71.58 Y112.553 E7.33768
G1 X71.675 Y111.726 E7.36537
G1 X71.841 Y110.563 E7.40444
G1 X71.982 Y109.674 E7.43438
G1 X72.067 Y109.183 E7.45095
G1 X72.128 Y108.865 E7.46172
G1 X72.375 Y107.673 E7.50221
G1 X72.555 Y106.87 E7.52958
G1 X72.763 Y106.022 E7.55862
G1 X73.072 Y104.89 E7.59765
G1 X73.311 Y104.071 E7.62602
G1 X73.576 Y103.22 E7.65567
G1 X73.95 Y102.129 E7.69403
G1 X74.236 Y101.339 E7.72197
G1 X74.559 Y100.492 E7.75212
G1 X75.008 Y99.408 E7.79115
G1 X75.319 Y98.692 E7.81711
G1 X75.576 Y98.12 E7.83797
G1 X75.716 Y97.821 E7.84895
G1 X76.228 Y96.777 E7.88762
G1 X76.629 Y95.993 E7.91691
G1 X77.027 Y95.249 E7.94498
G1 X77.607 Y94.231 E7.98395
G1 X78.039 Y93.503 E8.0121
G1 X78.49 Y92.774 E8.04061
G1 X79.167 Y91.742 E8.08166
G1 X79.636 Y91.054 E8.10936
G1 X79.928 Y90.638 E8.12626
G1 X80.107 Y90.392 E8.13638
G1 X80.874 Y89.368 E8.17893
G1 X81.364 Y88.739 E8.20545
G1 X81.708 Y88.308 E8.22379
G1 X81.913 Y88.06 E8.2345
G1 X82.668 Y87.175 E8.27319
G1 X83.196 Y86.578 E8.2997
G1 X83.587 Y86.145 E8.3191
G1 X83.823 Y85.892 E8.33061
G1 X84.667 Y85.022 E8.37092
G1 X85.287 Y84.403 E8.40006
G1 X85.856 Y83.857 E8.42629
G1 X86.779 Y83.016 E8.46782
G1 X87.401 Y82.469 E8.49537
G1 X87.795 Y82.131 E8.51264
G1 X88.055 Y81.916 E8.52386
G1 X88.988 Y81.169 E8.56361
G1 X89.673 Y80.639 E8.59242
G1 X90.341 Y80.143 E8.62009
G1 X91.314 Y79.458 E8.65967
G1 X92.023 Y78.977 E8.68816
G1 X92.823 Y78.455 E8.71994
G1 X93.523 Y78.025 E8.74726
G1 X94.451 Y77.478 E8.78309
G1 X94.895 Y77.224 E8.8001
G1 X95.215 Y77.049 E8.81223
G1 X97.004 Y76.113 E8.87939
G1 X97.524 Y75.857 E8.89866
G1 X97.818 Y75.718 E8.90948
G1 X98.949 Y75.207 E8.95076
G1 X99.632 Y74.912 E8.9755
G1 X100.201 Y74.675 E8.996
G1 X100.502 Y74.556 E9.00677
G1 X101.621 Y74.132 E9.04657
G1 X102.372 Y73.864 E9.07309
G1 X103.264 Y73.561 E9.10442
G1 X104.191 Y73.274 E9.1367
G1 X105.186 Y72.987 E9.17114
G1 X106.066 Y72.75 E9.20146
G1 X106.95 Y72.536 E9.23171
G1 X107.982 Y72.306 E9.26687
G1 X108.511 Y72.195 E9.28485
G1 X108.842 Y72.132 E9.29606
G1 X110.004 Y71.929 E9.33529
G1 X110.858 Y71.796 E9.36404
G1 X111.738 Y71.673 E9.39359
G1 X112.709 Y71.565 E9.42609
G1 X113.734 Y71.468 E9.46033
G1 X114.671 Y71.398 E9.49158
G1 X115.539 Y71.356 E9.52049
G1 X116.614 Y71.323 E9.55626
G1 X117.099 Y71.315 E9.57239
G1 X117.461 Y71.316 E9.58443
G1 X119.478 Y71.358 E9.65153
G0 F6000 X119.496 Y70.959
G1 F1200 X120.385 Y71.005 E9.68114
G1 X121.763 Y71.114 E9.72711
G1 X122.5 Y71.185 E9.75174
G1 X123.317 Y71.279 E9.77909
G1 X124.515 Y71.448 E9.81933
G1 X125.402 Y71.59 E9.84921
G1 X125.816 Y71.662 E9.86319
G1 X126.157 Y71.727 E9.87473
G1 X127.69 Y72.046 E9.92681
G1 X128.215 Y72.165 E9.94472
G1 X128.699 Y72.281 E9.96127
G1 X129.018 Y72.363 E9.97223
G1 X130.465 Y72.759 E10.02212
G1 X131.079 Y72.938 E10.0434
G1 X131.543 Y73.079 E10.05952
G1 X131.886 Y73.189 E10.07151
G1 X133.004 Y73.573 E10.11082
G1 X133.806 Y73.863 E10.13919
G1 X134.351 Y74.068 E10.15855
G1 X134.666 Y74.192 E10.16981
G1 X135.736 Y74.635 E10.20833
G1 X136.485 Y74.96 E10.23549
G1 X137.397 Y75.375 E10.26881
G1 X138.217 Y75.775 E10.29916
G1 X139.13 Y76.241 E10.33325
G1 X139.538 Y76.456 E10.34859
G1 X139.859 Y76.633 E10.36078
G1 X141.51 Y77.581 E10.4241
G1 X142.143 Y77.965 E10.44873
G1 X142.449 Y78.158 E10.46076
G1 X143.463 Y78.824 E10.50111
G1 X144.174 Y79.308 E10.52972
G1 X144.603 Y79.609 E10.54715
G1 X144.865 Y79.799 E10.55791
G1 X145.847 Y80.535 E10.59873
G1 X146.488 Y81.032 E10.62571
G1 X146.917 Y81.374 E10.64396
G1 X147.185 Y81.596 E10.65553
G1 X148.124 Y82.398 E10.6966
G1 X148.745 Y82.947 E10.72417
G1 X149.381 Y83.531 E10.75289
G1 X150.223 Y84.346 E10.79186
G1 X150.861 Y84.985 E10.8219
G1 X151.215 Y85.349 E10.83879
G1 X151.45 Y85.599 E10.8502
G1 X152.272 Y86.503 E10.89084
G1 X152.807 Y87.111 E10.91777
G1 X153.184 Y87.55 E10.93702
G1 X153.406 Y87.818 E10.94859
G1 X154.124 Y88.714 E10.98678
G1 X154.67 Y89.419 E11.01644
G1 X155.165 Y90.085 E11.04404
G1 X155.891 Y91.116 E11.08598
G1 X156.356 Y91.802 E11.11354
G1 X156.82 Y92.515 E11.14184
G1 X157.476 Y93.586 E11.18361
G1 X157.876 Y94.265 E11.20982
G1 X158.319 Y95.049 E11.23977
G1 X158.877 Y96.102 E11.27941
G1 X159.25 Y96.835 E11.30676
G1 X159.502 Y97.346 E11.32571
G1 X159.652 Y97.663 E11.33738
G1 X160.151 Y98.769 E11.37774
G1 X160.457 Y99.478 E11.40342
G1 X160.694 Y100.047 E11.42392
G1 X160.818 Y100.36 E11.43512
G1 X161.244 Y101.486 E11.47516
G1 X161.51 Y102.23 E11.50144
G1 X161.697 Y102.77 E11.52045
G1 X161.808 Y103.107 E11.53225
G1 X162.146 Y104.207 E11.57052
G1 X162.395 Y105.065 E11.60024
G1 X162.62 Y105.903 E11.62909
G1 X162.894 Y107.043 E11.66809
G1 X163.084 Y107.898 E11.69722
G1 X163.191 Y108.406 E11.71449
G1 X163.26 Y108.76 E11.72648
G1 X163.462 Y109.924 E11.76578
G1 X163.598 Y110.787 E11.79484
G1 X163.672 Y111.295 E11.81191
G1 X163.717 Y111.644 E11.82361
G1 X163.847 Y112.813 E11.86274
G1 X163.932 Y113.721 E11.89307
G1 X163.972 Y114.223 E11.90982
G1 X163.992 Y114.549 E11.92068
G1 X164.05 Y115.766 E11.9612
G1 X164.077 Y116.636 E11.99015
G1 X164.087 Y117.491 E12.01859
G1 X164.069 Y118.674 E12.05794
G1 X164.04 Y119.546 E12.08696
G1 X164.015 Y120.094 E12.10521
G1 X163.994 Y120.429 E12.11637
G1 X163.904 Y121.582 E12.15484
G1 X163.817 Y122.49 E12.18518
G1 X163.721 Y123.33 E12.2133
G1 X163.554 Y124.499 E12.25257
G1 X163.412 Y125.394 E12.28271
G1 X163.327 Y125.885 E12.29929
G1 X163.264 Y126.217 E12.31053
G1 X163.022 Y127.385 E12.3502
G1 X162.84 Y128.197 E12.37788
G1 X162.622 Y129.085 E12.40829
G1 X162.317 Y130.203 E12.44683
G1 X162.072 Y131.047 E12.47606
G1 X161.905 Y131.592 E12.49502
G1 X161.804 Y131.903 E12.5059
G1 X161.425 Y133.01 E12.54481
G1 X161.139 Y133.802 E12.57282
G1 X160.935 Y134.345 E12.59211
G1 X160.809 Y134.665 E12.60355
G1 X160.365 Y135.736 E12.64211
G1 X160.046 Y136.472 E12.66879
G1 X159.789 Y137.044 E12.68965
G1 X159.643 Y137.355 E12.70108
G1 X159.129 Y138.403 E12.7399
G1 X158.753 Y139.141 E12.76745
G1 X158.482 Y139.655 E12.78678
G1 X158.322 Y139.946 E12.79782
G1 X157.748 Y140.954 E12.8364
G1 X157.302 Y141.706 E12.86548
G1 X156.848 Y142.44 E12.89419
G1 X156.166 Y143.481 E12.93558
G1 X155.691 Y144.176 E12.96358
G1 X155.214 Y144.848 E12.99099
G1 X154.443 Y145.875 E13.0337
G1 X153.948 Y146.512 E13.06053
G1 X153.603 Y146.944 E13.07892
G1 X153.392 Y147.2 E13.08995
G1 X152.632 Y148.089 E13.12885
G1 X152.101 Y148.69 E13.15553
G1 X151.71 Y149.123 E13.17493
G1 X151.465 Y149.386 E13.18689
G1 X150.616 Y150.261 E13.22744
G1 X150.013 Y150.863 E13.25578
G1 X149.657 Y151.209 E13.27229
G1 X149.417 Y151.435 E13.28325
G1 X148.498 Y152.272 E13.3246
G1 X147.86 Y152.834 E13.35288
G1 X147.466 Y153.172 E13.37014
G1 X147.198 Y153.394 E13.38172
G1 X146.27 Y154.138 E13.42128
G1 X145.567 Y154.681 E13.45082
G1 X144.89 Y155.183 E13.47885
G1 X143.935 Y155.856 E13.51771
G1 X143.197 Y156.357 E13.54738
G1 X142.387 Y156.885 E13.57954
G1 X141.683 Y157.318 E13.60703
G1 X140.761 Y157.861 E13.64262
G1 X140.303 Y158.123 E13.66017
G1 X139.972 Y158.305 E13.67273
G1 X138.184 Y159.24 E13.73984
G1 X137.349 Y159.646 E13.77072
G1 X136.212 Y160.159 E13.81221
G1 X135.522 Y160.457 E13.83721
G1 X134.953 Y160.694 E13.85771
G1 X134.637 Y160.82 E13.86902
G1 X133.528 Y161.239 E13.90845
G1 X132.759 Y161.514 E13.93562
G1 X131.855 Y161.821 E13.96737
G1 X130.921 Y162.11 E13.99989
G1 X129.919 Y162.399 E14.03457
G1 X129.029 Y162.639 E14.06523
G1 X128.137 Y162.854 E14.09575
