;FLAVOR:Marlin
;TIME:2990
;Filament used: 2.76038m
;Layer height: 0.2
;MINX:70.513
;MINY:70.515
;MINZ:0.2
;MAXX:164.487
;MAXY:164.485
;MAXZ:2
;Generated with Cura_SteamEngine master
M140 S60
M105
M190 S60
M104 S200
M105
M109 S200
M82 ;absolute extrusion mode
; Ender 3 Custom Start G-code
G92 E0 ; Reset Extruder
G28 ; Home all axes
G1 Z2.0 F3000 ; Move Z Axis up little to prevent scratching of Heat Bed
G1 X0.1 Y20 Z0.3 F5000.0 ; Move to start position
G1 X0.1 Y200.0 Z0.3 F1500.0 E15 ; Draw the first line
G1 X0.4 Y200.0 Z0.3 F5000.0 ; Move to side a little
G1 X0.4 Y20 Z0.3 F1500.0 E30 ; Draw the second line
G92 E0 ; Reset Extruder
G1 Z2.0 F3000 ; Move Z Axis up little to prevent scratching of Heat Bed
G1 X5 Y20 Z0.3 F5000.0 ; Move over to prevent blob squish
G92 E0
G92 E0
G1 F1500 E-6.5
;LAYER_COUNT:10
;LAYER:0
M107
G0 F6000 X119.478 Y71.358 Z0.2
;TYPE:SKIRT
G1 F1500 E0
G1 F1200 X120.035 Y71.384 E0.01855
G1 X120.353 Y71.404 E0.02914
G1 X121.726 Y71.512 E0.07495
G1 X122.456 Y71.582 E0.09934
G1 X123.262 Y71.675 E0.12633
G1 X124.453 Y71.843 E0.16633
G1 X125.334 Y71.984 E0.19601
G1 X125.748 Y72.056 E0.20998
G1 X126.075 Y72.118 E0.22105
G1 X127.602 Y72.437 E0.27294
G1 X128.121 Y72.554 E0.29063
G1 X128.605 Y72.67 E0.30719
G1 X128.912 Y72.749 E0.31773
G1 X130.353 Y73.143 E0.36742
G1 X130.963 Y73.321 E0.38855
G1 X131.427 Y73.462 E0.40468
G1 X131.756 Y73.568 E0.41618
G1 X132.868 Y73.949 E0.45528
G1 X133.665 Y74.237 E0.48346
G1 X134.21 Y74.442 E0.50283
G1 X134.513 Y74.562 E0.51367
G1 X135.578 Y75.003 E0.55201
G1 X136.321 Y75.325 E0.57894
G1 X137.223 Y75.735 E0.61189
G1 X138.035 Y76.131 E0.64194
G1 X138.943 Y76.595 E0.67586
G1 X139.351 Y76.81 E0.6912
G1 X139.661 Y76.98 E0.70295
G1 X141.302 Y77.923 E0.7659
G1 X141.935 Y78.307 E0.79053
G1 X142.23 Y78.493 E0.80213
G1 X143.239 Y79.155 E0.84227
G1 X143.944 Y79.635 E0.87063
G1 X144.626 Y80.119 E0.89845
G1 X145.602 Y80.851 E0.93903
G1 X146.238 Y81.345 E0.96581
G1 X146.667 Y81.687 E0.98406
G1 X146.926 Y81.9 E0.99521
G1 X147.86 Y82.698 E1.03607
G1 X148.477 Y83.243 E1.06345
G1 X148.878 Y83.607 E1.08146
G1 X149.103 Y83.819 E1.09175
G1 X149.94 Y84.629 E1.13049
G1 X150.576 Y85.266 E1.16043
G1 X151.14 Y85.852 E1.18748
G1 X151.986 Y86.782 E1.22929
G1 X152.531 Y87.401 E1.25672
G1 X152.869 Y87.795 E1.27399
G1 X153.082 Y88.052 E1.28509
G1 X153.822 Y88.976 E1.32446
G1 X154.361 Y89.673 E1.35377
G1 X154.854 Y90.336 E1.38125
G1 X155.532 Y91.298 E1.42039
G1 X156.022 Y92.022 E1.44947
G1 X156.304 Y92.45 E1.46652
G1 X156.479 Y92.725 E1.47736
G1 X157.132 Y93.79 E1.51891
G1 X157.529 Y94.463 E1.5449
G1 X157.966 Y95.237 E1.57446
G1 X158.521 Y96.284 E1.61388
G1 X158.891 Y97.012 E1.64104
G1 X159.143 Y97.523 E1.65999
G1 X159.287 Y97.828 E1.6712
G1 X159.784 Y98.928 E1.71135
G1 X160.088 Y99.632 E1.73686
G1 X160.325 Y100.201 E1.75736
G1 X160.444 Y100.502 E1.76812
G1 X160.868 Y101.621 E1.80792
G1 X161.132 Y102.361 E1.83406
G1 X161.426 Y103.225 E1.86441
G1 X161.762 Y104.319 E1.90247
G1 X162.009 Y105.171 E1.93198
G1 X162.231 Y105.997 E1.96043
G1 X162.504 Y107.13 E1.99919
G1 X162.693 Y107.981 E2.02818
G1 X162.8 Y108.489 E2.04545
G1 X162.866 Y108.829 E2.05697
G1 X163.067 Y109.987 E2.09606
G1 X163.202 Y110.845 E2.12495
G1 X163.32 Y111.689 E2.15329
G1 X163.448 Y112.851 E2.19218
G1 X163.533 Y113.753 E2.22231
G1 X163.593 Y114.568 E2.24949
G1 X163.651 Y115.779 E2.28981
G1 X163.677 Y116.643 E2.31856
G1 X163.687 Y117.485 E2.34657
G1 X163.669 Y118.661 E2.38569
G1 X163.64 Y119.528 E2.41454
G1 X163.596 Y120.398 E2.44351
G1 X163.506 Y121.545 E2.48178
G1 X163.42 Y122.447 E2.51192
G1 X163.325 Y123.274 E2.5396
G1 X163.159 Y124.437 E2.57868
G1 X163.018 Y125.326 E2.60862
G1 X162.933 Y125.817 E2.62519
G1 X162.872 Y126.136 E2.63599
G1 X162.631 Y127.299 E2.6755
G1 X162.451 Y128.103 E2.7029
G1 X162.236 Y128.981 E2.73296
G1 X161.933 Y130.092 E2.77127
G1 X161.689 Y130.929 E2.80026
G1 X161.426 Y131.774 E2.8297
G1 X161.049 Y132.874 E2.86837
G1 X160.764 Y133.661 E2.89621
G1 X160.439 Y134.512 E2.92651
G1 X159.997 Y135.578 E2.96489
G1 X159.681 Y136.308 E2.99135
G1 X159.424 Y136.88 E3.01221
G1 X159.284 Y137.179 E3.02319
G1 X158.773 Y138.222 E3.06182
G1 X158.399 Y138.954 E3.08916
G1 X158.128 Y139.468 E3.10848
G1 X157.974 Y139.748 E3.11911
G1 X157.403 Y140.751 E3.1575
G1 X156.961 Y141.497 E3.18634
G1 X156.513 Y142.221 E3.21466
G1 X155.837 Y143.252 E3.25566
G1 X155.365 Y143.944 E3.28352
G1 X155.064 Y144.373 E3.30095
G1 X154.883 Y144.622 E3.31119
G1 X154.151 Y145.599 E3.3518
G1 X153.655 Y146.238 E3.3787
G1 X153.313 Y146.667 E3.39695
G1 X153.1 Y146.926 E3.4081
G1 X152.302 Y147.86 E3.44896
G1 X151.757 Y148.477 E3.47634
G1 X151.393 Y148.878 E3.49435
G1 X151.179 Y149.106 E3.50475
G1 X150.359 Y149.952 E3.54394
G1 X149.734 Y150.576 E3.57332
G1 X149.147 Y151.14 E3.60039
G1 X148.234 Y151.972 E3.64147
G1 X147.599 Y152.531 E3.66961
G1 X147.205 Y152.869 E3.68688
G1 X146.948 Y153.082 E3.69798
G1 X146.024 Y153.822 E3.73735
G1 X145.327 Y154.361 E3.76666
G1 X144.66 Y154.856 E3.79429
G1 X143.71 Y155.525 E3.83293
G1 X142.977 Y156.023 E3.8624
G1 X142.177 Y156.545 E3.89418
G1 X141.479 Y156.973 E3.92141
G1 X140.563 Y157.514 E3.95679
G1 X140.105 Y157.776 E3.97434
G1 X139.786 Y157.951 E3.98644
G1 X138.007 Y158.882 E4.05323
G1 X137.477 Y159.143 E4.07287
G1 X137.184 Y159.281 E4.08365
G1 X136.053 Y159.792 E4.12493
G1 X135.368 Y160.088 E4.14974
G1 X134.799 Y160.325 E4.17025
G1 X134.495 Y160.446 E4.18113
G1 X133.393 Y160.862 E4.22031
G1 X132.628 Y161.136 E4.24733
G1 X131.736 Y161.439 E4.27867
G1 X130.809 Y161.726 E4.31094
G1 X129.814 Y162.013 E4.34538
G1 X128.934 Y162.25 E4.3757
G1 X128.05 Y162.464 E4.40595
G1 X127.018 Y162.694 E4.44111
G1 X126.489 Y162.805 E4.45909
G1 X126.158 Y162.868 E4.4703
G1 X124.996 Y163.071 E4.50953
G1 X124.142 Y163.204 E4.53828
G1 X123.262 Y163.327 E4.56783
G1 X122.291 Y163.435 E4.60033
G1 X121.266 Y163.532 E4.63457
G1 X120.329 Y163.602 E4.66582
G1 X119.461 Y163.644 E4.69473
G1 X118.386 Y163.677 E4.7305
G1 X117.901 Y163.685 E4.74663
G1 X117.539 Y163.684 E4.75867
G1 X115.522 Y163.642 E4.82577
G1 X114.965 Y163.616 E4.84432
G1 X114.647 Y163.596 E4.85492
G1 X113.274 Y163.488 E4.90072
G1 X112.544 Y163.418 E4.92511
G1 X111.738 Y163.325 E4.9521
G1 X110.547 Y163.157 E4.9921
G1 X109.666 Y163.016 E5.02178
G1 X109.252 Y162.944 E5.03576
G1 X108.925 Y162.882 E5.04683
G1 X107.398 Y162.563 E5.09871
G1 X106.879 Y162.446 E5.11641
G1 X106.395 Y162.33 E5.13296
G1 X106.088 Y162.251 E5.1435
G1 X104.647 Y161.857 E5.19319
G1 X104.037 Y161.679 E5.21432
G1 X103.573 Y161.538 E5.23045
G1 X103.244 Y161.432 E5.24195
G1 X102.132 Y161.051 E5.28105
G1 X101.335 Y160.763 E5.30923
G1 X100.79 Y160.558 E5.3286
G1 X100.487 Y160.438 E5.33944
G1 X99.422 Y159.997 E5.37778
G1 X98.679 Y159.675 E5.40471
G1 X97.777 Y159.265 E5.43766
G1 X96.965 Y158.869 E5.46771
G1 X96.057 Y158.405 E5.50163
G1 X95.649 Y158.19 E5.51697
G1 X95.339 Y158.02 E5.52873
G1 X93.698 Y157.077 E5.59168
G1 X93.065 Y156.693 E5.6163
G1 X92.77 Y156.507 E5.6279
G1 X91.761 Y155.845 E5.66804
G1 X91.052 Y155.362 E5.69657
G1 X90.375 Y154.881 E5.72419
G1 X89.398 Y154.149 E5.7648
G1 X88.759 Y153.653 E5.7917
G1 X88.329 Y153.31 E5.81
G1 X88.074 Y153.099 E5.821
G1 X87.14 Y152.302 E5.86184
G1 X86.522 Y151.756 E5.88927
G1 X86.12 Y151.391 E5.90733
G1 X85.894 Y151.178 E5.91766
G1 X85.048 Y150.359 E5.95682
G1 X84.424 Y149.734 E5.9862
G1 X83.859 Y149.146 E6.01332
G1 X83.014 Y148.218 E6.05506
G1 X82.469 Y147.599 E6.08249
G1 X82.131 Y147.205 E6.09976
G1 X81.918 Y146.948 E6.11086
G1 X81.178 Y146.024 E6.15023
G1 X80.639 Y145.327 E6.17954
G1 X80.136 Y144.649 E6.20762
G1 X79.464 Y143.695 E6.24643
G1 X78.975 Y142.974 E6.27541
G1 X78.692 Y142.544 E6.29253
G1 X78.521 Y142.275 E6.30313
G1 X77.868 Y141.21 E6.34468
G1 X77.474 Y140.542 E6.37047
G1 X77.185 Y140.037 E6.38983
G1 X77.03 Y139.755 E6.40053
G1 X76.463 Y138.685 E6.4408
G1 X76.105 Y137.981 E6.46707
G1 X75.853 Y137.469 E6.48605
G1 X75.714 Y137.175 E6.49687
G1 X75.216 Y136.072 E6.53712
G1 X74.912 Y135.368 E6.56263
G1 X74.675 Y134.799 E6.58313
G1 X74.556 Y134.498 E6.59389
G1 X74.132 Y133.379 E6.63369
G1 X73.866 Y132.633 E6.66004
G1 X73.574 Y131.773 E6.69024
G1 X73.231 Y130.657 E6.72908
G1 X72.99 Y129.824 E6.75792
G1 X72.769 Y129.004 E6.78616
G1 X72.489 Y127.839 E6.82601
G1 X72.307 Y127.019 E6.85395
G1 X72.2 Y126.511 E6.87122
G1 X72.135 Y126.174 E6.88263
G1 X71.926 Y124.976 E6.92308
G1 X71.797 Y124.152 E6.95082
G1 X71.723 Y123.643 E6.96793
G1 X71.68 Y123.308 E6.97916
G1 X71.548 Y122.117 E7.01902
G1 X71.467 Y121.246 E7.04811
G1 X71.407 Y120.431 E7.07529
G1 X71.349 Y119.221 E7.11558
G1 X71.323 Y118.357 E7.14433
G1 X71.313 Y117.509 E7.17254
G1 X71.332 Y116.312 E7.21236
G1 X71.36 Y115.472 E7.24031
G1 X71.385 Y114.924 E7.25856
G1 X71.405 Y114.601 E7.26932
G1 X71.497 Y113.428 E7.30845
G1 X71.58 Y112.553 E7.33769
G1 X71.675 Y111.726 E7.36538
G1 X71.841 Y110.563 E7.40445
G1 X71.982 Y109.674 E7.43439
G1 X72.067 Y109.183 E7.45096
G1 X72.128 Y108.865 E7.46173
G1 X72.375 Y107.673 E7.50222
G1 X72.555 Y106.87 E7.52959
G1 X72.763 Y106.022 E7.55863
G1 X73.072 Y104.89 E7.59766
G1 X73.311 Y104.071 E7.62603
G1 X73.576 Y103.22 E7.65568
G1 X73.95 Y102.129 E7.69404
G1 X74.236 Y101.339 E7.72198
G1 X74.559 Y100.492 E7.75213
G1 X75.008 Y99.408 E7.79116
G1 X75.319 Y98.692 E7.81712
G1 X75.576 Y98.12 E7.83798
G1 X75.716 Y97.821 E7.84896
G1 X76.228 Y96.777 E7.88763
G1 X76.629 Y95.993 E7.91692
G1 X77.027 Y95.249 E7.94499
G1 X77.607 Y94.231 E7.98395
G1 X78.039 Y93.503 E8.01211
G1 X78.487 Y92.779 E8.04043
G1 X79.165 Y91.744 E8.08158
G1 X79.635 Y91.056 E8.10929
G1 X80.119 Y90.374 E8.13711
G1 X80.851 Y89.398 E8.17769
G1 X81.345 Y88.762 E8.20447
G1 X81.687 Y88.333 E8.22272
G1 X81.902 Y88.072 E8.23397
G1 X82.713 Y87.124 E8.27546
G1 X83.243 Y86.523 E8.30211
G1 X83.607 Y86.122 E8.32012
G1 X83.821 Y85.894 E8.33052
G1 X84.644 Y85.045 E8.36985
G1 X85.287 Y84.403 E8.40007
G1 X85.856 Y83.857 E8.4263
G1 X86.779 Y83.016 E8.46783
G1 X87.401 Y82.469 E8.49538
G1 X87.795 Y82.131 E8.51265
G1 X88.055 Y81.916 E8.52387
G1 X88.988 Y81.169 E8.56362
G1 X89.673 Y80.639 E8.59243
G1 X90.341 Y80.143 E8.6201
G1 X91.314 Y79.458 E8.65968
G1 X92.023 Y78.977 E8.68818
G1 X92.823 Y78.455 E8.71995
G1 X93.523 Y78.025 E8.74727
G1 X94.451 Y77.478 E8.7831
G1 X94.895 Y77.224 E8.80011
G1 X95.215 Y77.049 E8.81224
G1 X97.004 Y76.113 E8.8794
G1 X97.524 Y75.857 E8.89868
G1 X97.818 Y75.718 E8.90949
G1 X98.949 Y75.207 E8.95077
G1 X99.632 Y74.912 E8.97551
G1 X100.201 Y74.675 E8.99602
G1 X100.502 Y74.556 E9.00678
G1 X101.621 Y74.132 E9.04658
G1 X102.372 Y73.864 E9.0731
G1 X103.264 Y73.561 E9.10444
G1 X104.191 Y73.274 E9.13671
G1 X105.186 Y72.987 E9.17115
G1 X106.066 Y72.75 E9.20147
G1 X106.95 Y72.536 E9.23172
G1 X107.982 Y72.306 E9.26688
G1 X108.511 Y72.195 E9.28486
G1 X108.842 Y72.132 E9.29607
G1 X110.004 Y71.929 E9.3353
G1 X110.858 Y71.796 E9.36405
G1 X111.738 Y71.673 E9.3936
G1 X112.709 Y71.565 E9.4261
G1 X113.734 Y71.468 E9.46034
G1 X114.671 Y71.398 E9.49159
G1 X115.539 Y71.356 E9.5205
G1 X116.614 Y71.323 E9.55627
G1 X117.099 Y71.315 E9.5724
G1 X117.461 Y71.316 E9.58444
G1 X119.478 Y71.358 E9.65154
G0 F6000 X119.496 Y70.959
G1 F1200 X120.385 Y71.005 E9.68115
G1 X121.763 Y71.114 E9.72712
G1 X122.5 Y71.185 E9.75175
G1 X123.317 Y71.279 E9.7791
G1 X124.515 Y71.448 E9.81934
G1 X125.402 Y71.59 E9.84922
G1 X125.816 Y71.662 E9.8632
G1 X126.157 Y71.727 E9.87474
G1 X127.69 Y72.046 E9.92682
G1 X128.215 Y72.165 E9.94473
G1 X128.699 Y72.281 E9.96128
G1 X129.018 Y72.363 E9.97224
G1 X130.465 Y72.759 E10.02213
G1 X131.079 Y72.938 E10.04341
G1 X131.543 Y73.079 E10.05954
G1 X131.886 Y73.189 E10.07152
G1 X133.004 Y73.573 E10.11083
G1 X133.806 Y73.863 E10.1392
G1 X134.351 Y74.068 E10.15856
G1 X134.666 Y74.192 E10.16982
G1 X135.736 Y74.635 E10.20834
G1 X136.485 Y74.96 E10.2355
G1 X137.397 Y75.375 E10.26882
G1 X138.217 Y75.775 E10.29917
G1 X139.13 Y76.241 E10.33326
G1 X139.538 Y76.456 E10.3486
G1 X139.859 Y76.633 E10.36079
G1 X141.51 Y77.581 E10.42411
G1 X142.143 Y77.965 E10.44874
G1 X142.449 Y78.158 E10.46077
G1 X143.463 Y78.824 E10.50112
G1 X144.174 Y79.308 E10.52973
G1 X144.603 Y79.609 E10.54716
G1 X144.865 Y79.799 E10.55792
G1 X145.847 Y80.535 E10.59874
G1 X146.488 Y81.032 E10.62572
G1 X146.917 Y81.374 E10.64397
G1 X147.185 Y81.596 E10.65554
G1 X148.124 Y82.398 E10.69661
G1 X148.745 Y82.947 E10.72418
G1 X149.381 Y83.531 E10.7529
G1 X150.223 Y84.346 E10.79188
G1 X150.863 Y84.987 E10.822
G1 X151.209 Y85.343 E10.83851
G1 X151.435 Y85.583 E10.84948
G1 X152.286 Y86.517 E10.8915
G1 X152.834 Y87.14 E10.9191
G1 X153.172 Y87.534 E10.93637
G1 X153.394 Y87.802 E10.94794
G1 X154.138 Y88.73 E10.9875
G1 X154.681 Y89.433 E11.01705
G1 X155.18 Y90.105 E11.04489
G1 X155.862 Y91.074 E11.0843
G1 X156.356 Y91.802 E11.11356
G1 X156.82 Y92.515 E11.14185
G1 X157.476 Y93.586 E11.18363
G1 X157.876 Y94.265 E11.20984
G1 X158.319 Y95.049 E11.23979
G1 X158.877 Y96.102 E11.27942
G1 X159.25 Y96.835 E11.30678
G1 X159.502 Y97.346 E11.32573
G1 X159.652 Y97.663 E11.33739
G1 X160.151 Y98.769 E11.37775
G1 X160.457 Y99.478 E11.40343
G1 X160.694 Y100.047 E11.42393
G1 X160.818 Y100.36 E11.43513
G1 X161.244 Y101.486 E11.47517
G1 X161.51 Y102.23 E11.50145
G1 X161.697 Y102.77 E11.52046
G1 X161.808 Y103.107 E11.53226
G1 X162.146 Y104.207 E11.57054
G1 X162.395 Y105.065 E11.60025
G1 X162.62 Y105.903 E11.62911
G1 X162.894 Y107.043 E11.66811
G1 X163.084 Y107.898 E11.69724
G1 X163.191 Y108.406 E11.7145
G1 X163.26 Y108.76 E11.7265
G1 X163.462 Y109.924 E11.76579
G1 X163.598 Y110.787 E11.79485
G1 X163.672 Y111.295 E11.81192
G1 X163.717 Y111.644 E11.82363
G1 X163.847 Y112.813 E11.86275
G1 X163.932 Y113.721 E11.89308
G1 X163.972 Y114.223 E11.90983
G1 X163.992 Y114.549 E11.92069
G1 X164.05 Y115.766 E11.96122
G1 X164.077 Y116.636 E11.99017
G1 X164.087 Y117.491 E12.01861
G1 X164.069 Y118.674 E12.05796
G1 X164.04 Y119.546 E12.08698
G1 X164.015 Y120.094 E12.10522
G1 X163.994 Y120.429 E12.11639
G1 X163.904 Y121.582 E12.15485
G1 X163.817 Y122.49 E12.18519
G1 X163.721 Y123.33 E12.21331
G1 X163.554 Y124.499 E12.25259
G1 X163.412 Y125.394 E12.28273
G1 X163.327 Y125.885 E12.2993
G1 X163.264 Y126.217 E12.31054
G1 X163.022 Y127.385 E12.35021
G1 X162.84 Y128.197 E12.37789
G1 X162.622 Y129.085 E12.4083
G1 X162.317 Y130.203 E12.44685
G1 X162.072 Y131.047 E12.47608
G1 X161.905 Y131.592 E12.49504
G1 X161.804 Y131.903 E12.50591
G1 X161.425 Y133.01 E12.54483
G1 X161.139 Y133.802 E12.57284
G1 X160.935 Y134.345 E12.59213
G1 X160.809 Y134.665 E12.60357
G1 X160.365 Y135.736 E12.64213
G1 X160.046 Y136.472 E12.66881
G1 X159.789 Y137.044 E12.68966
G1 X159.643 Y137.355 E12.70109
G1 X159.129 Y138.403 E12.73992
G1 X158.753 Y139.141 E12.76746
G1 X158.482 Y139.655 E12.78679
G1 X158.322 Y139.946 E12.79783
G1 X157.748 Y140.954 E12.83642
G1 X157.302 Y141.706 E12.8655
G1 X156.848 Y142.439 E12.89417
G1 X156.168 Y143.477 E12.93545
G1 X155.692 Y144.174 E12.96352
G1 X155.204 Y144.862 E12.99157
G1 X154.467 Y145.845 E13.03244
G1 X153.968 Y146.488 E13.05951
G1 X153.626 Y146.917 E13.07775
G1 X153.404 Y147.185 E13.08933
G1 X152.602 Y148.124 E13.1304
G1 X152.053 Y148.745 E13.15797
G1 X151.689 Y149.146 E13.17598
G1 X151.467 Y149.383 E13.18678
G1 X150.642 Y150.235 E13.22623
G1 X150.013 Y150.863 E13.25579
G1 X149.657 Y151.209 E13.2723
G1 X149.417 Y151.435 E13.28327
G1 X148.498 Y152.272 E13.32461
G1 X147.86 Y152.834 E13.35289
G1 X147.466 Y153.172 E13.37016
G1 X147.198 Y153.394 E13.38173
G1 X146.27 Y154.138 E13.42129
G1 X145.567 Y154.681 E13.45084
G1 X144.89 Y155.183 E13.47887
G1 X143.935 Y155.856 E13.51773
G1 X143.197 Y156.357 E13.54739
G1 X142.387 Y156.885 E13.57955
G1 X141.683 Y157.318 E13.60704
G1 X140.761 Y157.861 E13.64263
G1 X140.303 Y158.123 E13.66018
G1 X139.972 Y158.305 E13.67274
G1 X138.184 Y159.24 E13.73985
G1 X137.349 Y159.646 E13.77073
G1 X136.212 Y160.159 E13.81222
G1 X135.522 Y160.457 E13.83722
G1 X134.953 Y160.694 E13.85772
G1 X134.637 Y160.82 E13.86904
G1 X133.528 Y161.239 E13.90847
G1 X132.759 Y161.514 E13.93563
G1 X131.855 Y161.821 E13.96738
G1 X130.921 Y162.11 E13.9999
G1 X129.919 Y162.399 E14.03459
G1 X129.029 Y162.639 E14.06525
G1 X128.137 Y162.854 E14.09576
G1 X127.1 Y163.085 E14.1311
G1 X126.571 Y163.196 E14.14908
G1 X126.228 Y163.262 E14.1607
