;FLAVOR:Marlin
;TIME:2918
;Filament used: 2.20685m
;Layer height: 0.2
;MINX:91.5
;MINY:87.683
;MINZ:0.2
;MAXX:143.5
;MAXY:148.584
;MAXZ:26.2
;Generated with Cura_SteamEngine master
M140 S60
M105
M190 S60
M104 S200
M105
M109 S200
M82 ;absolute extrusion mode
; Ender 3 Custom Start G-code
G92 E0 ; Reset Extruder
G28 ; Home all axes
G1 Z2.0 F3000 ; Move Z Axis up little to prevent scratching of Heat Bed
G1 X0.1 Y20 Z0.3 F5000.0 ; Move to start position
G1 X0.1 Y200.0 Z0.3 F1500.0 E15 ; Draw the first line
G1 X0.4 Y200.0 Z0.3 F5000.0 ; Move to side a little
G1 X0.4 Y20 Z0.3 F1500.0 E30 ; Draw the second line
G92 E0 ; Reset Extruder
G1 Z2.0 F3000 ; Move Z Axis up little to prevent scratching of Heat Bed
G1 X5 Y20 Z0.3 F5000.0 ; Move over to prevent blob squish
G92 E0
G92 E0
G1 F2400 E-4
;LAYER_COUNT:131
;LAYER:0
M107
M204 S500
G0 F7500 X94.732 Y91.028 Z0.2
M204 S550
;TYPE:SKIRT
G1 F2400 E0
G1 F1500 X94.844 Y90.916 E0.00479
G1 X95.535 Y90.282 E0.03314
G1 X96.277 Y89.708 E0.0615
G1 X97.066 Y89.201 E0.08985
G1 X97.894 Y88.762 E0.11818
G1 X98.758 Y88.395 E0.14656
G1 X99.649 Y88.103 E0.1749
G1 X100.562 Y87.889 E0.20325
G1 X101.49 Y87.752 E0.23161
G1 X102.251 Y87.7 E0.25467
G1 X102.636 Y87.69 E0.26631
G1 X103.181 Y87.684 E0.28278
G1 X131.675 Y87.683 E1.14416
G1 X132.534 Y87.694 E1.17013
G1 X133.471 Y87.747 E1.1985
G1 X134.399 Y87.88 E1.22684
G1 X135.313 Y88.092 E1.25521
G1 X136.205 Y88.38 E1.28354
G1 X137.07 Y88.744 E1.31191
G1 X137.9 Y89.18 E1.34026
G1 X138.691 Y89.685 E1.36862
G1 X139.435 Y90.255 E1.39696
G1 X140.156 Y90.915 E1.42651
G1 X140.268 Y91.027 E1.4313
G1 X140.902 Y91.718 E1.45964
G1 X141.476 Y92.46 E1.488
G1 X141.983 Y93.249 E1.51635
G1 X142.422 Y94.077 E1.54469
G1 X142.789 Y94.941 E1.57306
G1 X143.081 Y95.832 E1.60141
G1 X143.295 Y96.745 E1.62976
G1 X143.432 Y97.673 E1.65811
G1 X143.483 Y98.404 E1.68027
G1 X143.494 Y98.796 E1.69212
G1 X143.5 Y99.319 E1.70793
G1 X143.499 Y116.068 E2.21426
G1 X143.488 Y116.785 E2.23593
G1 X143.398 Y118.025 E2.27352
G1 X143.321 Y118.618 E2.2916
G1 X143.082 Y120.295 E2.3428
G1 X142.797 Y122.786 E2.4186
G1 X142.582 Y125.299 E2.49484
G1 X142.46 Y127.434 E2.55949
G1 X142.449 Y127.545 E2.56286
G1 X142.392 Y128.718 E2.59836
G1 X142.307 Y129.652 E2.62672
G1 X142.142 Y130.576 E2.65509
G1 X141.899 Y131.482 E2.68345
G1 X141.441 Y132.689 E2.72247
G1 X141.02 Y133.627 E2.75355
G1 X140.87 Y133.948 E2.76427
G1 X140.564 Y134.575 E2.78536
G1 X140.103 Y135.422 E2.81451
G1 X139.65 Y136.173 E2.84102
G1 X139.412 Y136.556 E2.85465
G1 X139.027 Y137.158 E2.87625
G1 X138.478 Y137.939 E2.90511
G1 X137.968 Y138.6 E2.93035
G1 X137.637 Y139.015 E2.9464
G1 X137.225 Y139.52 E2.9661
G1 X136.6 Y140.222 E2.99452
G1 X135.974 Y140.866 E3.02167
G1 X135.632 Y141.207 E3.03627
G1 X135.159 Y141.667 E3.05621
G1 X134.454 Y142.296 E3.08477
G1 X133.746 Y142.874 E3.1124
G1 X133.415 Y143.135 E3.12515
G1 X132.84 Y143.577 E3.14707
G1 X132.083 Y144.11 E3.17506
G1 X131.292 Y144.617 E3.20346
G1 X130.96 Y144.822 E3.21526
G1 X130.348 Y145.19 E3.23684
G1 X129.526 Y145.638 E3.26514
G1 X128.681 Y146.051 E3.29358
G1 X128.278 Y146.24 E3.30703
G1 X127.648 Y146.525 E3.32793
G1 X126.8 Y146.867 E3.35558
G1 X125.945 Y147.17 E3.383
G1 X125.571 Y147.295 E3.39492
G1 X124.869 Y147.522 E3.41722
G1 X123.938 Y147.779 E3.44642
G1 X123.01 Y147.99 E3.47519
G1 X122.624 Y148.071 E3.48711
G1 X121.962 Y148.203 E3.50752
G1 X121.032 Y148.347 E3.53597
G1 X120.087 Y148.451 E3.56471
G1 X119.675 Y148.49 E3.57722
G1 X118.98 Y148.547 E3.5983
G1 X118.035 Y148.584 E3.62689
G1 X117.162 Y148.579 E3.65328
G1 X116.699 Y148.569 E3.66728
G1 X116.022 Y148.547 E3.68776
G1 X115.072 Y148.475 E3.71656
G1 X114.121 Y148.36 E3.74551
G1 X113.641 Y148.294 E3.76016
G1 X112.992 Y148.195 E3.78001
G1 X112.118 Y148.025 E3.80692
G1 X111.408 Y147.857 E3.82898
G1 X110.925 Y147.735 E3.84404
G1 X110.141 Y147.525 E3.86858
G1 X109.238 Y147.241 E3.89719
G1 X108.506 Y146.975 E3.92074
G1 X107.934 Y146.757 E3.93924
G1 X107.319 Y146.512 E3.95925
G1 X106.471 Y146.132 E3.98734
G1 X105.607 Y145.699 E4.01656
G1 X105.27 Y145.522 E4.02807
G1 X104.633 Y145.179 E4.04994
G1 X103.835 Y144.705 E4.078
G1 X103.054 Y144.194 E4.10621
G1 X102.71 Y143.96 E4.11879
G1 X102.147 Y143.568 E4.13953
G1 X101.405 Y143.004 E4.1677
G1 X100.664 Y142.387 E4.19685
G1 X100.348 Y142.115 E4.20945
G1 X99.833 Y141.66 E4.23023
G1 X99.148 Y141 E4.25898
G1 X98.537 Y140.357 E4.2858
G1 X98.238 Y140.034 E4.2991
G1 X97.763 Y139.506 E4.32057
G1 X97.16 Y138.774 E4.34924
G1 X96.601 Y138.031 E4.37735
G1 X96.366 Y137.71 E4.38938
G1 X95.962 Y137.142 E4.41045
G1 X95.441 Y136.336 E4.43946
G1 X94.973 Y135.538 E4.46743
G1 X94.768 Y135.177 E4.47998
G1 X94.438 Y134.578 E4.50065
G1 X94.013 Y133.72 E4.5296
G1 X93.642 Y132.878 E4.55741
G1 X93.491 Y132.52 E4.56916
G1 X93.22 Y131.86 E4.59073
G1 X92.891 Y130.944 E4.62015
G1 X92.63 Y130.101 E4.64683
G1 X92.503 Y129.669 E4.66044
G1 X92.31 Y128.976 E4.68219
G1 X92.101 Y128.082 E4.70994
G1 X91.933 Y127.193 E4.73729
G1 X91.856 Y126.747 E4.75097
G1 X91.75 Y126.085 E4.77124
G1 X91.641 Y125.145 E4.79985
G1 X91.574 Y124.208 E4.82824
G1 X91.551 Y123.792 E4.84084
G1 X91.521 Y123.099 E4.86181
G1 X91.512 Y122.786 E4.87127
G1 X91.5 Y121.881 E4.89864
G1 X91.501 Y99.327 E5.58045
G1 X91.511 Y98.645 E5.60107
G1 X91.565 Y97.708 E5.62944
G1 X91.698 Y96.78 E5.65778
G1 X91.91 Y95.866 E5.68614
G1 X92.199 Y94.974 E5.71449
G1 X92.563 Y94.11 E5.74283
G1 X92.999 Y93.28 E5.77117
G1 X93.504 Y92.489 E5.79954
G1 X94.075 Y91.745 E5.82789
G1 X94.732 Y91.028 E5.85729
M204 S500
G0 F7500 X95.015 Y91.311
M204 S550
G1 F1500 X95.127 Y91.199 E5.86208
G1 X95.805 Y90.577 E5.88989
G1 X96.535 Y90.016 E5.91773
G1 X97.311 Y89.52 E5.94557
G1 X98.127 Y89.094 E5.97339
G1 X98.977 Y88.74 E6.00123
G1 X99.855 Y88.462 E6.02907
G1 X100.753 Y88.26 E6.05689
G1 X101.666 Y88.137 E6.08474
G1 X102.264 Y88.1 E6.10286
G1 X102.641 Y88.09 E6.11426
G1 X103.181 Y88.084 E6.13058
G1 X131.675 Y88.083 E6.99196
G1 X132.529 Y88.094 E7.01778
G1 X133.448 Y88.147 E7.04561
G1 X134.359 Y88.28 E7.07344
G1 X135.255 Y88.491 E7.10126
G1 X136.129 Y88.779 E7.12908
G1 X136.976 Y89.142 E7.15694
G1 X137.787 Y89.577 E7.18476
G1 X138.558 Y90.081 E7.21261
G1 X139.282 Y90.649 E7.24043
G1 X139.873 Y91.198 E7.26481
G1 X139.985 Y91.31 E7.2696
G1 X140.607 Y91.988 E7.29741
G1 X141.168 Y92.718 E7.32524
G1 X141.664 Y93.494 E7.35309
G1 X142.09 Y94.31 E7.38091
G1 X142.444 Y95.16 E7.40875
G1 X142.722 Y96.038 E7.43659
G1 X142.924 Y96.936 E7.46441
G1 X143.047 Y97.849 E7.49226
G1 X143.083 Y98.418 E7.5095
G1 X143.094 Y98.801 E7.52108
G1 X143.1 Y99.319 E7.53674
G1 X143.099 Y116.062 E8.04288
G1 X143.088 Y116.779 E8.06456
G1 X143.002 Y117.974 E8.10078
G1 X142.925 Y118.562 E8.11871
G1 X142.687 Y120.229 E8.16961
G1 X142.396 Y122.78 E8.24723
G1 X142.185 Y125.243 E8.32196
G1 X142.061 Y127.411 E8.38761
G1 X142.051 Y127.514 E8.39073
G1 X141.993 Y128.699 E8.4266
G1 X141.908 Y129.616 E8.45444
G1 X141.744 Y130.522 E8.48227
G1 X141.502 Y131.41 E8.5101
G1 X141.076 Y132.525 E8.54618
G1 X140.655 Y133.463 E8.57726
G1 X140.51 Y133.772 E8.58758
G1 X140.204 Y134.399 E8.60867
G1 X139.76 Y135.216 E8.63678
G1 X139.31 Y135.962 E8.66312
G1 X139.075 Y136.34 E8.67657
G1 X138.69 Y136.942 E8.69817
G1 X138.161 Y137.695 E8.72599
G1 X137.754 Y138.224 E8.74617
G1 X137.327 Y138.762 E8.76693
G1 X136.915 Y139.267 E8.78664
G1 X136.313 Y139.944 E8.81402
G1 X135.807 Y140.466 E8.836
G1 X135.353 Y140.92 E8.85541
G1 X134.88 Y141.38 E8.87535
G1 X134.201 Y141.986 E8.90287
G1 X133.497 Y142.561 E8.93035
G1 X133.171 Y142.818 E8.94289
G1 X132.596 Y143.26 E8.96482
G1 X131.867 Y143.773 E8.99177
G1 X131.081 Y144.277 E9.01999
G1 X130.753 Y144.479 E9.03164
G1 X130.141 Y144.847 E9.05323
G1 X129.349 Y145.279 E9.0805
G1 X128.51 Y145.69 E9.10874
G1 X128.113 Y145.876 E9.12199
G1 X127.483 Y146.161 E9.1429
G1 X126.666 Y146.49 E9.16952
G1 X125.817 Y146.791 E9.19675
G1 X125.448 Y146.915 E9.20852
G1 X124.746 Y147.142 E9.23082
G1 X123.848 Y147.389 E9.25898
G1 X122.927 Y147.599 E9.28754
G1 X122.546 Y147.678 E9.2993
G1 X121.884 Y147.81 E9.31971
G1 X120.987 Y147.95 E9.34715
G1 X120.199 Y148.038 E9.37112
G1 X119.642 Y148.092 E9.38804
G1 X118.947 Y148.149 E9.40912
G1 X118.036 Y148.184 E9.43668
G1 X117.169 Y148.179 E9.46289
G1 X116.712 Y148.169 E9.47671
G1 X116.035 Y148.147 E9.49718
G1 X115.119 Y148.078 E9.52495
G1 X114.174 Y147.964 E9.55373
G1 X113.702 Y147.899 E9.56813
G1 X113.053 Y147.8 E9.58798
G1 X112.21 Y147.636 E9.61394
G1 X111.3 Y147.419 E9.64222
G1 X110.915 Y147.319 E9.65424
G1 X110.245 Y147.139 E9.67521
G1 X109.375 Y146.865 E9.70279
G1 X108.499 Y146.545 E9.73098
G1 X108.082 Y146.385 E9.74448
G1 X107.467 Y146.14 E9.7645
G1 X106.65 Y145.774 E9.79156
G1 X105.791 Y145.343 E9.82061
G1 X105.46 Y145.17 E9.8319
G1 X104.823 Y144.827 E9.85377
G1 X104.053 Y144.37 E9.88084
G1 X103.277 Y143.862 E9.90888
G1 X102.938 Y143.632 E9.92126
G1 X102.375 Y143.24 E9.942
G1 X101.66 Y142.696 E9.96916
G1 X100.924 Y142.083 E9.99812
G1 X100.613 Y141.815 E10.01053
G1 X100.098 Y141.36 E10.0313
G1 X99.438 Y140.724 E10.05901
G1 X98.83 Y140.084 E10.0857
G1 X98.536 Y139.766 E10.09879
G1 X98.061 Y139.238 E10.12026
G1 X97.479 Y138.533 E10.1479
G1 X96.923 Y137.794 E10.17585
G1 X96.692 Y137.478 E10.18769
G1 X96.288 Y136.91 E10.20876
G1 X95.786 Y136.134 E10.2367
G1 X95.32 Y135.34 E10.26453
G1 X95.119 Y134.984 E10.27689
G1 X94.789 Y134.385 E10.29756
G1 X94.379 Y133.558 E10.32546
G1 X94.011 Y132.722 E10.35308
G1 X93.861 Y132.368 E10.3647
G1 X93.59 Y131.708 E10.38627
G1 X93.273 Y130.825 E10.41463
G1 X93.013 Y129.987 E10.44115
G1 X92.889 Y129.562 E10.45454
G1 X92.696 Y128.869 E10.47628
G1 X92.494 Y128.007 E10.50305
G1 X92.327 Y127.124 E10.53021
G1 X92.251 Y126.684 E10.54371
G1 X92.145 Y126.022 E10.56398
G1 X92.04 Y125.116 E10.59155
G1 X91.973 Y124.185 E10.61977
G1 X91.951 Y123.774 E10.63221
G1 X91.921 Y123.081 E10.65318
G1 X91.912 Y122.78 E10.66228
G1 X91.9 Y121.881 E10.68946
G1 X91.901 Y99.333 E11.37109
G1 X91.911 Y98.651 E11.39171
G1 X91.965 Y97.731 E11.41957
G1 X92.098 Y96.821 E11.44737
G1 X92.309 Y95.924 E11.47523
G1 X92.598 Y95.05 E11.50306
G1 X92.961 Y94.204 E11.53089
G1 X93.396 Y93.393 E11.55871
G1 X93.9 Y92.623 E11.58653
G1 X94.469 Y91.899 E11.61436
G1 X95.015 Y91.311 E11.63862
M204 S500
G0 F7500 X95.298 Y91.594
M204 S550
G1 F1500 X95.41 Y91.482 E11.64341
G1 X96.076 Y90.872 E11.67071
G1 X96.793 Y90.323 E11.69801
G1 X97.557 Y89.841 E11.72532
G1 X98.36 Y89.427 E11.75263
G1 X99.196 Y89.087 E11.77991
G1 X100.059 Y88.821 E11.80721
G1 X100.942 Y88.633 E11.8345
G1 X102.278 Y88.5 E11.87509
G1 X102.646 Y88.49 E11.88622
G1 X103.181 Y88.484 E11.90239
G1 X131.675 Y88.483 E12.76377
G1 X132.523 Y88.494 E12.78941
G1 X133.425 Y88.547 E12.81672
G1 X134.318 Y88.679 E12.84401
G1 X135.196 Y88.89 E12.87131
G1 X136.052 Y89.178 E12.89861
G1 X136.879 Y89.54 E12.9259
G1 X137.671 Y89.974 E12.9532
G1 X138.422 Y90.476 E12.98051
G1 X139.125 Y91.043 E13.00781
G1 X139.59 Y91.481 E13.02712
G1 X139.702 Y91.593 E13.03191
G1 X140.312 Y92.259 E13.05921
G1 X140.861 Y92.976 E13.08651
G1 X141.343 Y93.74 E13.11382
G1 X141.757 Y94.543 E13.14113
G1 X142.097 Y95.379 E13.16842
G1 X142.363 Y96.242 E13.19572
G1 X142.551 Y97.125 E13.22301
G1 X142.683 Y98.433 E13.26275
G1 X142.694 Y98.807 E13.27406
G1 X142.7 Y99.319 E13.28954
G1 X142.699 Y116.055 E13.79547
G1 X142.688 Y116.772 E13.81715
G1 X142.605 Y117.923 E13.85203
G1 X142.529 Y118.505 E13.86978
G1 X142.288 Y120.195 E13.92138
G1 X142.001 Y122.707 E13.99781
G1 X141.783 Y125.258 E14.07521
G1 X141.661 Y127.388 E14.13971
G1 X141.651 Y127.488 E14.14275
G1 X141.593 Y128.68 E14.17882
G1 X141.509 Y129.579 E14.20612
G1 X141.346 Y130.467 E14.23341
G1 X141.106 Y131.338 E14.26072
G1 X140.711 Y132.362 E14.2939
G1 X140.29 Y133.3 E14.32498
G1 X140.151 Y133.597 E14.3349
G1 X139.845 Y134.224 E14.35599
G1 X139.417 Y135.01 E14.38304
G1 X138.97 Y135.752 E14.40923
G1 X138.738 Y136.125 E14.42251
G1 X138.353 Y136.727 E14.44411
G1 X137.844 Y137.451 E14.47086
G1 X137.341 Y138.103 E14.49576
G1 X137.017 Y138.509 E14.51146
G1 X136.605 Y139.014 E14.53116
G1 X136.026 Y139.665 E14.5575
G1 X135.52 Y140.187 E14.57948
G1 X135.074 Y140.633 E14.59854
G1 X134.601 Y141.093 E14.61849
G1 X133.948 Y141.677 E14.64497
G1 X133.248 Y142.248 E14.67228
G1 X132.927 Y142.501 E14.68464
G1 X132.352 Y142.943 E14.70656
G1 X131.65 Y143.437 E14.73251
G1 X130.87 Y143.937 E14.76052
G1 X130.547 Y144.136 E14.77199
G1 X129.935 Y144.504 E14.79358
G1 X129.173 Y144.92 E14.81982
G1 X128.338 Y145.328 E14.84791
G1 X127.948 Y145.511 E14.86094
G1 X127.318 Y145.796 E14.88184
G1 X126.532 Y146.113 E14.90746
G1 X125.688 Y146.412 E14.93453
G1 X125.325 Y146.534 E14.94611
G1 X124.623 Y146.761 E14.96841
G1 X123.759 Y146.999 E14.9955
G1 X122.844 Y147.207 E15.02387
G1 X122.468 Y147.286 E15.03548
G1 X121.806 Y147.418 E15.05589
G1 X120.943 Y147.552 E15.08229
G1 X120.009 Y147.655 E15.1107
G1 X119.61 Y147.693 E15.12281
G1 X118.915 Y147.75 E15.14389
G1 X118.038 Y147.784 E15.17042
G1 X117.177 Y147.779 E15.19645
G1 X116.725 Y147.77 E15.21012
G1 X116.048 Y147.748 E15.2306
G1 X115.167 Y147.681 E15.25731
G1 X114.227 Y147.567 E15.28593
G1 X113.762 Y147.503 E15.30012
G1 X113.113 Y147.404 E15.31997
G1 X112.302 Y147.247 E15.34494
G1 X111.592 Y147.079 E15.36699
G1 X111.019 Y146.933 E15.38487
G1 X110.349 Y146.753 E15.40584
G1 X109.511 Y146.489 E15.4324
G1 X108.779 Y146.223 E15.45595
G1 X108.23 Y146.014 E15.4737
G1 X107.615 Y145.769 E15.49372
G1 X106.828 Y145.416 E15.51979
G1 X105.975 Y144.988 E15.54864
G1 X105.649 Y144.818 E15.55976
G1 X105.012 Y144.475 E15.58163
G1 X104.272 Y144.035 E15.60765
G1 X103.5 Y143.53 E15.63554
G1 X103.167 Y143.304 E15.64771
G1 X102.604 Y142.912 E15.66845
G1 X101.916 Y142.388 E15.69459
G1 X101.184 Y141.779 E15.72338
G1 X100.878 Y141.515 E15.73559
G1 X100.363 Y141.06 E15.75637
G1 X99.728 Y140.449 E15.78301
G1 X99.122 Y139.812 E15.80958
G1 X98.833 Y139.499 E15.82246
G1 X98.358 Y138.971 E15.84393
G1 X97.798 Y138.292 E15.87054
G1 X97.245 Y137.558 E15.89832
G1 X97.018 Y137.246 E15.90999
G1 X96.614 Y136.678 E15.93106
G1 X96.131 Y135.931 E15.95795
G1 X95.668 Y135.142 E15.9856
G1 X95.469 Y134.791 E15.9978
G1 X95.139 Y134.192 E16.01847
G1 X94.745 Y133.396 E16.04532
G1 X94.379 Y132.566 E16.07275
G1 X94.231 Y132.216 E16.08423
G1 X93.96 Y131.556 E16.1058
G1 X93.655 Y130.707 E16.13307
G1 X93.397 Y129.873 E16.15946
G1 X93.274 Y129.455 E16.17264
G1 X93.081 Y128.762 E16.19438
G1 X92.887 Y127.932 E16.22015
G1 X92.721 Y127.055 E16.24713
G1 X92.646 Y126.621 E16.26045
G1 X92.54 Y125.959 E16.28071
G1 X92.439 Y125.087 E16.30725
G1 X92.373 Y124.162 E16.33528
G1 X92.351 Y123.757 E16.34755
G1 X92.321 Y123.064 E16.36852
G1 X92.312 Y122.774 E16.37729
G1 X92.3 Y121.881 E16.40428
G1 X92.301 Y99.338 E17.08576
G1 X92.311 Y98.656 E17.10638
G1 X92.364 Y97.755 E17.13367
G1 X92.497 Y96.862 E17.16096
G1 X92.708 Y95.984 E17.18826
G1 X92.996 Y95.128 E17.21556
G1 X93.359 Y94.301 E17.24286
G1 X93.793 Y93.509 E17.27016
G1 X94.296 Y92.759 E17.29746
G1 X94.863 Y92.056 E17.32477
G1 X95.298 Y91.594 E17.34395
M204 S500
G0 F7500 X103.9 Y100.084
M204 S550
G1 F1500 X131.1 Y100.083 E18.16621
G1 X131.1 Y100.205 E18.1699
G1 X103.9 Y100.206 E18.99216
G1 X103.9 Y100.084 E18.99584
M204 S500
G0 F7500 X103.5 Y99.684
M204 S550
G1 F1500 X131.5 Y99.683 E19.84229
G1 X131.5 Y100.605 E19.87016
G1 X103.5 Y100.606 E20.7166
G1 X103.5 Y99.684 E20.74448
M204 S500
G0 F7500 X103.1 Y99.284
M204 S550
G1 F1500 X131.9 Y99.283 E21.6151
G1 X131.9 Y101.005 E21.66716
G1 X103.1 Y101.006 E22.53779
G1 X103.1 Y99.284 E22.58984
M204 S500
G0 F7500 X102.7 Y98.884
M204 S550
G1 F1500 X132.3 Y98.883 E23.48466
G1 X132.3 Y101.405 E23.5609
G1 X102.7 Y101.406 E24.45571
G1 X102.7 Y98.884 E24.53195
M204 S500
G1 F2400 E20.53195
G0 F7500 X102.699 Y100.941
G0 X102.7 Y101.806
M204 S550
;TYPE:SUPPORT-INTERFACE
G1 F2400 E24.53195
G1 F1500 X132.3 Y101.805 E25.42676
G1 X132.3 Y102.005 E25.43281
G1 X102.7 Y102.006 E26.32762
G1 X102.7 Y101.806 E26.33367
M204 S500
G1 F2400 E22.33367
;MESH:Ender_3_Z_Axis_Stabilizer.STL
G0 F7500 X103.71 Y104.216
G0 X131.318 Y104.187
G0 X131.326 Y116.121
G0 X130.515 Y116.932
G0 X115.144 Y116.897
G0 X111.394 Y121.575
G0 X112.366 Y124.404
G0 X112.738 Y125.24
G0 X114.221 Y127.838
G0 X119.897 Y128.277
G0 X129.823 Y128.28
