;FLAVOR:Marlin
;TIME:4102
;Filament used: 1.78714m
;Layer height: 0.2
;MINX:95.064
;MINY:88.912
;MINZ:0.2
;MAXX:139.946
;MAXY:148.088
;MAXZ:23.4
;POSTPROCESSED
;Generated with Cura_SteamEngine master
M140 S60
M105
M190 S60
M104 S200
M105
M109 S200
M82 ;absolute extrusion mode
; Ender 3 Custom Start G-code
G92 E0 ; Reset Extruder
G28 ; Home all axes
G1 Z2.0 F3000 ; Move Z Axis up little to prevent scratching of Heat Bed
G1 X0.1 Y20 Z0.3 F5000.0 ; Move to start position
G1 X0.1 Y200.0 Z0.3 F1500.0 E15 ; Draw the first line
G1 X0.4 Y200.0 Z0.3 F5000.0 ; Move to side a little
G1 X0.4 Y20 Z0.3 F1500.0 E30 ; Draw the second line
G92 E0 ; Reset Extruder
G1 Z2.0 F3000 ; Move Z Axis up little to prevent scratching of Heat Bed
G1 X5 Y20 Z0.3 F5000.0 ; Move over to prevent blob squish
G92 E0
G92 E0
G1 F2400 E-4
;LAYER_COUNT:118
;LAYER:0
M107
M204 S500
G0 F7500 X98.77 Y92.511 Z0.2
M204 S550
;TYPE:SKIRT
G1 F2400 E0
G1 F1500 X99.437 Y91.851 E0.02837
G1 X100.157 Y91.25 E0.05672
G1 X100.925 Y90.712 E0.08506
G1 X101.737 Y90.242 E0.11343
G1 X102.586 Y89.843 E0.14179
G1 X103.465 Y89.518 E0.17012
G1 X104.369 Y89.269 E0.19846
G1 X105.291 Y89.097 E0.22681
G1 X106.225 Y89.005 E0.25519
G1 X107.454 Y89.005 E0.29234
G1 X108.288 Y89.053 E0.31759
G1 X109.577 Y89.142 E0.35665
G1 X110.759 Y89.186 E0.39241
G1 X111.098 Y89.213 E0.40269
G1 X113.61 Y89.319 E0.4787
G1 X114.019 Y89.341 E0.49108
G1 X116.534 Y89.408 E0.56713
G1 X119.051 Y89.402 E0.64322
G1 X121.583 Y89.325 E0.7198
G1 X124.061 Y89.18 E0.79484
G1 X125.324 Y89.065 E0.83318
G1 X125.444 Y89.059 E0.83681
G1 X126.668 Y88.958 E0.87394
G1 X127.34 Y88.923 E0.89428
G1 X127.859 Y88.912 E0.90997
G1 X128.797 Y88.933 E0.93834
G1 X129.729 Y89.033 E0.96667
G1 X130.65 Y89.211 E0.99503
G1 X131.552 Y89.468 E1.02338
G1 X132.429 Y89.801 E1.05174
G1 X133.274 Y90.207 E1.08008
G1 X134.082 Y90.684 E1.10844
G1 X134.846 Y91.228 E1.1368
G1 X135.87 Y92.132 E1.17809
G1 X135.978 Y92.24 E1.18271
G1 X136.612 Y92.931 E1.21106
G1 X137.186 Y93.673 E1.23942
G1 X137.693 Y94.462 E1.26777
G1 X138.132 Y95.29 E1.2961
G1 X138.499 Y96.154 E1.32448
G1 X138.791 Y97.045 E1.35282
G1 X139.005 Y97.958 E1.38117
G1 X139.176 Y99.289 E1.42174
G1 X139.192 Y99.529 E1.42901
G1 X139.391 Y102.063 E1.50585
G1 X139.663 Y104.613 E1.58337
G1 X139.707 Y104.945 E1.59349
G1 X139.858 Y106.182 E1.63117
G1 X139.929 Y107.047 E1.6574
G1 X139.941 Y107.482 E1.67056
G1 X139.946 Y108.166 E1.69124
G1 X139.944 Y108.448 E1.69976
G1 X139.931 Y109.156 E1.72117
G1 X139.874 Y110.092 E1.74952
G1 X139.68 Y111.298 E1.78644
G1 X139.449 Y112.351 E1.81903
G1 X139.277 Y113.08 E1.84167
G1 X138.774 Y115.527 E1.91719
G1 X138.337 Y117.998 E1.99305
G1 X137.967 Y120.507 E2.06972
G1 X137.669 Y123.012 E2.14598
G1 X137.445 Y125.497 E2.22141
G1 X137.29 Y128.005 E2.29737
G1 X137.203 Y130.593 E2.37565
G1 X137.188 Y132.002 E2.41824
G1 X137.186 Y132.623 E2.43702
G1 X137.174 Y134.013 E2.47904
G1 X137.174 Y134.354 E2.48935
G1 X137.188 Y135.145 E2.51326
G1 X137.184 Y135.301 E2.51798
G1 X137.193 Y136.702 E2.56033
G1 X137.159 Y137.639 E2.58868
G1 X136.988 Y138.885 E2.6267
G1 X136.931 Y139.176 E2.63566
G1 X136.832 Y139.631 E2.64974
G1 X136.576 Y140.533 E2.67808
G1 X136.244 Y141.41 E2.70643
G1 X135.839 Y142.256 E2.73479
G1 X135.363 Y143.064 E2.76313
G1 X134.82 Y143.829 E2.79149
G1 X134.214 Y144.544 E2.81983
G1 X133.549 Y145.206 E2.84819
G1 X132.83 Y145.808 E2.87654
G1 X132.062 Y146.347 E2.90491
G1 X131.251 Y146.819 E2.93327
G1 X130.403 Y147.219 E2.96162
G1 X129.524 Y147.546 E2.98997
G1 X128.621 Y147.798 E3.01831
G1 X127.699 Y147.971 E3.04667
G1 X126.766 Y148.065 E3.07501
G1 X126.187 Y148.083 E3.09253
G1 X125.203 Y148.088 E3.12227
G1 X110.657 Y148.087 E3.562
G1 X109.954 Y148.077 E3.58325
G1 X109.017 Y148.024 E3.61163
G1 X108.089 Y147.891 E3.63997
G1 X107.175 Y147.679 E3.66833
G1 X106.283 Y147.391 E3.69667
G1 X105.418 Y147.027 E3.72504
G1 X104.588 Y146.591 E3.75338
G1 X103.797 Y146.086 E3.78175
G1 X103.053 Y145.516 E3.81008
G1 X102.205 Y144.728 E3.84508
G1 X101.998 Y144.511 E3.85414
G1 X101.58 Y144.06 E3.87273
G1 X100.818 Y143.22 E3.90702
G1 X100.218 Y142.499 E3.93537
G1 X99.681 Y141.729 E3.96375
G1 X99.213 Y140.917 E3.99208
G1 X98.815 Y140.068 E4.02043
G1 X98.49 Y139.188 E4.04879
G1 X98.242 Y138.283 E4.07715
G1 X98.059 Y137.264 E4.10845
G1 X97.999 Y136.72 E4.125
G1 X97.912 Y135.676 E4.15667
G1 X97.849 Y134.792 E4.18346
G1 X97.815 Y134.354 E4.19674
G1 X97.785 Y133.7 E4.21653
G1 X97.77 Y132.747 E4.24534
G1 X97.77 Y132.287 E4.25925
G1 X97.733 Y129.678 E4.33813
G1 X97.626 Y127.156 E4.41443
G1 X97.449 Y124.662 E4.49002
G1 X97.202 Y122.167 E4.56581
G1 X96.882 Y119.666 E4.64203
G1 X96.491 Y117.177 E4.7182
G1 X96.028 Y114.691 E4.79464
G1 X95.396 Y111.783 E4.8846
G1 X95.34 Y111.538 E4.8922
G1 X95.169 Y110.616 E4.92055
G1 X95.076 Y109.682 E4.94892
G1 X95.064 Y108.738 E4.97746
G1 X95.071 Y108.504 E4.98454
G1 X95.136 Y107.592 E5.01218
G1 X95.44 Y104.915 E5.09363
G1 X95.652 Y102.424 E5.1692
G1 X95.797 Y99.87 E5.24653
G1 X95.81 Y99.557 E5.256
G1 X95.89 Y98.622 E5.28437
G1 X96.05 Y97.698 E5.31272
G1 X96.287 Y96.791 E5.34106
G1 X96.602 Y95.907 E5.36943
G1 X96.99 Y95.053 E5.39779
G1 X97.449 Y94.236 E5.42611
G1 X97.977 Y93.46 E5.45449
G1 X98.732 Y92.552 E5.49019
G1 X98.77 Y92.511 E5.49188
M204 S500
G0 F7500 X99.064 Y92.782
M204 S550
G1 F1500 X99.718 Y92.135 E5.51969
G1 X100.426 Y91.547 E5.54751
G1 X101.183 Y91.022 E5.57536
G1 X101.982 Y90.566 E5.60317
G1 X102.818 Y90.18 E5.631
G1 X103.685 Y89.868 E5.65886
G1 X104.575 Y89.632 E5.68669
G1 X105.482 Y89.475 E5.71452
G1 X106.399 Y89.397 E5.74234
G1 X107.432 Y89.405 E5.77357
G1 X108.261 Y89.452 E5.79867
G1 X109.535 Y89.54 E5.83728
G1 X110.744 Y89.585 E5.87385
G1 X111.072 Y89.612 E5.8838
G1 X113.588 Y89.718 E5.95993
G1 X114.023 Y89.741 E5.97309
G1 X116.524 Y89.808 E6.04873
G1 X119.064 Y89.802 E6.12551
G1 X121.585 Y89.726 E6.20176
G1 X124.088 Y89.579 E6.27755
G1 X125.36 Y89.463 E6.31617
G1 X125.495 Y89.457 E6.32025
G1 X126.7 Y89.357 E6.3568
G1 X127.348 Y89.323 E6.37642
G1 X127.867 Y89.312 E6.39211
G1 X128.788 Y89.333 E6.41996
G1 X129.703 Y89.433 E6.44779
G1 X130.606 Y89.612 E6.47562
G1 X131.49 Y89.869 E6.50345
G1 X132.348 Y90.202 E6.53127
G1 X133.175 Y90.608 E6.55912
G1 X133.963 Y91.084 E6.58695
G1 X134.706 Y91.627 E6.61477
G1 X135.587 Y92.415 E6.6505
G1 X135.695 Y92.523 E6.65512
G1 X136.317 Y93.201 E6.68293
G1 X136.878 Y93.931 E6.71076
G1 X137.374 Y94.707 E6.7386
G1 X137.8 Y95.523 E6.76643
G1 X138.154 Y96.373 E6.79427
G1 X138.432 Y97.251 E6.82211
G1 X138.634 Y98.149 E6.84993
G1 X138.777 Y99.316 E6.88547
G1 X138.789 Y99.499 E6.89102
G1 X138.996 Y102.136 E6.97098
G1 X139.263 Y104.636 E7.04699
G1 X139.31 Y104.994 E7.0579
G1 X139.461 Y106.231 E7.09557
G1 X139.529 Y107.064 E7.12084
G1 X139.541 Y107.485 E7.13357
G1 X139.546 Y108.169 E7.15425
G1 X139.544 Y108.441 E7.16247
G1 X139.531 Y109.149 E7.18388
G1 X139.474 Y110.067 E7.21168
G1 X139.289 Y111.213 E7.24678
G1 X139.06 Y112.259 E7.27914
G1 X138.892 Y112.972 E7.30129
G1 X138.374 Y115.489 E7.37897
G1 X137.941 Y117.941 E7.45424
G1 X137.573 Y120.433 E7.53039
G1 X137.272 Y122.965 E7.60748
G1 X137.046 Y125.47 E7.68351
G1 X136.89 Y128.004 E7.76026
G1 X136.804 Y130.575 E7.83802
G1 X136.788 Y132.001 E7.88113
G1 X136.786 Y132.62 E7.89985
G1 X136.774 Y134.01 E7.94187
G1 X136.774 Y134.365 E7.9526
G1 X136.788 Y135.152 E7.9764
G1 X136.784 Y135.304 E7.98099
G1 X136.793 Y136.704 E8.02332
G1 X136.759 Y137.624 E8.05115
G1 X136.595 Y138.809 E8.08731
G1 X136.538 Y139.1 E8.09627
G1 X136.443 Y139.538 E8.10982
G1 X136.191 Y140.424 E8.13767
G1 X135.863 Y141.284 E8.16549
G1 X135.462 Y142.113 E8.19333
G1 X134.99 Y142.903 E8.22115
G1 X134.452 Y143.65 E8.24898
G1 X133.85 Y144.347 E8.27682
G1 X133.191 Y144.99 E8.30466
G1 X132.478 Y145.573 E8.3325
G1 X131.718 Y146.091 E8.3603
G1 X130.915 Y146.542 E8.38814
G1 X130.076 Y146.921 E8.41597
G1 X129.208 Y147.227 E8.4438
G1 X128.316 Y147.455 E8.47163
G1 X127.407 Y147.606 E8.49948
G1 X126.185 Y147.683 E8.5365
G1 X125.201 Y147.688 E8.56625
G1 X110.662 Y147.687 E9.00576
G1 X109.959 Y147.677 E9.02702
G1 X109.04 Y147.624 E9.05484
G1 X108.129 Y147.491 E9.08268
G1 X107.233 Y147.28 E9.1105
G1 X106.359 Y146.992 E9.13832
G1 X105.512 Y146.629 E9.16618
G1 X104.701 Y146.194 E9.194
G1 X103.93 Y145.69 E9.22184
G1 X103.206 Y145.122 E9.24966
G1 X102.493 Y144.449 E9.2793
G1 X102.291 Y144.238 E9.28813
G1 X101.876 Y143.791 E9.30657
G1 X101.114 Y142.951 E9.34086
G1 X100.526 Y142.243 E9.36868
G1 X100.001 Y141.486 E9.39653
G1 X99.544 Y140.687 E9.42435
G1 X99.158 Y139.851 E9.45219
G1 X98.846 Y138.985 E9.48002
G1 X98.61 Y138.095 E9.50785
G1 X98.456 Y137.212 E9.53495
G1 X98.398 Y136.686 E9.55094
G1 X98.311 Y135.648 E9.58243
G1 X98.248 Y134.764 E9.60922
G1 X98.214 Y134.324 E9.62256
G1 X98.185 Y133.694 E9.64163
G1 X98.17 Y132.747 E9.67026
G1 X98.17 Y132.281 E9.68435
G1 X98.133 Y129.656 E9.76371
G1 X98.026 Y127.147 E9.83963
G1 X97.848 Y124.627 E9.916
G1 X97.599 Y122.113 E9.99237
G1 X97.28 Y119.624 E10.06823
G1 X96.879 Y117.072 E10.14632
G1 X96.426 Y114.636 E10.22122
G1 X95.785 Y111.686 E10.31248
G1 X95.73 Y111.448 E10.31987
G1 X95.562 Y110.543 E10.34769
G1 X95.474 Y109.626 E10.37554
G1 X95.464 Y108.75 E10.40202
G1 X95.471 Y108.516 E10.4091
G1 X95.534 Y107.637 E10.43574
G1 X95.834 Y104.993 E10.51618
G1 X96.051 Y102.445 E10.59349
G1 X96.199 Y99.838 E10.67242
G1 X96.21 Y99.574 E10.68041
G1 X96.289 Y98.657 E10.70824
G1 X96.448 Y97.75 E10.73607
G1 X96.685 Y96.86 E10.76392
G1 X96.998 Y95.994 E10.79175
G1 X97.385 Y95.159 E10.81957
G1 X97.843 Y94.36 E10.84741
G1 X98.369 Y93.605 E10.87523
G1 X99.026 Y92.823 E10.90611
G1 X99.064 Y92.782 E10.9078
M204 S500
G0 F7500 X99.357 Y93.054
M204 S550
G1 F1500 X100 Y92.42 E10.93509
G1 X100.696 Y91.845 E10.96239
G1 X101.44 Y91.333 E10.98969
G1 X102.227 Y90.89 E11.01699
G1 X103.05 Y90.518 E11.04429
G1 X103.902 Y90.22 E11.07158
G1 X104.778 Y89.998 E11.0989
G1 X105.67 Y89.855 E11.12621
G1 X106.57 Y89.792 E11.15348
G1 X107.409 Y89.804 E11.17885
G1 X108.233 Y89.851 E11.2038
G1 X109.524 Y89.94 E11.24292
G1 X110.729 Y89.985 E11.27937
G1 X111.055 Y90.012 E11.28926
G1 X113.567 Y90.118 E11.36526
G1 X113.992 Y90.141 E11.37813
G1 X116.514 Y90.208 E11.4544
G1 X119.077 Y90.202 E11.53188
G1 X121.584 Y90.126 E11.6077
G1 X124.12 Y89.978 E11.68449
G1 X125.397 Y89.861 E11.72326
G1 X125.546 Y89.854 E11.72777
G1 X126.733 Y89.756 E11.76377
G1 X127.357 Y89.723 E11.78266
G1 X127.876 Y89.712 E11.79836
G1 X128.779 Y89.733 E11.82566
G1 X129.676 Y89.834 E11.85295
G1 X130.561 Y90.013 E11.88024
G1 X131.427 Y90.271 E11.90756
G1 X132.267 Y90.603 E11.93487
G1 X133.073 Y91.009 E11.96215
G1 X133.841 Y91.485 E11.98946
G1 X134.564 Y92.026 E12.01676
G1 X135.304 Y92.698 E12.04698
G1 X135.412 Y92.806 E12.0516
G1 X136.022 Y93.472 E12.0789
G1 X136.571 Y94.189 E12.1062
G1 X137.053 Y94.953 E12.1335
G1 X137.467 Y95.756 E12.16082
G1 X137.807 Y96.592 E12.1881
G1 X138.073 Y97.455 E12.2154
G1 X138.261 Y98.338 E12.24269
G1 X138.378 Y99.342 E12.27325
G1 X138.392 Y99.558 E12.27979
G1 X138.598 Y102.177 E12.35921
G1 X138.862 Y104.655 E12.43454
G1 X138.913 Y105.042 E12.44634
G1 X139.064 Y106.279 E12.48401
G1 X139.13 Y107.081 E12.50834
G1 X139.141 Y107.487 E12.52062
G1 X139.146 Y108.171 E12.5413
G1 X139.144 Y108.433 E12.54922
G1 X139.131 Y109.141 E12.57062
G1 X139.075 Y110.043 E12.59794
G1 X138.899 Y111.128 E12.63117
G1 X138.671 Y112.167 E12.66333
G1 X138.497 Y112.905 E12.68625
G1 X137.99 Y115.37 E12.76233
G1 X137.546 Y117.885 E12.83953
G1 X137.175 Y120.399 E12.91635
G1 X136.875 Y122.919 E12.99307
G1 X136.647 Y125.446 E13.06977
G1 X136.49 Y128.001 E13.14716
G1 X136.404 Y130.557 E13.22447
G1 X136.388 Y131.999 E13.26806
G1 X136.386 Y132.616 E13.28671
G1 X136.374 Y134.006 E13.32874
G1 X136.374 Y134.372 E13.3398
G1 X136.388 Y135.159 E13.3636
G1 X136.384 Y135.303 E13.36795
G1 X136.393 Y136.707 E13.41039
G1 X136.358 Y137.609 E13.43768
G1 X136.203 Y138.732 E13.47195
G1 X136.146 Y139.023 E13.48092
G1 X136.054 Y139.446 E13.494
G1 X135.806 Y140.314 E13.52129
G1 X135.482 Y141.157 E13.54859
G1 X135.085 Y141.968 E13.57589
G1 X134.618 Y142.741 E13.60319
G1 X134.084 Y143.47 E13.63051
G1 X133.488 Y144.148 E13.6578
G1 X132.834 Y144.771 E13.6851
G1 X132.128 Y145.334 E13.7124
G1 X131.375 Y145.832 E13.73969
G1 X130.58 Y146.261 E13.767
G1 X129.751 Y146.619 E13.7943
G1 X128.893 Y146.902 E13.82161
G1 X128.014 Y147.108 E13.8489
G1 X127.12 Y147.235 E13.8762
G1 X126.183 Y147.283 E13.90456
G1 X125.199 Y147.288 E13.93431
G1 X110.668 Y147.287 E14.37358
G1 X109.965 Y147.277 E14.39484
G1 X109.063 Y147.224 E14.42215
G1 X108.17 Y147.092 E14.44944
G1 X107.292 Y146.881 E14.47674
G1 X106.436 Y146.593 E14.50404
G1 X105.609 Y146.231 E14.53133
G1 X104.817 Y145.797 E14.55863
G1 X104.066 Y145.295 E14.58594
G1 X103.363 Y144.728 E14.61324
G1 X102.78 Y144.171 E14.63762
G1 X102.584 Y143.966 E14.64619
G1 X102.172 Y143.522 E14.6645
G1 X101.41 Y142.682 E14.69879
G1 X100.834 Y141.987 E14.72608
G1 X100.321 Y141.244 E14.75337
G1 X99.876 Y140.458 E14.78068
G1 X99.502 Y139.636 E14.80798
G1 X99.202 Y138.784 E14.83528
G1 X98.979 Y137.909 E14.86258
G1 X98.847 Y137.122 E14.8867
G1 X98.796 Y136.652 E14.90099
G1 X98.71 Y135.619 E14.93233
G1 X98.647 Y134.735 E14.95912
G1 X98.613 Y134.293 E14.97252
G1 X98.584 Y133.687 E14.99086
G1 X98.571 Y132.92 E15.01405
G1 X98.57 Y132.275 E15.03355
G1 X98.533 Y129.669 E15.11234
G1 X98.424 Y127.103 E15.18998
G1 X98.246 Y124.596 E15.26596
G1 X97.995 Y122.055 E15.34315
G1 X97.674 Y119.548 E15.41955
G1 X97.28 Y117.043 E15.49621
G1 X96.815 Y114.544 E15.57305
G1 X96.173 Y111.59 E15.66443
G1 X96.12 Y111.358 E15.67163
G1 X95.956 Y110.47 E15.69893
G1 X95.871 Y109.571 E15.72623
G1 X95.864 Y108.762 E15.75068
G1 X95.871 Y108.528 E15.75776
G1 X95.931 Y107.682 E15.7834
G1 X96.235 Y105.001 E15.86496
G1 X96.448 Y102.503 E15.94075
G1 X96.597 Y99.876 E16.0203
G1 X96.609 Y99.591 E16.02892
G1 X96.688 Y98.691 E16.05623
G1 X96.846 Y97.802 E16.08353
G1 X97.082 Y96.93 E16.11084
G1 X97.394 Y96.083 E16.13812
G1 X97.78 Y95.266 E16.16544
G1 X98.237 Y94.487 E16.19274
G1 X98.76 Y93.752 E16.22001
G1 X99.319 Y93.095 E16.24609
G1 X99.357 Y93.054 E16.24778
M204 S500
G0 F7500 X124.925 Y102.068
M204 S550
G1 F1500 X125.406 Y102.068 E16.26232
G1 X125.281 Y102.363 E16.272
G1 X125.127 Y102.784 E16.28556
G1 X125.036 Y103.074 E16.29474
G1 X124.925 Y103.352 E16.30379
G1 X124.925 Y102.068 E16.34261
M204 S500
G0 F7500 X124.525 Y101.668
M204 S550
G1 F1500 X126.007 Y101.668 E16.38741
G1 X125.807 Y102.132 E16.40268
G1 X125.793 Y102.181 E16.40422
G1 X125.649 Y102.519 E16.41533
G1 X125.494 Y102.944 E16.42901
G1 X125.416 Y103.205 E16.43724
G1 X125.338 Y103.373 E16.44284
G1 X125.235 Y103.691 E16.45295
G1 X125.209 Y103.961 E16.46115
G1 X125.209 Y106.964 E16.55193
G1 X125.249 Y107.296 E16.56204
G1 X125.366 Y107.608 E16.57211
G1 X125.617 Y107.952 E16.58498
G1 X125.899 Y108.235 E16.59706
G1 X126.162 Y108.442 E16.60718
G1 X126.335 Y108.521 E16.61293
G1 X126.297 Y108.537 E16.61417
G1 X126.005 Y108.7 E16.62428
G1 X125.667 Y109.054 E16.63908
G1 X125.446 Y109.385 E16.65111
G1 X125.295 Y109.683 E16.66121
G1 X125.21 Y110.162 E16.67592
G1 X125.211 Y113.391 E16.77353
G1 X124.999 Y113.66 E16.78388
G1 X124.86 Y113.964 E16.79399
G1 X124.795 Y114.385 E16.80686
G1 X124.792 Y122.208 E17.04336
G1 X124.792 Y131.131 E17.3131
G1 X124.786 Y132.963 E17.36848
G1 X124.774 Y133.346 E17.38006
G1 X124.774 Y135.688 E17.45086
G1 X124.649 Y135.688 E17.45464
G1 X124.635 Y135.056 E17.47375
G1 X124.587 Y134.725 E17.48386
G1 X124.526 Y134.573 E17.48881
G1 X124.57 Y134.484 E17.49182
G1 X124.642 Y134.158 E17.50191
G1 X124.649 Y133.983 E17.5072
G1 X124.625 Y133.052 E17.53536
G1 X124.576 Y132.721 E17.54547
G1 X124.521 Y132.584 E17.54993
G1 X124.571 Y132.482 E17.55337
G1 X124.643 Y132.156 E17.56346
G1 X124.65 Y131.983 E17.5687
G1 X124.626 Y131.053 E17.59682
G1 X124.577 Y130.722 E17.60693
G1 X124.521 Y130.584 E17.61144
G1 X124.571 Y130.482 E17.61487
G1 X124.643 Y130.156 E17.62496
G1 X124.65 Y129.983 E17.6302
G1 X124.626 Y129.053 E17.65832
G1 X124.577 Y128.722 E17.66844
G1 X124.521 Y128.584 E17.67294
G1 X124.571 Y128.482 E17.67637
G1 X124.643 Y128.156 E17.68646
G1 X124.65 Y127.983 E17.6917
G1 X124.626 Y127.053 E17.71982
G1 X124.577 Y126.722 E17.72994
