;FLAVOR:Marlin
;TIME:6463
;Filament used: 6.81841m
;Layer height: 0.2
;MINX:40.5
;MINY:39.5
;MINZ:0.2
;MAXX:194.5
;MAXY:195.5
;MAXZ:3
;Generated with Cura_SteamEngine master
M140 S60
M105
M190 S60
M104 S200
M105
M109 S200
M82 ;absolute extrusion mode
; Ender 3 Custom Start G-code
G92 E0 ; Reset Extruder
G28 ; Home all axes
G1 Z2.0 F3000 ; Move Z Axis up little to prevent scratching of Heat Bed
G1 X0.1 Y20 Z0.3 F5000.0 ; Move to start position
G1 X0.1 Y200.0 Z0.3 F1500.0 E15 ; Draw the first line
G1 X0.4 Y200.0 Z0.3 F5000.0 ; Move to side a little
G1 X0.4 Y20 Z0.3 F1500.0 E30 ; Draw the second line
G92 E0 ; Reset Extruder
G1 Z2.0 F3000 ; Move Z Axis up little to prevent scratching of Heat Bed
G1 X5 Y20 Z0.3 F5000.0 ; Move over to prevent blob squish
G92 E0
G92 E0
G1 F2400 E-4
;LAYER_COUNT:15
;LAYER:0
M107
M204 S500
G0 F7500 X43.71 Y42.752 Z0.2
M204 S550
;TYPE:SKIRT
G1 F2400 E0
G1 F1500 X44.399 Y42.116 E0.02835
G1 X45.14 Y41.541 E0.0567
G1 X45.927 Y41.031 E0.08505
G1 X46.755 Y40.59 E0.11341
G1 X47.617 Y40.221 E0.14175
G1 X48.508 Y39.927 E0.17012
G1 X49.42 Y39.709 E0.19846
G1 X50.347 Y39.571 E0.2268
G1 X51.201 Y39.513 E0.25267
G1 X51.521 Y39.504 E0.26235
G1 X51.83 Y39.5 E0.27169
G1 X176.693 Y39.5 E4.04632
G1 X177.553 Y39.511 E4.07232
G1 X178.49 Y39.564 E4.10069
G1 X179.418 Y39.697 E4.12903
G1 X180.332 Y39.909 E4.15739
G1 X181.224 Y40.197 E4.18573
G1 X182.089 Y40.561 E4.2141
G1 X182.919 Y40.997 E4.24244
G1 X183.709 Y41.502 E4.27078
G1 X184.185 Y41.854 E4.28868
G1 X184.808 Y42.342 E4.3126
G1 X186.867 Y43.909 E4.39082
G1 X188.937 Y45.394 E4.46784
G1 X189.768 Y45.972 E4.49844
G1 X190.514 Y46.54 E4.52678
G1 X191.21 Y47.169 E4.55514
G1 X191.849 Y47.855 E4.58348
G1 X192.428 Y48.593 E4.61184
G1 X192.942 Y49.378 E4.6402
G1 X193.387 Y50.203 E4.66854
G1 X193.76 Y51.064 E4.69691
G1 X194.058 Y51.953 E4.72525
G1 X194.28 Y52.864 E4.7536
G1 X194.423 Y53.791 E4.78195
G1 X194.485 Y54.667 E4.8085
G1 X194.495 Y54.992 E4.81833
G1 X194.5 Y55.33 E4.82855
G1 X194.499 Y183.9 E8.71524
G1 X194.49 Y184.627 E8.73722
G1 X194.439 Y185.564 E8.76558
G1 X194.307 Y186.492 E8.79392
G1 X194.098 Y187.406 E8.82226
G1 X193.811 Y188.299 E8.85062
G1 X193.449 Y189.165 E8.87899
G1 X193.015 Y189.996 E8.90733
G1 X192.511 Y190.787 E8.93569
G1 X191.942 Y191.532 E8.96403
G1 X191.311 Y192.227 E8.9924
G1 X190.624 Y192.865 E9.02075
G1 X189.885 Y193.442 E9.04909
G1 X189.099 Y193.954 E9.07745
G1 X188.273 Y194.397 E9.10578
G1 X187.411 Y194.769 E9.13416
G1 X186.522 Y195.065 E9.16249
G1 X185.61 Y195.285 E9.19085
G1 X184.683 Y195.426 E9.21919
G1 X183.799 Y195.487 E9.24598
G1 X183.478 Y195.496 E9.25569
G1 X183.17 Y195.5 E9.265
G1 X175.051 Y195.499 E9.51044
G1 X174.346 Y195.489 E9.53175
G1 X174.035 Y195.48 E9.54116
G1 X172.807 Y195.427 E9.57832
G1 X172.157 Y195.391 E9.59799
G1 X169.639 Y195.322 E9.67414
G1 X167.17 Y195.324 E9.74878
G1 X163.156 Y195.471 E9.87021
G1 X162.834 Y195.485 E9.87995
G1 X162.488 Y195.495 E9.89041
G1 X162.17 Y195.5 E9.90003
G1 X52.049 Y195.499 E13.229
G1 X51.351 Y195.489 E13.2501
G1 X50.415 Y195.435 E13.27845
G1 X49.487 Y195.303 E13.30678
G1 X48.573 Y195.091 E13.33515
G1 X47.681 Y194.802 E13.36349
G1 X46.816 Y194.439 E13.39185
G1 X45.986 Y194.003 E13.42019
G1 X45.195 Y193.498 E13.44856
G1 X44.451 Y192.927 E13.47691
G1 X43.758 Y192.295 E13.50527
G1 X43.121 Y191.607 E13.53361
G1 X42.546 Y190.866 E13.56196
G1 X42.035 Y190.08 E13.5903
G1 X41.593 Y189.252 E13.61868
G1 X41.224 Y188.39 E13.64702
G1 X40.929 Y187.5 E13.67537
G1 X40.711 Y186.588 E13.70371
G1 X40.571 Y185.66 E13.73209
G1 X40.513 Y184.788 E13.7585
G1 X40.504 Y184.456 E13.76854
G1 X40.5 Y184.158 E13.77755
G1 X40.501 Y51.009 E17.80267
G1 X40.511 Y50.344 E17.82277
G1 X40.565 Y49.407 E17.85114
G1 X40.699 Y48.479 E17.87949
G1 X40.911 Y47.565 E17.90785
G1 X41.2 Y46.673 E17.9362
G1 X41.565 Y45.809 E17.96455
G1 X42.001 Y44.979 E17.99289
G1 X42.507 Y44.189 E18.02126
G1 X43.078 Y43.445 E18.04961
G1 X43.71 Y42.752 E18.07796
M204 S500
G0 F7500 X44.102 Y42.927
M204 S550
G1 F1500 X44.788 Y42.313 E18.10579
G1 X45.524 Y41.761 E18.1336
G1 X46.306 Y41.274 E18.16145
G1 X47.127 Y40.858 E18.18928
G1 X47.981 Y40.514 E18.21711
G1 X48.861 Y40.245 E18.24493
G1 X49.762 Y40.054 E18.27277
G1 X50.676 Y39.942 E18.3006
G1 X51.212 Y39.913 E18.31683
G1 X51.532 Y39.904 E18.32651
G1 X51.83 Y39.9 E18.33552
G1 X176.693 Y39.9 E22.11014
G1 X177.548 Y39.911 E22.13599
G1 X178.467 Y39.964 E22.16382
G1 X179.378 Y40.097 E22.19165
G1 X180.274 Y40.308 E22.21948
G1 X181.148 Y40.596 E22.2473
G1 X181.994 Y40.959 E22.27513
G1 X182.806 Y41.394 E22.30298
G1 X183.938 Y42.169 E22.34445
G1 X184.569 Y42.664 E22.36869
G1 X186.614 Y44.22 E22.44637
G1 X188.727 Y45.736 E22.52499
G1 X189.54 Y46.301 E22.55492
G1 X190.272 Y46.859 E22.58274
G1 X190.953 Y47.478 E22.61056
G1 X191.578 Y48.154 E22.63839
G1 X192.142 Y48.881 E22.66621
G1 X192.641 Y49.655 E22.69405
G1 X193.071 Y50.47 E22.72191
G1 X193.428 Y51.318 E22.74972
G1 X193.711 Y52.194 E22.77755
G1 X193.916 Y53.092 E22.80539
G1 X194.043 Y54.004 E22.83323
G1 X194.085 Y54.679 E22.85367
G1 X194.095 Y55.004 E22.8635
G1 X194.1 Y55.33 E22.87336
G1 X194.099 Y183.895 E26.7599
G1 X194.09 Y184.622 E26.78188
G1 X194.039 Y185.541 E26.8097
G1 X193.908 Y186.453 E26.83755
G1 X193.698 Y187.349 E26.86537
G1 X193.412 Y188.224 E26.8932
G1 X193.051 Y189.071 E26.92104
G1 X192.617 Y189.883 E26.94887
G1 X192.115 Y190.655 E26.97671
G1 X191.547 Y191.38 E27.00455
G1 X190.919 Y192.053 E27.03238
G1 X190.235 Y192.669 E27.0602
G1 X189.5 Y193.223 E27.08803
G1 X188.72 Y193.712 E27.11586
G1 X187.9 Y194.131 E27.14369
G1 X187.047 Y194.477 E27.17152
G1 X186.167 Y194.748 E27.19936
G1 X185.267 Y194.941 E27.22718
G1 X184.353 Y195.056 E27.25503
G1 X183.788 Y195.087 E27.27214
G1 X183.467 Y195.096 E27.28184
G1 X183.17 Y195.1 E27.29082
G1 X175.057 Y195.099 E27.53608
G1 X174.352 Y195.089 E27.55739
G1 X174.052 Y195.08 E27.56647
G1 X172.829 Y195.028 E27.60347
G1 X172.155 Y194.99 E27.62388
G1 X169.649 Y194.922 E27.69966
G1 X167.155 Y194.924 E27.77506
G1 X163.219 Y195.067 E27.89412
G1 X162.822 Y195.086 E27.90614
G1 X162.476 Y195.096 E27.9166
G1 X162.17 Y195.1 E27.92585
G1 X52.055 Y195.099 E31.25464
G1 X51.357 Y195.089 E31.27575
G1 X50.438 Y195.036 E31.30357
G1 X49.527 Y194.903 E31.33141
G1 X48.631 Y194.692 E31.35923
G1 X47.757 Y194.404 E31.38705
G1 X46.91 Y194.041 E31.41491
G1 X46.099 Y193.606 E31.44273
G1 X45.329 Y193.102 E31.47055
G1 X44.605 Y192.533 E31.49839
G1 X43.933 Y191.903 E31.52623
G1 X43.318 Y191.218 E31.55406
G1 X42.765 Y190.482 E31.58189
G1 X42.278 Y189.701 E31.60972
G1 X41.861 Y188.88 E31.63755
G1 X41.516 Y188.026 E31.6654
G1 X41.247 Y187.146 E31.69321
G1 X41.055 Y186.245 E31.72106
G1 X40.942 Y185.332 E31.74887
G1 X40.913 Y184.777 E31.76567
G1 X40.904 Y184.445 E31.77571
G1 X40.9 Y184.158 E31.78439
G1 X40.901 Y51.015 E35.80932
G1 X40.911 Y50.35 E35.82943
G1 X40.965 Y49.431 E35.85726
G1 X41.098 Y48.52 E35.88509
G1 X41.31 Y47.624 E35.91292
G1 X41.599 Y46.749 E35.94078
G1 X41.963 Y45.904 E35.96859
G1 X42.398 Y45.093 E35.99641
G1 X42.903 Y44.322 E36.02428
G1 X43.472 Y43.599 E36.05209
G1 X44.102 Y42.927 E36.07994
M204 S500
G0 F7500 X44.493 Y43.106
M204 S550
G1 F1500 X45.175 Y42.514 E36.10724
G1 X45.907 Y41.985 E36.13454
G1 X46.683 Y41.523 E36.16184
G1 X47.497 Y41.132 E36.18914
G1 X48.342 Y40.813 E36.21644
G1 X49.212 Y40.571 E36.24374
G1 X50.1 Y40.407 E36.27104
G1 X51.223 Y40.313 E36.30511
G1 X51.543 Y40.304 E36.31478
G1 X51.83 Y40.3 E36.32346
G1 X176.693 Y40.3 E40.09809
G1 X177.542 Y40.311 E40.12375
G1 X178.443 Y40.364 E40.15104
G1 X179.337 Y40.496 E40.17836
G1 X180.215 Y40.707 E40.20566
G1 X181.071 Y40.995 E40.23296
G1 X181.898 Y41.357 E40.26025
G1 X182.69 Y41.791 E40.28755
G1 X183.691 Y42.483 E40.32434
G1 X184.33 Y42.984 E40.34888
G1 X186.385 Y44.548 E40.42695
G1 X188.504 Y46.068 E40.50579
G1 X189.311 Y46.629 E40.5355
G1 X190.029 Y47.177 E40.5628
G1 X190.696 Y47.786 E40.59011
G1 X191.306 Y48.452 E40.61741
G1 X191.855 Y49.169 E40.64471
G1 X192.339 Y49.932 E40.67202
G1 X192.753 Y50.734 E40.69931
G1 X193.094 Y51.57 E40.7266
G1 X193.36 Y52.433 E40.7539
G1 X193.549 Y53.316 E40.7812
G1 X193.659 Y54.213 E40.80852
G1 X193.685 Y54.691 E40.82299
G1 X193.695 Y55.016 E40.83282
G1 X193.7 Y55.33 E40.84231
G1 X193.699 Y183.89 E44.7287
G1 X193.69 Y184.617 E44.75068
G1 X193.639 Y185.519 E44.77799
G1 X193.508 Y186.413 E44.8053
G1 X193.299 Y187.291 E44.83259
G1 X193.013 Y188.148 E44.8599
G1 X192.652 Y188.976 E44.8872
G1 X192.22 Y189.768 E44.91448
G1 X191.719 Y190.52 E44.94179
G1 X191.153 Y191.224 E44.9691
G1 X190.528 Y191.875 E44.99638
G1 X189.847 Y192.469 E45.0237
G1 X189.116 Y193 E45.05101
G1 X188.342 Y193.464 E45.07829
G1 X187.529 Y193.858 E45.1056
G1 X186.685 Y194.178 E45.13289
G1 X185.815 Y194.423 E45.16021
G1 X184.928 Y194.589 E45.18749
G1 X183.777 Y194.687 E45.22241
G1 X183.456 Y194.696 E45.23212
G1 X183.17 Y194.7 E45.24077
G1 X175.062 Y194.699 E45.48587
G1 X174.357 Y194.689 E45.50719
G1 X174.069 Y194.681 E45.5159
G1 X172.851 Y194.628 E45.55275
G1 X172.187 Y194.591 E45.57286
G1 X169.659 Y194.522 E45.64931
G1 X167.14 Y194.524 E45.72546
G1 X163.229 Y194.666 E45.84376
G1 X162.811 Y194.686 E45.85641
G1 X162.465 Y194.696 E45.86688
G1 X162.17 Y194.7 E45.8758
G1 X52.061 Y194.699 E49.20441
G1 X51.363 Y194.689 E49.22551
G1 X50.461 Y194.636 E49.25282
G1 X49.568 Y194.504 E49.28011
G1 X48.69 Y194.293 E49.30741
G1 X47.834 Y194.005 E49.33471
G1 X47.007 Y193.643 E49.362
G1 X46.215 Y193.208 E49.38932
G1 X45.464 Y192.706 E49.41663
G1 X44.761 Y192.139 E49.44393
G1 X44.111 Y191.512 E49.47123
G1 X43.519 Y190.83 E49.49853
G1 X42.989 Y190.099 E49.52583
G1 X42.527 Y189.323 E49.55313
G1 X42.134 Y188.51 E49.58043
G1 X41.816 Y187.665 E49.60772
G1 X41.573 Y186.795 E49.63503
G1 X41.408 Y185.907 E49.66233
G1 X41.313 Y184.766 E49.69694
G1 X41.304 Y184.434 E49.70698
G1 X41.3 Y184.158 E49.71533
G1 X41.301 Y51.021 E53.74008
G1 X41.311 Y50.356 E53.76018
G1 X41.365 Y49.454 E53.7875
G1 X41.498 Y48.561 E53.81479
G1 X41.709 Y47.683 E53.84209
G1 X41.998 Y46.827 E53.8694
G1 X42.361 Y46 E53.89671
G1 X42.795 Y45.209 E53.92398
G1 X43.298 Y44.458 E53.9513
G1 X43.866 Y43.756 E53.9786
G1 X44.493 Y43.106 E54.0059
M204 S500
G1 F2400 E50.0059
;MESH:Right_Lid.stl
G0 F7500 X171.675 Y58.703
G0 X170.242 Y59.893
G0 X171.592 Y60.595
M204 S550
;TYPE:WALL-INNER
G1 F2400 E54.0059
G1 F1500 X172.021 Y60.711 E54.01934
G1 X172.5 Y60.755 E54.03388
G1 X172.979 Y60.711 E54.04842
G1 X173.441 Y60.587 E54.06288
G1 X173.875 Y60.386 E54.07734
G1 X174.27 Y60.111 E54.09189
G1 X174.611 Y59.77 E54.10647
G1 X174.886 Y59.375 E54.12102
G1 X175.087 Y58.941 E54.13548
G1 X175.095 Y58.908 E54.1365
G1 X175.211 Y58.479 E54.14994
G1 X175.255 Y58 E54.16448
G1 X175.211 Y57.521 E54.17902
G1 X175.087 Y57.059 E54.19348
G1 X174.886 Y56.625 E54.20794
G1 X174.611 Y56.23 E54.22249
G1 X174.27 Y55.889 E54.23707
G1 X173.875 Y55.614 E54.25162
G1 X173.441 Y55.413 E54.26608
G1 X173.408 Y55.405 E54.2671
G1 X172.979 Y55.289 E54.28054
G1 X172.5 Y55.245 E54.29508
G1 X172.021 Y55.289 E54.30962
G1 X171.559 Y55.413 E54.32408
G1 X171.125 Y55.614 E54.33854
G1 X170.73 Y55.889 E54.35309
G1 X170.389 Y56.23 E54.36767
G1 X170.114 Y56.625 E54.38222
G1 X169.913 Y57.059 E54.39668
G1 X169.905 Y57.092 E54.3977
G1 X169.789 Y57.521 E54.41114
G1 X169.745 Y58 E54.42568
G1 X169.789 Y58.479 E54.44022
G1 X169.913 Y58.941 E54.45468
G1 X170.114 Y59.375 E54.46914
G1 X170.389 Y59.77 E54.48369
G1 X170.73 Y60.111 E54.49827
G1 X171.125 Y60.386 E54.51282
G1 X171.559 Y60.587 E54.52727
G1 X171.592 Y60.595 E54.5283
M204 S500
G0 F7500 X171.696 Y60.21
M204 S550
G1 F1500 X172.091 Y60.316 E54.54066
G1 X172.5 Y60.353 E54.55308
G1 X172.909 Y60.316 E54.56549
G1 X173.304 Y60.21 E54.57786
G1 X173.675 Y60.038 E54.59022
G1 X174.012 Y59.803 E54.60264
G1 X174.303 Y59.512 E54.61508
G1 X174.538 Y59.175 E54.6275
G1 X174.71 Y58.804 E54.63986
G1 X174.816 Y58.409 E54.65223
G1 X174.853 Y58 E54.66464
G1 X174.816 Y57.591 E54.67705
G1 X174.71 Y57.196 E54.68942
G1 X174.538 Y56.825 E54.70178
G1 X174.303 Y56.488 E54.7142
G1 X174.012 Y56.197 E54.72664
G1 X173.675 Y55.962 E54.73906
G1 X173.304 Y55.79 E54.75142
G1 X172.909 Y55.684 E54.76379
G1 X172.5 Y55.647 E54.7762
G1 X172.091 Y55.684 E54.78862
G1 X171.696 Y55.79 E54.80098
G1 X171.325 Y55.962 E54.81334
G1 X170.988 Y56.197 E54.82576
G1 X170.697 Y56.488 E54.8382
G1 X170.462 Y56.825 E54.85062
G1 X170.29 Y57.196 E54.86298
G1 X170.184 Y57.591 E54.87535
G1 X170.147 Y58 E54.88776
G1 X170.184 Y58.409 E54.90018
G1 X170.29 Y58.804 E54.91254
G1 X170.462 Y59.175 E54.9249
G1 X170.697 Y59.512 E54.93732
G1 X170.988 Y59.803 E54.94976
G1 X171.325 Y60.038 E54.96218
G1 X171.696 Y60.21 E54.97454
M204 S500
G0 F7500 X171.833 Y59.833
M204 S550
;TYPE:WALL-OUTER
G1 F1500 X172.161 Y59.921 E54.98481
G1 X172.5 Y59.951 E54.9951
G1 X172.839 Y59.921 E55.00539
G1 X173.167 Y59.833 E55.01565
G1 X173.475 Y59.69 E55.02592
G1 X173.754 Y59.495 E55.03621
G1 X173.995 Y59.254 E55.04651
G1 X174.19 Y58.975 E55.0568
G1 X174.333 Y58.667 E55.06707
G1 X174.421 Y58.339 E55.07733
G1 X174.451 Y58 E55.08762
G1 X174.421 Y57.661 E55.09791
G1 X174.333 Y57.333 E55.10818
G1 X174.19 Y57.025 E55.11844
G1 X173.995 Y56.746 E55.12873
G1 X173.754 Y56.505 E55.13903
G1 X173.475 Y56.31 E55.14932
G1 X173.167 Y56.167 E55.15959
G1 X172.839 Y56.079 E55.16986
G1 X172.5 Y56.049 E55.18014
G1 X172.161 Y56.079 E55.19043
G1 X171.833 Y56.167 E55.2007
G1 X171.525 Y56.31 E55.21096
G1 X171.246 Y56.505 E55.22125
G1 X171.005 Y56.746 E55.23156
G1 X170.81 Y57.025 E55.24185
G1 X170.667 Y57.333 E55.25211
G1 X170.579 Y57.661 E55.26238
G1 X170.549 Y58 E55.27267
G1 X170.579 Y58.339 E55.28295
G1 X170.667 Y58.667 E55.29322
G1 X170.81 Y58.975 E55.30349
G1 X171.005 Y59.254 E55.31378
G1 X171.246 Y59.495 E55.32408
G1 X171.525 Y59.69 E55.33437
G1 X171.833 Y59.833 E55.34464
M204 S500
G0 F7500 X171.683 Y60.246
G1 F2400 E51.34464
G0 F7500 X172.5 Y60.946
G0 X172.5 Y59.082
G0 X172.5 Y152.165
G0 X172.5 Y150.29
G0 X163.47 Y151.061
G0 X163.006 Y151.143
G0 X162.572 Y151.395
G0 X162.25 Y151.778
G0 X162.098 Y152.192
G0 X161.5 Y183.5
M204 S550
;TYPE:WALL-INNER
G1 F2400 E55.34464
G1 F1500 X52.5 Y183.5 E58.63972
G1 X52.5 Y51.5 E62.6301
G1 X176.4 Y51.5 E66.37561
G1 X176.4 Y56 E66.51165
G1 X182.5 Y56 E66.69605
G1 X182.5 Y183.5 E70.55039
G1 X175.5 Y183.5 E70.762
G1 X175.5 Y152.421 E71.70153
G1 X175.393 Y151.811 E71.72025
G1 X175.042 Y151.206 E71.74139
G1 X174.506 Y150.756 E71.76255
G1 X173.883 Y150.529 E71.78259
G1 X173.543 Y150.5 E71.79291
G1 X163.421 Y150.5 E72.0989
G1 X162.811 Y150.607 E72.11762
G1 X162.206 Y150.958 E72.13877
G1 X161.756 Y151.494 E72.15992
G1 X161.529 Y152.117 E72.17997
G1 X161.5 Y152.457 E72.19028
G1 X161.5 Y183.5 E73.12872
M204 S500
G0 F7500 X161.9 Y183.9
M204 S550
G1 F1500 X52.1 Y183.9 E76.44799
G1 X52.1 Y51.1 E80.46255
G1 X176.8 Y51.1 E84.23225
G1 X176.8 Y55.6 E84.36828
G1 X182.9 Y55.6 E84.55269
G1 X182.9 Y183.9 E88.43121
G1 X175.1 Y183.9 E88.66701
G1 X175.1 Y152.456 E89.61756
G1 X175.011 Y151.95 E89.6331
G1 X174.731 Y151.467 E89.64997
G1 X174.303 Y151.108 E89.66686
G1 X173.796 Y150.923 E89.68317
G1 X173.526 Y150.9 E89.69137
G1 X163.456 Y150.9 E89.99578
G1 X162.95 Y150.989 E90.01132
G1 X162.467 Y151.269 E90.02819
G1 X162.108 Y151.697 E90.04508
G1 X161.923 Y152.204 E90.0614
G1 X161.9 Y152.474 E90.06959
G1 X161.9 Y183.9 E91.0196
M204 S500
G0 F7500 X162.3 Y184.3
M204 S550
;TYPE:WALL-OUTER
G1 F1500 X51.7 Y184.3 E94.36305
G1 X51.7 Y50.7 E98.4018
G1 X177.2 Y50.7 E102.19568
G1 X177.2 Y55.2 E102.33172
G1 X183.3 Y55.2 E102.51612
G1 X183.3 Y184.3 E106.41883
G1 X174.7 Y184.3 E106.67881
G1 X174.7 Y152.491 E107.6404
G1 X174.629 Y152.089 E107.65274
G1 X174.42 Y151.728 E107.66535
G1 X174.1 Y151.46 E107.67797
G1 X173.709 Y151.317 E107.69055
G1 X173.509 Y151.3 E107.69662
G1 X163.491 Y151.3 E107.99947
G1 X163.089 Y151.371 E108.01181
G1 X162.728 Y151.58 E108.02442
G1 X162.46 Y151.9 E108.03704
G1 X162.317 Y152.291 E108.04962
G1 X162.3 Y152.491 E108.05569
G1 X162.3 Y184.3 E109.01728
M204 S500
G0 F7500 X162.03 Y184.03
G0 X161.39 Y183.11
G0 X161.11 Y183.11
M204 S550
;TYPE:SKIN
G1 F1500 X52.89 Y183.11 E112.28879
G1 X52.89 Y51.89 E116.25558
G1 X176.01 Y51.89 E119.97752
G1 X176.01 Y56.39 E120.11355
G1 X182.11 Y56.39 E120.29796
G1 X182.11 Y183.11 E124.12872
