;FLAVOR:Marlin
;TIME:3840
;Filament used: 2.07153m
;Layer height: 0.2
;MINX:90.51
;MINY:90.517
;MINZ:0.2
;MAXX:144.492
;MAXY:144.483
;MAXZ:60.6
;Generated with Cura_SteamEngine master
M140 S60
M105
M190 S60
M104 S200
M105
M109 S200
M82 ;absolute extrusion mode
; Ender 3 Custom Start G-code
G92 E0 ; Reset Extruder
G28 ; Home all axes
G1 Z2.0 F3000 ; Move Z Axis up little to prevent scratching of Heat Bed
G1 X0.1 Y20 Z0.3 F5000.0 ; Move to start position
G1 X0.1 Y200.0 Z0.3 F1500.0 E15 ; Draw the first line
G1 X0.4 Y200.0 Z0.3 F5000.0 ; Move to side a little
G1 X0.4 Y20 Z0.3 F1500.0 E30 ; Draw the second line
G92 E0 ; Reset Extruder
G1 Z2.0 F3000 ; Move Z Axis up little to prevent scratching of Heat Bed
G1 X5 Y20 Z0.3 F5000.0 ; Move over to prevent blob squish
G92 E0
G92 E0
G1 F2400 E-4
;LAYER_COUNT:303
;LAYER:0
M107
M204 S500
G0 F7500 X98.32 Y98.512 Z0.2
M204 S550
;TYPE:SKIRT
G1 F2400 E0
G1 F1500 X98.707 Y98.135 E0.01633
G1 X99.601 Y97.306 E0.05319
G1 X99.905 Y97.034 E0.06552
G1 X100.156 Y96.818 E0.07553
G1 X100.514 Y96.523 E0.08955
G1 X101.051 Y96.099 E0.11024
G1 X101.454 Y95.796 E0.12548
G1 X101.865 Y95.501 E0.14077
G1 X102.298 Y95.205 E0.15663
G1 X103.363 Y94.515 E0.19499
G1 X103.777 Y94.26 E0.20969
G1 X103.898 Y94.189 E0.21393
G1 X104.313 Y93.957 E0.2283
G1 X105.409 Y93.376 E0.2658
G1 X105.754 Y93.201 E0.2775
G1 X106.036 Y93.064 E0.28698
G1 X106.492 Y92.855 E0.30214
G1 X106.961 Y92.653 E0.31758
G1 X107.463 Y92.451 E0.33394
G1 X108.665 Y92.002 E0.37272
G1 X109.134 Y91.839 E0.38773
G1 X109.23 Y91.808 E0.39078
G1 X109.673 Y91.675 E0.40477
G1 X110.882 Y91.34 E0.44269
G1 X111.341 Y91.223 E0.45701
G1 X111.971 Y91.086 E0.4765
G1 X113.168 Y90.864 E0.5133
G1 X113.645 Y90.786 E0.52791
G1 X114.243 Y90.711 E0.54613
G1 X115.501 Y90.589 E0.58434
G1 X115.922 Y90.557 E0.59711
G1 X116.059 Y90.549 E0.60125
G1 X116.578 Y90.531 E0.61695
G1 X117.838 Y90.517 E0.65505
G1 X118.274 Y90.52 E0.66823
G1 X118.379 Y90.523 E0.6714
G1 X118.898 Y90.551 E0.68711
G1 X120.162 Y90.647 E0.72543
G1 X120.567 Y90.685 E0.73773
G1 X120.876 Y90.72 E0.74713
G1 X121.349 Y90.784 E0.76156
G1 X122.022 Y90.89 E0.78216
G1 X122.48 Y90.972 E0.79622
G1 X123.171 Y91.111 E0.81753
G1 X123.645 Y91.217 E0.83221
G1 X124.154 Y91.343 E0.84807
G1 X124.681 Y91.488 E0.86459
G1 X125.598 Y91.764 E0.89354
G1 X126.056 Y91.912 E0.90809
G1 X126.992 Y92.239 E0.93806
G1 X127.347 Y92.37 E0.9495
G1 X127.607 Y92.471 E0.95793
G1 X128.074 Y92.665 E0.97322
G1 X128.716 Y92.949 E0.99444
G1 X129.13 Y93.143 E1.00826
G1 X129.771 Y93.459 E1.02987
G1 X130.197 Y93.681 E1.04439
G1 X130.784 Y94.003 E1.06463
G1 X131.205 Y94.246 E1.07932
G1 X131.796 Y94.605 E1.10023
G1 X132.197 Y94.861 E1.11461
G1 X132.788 Y95.256 E1.1361
G1 X133.169 Y95.522 E1.15014
G1 X133.716 Y95.922 E1.17063
G1 X134.102 Y96.218 E1.18533
G1 X134.651 Y96.658 E1.2066
G1 X135.029 Y96.974 E1.2215
G1 X135.553 Y97.434 E1.24258
G1 X135.895 Y97.748 E1.25661
G1 X136.254 Y98.091 E1.27162
G1 X136.637 Y98.475 E1.28802
G1 X137.499 Y99.384 E1.32589
G1 X137.766 Y99.676 E1.33785
G1 X137.983 Y99.922 E1.34776
G1 X138.293 Y100.289 E1.36229
G1 X138.708 Y100.803 E1.38226
G1 X139.004 Y101.187 E1.39691
G1 X139.43 Y101.765 E1.41862
G1 X139.698 Y102.145 E1.43268
G1 X140.084 Y102.718 E1.45356
G1 X140.351 Y103.135 E1.46853
G1 X140.7 Y103.707 E1.48879
G1 X140.931 Y104.103 E1.50265
G1 X141.293 Y104.756 E1.52522
G1 X141.521 Y105.19 E1.54004
G1 X141.811 Y105.773 E1.55972
G1 X142.013 Y106.203 E1.57408
G1 X142.31 Y106.871 E1.59618
G1 X142.494 Y107.31 E1.61057
G1 X142.681 Y107.785 E1.626
G1 X142.869 Y108.301 E1.64261
G1 X143.251 Y109.434 E1.67875
G1 X143.361 Y109.776 E1.68961
G1 X143.414 Y109.952 E1.69517
G1 X143.573 Y110.541 E1.71361
G1 X143.861 Y111.733 E1.75068
G1 X143.937 Y112.067 E1.76104
G1 X143.97 Y112.225 E1.76592
G1 X144.078 Y112.826 E1.78438
G1 X144.263 Y114.047 E1.82171
G1 X144.314 Y114.431 E1.83342
G1 X144.328 Y114.552 E1.8371
G1 X144.378 Y115.103 E1.85383
G1 X144.461 Y116.38 E1.89251
G1 X144.479 Y116.751 E1.90374
G1 X144.488 Y117.04 E1.91248
G1 X144.492 Y117.54 E1.9276
G1 X144.482 Y118.235 E1.94861
G1 X144.465 Y118.705 E1.96283
G1 X144.425 Y119.404 E1.98399
G1 X144.387 Y119.881 E1.99846
G1 X144.336 Y120.386 E2.0138
G1 X144.266 Y120.943 E2.03077
G1 X144.075 Y122.193 E2.069
G1 X144.015 Y122.546 E2.07982
G1 X143.963 Y122.825 E2.0884
G1 X143.854 Y123.341 E2.10434
G1 X143.693 Y124.022 E2.1255
G1 X143.575 Y124.476 E2.13968
G1 X143.427 Y125.001 E2.15617
G1 X143.262 Y125.535 E2.17306
G1 X142.875 Y126.681 E2.20963
G1 X142.753 Y127.024 E2.22064
G1 X142.636 Y127.336 E2.23071
G1 X142.442 Y127.819 E2.24644
G1 X142.172 Y128.447 E2.26711
G1 X141.981 Y128.865 E2.281
G1 X141.662 Y129.529 E2.30327
G1 X141.446 Y129.956 E2.31774
G1 X141.134 Y130.539 E2.33773
G1 X140.895 Y130.962 E2.35241
G1 X140.542 Y131.557 E2.37333
G1 X140.304 Y131.94 E2.38696
G1 X139.923 Y132.526 E2.40809
G1 X139.633 Y132.95 E2.42362
G1 X139.334 Y133.366 E2.4391
G1 X139.014 Y133.79 E2.45516
G1 X138.232 Y134.774 E2.49316
G1 X137.972 Y135.089 E2.50551
G1 X137.768 Y135.327 E2.51498
G1 X137.454 Y135.677 E2.5292
G1 X137.113 Y136.042 E2.5443
G1 X136.725 Y136.437 E2.56103
G1 X135.821 Y137.312 E2.59907
G1 X135.54 Y137.575 E2.6107
G1 X135.315 Y137.778 E2.61986
G1 X134.933 Y138.107 E2.6351
G1 X134.37 Y138.57 E2.65714
G1 X134.02 Y138.846 E2.67061
G1 X133.49 Y139.247 E2.69071
G1 X133.077 Y139.545 E2.7061
G1 X132.513 Y139.932 E2.72678
G1 X132.137 Y140.179 E2.74038
G1 X131.538 Y140.555 E2.76176
G1 X131.12 Y140.804 E2.77647
G1 X130.514 Y141.148 E2.79753
G1 X130.092 Y141.376 E2.81203
G1 X129.65 Y141.602 E2.82704
G1 X129.146 Y141.844 E2.84394
G1 X127.985 Y142.365 E2.88241
G1 X127.625 Y142.518 E2.89423
G1 X127.357 Y142.627 E2.90298
G1 X126.918 Y142.795 E2.91719
G1 X126.247 Y143.035 E2.93873
G1 X125.769 Y143.194 E2.95396
G1 X125.127 Y143.391 E2.97426
G1 X124.687 Y143.516 E2.98809
G1 X124.164 Y143.653 E3.00443
G1 X123.625 Y143.78 E3.02117
G1 X122.399 Y144.036 E3.05904
G1 X121.993 Y144.113 E3.07153
G1 X121.681 Y144.166 E3.08109
G1 X121.234 Y144.232 E3.09475
G1 X120.757 Y144.293 E3.10929
G1 X120.19 Y144.351 E3.12652
G1 X118.905 Y144.448 E3.16548
G1 X118.42 Y144.474 E3.18016
G1 X117.837 Y144.483 E3.19779
G1 X116.565 Y144.469 E3.23624
G1 X116.146 Y144.457 E3.24891
G1 X116.024 Y144.451 E3.25261
G1 X115.506 Y144.413 E3.26831
G1 X114.316 Y144.298 E3.30445
G1 X113.885 Y144.248 E3.31756
G1 X113.702 Y144.223 E3.32315
G1 X113.173 Y144.137 E3.33935
G1 X111.951 Y143.909 E3.37693
G1 X111.623 Y143.843 E3.38704
G1 X111.481 Y143.812 E3.39144
G1 X110.871 Y143.66 E3.41044
G1 X109.674 Y143.326 E3.44801
G1 X109.277 Y143.208 E3.46053
G1 X109.177 Y143.176 E3.4637
G1 X108.678 Y143.003 E3.47967
G1 X107.707 Y142.64 E3.51101
G1 X107.264 Y142.463 E3.52543
G1 X106.375 Y142.086 E3.55462
G1 X106.021 Y141.928 E3.56634
G1 X105.798 Y141.824 E3.57378
G1 X105.368 Y141.612 E3.58827
G1 X104.734 Y141.282 E3.60988
G1 X104.298 Y141.043 E3.62491
G1 X103.694 Y140.693 E3.64601
G1 X103.303 Y140.455 E3.65985
G1 X102.698 Y140.07 E3.68153
G1 X102.299 Y139.804 E3.69602
G1 X101.72 Y139.399 E3.71738
G1 X101.324 Y139.108 E3.73224
G1 X100.815 Y138.717 E3.75164
G1 X100.456 Y138.429 E3.76555
G1 X99.91 Y137.972 E3.78708
G1 X99.571 Y137.676 E3.80068
G1 X99.054 Y137.206 E3.82181
G1 X98.667 Y136.837 E3.83797
G1 X98.172 Y136.341 E3.85915
G1 X97.872 Y136.028 E3.87226
G1 X97.54 Y135.668 E3.88706
G1 X97.152 Y135.225 E3.90487
G1 X96.321 Y134.221 E3.94427
G1 X96.099 Y133.943 E3.95502
G1 X95.934 Y133.73 E3.96316
G1 X95.637 Y133.329 E3.97825
G1 X95.239 Y132.764 E3.99914
G1 X94.986 Y132.388 E4.01284
G1 X94.696 Y131.938 E4.02903
G1 X94.389 Y131.433 E4.04689
G1 X93.761 Y130.333 E4.08518
G1 X93.529 Y129.905 E4.0999
G1 X93.272 Y129.386 E4.11741
G1 X92.764 Y128.287 E4.15401
G1 X92.632 Y127.99 E4.16383
G1 X92.565 Y127.833 E4.16899
G1 X92.332 Y127.241 E4.18823
G1 X91.918 Y126.091 E4.22517
G1 X91.786 Y125.7 E4.23765
G1 X91.737 Y125.546 E4.24254
G1 X91.588 Y125.035 E4.25863
G1 X91.269 Y123.834 E4.29619
G1 X91.18 Y123.478 E4.30728
G1 X91.116 Y123.2 E4.31591
G1 X91.014 Y122.704 E4.33122
G1 X90.889 Y122.018 E4.3523
G1 X90.816 Y121.56 E4.36632
G1 X90.72 Y120.869 E4.38741
G1 X90.664 Y120.391 E4.40195
G1 X90.597 Y119.683 E4.42345
G1 X90.562 Y119.204 E4.43797
G1 X90.528 Y118.533 E4.45828
G1 X90.514 Y118.056 E4.47271
G1 X90.51 Y117.509 E4.48924
G1 X90.521 Y116.946 E4.50627
G1 X90.576 Y115.694 E4.54415
G1 X90.599 Y115.316 E4.5556
G1 X90.622 Y115.023 E4.56448
G1 X90.672 Y114.525 E4.57962
G1 X90.739 Y113.987 E4.596
G1 X90.822 Y113.437 E4.61282
G1 X91.035 Y112.228 E4.64993
G1 X91.104 Y111.871 E4.66092
G1 X91.136 Y111.719 E4.66562
G1 X91.272 Y111.148 E4.68336
G1 X91.587 Y109.968 E4.72028
G1 X91.697 Y109.585 E4.73233
G1 X91.742 Y109.438 E4.73698
G1 X91.917 Y108.913 E4.75371
G1 X92.341 Y107.742 E4.79135
G1 X92.476 Y107.389 E4.80278
G1 X92.533 Y107.247 E4.80741
G1 X92.759 Y106.724 E4.82463
G1 X93.278 Y105.603 E4.86197
G1 X93.437 Y105.274 E4.87302
G1 X93.501 Y105.147 E4.87732
G1 X93.78 Y104.628 E4.89513
G1 X94.372 Y103.595 E4.93112
G1 X94.579 Y103.249 E4.94331
G1 X94.759 Y102.96 E4.9536
G1 X95.007 Y102.579 E4.96735
G1 X95.294 Y102.158 E4.98275
G1 X95.632 Y101.689 E5.00023
G1 X96.421 Y100.653 E5.03959
G1 X96.658 Y100.352 E5.05117
G1 X96.847 Y100.121 E5.0602
G1 X97.155 Y99.761 E5.07452
G1 X97.588 Y99.276 E5.09417
G1 X97.928 Y98.913 E5.10921
G1 X98.32 Y98.512 E5.12616
M204 S500
G0 F7500 X98.606 Y98.791
M204 S550
G1 F1500 X98.979 Y98.428 E5.1419
G1 X99.873 Y97.599 E5.17875
G1 X100.166 Y97.337 E5.19063
G1 X100.417 Y97.121 E5.20064
G1 X100.762 Y96.837 E5.21415
G1 X101.299 Y96.413 E5.23484
G1 X101.687 Y96.121 E5.24952
G1 X102.098 Y95.826 E5.26481
G1 X102.515 Y95.541 E5.28008
G1 X103.58 Y94.851 E5.31844
G1 X103.979 Y94.605 E5.33261
G1 X104.1 Y94.534 E5.33685
G1 X104.5 Y94.311 E5.3507
G1 X105.596 Y93.73 E5.3882
G1 X105.929 Y93.561 E5.39949
G1 X106.211 Y93.424 E5.40896
G1 X106.65 Y93.223 E5.42356
G1 X107.119 Y93.021 E5.439
G1 X107.603 Y92.826 E5.45477
G1 X108.805 Y92.377 E5.49356
G1 X109.257 Y92.22 E5.50802
G1 X109.353 Y92.189 E5.51107
G1 X109.78 Y92.061 E5.52455
G1 X110.989 Y91.726 E5.56247
G1 X111.279 Y91.65 E5.57154
G1 X111.437 Y91.611 E5.57646
G1 X112.044 Y91.48 E5.59523
G1 X113.241 Y91.258 E5.63203
G1 X113.574 Y91.201 E5.64224
G1 X113.705 Y91.181 E5.64625
G1 X114.282 Y91.109 E5.66383
G1 X115.54 Y90.987 E5.70204
G1 X115.945 Y90.956 E5.71432
G1 X116.082 Y90.948 E5.71846
G1 X116.582 Y90.931 E5.73359
G1 X117.842 Y90.917 E5.77168
G1 X118.263 Y90.92 E5.78441
G1 X118.368 Y90.923 E5.78758
G1 X118.868 Y90.949 E5.80272
G1 X120.132 Y91.045 E5.84104
G1 X120.522 Y91.082 E5.85288
G1 X120.831 Y91.117 E5.86228
G1 X121.287 Y91.179 E5.87619
G1 X121.96 Y91.285 E5.89679
G1 X122.401 Y91.364 E5.91033
G1 X123.092 Y91.503 E5.93164
G1 X123.549 Y91.606 E5.9458
G1 X124.058 Y91.732 E5.96166
G1 X124.566 Y91.871 E5.97758
G1 X125.483 Y92.147 E6.00653
G1 X125.924 Y92.29 E6.02054
G1 X126.86 Y92.617 E6.05051
G1 X127.202 Y92.743 E6.06153
G1 X127.462 Y92.844 E6.06996
G1 X127.912 Y93.031 E6.08469
G1 X128.554 Y93.315 E6.10592
G1 X128.953 Y93.502 E6.11924
G1 X129.594 Y93.818 E6.14084
G1 X130.005 Y94.031 E6.15484
G1 X130.592 Y94.353 E6.17508
G1 X130.997 Y94.587 E6.18922
G1 X131.588 Y94.946 E6.21012
G1 X131.975 Y95.193 E6.224
G1 X132.566 Y95.588 E6.24549
G1 X132.933 Y95.845 E6.25903
G1 X133.48 Y96.245 E6.27952
G1 X133.852 Y96.53 E6.29368
G1 X134.401 Y96.97 E6.31495
G1 X134.765 Y97.275 E6.32931
G1 X135.289 Y97.735 E6.35039
G1 X135.619 Y98.037 E6.36391
G1 X135.978 Y98.38 E6.37892
G1 X136.347 Y98.75 E6.39472
G1 X137.209 Y99.659 E6.43259
G1 X137.466 Y99.941 E6.44412
G1 X137.683 Y100.187 E6.45404
G1 X137.981 Y100.54 E6.468
G1 X138.396 Y101.054 E6.48797
G1 X138.682 Y101.424 E6.50211
G1 X139.108 Y102.002 E6.52382
G1 X139.366 Y102.369 E6.53738
G1 X139.752 Y102.942 E6.55826
G1 X140.01 Y103.343 E6.57268
G1 X140.359 Y103.915 E6.59293
G1 X140.581 Y104.297 E6.60629
G1 X140.943 Y104.95 E6.62886
G1 X141.163 Y105.368 E6.64314
G1 X141.453 Y105.951 E6.66282
G1 X141.648 Y106.366 E6.67669
G1 X141.945 Y107.034 E6.69879
G1 X142.122 Y107.457 E6.71265
G1 X142.309 Y107.932 E6.72808
G1 X142.49 Y108.428 E6.74404
G1 X142.872 Y109.561 E6.78019
G1 X142.978 Y109.892 E6.79069
G1 X143.031 Y110.068 E6.79625
G1 X143.185 Y110.635 E6.81401
G1 X143.473 Y111.827 E6.85108
G1 X143.545 Y112.149 E6.86106
G1 X143.578 Y112.307 E6.86594
G1 X143.682 Y112.886 E6.88372
G1 X143.867 Y114.107 E6.92105
G1 X143.917 Y114.477 E6.93234
G1 X143.931 Y114.598 E6.93602
G1 X143.979 Y115.128 E6.95211
G1 X144.062 Y116.405 E6.99079
G1 X144.079 Y116.763 E7.00163
G1 X144.088 Y117.052 E7.01037
G1 X144.092 Y117.535 E7.02497
G1 X144.082 Y118.23 E7.04598
G1 X144.066 Y118.683 E7.05968
G1 X144.026 Y119.382 E7.08085
G1 X143.989 Y119.841 E7.09477
G1 X143.938 Y120.346 E7.11011
G1 X143.87 Y120.882 E7.12645
G1 X143.679 Y122.132 E7.16467
G1 X143.622 Y122.473 E7.17513
G1 X143.57 Y122.752 E7.18371
G1 X143.465 Y123.249 E7.19906
G1 X143.304 Y123.93 E7.22022
G1 X143.19 Y124.367 E7.23387
G1 X143.042 Y124.892 E7.25036
G1 X142.883 Y125.407 E7.26665
G1 X142.496 Y126.553 E7.30322
G1 X142.378 Y126.884 E7.31384
G1 X142.261 Y127.196 E7.32391
G1 X142.074 Y127.661 E7.33906
G1 X141.804 Y128.289 E7.35973
G1 X141.621 Y128.692 E7.37311
G1 X141.302 Y129.356 E7.39538
G1 X141.093 Y129.768 E7.40934
G1 X140.781 Y130.351 E7.42933
G1 X140.551 Y130.758 E7.44347
G1 X140.198 Y131.353 E7.46438
G1 X139.969 Y131.722 E7.47751
G1 X139.588 Y132.308 E7.49864
G1 X139.308 Y132.717 E7.51362
G1 X139.009 Y133.133 E7.52911
G1 X138.701 Y133.541 E7.54456
G1 X137.919 Y134.525 E7.58256
G1 X137.668 Y134.828 E7.59445
G1 X137.464 Y135.066 E7.60393
G1 X137.162 Y135.404 E7.61763
G1 X136.821 Y135.769 E7.63273
G1 X136.447 Y136.15 E7.64887
G1 X135.543 Y137.025 E7.6869
G1 X135.272 Y137.278 E7.69811
G1 X135.047 Y137.481 E7.70727
G1 X134.679 Y137.798 E7.72196
G1 X134.116 Y138.261 E7.74399
G1 X133.779 Y138.527 E7.75697
G1 X133.249 Y138.928 E7.77706
G1 X132.85 Y139.215 E7.79192
G1 X132.286 Y139.602 E7.8126
G1 X131.924 Y139.84 E7.82569
G1 X131.325 Y140.216 E7.84707
G1 X130.923 Y140.456 E7.86123
G1 X130.317 Y140.8 E7.88229
G1 X129.91 Y141.02 E7.89628
G1 X129.468 Y141.246 E7.91128
G1 X128.982 Y141.479 E7.92758
G1 X127.821 Y142 E7.96605
G1 X127.475 Y142.148 E7.97742
G1 X127.207 Y142.257 E7.98617
G1 X126.783 Y142.419 E7.99989
G1 X126.112 Y142.659 E8.02143
G1 X125.652 Y142.812 E8.03609
G1 X125.01 Y143.009 E8.05639
G1 X124.586 Y143.129 E8.06971
G1 X124.063 Y143.266 E8.08605
G1 X123.544 Y143.388 E8.10217
G1 X122.318 Y143.644 E8.14003
G1 X121.926 Y143.718 E8.15209
G1 X121.614 Y143.771 E8.16166
G1 X121.184 Y143.835 E8.1748
G1 X120.707 Y143.896 E8.18934
G1 X120.16 Y143.952 E8.20596
G1 X118.875 Y144.049 E8.24492
G1 X118.522 Y144.07 E8.25561
G1 X118.403 Y144.075 E8.25921
G1 X117.841 Y144.083 E8.2762
G1 X116.569 Y144.069 E8.31465
G1 X116.165 Y144.057 E8.32687
G1 X116.043 Y144.051 E8.33056
G1 X115.544 Y144.015 E8.34569
G1 X114.354 Y143.9 E8.38183
G1 X113.939 Y143.851 E8.39446
G1 X113.756 Y143.826 E8.40005
G1 X113.247 Y143.744 E8.41563
G1 X112.025 Y143.516 E8.45321
G1 X111.708 Y143.452 E8.46299
G1 X111.566 Y143.421 E8.46738
G1 X110.978 Y143.275 E8.4857
G1 X109.781 Y142.941 E8.52326
G1 X109.399 Y142.827 E8.53531
G1 X109.299 Y142.795 E8.53849
G1 X108.818 Y142.628 E8.55388
G1 X107.847 Y142.265 E8.58522
G1 X107.421 Y142.095 E8.59908
G1 X106.532 Y141.718 E8.62828
G1 X106.19 Y141.566 E8.63959
G1 X105.967 Y141.462 E8.64703
G1 X105.553 Y141.258 E8.66098
G1 X104.919 Y140.928 E8.68259
G1 X104.498 Y140.696 E8.69712
G1 X103.894 Y140.346 E8.71822
G1 X103.518 Y140.118 E8.73151
G1 X102.913 Y139.733 E8.75319
G1 X102.528 Y139.476 E8.76719
G1 X101.949 Y139.071 E8.78855
G1 X101.568 Y138.791 E8.80284
G1 X101.059 Y138.4 E8.82224
G1 X100.712 Y138.122 E8.83568
G1 X100.166 Y137.665 E8.85721
G1 X99.84 Y137.38 E8.8703
G1 X99.323 Y136.91 E8.89142
G1 X98.95 Y136.555 E8.90699
G1 X98.455 Y136.059 E8.92817
G1 X98.166 Y135.757 E8.94081
G1 X97.834 Y135.397 E8.95561
G1 X97.46 Y134.97 E8.97277
G1 X96.629 Y133.966 E9.01217
G1 X96.415 Y133.698 E9.02254
G1 X96.25 Y133.485 E9.03068
G1 X95.964 Y133.098 E9.04523
G1 X95.566 Y132.533 E9.06612
G1 X95.322 Y132.171 E9.07932
G1 X95.032 Y131.721 E9.0955
G1 X94.737 Y131.234 E9.11271
