;FLAVOR:Marlin
;TIME:8264
;Filament used: 7.86385m
;Layer height: 0.2
;MINX:41.5
;MINY:39.5
;MINZ:0.2
;MAXX:193.4
;MAXY:195.5
;MAXZ:11
;Generated with Cura_SteamEngine master
M140 S60
M105
M190 S60
M104 S200
M105
M109 S200
M82 ;absolute extrusion mode
; Ender 3 Custom Start G-code
G92 E0 ; Reset Extruder
G28 ; Home all axes
G1 Z2.0 F3000 ; Move Z Axis up little to prevent scratching of Heat Bed
G1 X0.1 Y20 Z0.3 F5000.0 ; Move to start position
G1 X0.1 Y200.0 Z0.3 F1500.0 E15 ; Draw the first line
G1 X0.4 Y200.0 Z0.3 F5000.0 ; Move to side a little
G1 X0.4 Y20 Z0.3 F1500.0 E30 ; Draw the second line
G92 E0 ; Reset Extruder
G1 Z2.0 F3000 ; Move Z Axis up little to prevent scratching of Heat Bed
G1 X5 Y20 Z0.3 F5000.0 ; Move over to prevent blob squish
G92 E0
G92 E0
G1 F2400 E-4
;LAYER_COUNT:55
;LAYER:0
M107
M204 S500
G0 F7500 X44.704 Y47.255 Z0.2
M204 S550
;TYPE:SKIRT
G1 F2400 E0
G1 F1500 X45.393 Y46.618 E0.02837
G1 X46.088 Y46.074 E0.05505
G1 X46.914 Y45.48 E0.0858
G1 X47.554 Y45.033 E0.1094
G1 X49.585 Y43.528 E0.18582
G1 X51.708 Y41.86 E0.26744
G1 X52.469 Y41.313 E0.29577
G1 X53.275 Y40.832 E0.32414
G1 X54.118 Y40.422 E0.35248
G1 X54.993 Y40.085 E0.38083
G1 X55.894 Y39.824 E0.40918
G1 X56.814 Y39.641 E0.43754
G1 X58.167 Y39.515 E0.47862
G1 X58.493 Y39.505 E0.48848
G1 X58.83 Y39.5 E0.49867
G1 X64.664 Y39.5 E0.67503
G1 X65.522 Y39.511 E0.70097
G1 X66.458 Y39.564 E0.72931
G1 X67.376 Y39.695 E0.75734
G1 X68.215 Y39.851 E0.78314
G1 X69.25 Y40.059 E0.81505
G1 X71.714 Y40.482 E0.89063
G1 X74.239 Y40.843 E0.96774
G1 X76.723 Y41.127 E1.04332
G1 X79.253 Y41.344 E1.12008
G1 X81.755 Y41.487 E1.19584
G1 X84.253 Y41.559 E1.27139
G1 X86.777 Y41.561 E1.34769
G1 X89.29 Y41.492 E1.42369
G1 X91.821 Y41.349 E1.50032
G1 X94.311 Y41.139 E1.57586
G1 X96.837 Y40.854 E1.65271
G1 X99.314 Y40.503 E1.72833
G1 X101.823 Y40.074 E1.80528
G1 X103.278 Y39.793 E1.85008
G1 X103.599 Y39.728 E1.85998
G1 X104.525 Y39.581 E1.88832
G1 X105.472 Y39.513 E1.91703
G1 X105.792 Y39.504 E1.9267
G1 X106.101 Y39.5 E1.93605
G1 X181.851 Y39.501 E4.22598
G1 X182.549 Y39.511 E4.24708
G1 X183.485 Y39.565 E4.27542
G1 X184.413 Y39.697 E4.30376
G1 X185.327 Y39.909 E4.33212
G1 X186.219 Y40.198 E4.36047
G1 X187.084 Y40.561 E4.38883
G1 X187.914 Y40.997 E4.41717
G1 X188.705 Y41.502 E4.44554
G1 X189.449 Y42.073 E4.47389
G1 X190.142 Y42.705 E4.50224
G1 X190.779 Y43.393 E4.53059
G1 X191.354 Y44.134 E4.55894
G1 X191.865 Y44.92 E4.58728
G1 X192.307 Y45.748 E4.61566
G1 X192.676 Y46.61 E4.644
G1 X192.971 Y47.5 E4.67235
G1 X193.189 Y48.412 E4.70069
G1 X193.329 Y49.34 E4.72906
G1 X193.387 Y50.201 E4.75515
G1 X193.396 Y50.521 E4.76483
G1 X193.4 Y50.83 E4.77417
G1 X193.399 Y183.9 E8.79689
G1 X193.39 Y184.627 E8.81887
G1 X193.339 Y185.564 E8.84724
G1 X193.207 Y186.492 E8.87558
G1 X192.998 Y187.406 E8.90392
G1 X192.711 Y188.299 E8.93228
G1 X192.349 Y189.165 E8.96065
G1 X191.915 Y189.996 E8.98899
G1 X191.411 Y190.787 E9.01734
G1 X190.842 Y191.532 E9.04568
G1 X190.211 Y192.227 E9.07406
G1 X189.524 Y192.865 E9.1024
G1 X188.785 Y193.442 E9.13075
G1 X187.999 Y193.954 E9.1591
G1 X187.173 Y194.397 E9.18744
G1 X186.311 Y194.769 E9.21582
G1 X185.422 Y195.065 E9.24414
G1 X184.51 Y195.285 E9.27251
G1 X183.583 Y195.426 E9.30085
G1 X182.699 Y195.487 E9.32764
G1 X182.378 Y195.496 E9.33735
G1 X182.07 Y195.5 E9.34666
G1 X72.952 Y195.499 E12.64531
G1 X72.242 Y195.489 E12.66677
G1 X71.929 Y195.48 E12.67624
G1 X70.659 Y195.426 E12.71467
G1 X68.116 Y195.353 E12.79157
G1 X65.592 Y195.353 E12.86788
G1 X63.016 Y195.425 E12.94578
G1 X62.043 Y195.474 E12.97523
G1 X61.385 Y195.495 E12.99513
G1 X61.07 Y195.5 E13.00466
G1 X53.065 Y195.499 E13.24665
G1 X52.367 Y195.49 E13.26775
G1 X51.431 Y195.438 E13.29609
G1 X50.502 Y195.306 E13.32445
G1 X49.588 Y195.096 E13.3528
G1 X48.695 Y194.809 E13.38116
G1 X47.83 Y194.446 E13.40952
G1 X46.999 Y194.012 E13.43786
G1 X46.208 Y193.508 E13.46621
G1 X45.463 Y192.938 E13.49457
G1 X44.769 Y192.307 E13.52293
G1 X44.132 Y191.62 E13.55125
G1 X43.555 Y190.88 E13.57961
G1 X43.043 Y190.094 E13.60797
G1 X42.6 Y189.267 E13.63633
G1 X42.229 Y188.406 E13.66467
G1 X41.933 Y187.516 E13.69303
G1 X41.714 Y186.604 E13.72138
G1 X41.573 Y185.677 E13.74973
G1 X41.513 Y184.788 E13.77666
G1 X41.504 Y184.455 E13.78673
G1 X41.5 Y184.158 E13.79571
G1 X41.501 Y55.55 E17.68355
G1 X41.511 Y54.848 E17.70477
G1 X41.564 Y53.912 E17.73311
G1 X41.697 Y52.984 E17.76145
G1 X41.909 Y52.07 E17.78982
G1 X42.197 Y51.177 E17.81818
G1 X42.561 Y50.313 E17.84653
G1 X42.997 Y49.482 E17.87489
G1 X43.502 Y48.692 E17.90324
G1 X44.072 Y47.948 E17.93157
G1 X44.704 Y47.255 E17.95993
M204 S500
G0 F7500 X45.096 Y47.429
M204 S550
G1 F1500 X45.781 Y46.815 E17.98773
G1 X46.321 Y46.399 E18.00834
G1 X47.147 Y45.805 E18.0391
G1 X47.798 Y45.35 E18.06311
G1 X49.825 Y43.849 E18.13935
G1 X51.955 Y42.175 E18.22125
G1 X52.703 Y41.638 E18.24909
G1 X53.495 Y41.168 E18.27693
G1 X54.324 Y40.769 E18.30474
G1 X55.185 Y40.443 E18.33257
G1 X56.071 Y40.193 E18.3604
G1 X56.976 Y40.021 E18.38825
G1 X58.179 Y39.915 E18.42476
G1 X58.505 Y39.905 E18.43462
G1 X58.83 Y39.9 E18.44444
G1 X64.664 Y39.9 E18.62081
G1 X65.516 Y39.911 E18.64656
G1 X66.435 Y39.964 E18.67439
G1 X67.303 Y40.089 E18.7009
G1 X68.298 Y40.275 E18.7315
G1 X69.174 Y40.452 E18.75852
G1 X71.656 Y40.878 E18.83465
G1 X74.213 Y41.243 E18.91273
G1 X76.676 Y41.525 E18.98767
G1 X79.195 Y41.741 E19.0641
G1 X81.722 Y41.885 E19.14062
G1 X84.276 Y41.959 E19.21786
G1 X86.788 Y41.961 E19.29379
G1 X89.323 Y41.891 E19.37046
G1 X91.844 Y41.749 E19.44679
G1 X94.353 Y41.537 E19.52291
G1 X96.867 Y41.254 E19.59938
G1 X99.366 Y40.899 E19.67569
G1 X101.923 Y40.463 E19.7541
G1 X103.308 Y40.195 E19.79675
G1 X103.678 Y40.12 E19.80816
G1 X104.588 Y39.976 E19.83601
G1 X105.483 Y39.913 E19.86313
G1 X105.803 Y39.904 E19.87281
G1 X106.101 Y39.9 E19.88182
G1 X181.845 Y39.901 E22.17157
G1 X182.543 Y39.911 E22.19268
G1 X183.462 Y39.964 E22.2205
G1 X184.373 Y40.097 E22.24834
G1 X185.269 Y40.308 E22.27616
G1 X186.143 Y40.596 E22.30398
G1 X186.99 Y40.959 E22.33184
G1 X187.801 Y41.394 E22.35966
G1 X188.571 Y41.898 E22.38748
G1 X189.295 Y42.467 E22.41532
G1 X189.967 Y43.097 E22.44316
G1 X190.582 Y43.782 E22.47099
G1 X191.135 Y44.518 E22.49882
G1 X191.622 Y45.299 E22.52664
G1 X192.039 Y46.12 E22.55448
G1 X192.384 Y46.974 E22.58233
G1 X192.653 Y47.854 E22.61014
G1 X192.845 Y48.755 E22.63799
G1 X192.958 Y49.668 E22.6658
G1 X192.987 Y50.212 E22.68227
G1 X192.996 Y50.532 E22.69195
G1 X193 Y50.83 E22.70096
G1 X192.999 Y183.895 E26.72353
G1 X192.99 Y184.622 E26.74551
G1 X192.939 Y185.541 E26.77333
G1 X192.808 Y186.453 E26.80119
G1 X192.598 Y187.349 E26.82901
G1 X192.312 Y188.224 E26.85684
G1 X191.951 Y189.071 E26.88467
G1 X191.517 Y189.883 E26.9125
G1 X191.015 Y190.655 E26.94034
G1 X190.447 Y191.38 E26.96818
G1 X189.819 Y192.053 E26.99601
G1 X189.135 Y192.669 E27.02384
G1 X188.4 Y193.223 E27.05166
G1 X187.62 Y193.712 E27.07949
G1 X186.8 Y194.131 E27.10733
G1 X185.947 Y194.477 E27.13515
G1 X185.067 Y194.748 E27.16299
G1 X184.167 Y194.941 E27.19082
G1 X183.253 Y195.056 E27.21866
G1 X182.688 Y195.087 E27.23577
G1 X182.367 Y195.096 E27.24548
G1 X182.07 Y195.1 E27.25446
G1 X72.958 Y195.099 E30.55293
G1 X72.248 Y195.089 E30.57439
G1 X71.946 Y195.08 E30.58353
G1 X70.76 Y195.029 E30.61941
G1 X68.092 Y194.953 E30.7001
G1 X65.581 Y194.953 E30.77601
G1 X63.029 Y195.024 E30.85318
G1 X62.023 Y195.075 E30.88363
G1 X61.792 Y195.084 E30.89062
G1 X61.373 Y195.096 E30.90329
G1 X61.07 Y195.1 E30.91245
G1 X53.07 Y195.099 E31.1543
G1 X52.372 Y195.09 E31.1754
G1 X51.453 Y195.038 E31.20322
G1 X50.542 Y194.907 E31.23105
G1 X49.646 Y194.697 E31.25887
G1 X48.771 Y194.41 E31.28671
G1 X47.924 Y194.048 E31.31455
G1 X47.112 Y193.614 E31.34238
G1 X46.341 Y193.112 E31.3702
G1 X45.616 Y192.544 E31.39804
G1 X44.943 Y191.915 E31.42589
G1 X44.328 Y191.231 E31.45369
G1 X43.774 Y190.496 E31.48152
G1 X43.286 Y189.715 E31.50936
G1 X42.867 Y188.895 E31.53719
G1 X42.521 Y188.042 E31.56502
G1 X42.251 Y187.162 E31.59285
G1 X42.058 Y186.261 E31.6207
G1 X41.944 Y185.348 E31.64852
G1 X41.913 Y184.777 E31.6658
G1 X41.904 Y184.444 E31.67587
G1 X41.9 Y184.158 E31.68452
G1 X41.901 Y55.556 E35.57218
G1 X41.911 Y54.854 E35.5934
G1 X41.964 Y53.935 E35.62123
G1 X42.097 Y53.024 E35.64906
G1 X42.308 Y52.128 E35.67689
G1 X42.596 Y51.253 E35.70473
G1 X42.959 Y50.407 E35.73256
G1 X43.394 Y49.596 E35.76038
G1 X43.898 Y48.825 E35.78823
G1 X44.466 Y48.101 E35.81605
G1 X45.096 Y47.429 E35.84389
M204 S500
G0 F7500 X45.487 Y47.608
M204 S550
G1 F1500 X46.169 Y47.016 E35.87119
G1 X46.555 Y46.724 E35.88583
G1 X47.5 Y46.046 E35.92099
G1 X48.02 Y45.683 E35.94016
G1 X50.087 Y44.152 E36.01792
G1 X52.202 Y42.49 E36.09923
G1 X52.936 Y41.964 E36.12653
G1 X53.714 Y41.505 E36.15384
G1 X54.529 Y41.116 E36.18114
G1 X55.376 Y40.801 E36.20845
G1 X56.247 Y40.563 E36.23575
G1 X57.136 Y40.402 E36.26306
G1 X58.191 Y40.315 E36.29506
G1 X58.517 Y40.305 E36.30492
G1 X58.83 Y40.3 E36.31439
G1 X64.809 Y40.301 E36.49513
G1 X65.51 Y40.311 E36.51633
G1 X66.412 Y40.364 E36.54364
G1 X67.23 Y40.482 E36.56862
G1 X68.219 Y40.667 E36.59904
G1 X69.099 Y40.844 E36.62618
G1 X71.603 Y41.275 E36.70299
G1 X74.143 Y41.637 E36.78055
G1 X76.633 Y41.922 E36.85631
G1 X79.209 Y42.143 E36.93447
G1 X81.687 Y42.284 E37.0095
G1 X84.265 Y42.359 E37.08747
G1 X86.799 Y42.361 E37.16407
G1 X89.322 Y42.291 E37.24037
G1 X91.864 Y42.148 E37.31734
G1 X94.396 Y41.934 E37.39415
G1 X96.931 Y41.648 E37.47127
G1 X99.418 Y41.296 E37.5472
G1 X101.978 Y40.859 E37.62571
G1 X103.43 Y40.578 E37.67042
G1 X103.757 Y40.512 E37.68051
G1 X104.65 Y40.372 E37.70783
G1 X105.494 Y40.313 E37.73341
G1 X105.814 Y40.304 E37.74308
G1 X106.101 Y40.3 E37.75176
G1 X181.839 Y40.301 E40.04133
G1 X182.537 Y40.311 E40.06243
G1 X183.439 Y40.364 E40.08975
G1 X184.332 Y40.496 E40.11704
G1 X185.21 Y40.707 E40.14434
G1 X186.066 Y40.995 E40.17164
G1 X186.893 Y41.357 E40.19893
G1 X187.685 Y41.792 E40.22624
G1 X188.436 Y42.294 E40.25355
G1 X189.139 Y42.861 E40.28085
G1 X189.789 Y43.488 E40.30816
G1 X190.381 Y44.17 E40.33546
G1 X190.911 Y44.901 E40.36275
G1 X191.373 Y45.677 E40.39005
G1 X191.766 Y46.49 E40.41735
G1 X192.084 Y47.335 E40.44465
G1 X192.327 Y48.205 E40.47195
G1 X192.492 Y49.093 E40.49926
G1 X192.587 Y50.223 E40.53354
G1 X192.596 Y50.543 E40.54321
G1 X192.6 Y50.83 E40.55189
G1 X192.599 Y183.89 E44.57431
G1 X192.59 Y184.617 E44.59629
G1 X192.539 Y185.519 E44.6236
G1 X192.408 Y186.413 E44.65092
G1 X192.199 Y187.291 E44.6782
G1 X191.913 Y188.148 E44.70551
G1 X191.552 Y188.976 E44.73282
G1 X191.12 Y189.768 E44.76009
G1 X190.619 Y190.52 E44.78741
G1 X190.053 Y191.224 E44.81471
G1 X189.428 Y191.875 E44.842
G1 X188.747 Y192.469 E44.86931
G1 X188.016 Y193 E44.89663
G1 X187.242 Y193.464 E44.92391
G1 X186.429 Y193.858 E44.95122
G1 X185.585 Y194.178 E44.9785
G1 X184.715 Y194.423 E45.00583
G1 X183.828 Y194.589 E45.03311
G1 X182.677 Y194.687 E45.06803
G1 X182.356 Y194.696 E45.07774
G1 X182.07 Y194.7 E45.08638
G1 X72.963 Y194.699 E48.3847
G1 X72.253 Y194.689 E48.40617
G1 X71.963 Y194.681 E48.41494
G1 X70.716 Y194.628 E48.45267
G1 X68.104 Y194.553 E48.53166
G1 X65.57 Y194.553 E48.60827
G1 X62.996 Y194.625 E48.68611
G1 X62.002 Y194.675 E48.7162
G1 X61.781 Y194.684 E48.72288
G1 X61.362 Y194.696 E48.73555
G1 X61.07 Y194.7 E48.74438
G1 X53.075 Y194.699 E48.98607
G1 X52.377 Y194.69 E49.00717
G1 X51.476 Y194.639 E49.03445
G1 X50.582 Y194.507 E49.06177
G1 X49.704 Y194.298 E49.08906
G1 X48.847 Y194.011 E49.11638
G1 X48.02 Y193.65 E49.14366
G1 X47.227 Y193.217 E49.17097
G1 X46.476 Y192.716 E49.19826
G1 X45.772 Y192.15 E49.22557
G1 X45.121 Y191.524 E49.25287
G1 X44.528 Y190.843 E49.28017
G1 X43.998 Y190.112 E49.30746
G1 X43.534 Y189.337 E49.33477
G1 X43.14 Y188.524 E49.36208
G1 X42.82 Y187.68 E49.38937
G1 X42.576 Y186.81 E49.41668
G1 X42.41 Y185.922 E49.44399
G1 X42.313 Y184.767 E49.47903
G1 X42.304 Y184.434 E49.4891
G1 X42.3 Y184.158 E49.49745
G1 X42.301 Y55.562 E53.38492
G1 X42.311 Y54.86 E53.40614
G1 X42.364 Y53.958 E53.43346
G1 X42.496 Y53.065 E53.46075
G1 X42.707 Y52.187 E53.48805
G1 X42.995 Y51.331 E53.51535
G1 X43.357 Y50.503 E53.54267
G1 X43.791 Y49.711 E53.56997
G1 X44.294 Y48.961 E53.59727
G1 X44.86 Y48.258 E53.62455
G1 X45.487 Y47.608 E53.65185
M204 S500
G1 F2400 E49.65185
G0 F7500 X65.528 Y49.839
G0 X66.032 Y50.343
G0 X69.971 Y73.736
G0 X69.971 Y74.2
M204 S550
G1 F2400 E53.65185
G1 F1500 X101.171 Y74.205 E54.59503
G1 X101.171 Y89.46 E55.05619
G1 X69.971 Y89.459 E55.99937
G1 X69.971 Y74.2 E56.46065
M204 S500
G0 F7500 X69.571 Y73.8
M204 S550
G1 F1500 X101.571 Y73.805 E57.42802
G1 X101.571 Y89.86 E57.91336
G1 X69.571 Y89.859 E58.88073
G1 X69.571 Y73.8 E59.36619
M204 S500
G0 F7500 X69.171 Y73.4
M204 S550
G1 F1500 X101.971 Y73.405 E60.35774
G1 X101.971 Y90.26 E60.86727
G1 X69.171 Y90.259 E61.85882
G1 X69.171 Y73.4 E62.36847
M204 S500
G0 F7500 X68.771 Y73
M204 S550
G1 F1500 X102.371 Y73.005 E63.3842
G1 X102.371 Y90.66 E63.91792
G1 X68.771 Y90.659 E64.93365
G1 X68.771 Y73 E65.46748
M204 S500
G0 F7500 X68.371 Y72.6
M204 S550
G1 F1500 X102.771 Y72.605 E66.5074
G1 X102.771 Y91.06 E67.0653
G1 X68.371 Y91.059 E68.10521
G1 X68.371 Y72.6 E68.66323
M204 S500
G0 F7500 X67.971 Y72.2
M204 S550
G1 F1500 X103.171 Y72.205 E69.72733
G1 X103.171 Y91.46 E70.30941
G1 X67.971 Y91.459 E71.37351
G1 X67.971 Y72.2 E71.95572
M204 S500
G0 F7500 X67.571 Y71.8
M204 S550
G1 F1500 X103.571 Y71.805 E73.044
G1 X103.571 Y91.86 E73.65027
G1 X67.571 Y91.859 E74.73855
G1 X67.571 Y71.8 E75.34494
M204 S500
G0 F7500 X67.171 Y71.4
M204 S550
G1 F1500 X103.971 Y71.405 E76.45741
G1 X103.971 Y92.26 E77.08786
G1 X67.171 Y92.259 E78.20033
G1 X67.171 Y71.4 E78.8309
M204 S500
G0 F7500 X66.771 Y71
M204 S550
G1 F1500 X104.371 Y71.005 E79.96755
G1 X104.371 Y92.66 E80.62218
G1 X66.771 Y92.659 E81.75884
G1 X66.771 Y71 E82.41359
M204 S500
G0 F7500 X66.371 Y70.6
M204 S550
G1 F1500 X104.771 Y70.605 E83.57443
G1 X104.771 Y93.06 E84.25324
G1 X66.371 Y93.059 E85.41408
G1 X66.371 Y70.6 E86.09302
M204 S500
G1 F2400 E82.09302
G0 F7500 X70.371 Y73.736
G0 X70.371 Y74.601
M204 S550
;TYPE:SUPPORT
G1 F2400 E86.09302
G1 F1500 X100.771 Y74.604 E87.01202
G1 X100.771 Y89.06 E87.44902
G1 X70.371 Y89.059 E88.36802
G1 X70.371 Y74.601 E88.80509
M204 S500
G0 F7500 X70.771 Y75.001
M204 S550
G1 F1500 X100.371 Y75.004 E89.6999
G1 X100.371 Y88.66 E90.11272
G1 X70.771 Y88.659 E91.00753
G1 X70.771 Y75.001 E91.42042
M204 S500
G0 F7500 X70.851 Y76
M204 S550
G1 F1500 X100.291 Y76 E92.31039
M204 S500
G0 F7500 X100 Y75.084
M204 S550
G1 F1500 X100 Y88.579 E92.71835
M204 S500
G0 F7500 X100.291 Y88
M204 S550
G1 F1500 X70.851 Y88 E93.60832
M204 S500
G0 F7500 X72 Y88.579
M204 S550
G1 F1500 X72 Y75.082 E94.01634
M204 S500
G0 F7500 X74 Y75.082
M204 S550
G1 F1500 X74 Y88.579 E94.42436
M204 S500
G0 F7500 X76 Y88.579
M204 S550
G1 F1500 X76 Y75.082 E94.83237
M204 S500
G0 F7500 X78 Y75.082
M204 S550
G1 F1500 X78 Y88.579 E95.24039
M204 S500
G0 F7500 X80 Y88.579
M204 S550
G1 F1500 X80 Y75.082 E95.6484
M204 S500
G0 F7500 X82 Y75.083
M204 S550
G1 F1500 X82 Y88.579 E96.05639
M204 S500
G0 F7500 X84 Y88.579
M204 S550
G1 F1500 X84 Y75.083 E96.46438
M204 S500
G0 F7500 X86 Y75.083
M204 S550
G1 F1500 X86 Y88.579 E96.87236
M204 S500
G0 F7500 X88 Y88.579
M204 S550
G1 F1500 X88 Y75.083 E97.28035
M204 S500
G0 F7500 X90 Y75.083
M204 S550
G1 F1500 X90 Y88.579 E97.68833
M204 S500
G0 F7500 X92 Y88.579
M204 S550
G1 F1500 X92 Y75.084 E98.09629
M204 S500
G0 F7500 X94 Y75.084
M204 S550
G1 F1500 X94 Y88.579 E98.50425
M204 S500
G0 F7500 X96 Y88.579
M204 S550
G1 F1500 X96 Y75.084 E98.9122
M204 S500
G0 F7500 X98 Y75.084
M204 S550
G1 F1500 X98 Y88.579 E99.32016
M204 S500
G1 F2400 E95.32016
G0 F7500 X98 Y89.925
G0 X101.624 Y89.913
G0 X101.636 Y86
G0 X100.291 Y86
M204 S550
G1 F2400 E99.32016
G1 F1500 X70.851 Y86 E100.21013
M204 S500
G0 F7500 X70.851 Y84
M204 S550
G1 F1500 X100.291 Y84 E101.10011
M204 S500
G0 F7500 X100.291 Y82
M204 S550
G1 F1500 X70.851 Y82 E101.99008
M204 S500
G0 F7500 X70.851 Y80
M204 S550
G1 F1500 X100.291 Y80 E102.88006
M204 S500
G0 F7500 X100.291 Y78
M204 S550
G1 F1500 X70.851 Y78 E103.77003
M204 S500
G1 F2400 E99.77003
G0 F7500 X69.506 Y78
G0 X66.371 Y92.594
G0 X66.371 Y93.459
