;FLAVOR:Marlin
;TIME:2179
;Filament used: 1.5341m
;Layer height: 0.2
;MINX:87.514
;MINY:87.514
;MINZ:0.2
;MAXX:147.486
;MAXY:147.486
;MAXZ:13.4
;Generated with Cura_SteamEngine master
M140 S60
M105
M190 S60
M104 S200
M105
M109 S200
M82 ;absolute extrusion mode
; Ender 3 Custom Start G-code
G92 E0 ; Reset Extruder
G28 ; Home all axes
G1 Z2.0 F3000 ; Move Z Axis up little to prevent scratching of Heat Bed
G1 X0.1 Y20 Z0.3 F5000.0 ; Move to start position
G1 X0.1 Y200.0 Z0.3 F1500.0 E15 ; Draw the first line
G1 X0.4 Y200.0 Z0.3 F5000.0 ; Move to side a little
G1 X0.4 Y20 Z0.3 F1500.0 E30 ; Draw the second line
G92 E0 ; Reset Extruder
G1 Z2.0 F3000 ; Move Z Axis up little to prevent scratching of Heat Bed
G1 X5 Y20 Z0.3 F5000.0 ; Move over to prevent blob squish
G92 E0
G92 E0
G1 F2400 E-4
;LAYER_COUNT:68
;LAYER:0
M107
M204 S500
G0 F7500 X96.101 Y96.49 Z0.2
M204 S550
;TYPE:SKIRT
G1 F2400 E0
G1 F1500 X96.515 Y96.077 E0.01768
G1 X96.767 Y95.834 E0.02826
G1 X97.252 Y95.38 E0.04834
G1 X97.548 Y95.113 E0.06039
G1 X98.049 Y94.677 E0.08047
G1 X98.333 Y94.438 E0.09169
G1 X98.877 Y93.996 E0.11288
G1 X99.181 Y93.758 E0.12455
G1 X99.611 Y93.433 E0.14085
G1 X99.911 Y93.214 E0.15208
G1 X100.526 Y92.781 E0.17481
G1 X100.827 Y92.576 E0.18582
G1 X101.315 Y92.256 E0.20346
G1 X101.631 Y92.056 E0.21477
G1 X102.172 Y91.727 E0.23391
G1 X102.488 Y91.543 E0.24496
G1 X103.102 Y91.197 E0.26627
G1 X103.441 Y91.013 E0.27793
G1 X104.047 Y90.699 E0.29856
G1 X104.397 Y90.526 E0.31036
G1 X104.838 Y90.317 E0.32512
G1 X105.18 Y90.162 E0.33647
G1 X105.968 Y89.821 E0.36242
G1 X106.283 Y89.69 E0.37274
G1 X106.727 Y89.514 E0.38718
G1 X107.101 Y89.374 E0.39925
G1 X107.746 Y89.145 E0.41994
G1 X108.093 Y89.028 E0.43101
G1 X108.807 Y88.801 E0.45366
G1 X109.179 Y88.69 E0.46539
G1 X109.687 Y88.548 E0.48134
G1 X110.042 Y88.455 E0.49243
G1 X110.735 Y88.286 E0.514
G1 X111.086 Y88.207 E0.52487
G1 X111.659 Y88.087 E0.54257
G1 X112.062 Y88.01 E0.55497
G1 X112.835 Y87.878 E0.57868
G1 X113.204 Y87.821 E0.58997
G1 X113.733 Y87.749 E0.60611
G1 X114.102 Y87.706 E0.61734
G1 X114.711 Y87.644 E0.63584
G1 X115.061 Y87.614 E0.64646
G1 X115.808 Y87.562 E0.6691
G1 X116.201 Y87.541 E0.681
G1 X116.823 Y87.52 E0.69981
G1 X117.194 Y87.514 E0.71103
G1 X117.815 Y87.514 E0.7298
G1 X118.185 Y87.52 E0.74099
G1 X118.809 Y87.541 E0.75986
G1 X119.205 Y87.562 E0.77185
G1 X119.95 Y87.614 E0.79442
G1 X120.308 Y87.645 E0.80529
G1 X120.824 Y87.698 E0.82097
G1 X121.192 Y87.742 E0.83217
G1 X121.988 Y87.851 E0.85646
G1 X122.375 Y87.911 E0.8683
G1 X122.894 Y88.001 E0.88422
G1 X123.258 Y88.07 E0.89542
G1 X123.911 Y88.206 E0.91559
G1 X124.274 Y88.288 E0.92684
G1 X124.967 Y88.457 E0.9484
G1 X125.333 Y88.553 E0.95984
G1 X125.839 Y88.695 E0.97572
G1 X126.189 Y88.8 E0.98677
G1 X126.874 Y89.017 E1.00849
G1 X127.252 Y89.144 E1.02055
G1 X127.966 Y89.399 E1.04347
G1 X128.306 Y89.527 E1.05445
G1 X128.734 Y89.696 E1.06836
G1 X129.084 Y89.841 E1.07981
G1 X129.817 Y90.16 E1.10398
G1 X130.135 Y90.304 E1.11453
G1 X130.608 Y90.528 E1.13035
G1 X130.961 Y90.703 E1.14226
G1 X131.567 Y91.017 E1.1629
G1 X131.9 Y91.197 E1.17434
G1 X132.515 Y91.543 E1.19567
G1 X132.842 Y91.735 E1.20713
G1 X133.333 Y92.034 E1.22451
G1 X133.643 Y92.23 E1.2356
G1 X134.273 Y92.643 E1.25837
G1 X134.593 Y92.86 E1.27006
G1 X135.047 Y93.181 E1.28687
G1 X135.347 Y93.401 E1.29812
G1 X135.845 Y93.779 E1.31702
G1 X136.121 Y93.996 E1.32763
G1 X136.702 Y94.467 E1.35024
G1 X137.012 Y94.728 E1.36249
G1 X137.447 Y95.108 E1.37995
G1 X137.717 Y95.351 E1.39093
G1 X138.229 Y95.829 E1.41211
G1 X138.51 Y96.101 E1.42393
G1 X138.923 Y96.515 E1.44161
G1 X139.16 Y96.761 E1.45193
G1 X139.609 Y97.24 E1.47178
G1 X139.884 Y97.544 E1.48417
G1 X140.325 Y98.051 E1.50449
G1 X140.562 Y98.333 E1.51562
G1 X141.004 Y98.877 E1.53681
G1 X141.242 Y99.181 E1.54848
G1 X141.567 Y99.611 E1.56478
G1 X141.786 Y99.911 E1.57601
G1 X142.219 Y100.526 E1.59874
G1 X142.424 Y100.827 E1.60975
G1 X142.744 Y101.315 E1.62739
G1 X142.945 Y101.634 E1.63879
G1 X143.272 Y102.172 E1.65782
G1 X143.453 Y102.481 E1.66865
G1 X143.801 Y103.098 E1.69006
G1 X143.987 Y103.441 E1.70186
G1 X144.301 Y104.047 E1.72249
G1 X144.474 Y104.397 E1.73429
G1 X144.683 Y104.838 E1.74905
G1 X144.838 Y105.18 E1.7604
G1 X145.179 Y105.968 E1.78635
G1 X145.31 Y106.283 E1.79667
G1 X145.486 Y106.727 E1.81111
G1 X145.624 Y107.096 E1.82301
G1 X145.853 Y107.74 E1.84368
G1 X145.973 Y108.096 E1.85503
G1 X146.2 Y108.811 E1.87771
G1 X146.308 Y109.173 E1.88913
G1 X146.45 Y109.68 E1.90505
G1 X146.546 Y110.044 E1.91643
G1 X146.715 Y110.738 E1.93802
G1 X146.793 Y111.086 E1.9488
G1 X146.913 Y111.659 E1.9665
G1 X146.99 Y112.062 E1.9789
G1 X147.122 Y112.835 E2.00261
G1 X147.178 Y113.201 E2.0138
G1 X147.25 Y113.729 E2.02991
G1 X147.294 Y114.093 E2.041
G1 X147.355 Y114.688 E2.05908
G1 X147.385 Y115.046 E2.06994
G1 X147.438 Y115.807 E2.093
G1 X147.459 Y116.2 E2.10489
G1 X147.48 Y116.823 E2.12374
G1 X147.486 Y117.194 E2.13496
G1 X147.486 Y117.815 E2.15373
G1 X147.48 Y118.185 E2.16492
G1 X147.459 Y118.809 E2.18379
G1 X147.438 Y119.205 E2.19578
G1 X147.386 Y119.95 E2.21835
G1 X147.355 Y120.308 E2.22922
G1 X147.302 Y120.824 E2.2449
G1 X147.258 Y121.192 E2.2561
G1 X147.149 Y121.988 E2.28039
G1 X147.089 Y122.375 E2.29223
G1 X146.999 Y122.894 E2.30815
G1 X146.93 Y123.258 E2.31935
G1 X146.794 Y123.911 E2.33952
G1 X146.712 Y124.274 E2.35077
G1 X146.543 Y124.967 E2.37233
G1 X146.447 Y125.333 E2.38377
G1 X146.305 Y125.839 E2.39965
G1 X146.2 Y126.189 E2.4107
G1 X145.983 Y126.874 E2.43242
G1 X145.856 Y127.252 E2.44448
G1 X145.601 Y127.966 E2.4674
G1 X145.472 Y128.31 E2.4785
G1 X145.304 Y128.735 E2.49232
G1 X145.162 Y129.077 E2.50351
G1 X144.842 Y129.813 E2.52777
G1 X144.696 Y130.135 E2.53846
G1 X144.472 Y130.608 E2.55428
G1 X144.3 Y130.955 E2.56599
G1 X143.987 Y131.56 E2.58658
G1 X143.802 Y131.902 E2.59834
G1 X143.458 Y132.513 E2.61953
G1 X143.264 Y132.844 E2.63113
G1 X142.956 Y133.349 E2.64901
G1 X142.765 Y133.651 E2.65982
G1 X142.358 Y134.272 E2.68226
G1 X142.14 Y134.593 E2.69399
G1 X141.819 Y135.047 E2.7108
G1 X141.599 Y135.347 E2.72205
G1 X141.221 Y135.845 E2.74095
G1 X141.001 Y136.125 E2.75171
G1 X140.532 Y136.703 E2.77421
G1 X140.28 Y137.002 E2.78603
G1 X139.898 Y137.44 E2.8036
G1 X139.649 Y137.717 E2.81486
G1 X139.171 Y138.229 E2.83604
G1 X138.899 Y138.51 E2.84786
G1 X138.485 Y138.923 E2.86554
G1 X138.233 Y139.166 E2.87612
G1 X137.748 Y139.62 E2.8962
G1 X137.452 Y139.887 E2.90825
G1 X136.951 Y140.323 E2.92833
G1 X136.667 Y140.562 E2.93955
G1 X136.123 Y141.004 E2.96074
G1 X135.819 Y141.242 E2.97241
G1 X135.389 Y141.567 E2.98871
G1 X135.089 Y141.786 E2.99994
G1 X134.474 Y142.219 E3.02267
G1 X134.173 Y142.424 E3.03368
G1 X133.685 Y142.744 E3.05132
G1 X133.369 Y142.944 E3.06263
G1 X132.828 Y143.273 E3.08177
G1 X132.512 Y143.457 E3.09282
G1 X131.898 Y143.803 E3.11413
G1 X131.559 Y143.987 E3.12579
G1 X130.953 Y144.301 E3.14642
G1 X130.603 Y144.474 E3.15822
G1 X130.162 Y144.683 E3.17298
G1 X129.82 Y144.838 E3.18433
G1 X129.032 Y145.179 E3.21028
G1 X128.717 Y145.31 E3.2206
G1 X128.273 Y145.486 E3.23504
G1 X127.899 Y145.626 E3.24711
G1 X127.254 Y145.855 E3.2678
G1 X126.907 Y145.972 E3.27887
G1 X126.193 Y146.199 E3.30152
G1 X125.821 Y146.31 E3.31325
G1 X125.313 Y146.452 E3.3292
G1 X124.958 Y146.545 E3.34029
G1 X124.265 Y146.714 E3.36186
G1 X123.914 Y146.793 E3.37273
G1 X123.341 Y146.913 E3.39043
G1 X122.938 Y146.99 E3.40283
G1 X122.165 Y147.122 E3.42654
G1 X121.796 Y147.179 E3.43783
G1 X121.267 Y147.251 E3.45397
G1 X120.898 Y147.294 E3.4652
G1 X120.289 Y147.356 E3.4837
G1 X119.939 Y147.386 E3.49432
G1 X119.192 Y147.438 E3.51696
G1 X118.799 Y147.459 E3.52886
G1 X118.177 Y147.48 E3.54767
G1 X117.806 Y147.486 E3.55889
G1 X117.185 Y147.486 E3.57766
G1 X116.815 Y147.48 E3.58885
G1 X116.191 Y147.459 E3.60772
G1 X115.795 Y147.438 E3.61971
G1 X115.05 Y147.386 E3.64228
G1 X114.692 Y147.355 E3.65315
G1 X114.176 Y147.302 E3.66883
G1 X113.808 Y147.258 E3.68003
G1 X113.012 Y147.149 E3.70432
G1 X112.625 Y147.089 E3.71616
G1 X112.106 Y146.999 E3.73208
G1 X111.742 Y146.93 E3.74328
G1 X111.089 Y146.794 E3.76345
G1 X110.726 Y146.712 E3.7747
G1 X110.033 Y146.543 E3.79626
G1 X109.667 Y146.447 E3.8077
G1 X109.161 Y146.305 E3.82358
G1 X108.811 Y146.2 E3.83463
G1 X108.126 Y145.983 E3.85635
G1 X107.748 Y145.856 E3.86841
G1 X107.034 Y145.601 E3.89133
G1 X106.694 Y145.473 E3.90231
G1 X106.266 Y145.304 E3.91622
G1 X105.915 Y145.159 E3.9277
G1 X105.18 Y144.839 E3.95193
G1 X104.864 Y144.695 E3.96243
G1 X104.393 Y144.472 E3.97819
G1 X104.039 Y144.297 E3.99012
G1 X103.433 Y143.983 E4.01076
G1 X103.1 Y143.803 E4.0222
G1 X102.485 Y143.457 E4.04353
G1 X102.151 Y143.261 E4.05524
G1 X101.651 Y142.956 E4.07294
G1 X101.349 Y142.765 E4.08375
G1 X100.728 Y142.358 E4.10619
G1 X100.404 Y142.137 E4.11805
G1 X99.949 Y141.815 E4.1349
G1 X99.655 Y141.6 E4.14591
G1 X99.158 Y141.223 E4.16477
G1 X98.877 Y141.003 E4.17556
G1 X98.295 Y140.531 E4.19821
G1 X97.989 Y140.272 E4.21033
G1 X97.555 Y139.893 E4.22775
G1 X97.28 Y139.645 E4.23894
G1 X96.762 Y139.161 E4.26037
G1 X96.484 Y138.893 E4.27204
G1 X96.077 Y138.485 E4.28947
G1 X95.835 Y138.234 E4.30001
G1 X95.38 Y137.748 E4.32013
G1 X95.111 Y137.45 E4.33227
G1 X94.676 Y136.95 E4.3523
G1 X94.439 Y136.668 E4.36344
G1 X93.996 Y136.123 E4.38467
G1 X93.754 Y135.814 E4.39653
G1 X93.43 Y135.385 E4.41279
G1 X93.216 Y135.092 E4.42375
G1 X92.77 Y134.459 E4.44716
G1 X92.556 Y134.144 E4.45867
G1 X92.244 Y133.667 E4.47591
G1 X92.045 Y133.352 E4.48717
G1 X91.718 Y132.813 E4.50623
G1 X91.539 Y132.505 E4.517
G1 X91.196 Y131.896 E4.53813
G1 X91.013 Y131.559 E4.54972
G1 X90.699 Y130.953 E4.57035
G1 X90.526 Y130.603 E4.58215
G1 X90.317 Y130.162 E4.59691
G1 X90.162 Y129.821 E4.60823
G1 X89.82 Y129.031 E4.63425
G1 X89.687 Y128.71 E4.64476
G1 X89.512 Y128.268 E4.65913
G1 X89.374 Y127.899 E4.67104
G1 X89.145 Y127.254 E4.69173
G1 X89.028 Y126.907 E4.7028
G1 X88.801 Y126.193 E4.72545
G1 X88.687 Y125.809 E4.73756
G1 X88.542 Y125.288 E4.75391
G1 X88.453 Y124.948 E4.76453
G1 X88.287 Y124.268 E4.78569
G1 X88.205 Y123.908 E4.79685
G1 X88.083 Y123.324 E4.81489
G1 X88.008 Y122.925 E4.82716
G1 X87.878 Y122.163 E4.85053
G1 X87.821 Y121.796 E4.86176
G1 X87.749 Y121.267 E4.87789
G1 X87.706 Y120.898 E4.88913
G1 X87.644 Y120.289 E4.90763
G1 X87.614 Y119.939 E4.91825
G1 X87.562 Y119.192 E4.94089
G1 X87.541 Y118.799 E4.95278
G1 X87.52 Y118.177 E4.9716
G1 X87.514 Y117.806 E4.98281
G1 X87.514 Y117.185 E5.00159
G1 X87.52 Y116.815 E5.01277
G1 X87.541 Y116.191 E5.03165
G1 X87.562 Y115.796 E5.04361
G1 X87.615 Y115.036 E5.06664
G1 X87.647 Y114.665 E5.07789
G1 X87.699 Y114.164 E5.09312
G1 X87.742 Y113.808 E5.10396
G1 X87.851 Y113.012 E5.12825
G1 X87.911 Y112.625 E5.14009
G1 X88.001 Y112.106 E5.15601
G1 X88.07 Y111.742 E5.16721
G1 X88.206 Y111.089 E5.18737
G1 X88.288 Y110.726 E5.19862
G1 X88.457 Y110.033 E5.22019
G1 X88.553 Y109.667 E5.23163
G1 X88.695 Y109.161 E5.24751
G1 X88.8 Y108.811 E5.25856
G1 X89.017 Y108.126 E5.28028
G1 X89.144 Y107.748 E5.29234
G1 X89.399 Y107.034 E5.31526
G1 X89.527 Y106.694 E5.32624
G1 X89.698 Y106.261 E5.34031
G1 X89.844 Y105.909 E5.35183
G1 X90.161 Y105.181 E5.37584
G1 X90.304 Y104.865 E5.38632
G1 X90.528 Y104.392 E5.40214
G1 X90.7 Y104.045 E5.41385
G1 X91.013 Y103.44 E5.43444
G1 X91.199 Y103.096 E5.44626
G1 X91.546 Y102.48 E5.46764
G1 X91.739 Y102.151 E5.47917
G1 X92.044 Y101.651 E5.49687
G1 X92.235 Y101.349 E5.50768
G1 X92.642 Y100.728 E5.53012
G1 X92.866 Y100.399 E5.54215
G1 X93.194 Y99.936 E5.55931
G1 X93.404 Y99.649 E5.57006
G1 X93.777 Y99.157 E5.58872
G1 X94.001 Y98.872 E5.59968
G1 X94.47 Y98.294 E5.62218
G1 X94.728 Y97.988 E5.63428
G1 X95.108 Y97.553 E5.65174
G1 X95.351 Y97.283 E5.66272
G1 X95.829 Y96.771 E5.6839
G1 X96.101 Y96.49 E5.69572
M204 S500
G0 F7500 X96.384 Y96.774
M204 S550
G1 F1500 X96.798 Y96.361 E5.7134
G1 X97.04 Y96.126 E5.72359
G1 X97.525 Y95.672 E5.74368
G1 X97.81 Y95.415 E5.75528
G1 X98.311 Y94.979 E5.77536
G1 X98.586 Y94.748 E5.78621
G1 X99.13 Y94.306 E5.8074
G1 X99.423 Y94.077 E5.81864
G1 X99.853 Y93.752 E5.83494
G1 X100.142 Y93.541 E5.84576
G1 X100.757 Y93.108 E5.86849
G1 X101.046 Y92.911 E5.87907
G1 X101.534 Y92.591 E5.89671
G1 X101.839 Y92.398 E5.90762
G1 X102.38 Y92.069 E5.92676
G1 X102.684 Y91.891 E5.93741
G1 X103.298 Y91.545 E5.95871
G1 X103.625 Y91.368 E5.96995
G1 X104.231 Y91.054 E5.99059
G1 X104.568 Y90.887 E6.00196
G1 X105.009 Y90.678 E6.01671
G1 X105.339 Y90.529 E6.02766
G1 X106.127 Y90.188 E6.05361
G1 X106.431 Y90.062 E6.06356
G1 X106.875 Y89.886 E6.078
G1 X107.234 Y89.751 E6.08959
G1 X107.879 Y89.522 E6.11028
G1 X108.214 Y89.409 E6.12097
G1 X108.928 Y89.182 E6.14362
G1 X109.286 Y89.075 E6.15492
G1 X109.794 Y88.933 E6.17086
G1 X110.137 Y88.844 E6.18157
G1 X110.83 Y88.675 E6.20314
G1 X111.168 Y88.598 E6.21362
G1 X111.741 Y88.478 E6.23131
G1 X112.13 Y88.404 E6.24328
G1 X112.903 Y88.272 E6.26699
G1 X113.257 Y88.218 E6.27782
G1 X113.786 Y88.146 E6.29396
G1 X114.142 Y88.104 E6.30479
G1 X114.751 Y88.042 E6.3233
G1 X115.089 Y88.013 E6.33355
G1 X115.836 Y87.961 E6.35619
G1 X116.214 Y87.941 E6.36763
G1 X116.836 Y87.92 E6.38645
G1 X117.194 Y87.914 E6.39727
G1 X117.815 Y87.914 E6.41604
G1 X118.172 Y87.92 E6.42684
G1 X118.796 Y87.941 E6.44571
G1 X119.177 Y87.961 E6.45724
G1 X119.922 Y88.013 E6.47982
G1 X120.267 Y88.042 E6.49029
G1 X120.783 Y88.095 E6.50597
G1 X121.138 Y88.138 E6.51678
G1 X121.934 Y88.247 E6.54107
G1 X122.307 Y88.305 E6.55248
G1 X122.826 Y88.395 E6.5684
G1 X123.176 Y88.462 E6.57917
G1 X123.829 Y88.598 E6.59934
G1 X124.179 Y88.677 E6.61018
G1 X124.872 Y88.846 E6.63175
G1 X125.225 Y88.938 E6.64277
G1 X125.731 Y89.08 E6.65866
G1 X126.068 Y89.181 E6.6693
G1 X126.753 Y89.398 E6.69102
G1 X127.117 Y89.521 E6.70263
G1 X127.831 Y89.776 E6.72555
G1 X128.159 Y89.899 E6.73614
G1 X128.587 Y90.068 E6.75005
G1 X128.924 Y90.208 E6.76109
G1 X129.657 Y90.527 E6.78525
G1 X129.964 Y90.666 E6.79544
G1 X130.437 Y90.89 E6.81126
G1 X130.777 Y91.058 E6.82273
G1 X131.383 Y91.372 E6.84336
G1 X131.703 Y91.546 E6.85437
G1 X132.318 Y91.892 E6.8757
G1 X132.634 Y92.077 E6.88677
G1 X133.125 Y92.376 E6.90415
G1 X133.423 Y92.564 E6.9148
G1 X134.053 Y92.977 E6.93757
G1 X134.362 Y93.187 E6.94887
G1 X134.816 Y93.508 E6.96568
G1 X135.105 Y93.72 E6.97651
G1 X135.603 Y94.098 E6.99541
G1 X135.869 Y94.307 E7.00564
G1 X136.45 Y94.778 E7.02825
G1 X136.749 Y95.029 E7.04005
G1 X137.184 Y95.409 E7.05751
G1 X137.444 Y95.644 E7.0681
G1 X137.956 Y96.122 E7.08928
G1 X138.226 Y96.384 E7.10065
G1 X138.639 Y96.798 E7.11833
G1 X138.869 Y97.035 E7.12831
G1 X139.318 Y97.514 E7.14816
G1 X139.582 Y97.806 E7.16006
G1 X140.023 Y98.313 E7.18037
G1 X140.252 Y98.586 E7.19115
G1 X140.694 Y99.13 E7.21234
G1 X140.923 Y99.423 E7.22358
G1 X141.248 Y99.853 E7.23987
G1 X141.459 Y100.142 E7.25069
G1 X141.892 Y100.757 E7.27343
G1 X142.089 Y101.046 E7.284
G1 X142.409 Y101.534 E7.30164
G1 X142.603 Y101.841 E7.31262
G1 X142.93 Y102.379 E7.33165
G1 X143.105 Y102.678 E7.34212
G1 X143.453 Y103.295 E7.36354
G1 X143.632 Y103.625 E7.37489
G1 X143.946 Y104.231 E7.39552
G1 X144.113 Y104.568 E7.40689
G1 X144.322 Y105.009 E7.42164
G1 X144.471 Y105.339 E7.43259
G1 X144.812 Y106.127 E7.45854
G1 X144.938 Y106.431 E7.46849
G1 X145.114 Y106.875 E7.48293
G1 X145.247 Y107.23 E7.49439
G1 X145.476 Y107.874 E7.51505
G1 X145.592 Y108.217 E7.526
G1 X145.819 Y108.932 E7.54868
G1 X145.923 Y109.281 E7.55969
G1 X146.065 Y109.788 E7.5756
G1 X146.157 Y110.139 E7.58657
G1 X146.326 Y110.833 E7.60816
G1 X146.402 Y111.168 E7.61855
G1 X146.522 Y111.741 E7.63625
G1 X146.596 Y112.13 E7.64822
G1 X146.728 Y112.903 E7.67192
G1 X146.782 Y113.255 E7.68269
G1 X146.854 Y113.783 E7.6988
G1 X146.896 Y114.134 E7.70948
G1 X146.957 Y114.729 E7.72757
G1 X146.986 Y115.074 E7.73803
G1 X147.039 Y115.835 E7.76109
G1 X147.059 Y116.214 E7.77257
G1 X147.08 Y116.837 E7.79141
G1 X147.086 Y117.194 E7.8022
G1 X147.086 Y117.815 E7.82098
G1 X147.08 Y118.172 E7.83177
G1 X147.059 Y118.796 E7.85064
G1 X147.039 Y119.177 E7.86218
G1 X146.987 Y119.922 E7.88475
G1 X146.958 Y120.267 E7.89522
G1 X146.905 Y120.783 E7.9109
G1 X146.862 Y121.138 E7.92171
G1 X146.753 Y121.934 E7.946
G1 X146.695 Y122.307 E7.95741
G1 X146.605 Y122.826 E7.97333
