;FLAVOR:Marlin
;TIME:5139
;Filament used: 2.67216m
;Layer height: 0.2
;MINX:99.747
;MINY:92.934
;MINZ:0.2
;MAXX:135.274
;MAXY:142.225
;MAXZ:38
;POSTPROCESSED
;Generated with Cura_SteamEngine master
M140 S60
M105
M190 S60
M104 S200
M105
M109 S200
M82 ;absolute extrusion mode
; Ender 3 Custom Start G-code
G92 E0 ; Reset Extruder
G28 ; Home all axes
G1 Z2.0 F3000 ; Move Z Axis up little to prevent scratching of Heat Bed
G1 X0.1 Y20 Z0.3 F5000.0 ; Move to start position
G1 X0.1 Y200.0 Z0.3 F1500.0 E15 ; Draw the first line
G1 X0.4 Y200.0 Z0.3 F5000.0 ; Move to side a little
G1 X0.4 Y20 Z0.3 F1500.0 E30 ; Draw the second line
G92 E0 ; Reset Extruder
G1 Z2.0 F3000 ; Move Z Axis up little to prevent scratching of Heat Bed
G1 X5 Y20 Z0.3 F5000.0 ; Move over to prevent blob squish
G92 E0
G92 E0
G1 F2400 E-4
;LAYER_COUNT:190
;LAYER:0
M107
M204 S500
G0 F7500 X102.958 Y96.506 Z0.2
M204 S550
;TYPE:SKIRT
G1 F2400 E0
G1 F1500 X103.474 Y96.02 E0.02143
G1 X103.612 Y95.898 E0.027
G1 X104.341 Y95.307 E0.05537
G1 X105.117 Y94.781 E0.08371
G1 X105.935 Y94.322 E0.11206
G1 X106.789 Y93.935 E0.14041
G1 X107.674 Y93.622 E0.16878
G1 X108.581 Y93.386 E0.19711
G1 X109.885 Y93.186 E0.237
G1 X111.223 Y93.062 E0.27762
G1 X111.475 Y93.028 E0.2853
G1 X112.169 Y92.977 E0.30634
G1 X112.797 Y92.948 E0.32534
G1 X113.661 Y92.934 E0.35147
G1 X114.744 Y92.935 E0.38421
G1 X115.336 Y92.943 E0.4021
G1 X116.673 Y93.043 E0.44263
G1 X117.047 Y93.094 E0.45405
G1 X117.97 Y93.26 E0.4824
G1 X118.876 Y93.504 E0.51076
G1 X119.757 Y93.825 E0.53911
G1 X120.874 Y94.361 E0.57656
G1 X121.973 Y94.967 E0.6145
G1 X124.21 Y96.163 E0.69118
G1 X126.499 Y97.305 E0.76851
G1 X127.856 Y97.936 E0.81375
G1 X128.37 Y98.185 E0.83102
G1 X129.194 Y98.631 E0.85934
G1 X129.794 Y99.017 E0.88091
G1 X129.994 Y99.155 E0.88826
G1 X130.743 Y99.72 E0.91662
G1 X131.363 Y100.272 E0.94171
G1 X131.462 Y100.367 E0.94586
G1 X132.111 Y101.045 E0.97423
G1 X132.91 Y102.072 E1.01357
G1 X133.042 Y102.264 E1.02061
G1 X133.302 Y102.659 E1.03491
G1 X133.61 Y103.151 E1.05245
G1 X134.073 Y103.967 E1.08082
G1 X134.465 Y104.819 E1.10917
G1 X134.783 Y105.701 E1.13751
G1 X135.025 Y106.607 E1.16586
G1 X135.189 Y107.53 E1.1942
G1 X135.274 Y108.464 E1.22255
G1 X135.264 Y109.691 E1.25964
G1 X135.233 Y110.175 E1.27431
G1 X135.109 Y112.66 E1.34952
G1 X135.055 Y115.223 E1.42702
G1 X135.057 Y115.787 E1.44407
G1 X135.052 Y116.273 E1.45876
G1 X135.057 Y117.489 E1.49552
G1 X135.05 Y118.399 E1.52303
G1 X135.053 Y120.19 E1.57717
G1 X135.179 Y124.144 E1.69676
G1 X135.234 Y125.198 E1.72867
G1 X135.243 Y126.136 E1.75703
G1 X135.172 Y127.071 E1.78537
G1 X135.021 Y127.997 E1.81374
G1 X134.793 Y128.906 E1.84207
G1 X134.612 Y129.461 E1.85971
G1 X134.466 Y129.871 E1.87287
G1 X134.353 Y130.173 E1.88262
G1 X134.228 Y130.494 E1.89303
G1 X133.851 Y131.352 E1.92136
G1 X133.402 Y132.176 E1.94973
G1 X132.851 Y133.003 E1.97977
G1 X132.703 Y133.205 E1.98734
G1 X132.117 Y133.937 E2.01569
G1 X131.784 Y134.302 E2.03062
G1 X131.72 Y134.369 E2.03342
G1 X131.044 Y135.019 E2.06177
G1 X130.315 Y135.609 E2.09013
G1 X129.803 Y135.967 E2.10901
G1 X129.541 Y136.139 E2.11849
G1 X128.41 Y136.789 E2.15792
G1 X128.121 Y136.933 E2.16768
G1 X125.898 Y138.074 E2.24322
G1 X122.641 Y139.891 E2.35596
G1 X121.532 Y140.54 E2.39481
G1 X120.676 Y140.992 E2.42407
G1 X120.494 Y141.078 E2.43016
G1 X119.379 Y141.532 E2.46655
G1 X119.144 Y141.613 E2.47406
G1 X118.245 Y141.88 E2.50241
G1 X117.414 Y142.056 E2.52809
G1 X117.338 Y142.069 E2.53042
G1 X116.015 Y142.213 E2.57065
G1 X115.767 Y142.225 E2.57816
G1 X114.663 Y142.223 E2.61153
G1 X112.251 Y142.097 E2.68455
G1 X111.156 Y142.068 E2.71766
G1 X110.58 Y142.044 E2.73509
G1 X109.645 Y141.963 E2.76346
G1 X108.721 Y141.802 E2.79181
G1 X107.814 Y141.564 E2.82016
G1 X106.931 Y141.249 E2.8485
G1 X106.078 Y140.859 E2.87686
G1 X105.261 Y140.399 E2.9052
G1 X104.486 Y139.871 E2.93355
G1 X103.462 Y139.004 E2.97411
G1 X103.37 Y138.916 E2.97796
G1 X103.087 Y138.636 E2.98999
G1 X102.875 Y138.418 E2.99918
G1 X102.25 Y137.718 E3.02755
G1 X101.688 Y136.968 E3.05589
G1 X101.191 Y136.172 E3.08425
G1 X100.764 Y135.338 E3.11258
G1 X100.409 Y134.469 E3.14096
G1 X100.13 Y133.574 E3.1693
G1 X99.928 Y132.658 E3.19765
G1 X99.805 Y131.728 E3.22601
G1 X99.77 Y131.189 E3.24234
G1 X99.764 Y131.039 E3.24688
G1 X99.756 Y130.723 E3.25643
G1 X99.75 Y130.155 E3.2736
G1 X99.75 Y120.717 E3.55892
G1 X99.753 Y119.269 E3.60269
G1 X99.751 Y119.057 E3.6091
G1 X99.751 Y116.151 E3.69695
G1 X99.747 Y114.259 E3.75414
G1 X99.751 Y104.773 E4.04091
G1 X99.761 Y104.098 E4.06131
G1 X99.815 Y103.162 E4.08966
G1 X99.948 Y102.233 E4.11803
G1 X100.161 Y101.32 E4.14637
G1 X100.45 Y100.428 E4.17471
G1 X100.814 Y99.563 E4.20308
G1 X101.25 Y98.733 E4.23143
G1 X101.755 Y97.943 E4.25977
G1 X102.326 Y97.199 E4.28812
G1 X102.958 Y96.506 E4.31647
M204 S500
G0 F7500 X103.35 Y96.681
M204 S550
G1 F1500 X103.739 Y96.319 E4.33254
G1 X103.877 Y96.197 E4.33811
G1 X104.593 Y95.618 E4.36594
G1 X105.356 Y95.103 E4.39377
G1 X106.161 Y94.656 E4.42161
G1 X107.002 Y94.281 E4.44944
G1 X107.872 Y93.98 E4.47727
G1 X108.765 Y93.756 E4.5051
G1 X109.922 Y93.584 E4.54046
G1 X111.146 Y93.471 E4.57762
G1 X111.504 Y93.427 E4.58853
G1 X112.198 Y93.376 E4.60956
G1 X112.803 Y93.348 E4.62787
G1 X113.667 Y93.334 E4.65399
G1 X114.738 Y93.335 E4.68637
G1 X115.33 Y93.343 E4.70427
G1 X116.619 Y93.439 E4.74334
G1 X116.993 Y93.49 E4.75475
G1 X117.899 Y93.654 E4.78259
G1 X118.787 Y93.896 E4.81041
G1 X119.651 Y94.214 E4.83824
G1 X120.681 Y94.712 E4.87283
G1 X121.741 Y95.297 E4.90943
G1 X124.037 Y96.524 E4.98813
G1 X126.317 Y97.662 E5.06516
G1 X127.688 Y98.299 E5.11086
G1 X128.194 Y98.544 E5.12786
G1 X129.003 Y98.983 E5.15568
G1 X129.567 Y99.346 E5.17596
G1 X129.767 Y99.484 E5.1833
G1 X130.501 Y100.04 E5.21114
G1 X131.086 Y100.561 E5.23482
G1 X131.185 Y100.656 E5.23897
G1 X131.821 Y101.321 E5.26678
G1 X132.581 Y102.299 E5.30423
G1 X132.713 Y102.491 E5.31127
G1 X132.963 Y102.871 E5.32502
G1 X133.271 Y103.363 E5.34257
G1 X133.725 Y104.164 E5.3704
G1 X134.108 Y105.002 E5.39825
G1 X134.417 Y105.869 E5.42608
G1 X134.649 Y106.76 E5.45391
G1 X134.803 Y107.667 E5.48172
G1 X134.878 Y108.585 E5.50957
G1 X134.864 Y109.666 E5.54225
G1 X134.84 Y110.043 E5.55367
G1 X134.709 Y112.666 E5.63306
G1 X134.655 Y115.217 E5.7102
G1 X134.657 Y115.784 E5.72734
G1 X134.652 Y116.271 E5.74206
G1 X134.657 Y117.486 E5.77879
G1 X134.65 Y118.396 E5.8063
G1 X134.653 Y120.173 E5.86002
G1 X134.781 Y124.177 E5.98112
G1 X134.835 Y125.219 E6.01266
G1 X134.843 Y126.139 E6.04048
G1 X134.771 Y127.057 E6.06831
G1 X134.619 Y127.965 E6.09614
G1 X134.39 Y128.857 E6.12398
G1 X134.235 Y129.327 E6.13894
G1 X134.089 Y129.737 E6.1521
G1 X133.981 Y130.027 E6.16146
G1 X133.856 Y130.348 E6.17187
G1 X133.485 Y131.191 E6.19971
G1 X133.042 Y131.998 E6.22754
G1 X132.529 Y132.767 E6.25549
G1 X132.381 Y132.969 E6.26306
G1 X131.495 Y134.026 E6.30475
G1 X131.431 Y134.093 E6.30755
G1 X130.767 Y134.73 E6.33537
G1 X130.05 Y135.308 E6.36321
G1 X129.583 Y135.632 E6.38039
G1 X129.321 Y135.804 E6.38987
G1 X128.231 Y136.43 E6.42786
G1 X128.011 Y136.54 E6.4353
G1 X125.722 Y137.715 E6.51308
G1 X122.443 Y139.544 E6.62658
G1 X121.33 Y140.195 E6.66556
G1 X120.505 Y140.63 E6.69376
G1 X120.323 Y140.716 E6.69984
G1 X119.248 Y141.153 E6.73492
G1 X119.013 Y141.234 E6.74244
G1 X118.131 Y141.496 E6.77025
G1 X117.346 Y141.661 E6.7945
G1 X117.27 Y141.674 E6.79683
G1 X115.995 Y141.814 E6.83561
G1 X115.747 Y141.826 E6.84311
G1 X114.683 Y141.824 E6.87528
G1 X112.243 Y141.697 E6.94914
G1 X110.982 Y141.662 E6.98727
G1 X110.597 Y141.645 E6.99892
G1 X109.68 Y141.564 E7.02675
G1 X108.774 Y141.404 E7.05456
G1 X107.884 Y141.167 E7.08241
G1 X107.019 Y140.852 E7.11024
G1 X106.184 Y140.464 E7.13807
G1 X105.386 Y140.005 E7.1659
G1 X104.631 Y139.479 E7.19372
G1 X103.738 Y138.715 E7.22924
G1 X103.646 Y138.627 E7.23309
G1 X103.374 Y138.357 E7.24468
G1 X103.162 Y138.139 E7.25387
G1 X102.549 Y137.452 E7.2817
G1 X101.999 Y136.714 E7.30953
G1 X101.514 Y135.931 E7.33737
G1 X101.099 Y135.109 E7.36521
G1 X100.757 Y134.254 E7.39304
G1 X100.491 Y133.373 E7.42087
G1 X100.302 Y132.472 E7.4487
G1 X100.169 Y131.173 E7.48817
G1 X100.163 Y131.023 E7.49271
G1 X100.156 Y130.718 E7.50193
G1 X100.15 Y130.155 E7.51895
G1 X100.15 Y120.718 E7.80423
G1 X100.153 Y119.265 E7.84816
G1 X100.151 Y119.053 E7.85457
G1 X100.151 Y116.151 E7.94229
G1 X100.147 Y114.26 E7.99946
G1 X100.151 Y104.779 E8.28607
G1 X100.161 Y104.104 E8.30648
G1 X100.215 Y103.185 E8.33431
G1 X100.348 Y102.274 E8.36214
G1 X100.56 Y101.378 E8.38997
G1 X100.848 Y100.504 E8.41779
G1 X101.212 Y99.658 E8.44563
G1 X101.647 Y98.847 E8.47345
G1 X102.151 Y98.076 E8.5013
G1 X102.72 Y97.353 E8.52911
G1 X103.35 Y96.681 E8.55696
M204 S500
G0 F7500 X103.114 Y97.51
M204 S550
G1 F1500 X104.004 Y96.619 E8.59503
G1 X104.142 Y96.497 E8.6006
G1 X104.845 Y95.929 E8.62792
G1 X105.594 Y95.426 E8.65519
G1 X106.386 Y94.991 E8.68251
G1 X107.213 Y94.628 E8.70981
G1 X108.068 Y94.339 E8.7371
G1 X108.946 Y94.127 E8.7644
G1 X109.959 Y93.982 E8.79534
G1 X110.855 Y93.899 E8.82254
G1 X111.533 Y93.825 E8.84316
G1 X112.227 Y93.774 E8.86419
G1 X112.81 Y93.748 E8.88183
G1 X113.674 Y93.734 E8.90796
G1 X114.733 Y93.735 E8.93997
G1 X115.325 Y93.743 E8.95787
G1 X116.565 Y93.836 E8.99546
G1 X116.939 Y93.887 E9.00687
G1 X117.828 Y94.048 E9.03418
G1 X118.698 Y94.288 E9.06146
G1 X119.545 Y94.603 E9.08878
G1 X120.488 Y95.062 E9.12049
G1 X121.54 Y95.642 E9.1568
G1 X123.876 Y96.891 E9.23688
G1 X126.148 Y98.025 E9.31364
G1 X127.519 Y98.662 E9.35934
G1 X128.019 Y98.904 E9.37614
G1 X128.812 Y99.335 E9.40342
G1 X129.34 Y99.676 E9.42242
G1 X129.54 Y99.814 E9.42977
G1 X130.26 Y100.359 E9.45706
G1 X130.809 Y100.849 E9.47931
G1 X130.908 Y100.944 E9.48346
G1 X131.532 Y101.598 E9.51078
G1 X132.251 Y102.525 E9.54625
G1 X132.383 Y102.717 E9.55329
G1 X132.624 Y103.084 E9.56656
G1 X132.932 Y103.576 E9.58411
G1 X133.376 Y104.362 E9.6114
G1 X133.75 Y105.184 E9.6387
G1 X134.049 Y106.036 E9.666
G1 X134.272 Y106.911 E9.6933
G1 X134.417 Y107.803 E9.72061
G1 X134.482 Y108.703 E9.74789
G1 X134.465 Y109.64 E9.77622
G1 X134.438 Y110.067 E9.78916
G1 X134.309 Y112.638 E9.86698
G1 X134.255 Y115.21 E9.94475
G1 X134.257 Y115.78 E9.96198
G1 X134.252 Y116.269 E9.97676
G1 X134.257 Y117.482 E10.01343
G1 X134.25 Y118.392 E10.04094
G1 X134.253 Y120.19 E10.09529
G1 X134.381 Y124.211 E10.21691
G1 X134.435 Y125.24 E10.24806
G1 X134.442 Y126.143 E10.27536
G1 X134.369 Y127.043 E10.30265
G1 X134.217 Y127.933 E10.32995
G1 X133.858 Y129.193 E10.36956
G1 X133.712 Y129.603 E10.38271
G1 X133.608 Y129.882 E10.39171
G1 X133.483 Y130.203 E10.40213
G1 X133.118 Y131.029 E10.42943
G1 X132.682 Y131.82 E10.45673
G1 X132.206 Y132.53 E10.48257
G1 X132.058 Y132.732 E10.49014
G1 X131.206 Y133.749 E10.53025
G1 X131.142 Y133.816 E10.53305
G1 X130.49 Y134.441 E10.56035
G1 X129.785 Y135.006 E10.58766
G1 X129.364 Y135.298 E10.60315
G1 X129.102 Y135.47 E10.61263
G1 X128.053 Y136.072 E10.64919
G1 X127.874 Y136.161 E10.65523
G1 X125.501 Y137.38 E10.73588
G1 X122.244 Y139.196 E10.84861
G1 X121.128 Y139.849 E10.8877
G1 X120.334 Y140.268 E10.91484
G1 X120.152 Y140.354 E10.92092
G1 X119.118 Y140.775 E10.95467
G1 X118.883 Y140.856 E10.96219
G1 X118.017 Y141.112 E10.98949
G1 X117.279 Y141.267 E11.01228
G1 X117.203 Y141.28 E11.01461
G1 X115.976 Y141.414 E11.05193
G1 X115.728 Y141.426 E11.05943
G1 X114.704 Y141.424 E11.09039
G1 X112.274 Y141.297 E11.16395
G1 X111 Y141.262 E11.20247
G1 X110.615 Y141.245 E11.21412
G1 X109.715 Y141.165 E11.24144
G1 X108.826 Y141.006 E11.26874
G1 X107.955 Y140.769 E11.29603
G1 X107.108 Y140.456 E11.32333
G1 X106.292 Y140.069 E11.35063
G1 X105.513 Y139.612 E11.37793
G1 X104.778 Y139.087 E11.40523
G1 X104.015 Y138.426 E11.43575
G1 X103.923 Y138.338 E11.4396
G1 X103.661 Y138.078 E11.45076
G1 X103.449 Y137.86 E11.45995
G1 X102.848 Y137.185 E11.48727
G1 X102.31 Y136.46 E11.51456
G1 X101.838 Y135.69 E11.54187
G1 X101.436 Y134.882 E11.56915
G1 X101.107 Y134.041 E11.59645
G1 X100.853 Y133.174 E11.62376
G1 X100.678 Y132.288 E11.65106
G1 X100.569 Y131.157 E11.68541
G1 X100.563 Y131.007 E11.68995
G1 X100.556 Y130.714 E11.69881
G1 X100.55 Y130.155 E11.71571
G1 X100.55 Y120.719 E12.00096
G1 X100.553 Y119.261 E12.04504
G1 X100.551 Y119.049 E12.05144
G1 X100.551 Y116.151 E12.13905
G1 X100.547 Y114.26 E12.19622
G1 X100.551 Y104.785 E12.48265
G1 X100.561 Y104.11 E12.50305
G1 X100.614 Y103.208 E12.53037
G1 X100.747 Y102.315 E12.55766
G1 X100.959 Y101.437 E12.58497
G1 X101.247 Y100.581 E12.61227
G1 X101.61 Y99.754 E12.63957
G1 X102.044 Y98.962 E12.66687
G1 X102.547 Y98.212 E12.69417
G1 X103.114 Y97.51 E12.72145
M204 S500
G0 F7500 X120.101 Y111.394
M204 S550
G1 F1500 X120.634 Y111.394 E12.73756
G1 X120.622 Y111.48 E12.74019
G1 X120.592 Y112 E12.75594
G1 X120.646 Y112.44 E12.76934
G1 X120.584 Y112.98 E12.78577
G1 X120.568 Y113.411 E12.79881
G1 X120.514 Y113.108 E12.80811
G1 X120.44 Y112.69 E12.82094
G1 X120.35 Y112.268 E12.83399
G1 X120.281 Y111.996 E12.84247
G1 X120.223 Y111.782 E12.84917
G1 X120.101 Y111.394 E12.86147
M204 S500
G0 F7500 X119.704 Y111.461
M204 S550
G1 F1500 X119.627 Y111.238 E12.8686
G1 X119.524 Y110.996 E12.87655
G1 X119.528 Y110.993 E12.8767
G1 X121.013 Y110.994 E12.92159
G1 X121.046 Y111.328 E12.93174
G1 X121.018 Y111.534 E12.93802
G1 X120.992 Y112.023 E12.95283
G1 X121.047 Y112.45 E12.96584
G1 X120.981 Y113.026 E12.98337
G1 X120.966 Y113.515 E12.99816
G1 X121.045 Y113.983 E13.01251
G1 X120.868 Y115.956 E13.07239
G1 X120.864 Y116.445 E13.08717
G1 X120.94 Y116.929 E13.10198
G1 X121.052 Y117.266 E13.11272
G1 X121.049 Y117.755 E13.1275
G1 X120.921 Y118.207 E13.1417
G1 X120.867 Y118.694 E13.15652
G1 X120.877 Y119.031 E13.16671
G1 X121.044 Y121.021 E13.22708
G1 X120.988 Y121.291 E13.23541
G1 X120.986 Y121.997 E13.25676
G1 X121.046 Y122.522 E13.27273
G1 X120.998 Y122.852 E13.28281
G1 X121.018 Y123.433 E13.30039
G1 X121.048 Y123.662 E13.30737
G1 X121.011 Y124.006 E13.31783
G1 X119.527 Y124.007 E13.36269
G1 X119.638 Y123.732 E13.37165
G1 X119.706 Y123.531 E13.37807
G1 X119.842 Y123.096 E13.39184
G1 X119.968 Y122.609 E13.40705
G1 X120.065 Y122.169 E13.42067
G1 X120.122 Y121.845 E13.43062
G1 X120.141 Y121.75 E13.43355
G1 X120.229 Y121.16 E13.45158
G1 X120.249 Y121.011 E13.45612
G1 X120.328 Y120.227 E13.47994
G1 X120.374 Y119.649 E13.49747
G1 X120.409 Y118.861 E13.52132
G1 X120.428 Y118.142 E13.54306
G1 X120.434 Y117.465 E13.56353
G1 X120.427 Y116.803 E13.58354
G1 X120.409 Y116.134 E13.60377
G1 X120.382 Y115.51 E13.62265
G1 X120.328 Y114.784 E13.64466
G1 X120.25 Y113.999 E13.66851
G1 X120.23 Y113.843 E13.67326
G1 X120.137 Y113.233 E13.69192
G1 X120.085 Y112.935 E13.70106
G1 X119.959 Y112.354 E13.71903
G1 X119.893 Y112.093 E13.72717
G1 X119.842 Y111.901 E13.73318
G1 X119.704 Y111.461 E13.74712
M204 S500
G0 F7500 X119.322 Y111.581
M204 S550
G1 F1500 X119.159 Y111.156 E13.76088
G1 X118.991 Y110.768 E13.77366
G1 X118.907 Y110.593 E13.77953
G1 X121.43 Y110.594 E13.8558
G1 X121.407 Y110.95 E13.86658
G1 X121.448 Y111.345 E13.87859
G1 X121.415 Y111.588 E13.886
G1 X121.393 Y112.043 E13.89977
G1 X121.449 Y112.458 E13.91243
G1 X121.379 Y113.071 E13.93108
G1 X121.367 Y113.527 E13.94487
G1 X121.446 Y113.979 E13.95874
G1 X121.266 Y115.991 E14.01981
G1 X121.266 Y116.447 E14.03359
G1 X121.345 Y116.896 E14.04738
G1 X121.452 Y117.19 E14.05683
G1 X121.448 Y117.839 E14.07645
G1 X121.418 Y117.905 E14.07864
G1 X121.303 Y118.346 E14.09242
G1 X121.275 Y118.998 E14.11215
G1 X121.447 Y121.043 E14.17419
G1 X121.382 Y121.371 E14.1843
G1 X121.383 Y121.952 E14.20186
G1 X121.449 Y122.523 E14.21924
G1 X121.395 Y122.909 E14.23102
G1 X121.414 Y123.381 E14.2453
G1 X121.45 Y123.657 E14.25371
G1 X121.406 Y124.083 E14.26666
G1 X121.428 Y124.406 E14.27645
G1 X118.906 Y124.407 E14.35269
G1 X118.989 Y124.236 E14.35843
G1 X119.196 Y123.767 E14.37393
G1 X119.298 Y123.494 E14.38274
G1 X119.461 Y122.977 E14.39913
G1 X119.577 Y122.523 E14.41329
G1 X119.674 Y122.083 E14.42692
G1 X119.73 Y121.775 E14.43638
G1 X119.746 Y121.691 E14.43896
G1 X119.834 Y121.101 E14.457
G1 X119.851 Y120.971 E14.46096
G1 X119.929 Y120.195 E14.48454
G1 X119.975 Y119.617 E14.50207
G1 X120.01 Y118.843 E14.52549
