;FLAVOR:Marlin
;TIME:53619
;Filament used: 48.2996m
;Layer height: 0.2
;MINX:45.929
;MINY:91.225
;MINZ:0.2
;MAXX:192.999
;MAXY:168.625
;MAXZ:160
;Generated with Cura_SteamEngine master
M140 S60
M105
M190 S60
M104 S200
M105
M109 S200
M82 ;absolute extrusion mode
; Ender 3 Custom Start G-code
G92 E0 ; Reset Extruder
G28 ; Home all axes
G1 Z2.0 F3000 ; Move Z Axis up little to prevent scratching of Heat Bed
G1 X0.1 Y20 Z0.3 F5000.0 ; Move to start position
G1 X0.1 Y200.0 Z0.3 F1500.0 E15 ; Draw the first line
G1 X0.4 Y200.0 Z0.3 F5000.0 ; Move to side a little
G1 X0.4 Y20 Z0.3 F1500.0 E30 ; Draw the second line
G92 E0 ; Reset Extruder
G1 Z2.0 F3000 ; Move Z Axis up little to prevent scratching of Heat Bed
G1 X5 Y20 Z0.3 F5000.0 ; Move over to prevent blob squish
G92 E0
G92 E0
G1 F2400 E-4
;LAYER_COUNT:800
;LAYER:0
M107
M204 S500
G0 F7500 X52.228 Y92.756 Z0.2
M204 S550
;TYPE:SKIRT
G1 F2400 E0
G1 F1500 X53.056 Y92.315 E0.02836
G1 X53.918 Y91.946 E0.0567
G1 X54.809 Y91.652 E0.08507
G1 X55.721 Y91.434 E0.11342
G1 X56.648 Y91.296 E0.14175
G1 X57.502 Y91.238 E0.16762
G1 X57.822 Y91.229 E0.1773
G1 X58.131 Y91.225 E0.18664
G1 X181.292 Y91.225 E3.90982
G1 X182.148 Y91.236 E3.9357
G1 X183.084 Y91.29 E3.96404
G1 X184.012 Y91.422 E3.99237
G1 X184.926 Y91.634 E4.02074
G1 X185.818 Y91.923 E4.04908
G1 X186.683 Y92.286 E4.07744
G1 X187.513 Y92.722 E4.10578
G1 X188.304 Y93.227 E4.13415
G1 X189.048 Y93.798 E4.1625
G1 X189.741 Y94.43 E4.19086
G1 X190.378 Y95.118 E4.2192
G1 X190.953 Y95.859 E4.24756
G1 X191.464 Y96.645 E4.2759
G1 X191.906 Y97.473 E4.30427
G1 X192.275 Y98.335 E4.33262
G1 X192.57 Y99.225 E4.36096
G1 X192.788 Y100.137 E4.38931
G1 X192.928 Y101.065 E4.41768
G1 X192.986 Y101.926 E4.44376
G1 X192.995 Y102.246 E4.45344
G1 X192.999 Y102.555 E4.46278
G1 X192.998 Y133.074 E5.38538
G1 X192.988 Y133.777 E5.40663
G1 X192.935 Y134.714 E5.435
G1 X192.802 Y135.642 E5.46334
G1 X192.59 Y136.556 E5.49171
G1 X192.302 Y137.448 E5.52004
G1 X191.938 Y138.313 E5.54841
G1 X191.502 Y139.143 E5.57675
G1 X190.997 Y139.934 E5.60512
G1 X190.427 Y140.678 E5.63346
G1 X189.795 Y141.371 E5.66181
G1 X189.374 Y141.773 E5.67941
G1 X188.616 Y142.46 E5.71033
G1 X186.691 Y144.255 E5.7899
G1 X184.908 Y146.013 E5.86559
G1 X183.168 Y147.83 E5.94165
G1 X181.444 Y149.734 E6.01929
G1 X179.855 Y151.593 E6.09322
G1 X178.252 Y153.578 E6.17035
G1 X176.726 Y155.583 E6.24652
G1 X175.27 Y157.613 E6.32204
G1 X173.861 Y159.698 E6.39812
G1 X172.501 Y161.84 E6.47482
G1 X172.124 Y162.471 E6.49704
G1 X171.561 Y163.385 E6.52949
G1 X171.035 Y164.162 E6.55786
G1 X170.446 Y164.891 E6.58619
G1 X169.796 Y165.568 E6.61456
G1 X169.091 Y166.186 E6.6429
G1 X168.336 Y166.742 E6.67125
G1 X167.536 Y167.232 E6.69961
G1 X166.698 Y167.652 E6.72794
G1 X165.826 Y167.999 E6.75631
G1 X164.929 Y168.271 E6.78465
G1 X164.011 Y168.465 E6.81301
G1 X163.08 Y168.58 E6.84137
G1 X162.5 Y168.612 E6.85893
G1 X162.176 Y168.621 E6.86873
G1 X161.871 Y168.625 E6.87795
G1 X58.366 Y168.624 E10.00692
G1 X57.668 Y168.615 E10.02802
G1 X56.732 Y168.563 E10.05636
G1 X55.803 Y168.431 E10.08473
G1 X54.889 Y168.221 E10.11308
G1 X53.996 Y167.934 E10.14143
G1 X53.131 Y167.571 E10.16979
G1 X52.3 Y167.137 E10.19813
G1 X51.509 Y166.633 E10.22649
G1 X50.764 Y166.063 E10.25484
G1 X50.07 Y165.432 E10.2832
G1 X49.433 Y164.745 E10.31152
G1 X48.856 Y164.005 E10.33989
G1 X48.344 Y163.219 E10.36825
G1 X47.901 Y162.392 E10.39661
G1 X47.53 Y161.531 E10.42495
G1 X47.234 Y160.641 E10.4533
G1 X47.015 Y159.729 E10.48166
G1 X46.874 Y158.802 E10.51
G1 X46.814 Y157.913 E10.53694
G1 X46.805 Y157.58 E10.54701
G1 X46.801 Y157.283 E10.55599
G1 X46.801 Y152.652 E10.69598
G1 X46.764 Y150.044 E10.77483
G1 X46.657 Y147.522 E10.85114
G1 X46.48 Y145.027 E10.92675
G1 X46.233 Y142.534 E11.00249
G1 X46.135 Y141.765 E11.02592
G1 X46.009 Y140.662 E11.05948
G1 X45.942 Y139.724 E11.08791
G1 X45.933 Y139.405 E11.09756
G1 X45.929 Y139.095 E11.10693
G1 X45.93 Y134.974 E11.23151
G1 X45.94 Y134.277 E11.25258
G1 X45.967 Y133.649 E11.27158
G1 X46.029 Y133.015 E11.29084
G1 X46.08 Y132.615 E11.30303
G1 X46.362 Y130.133 E11.37854
G1 X46.579 Y127.575 E11.45615
G1 X46.717 Y125.149 E11.52961
G1 X46.801 Y121.175 E11.64977
G1 X46.802 Y102.734 E12.20724
G1 X46.812 Y102.069 E12.22735
G1 X46.866 Y101.132 E12.25572
G1 X47 Y100.204 E12.28406
G1 X47.212 Y99.29 E12.31243
G1 X47.501 Y98.398 E12.34077
G1 X47.866 Y97.534 E12.36913
G1 X48.302 Y96.704 E12.39747
G1 X48.808 Y95.914 E12.42583
G1 X49.379 Y95.17 E12.45418
G1 X50.011 Y94.477 E12.48253
G1 X50.7 Y93.841 E12.51088
G1 X51.441 Y93.266 E12.53923
G1 X52.228 Y92.756 E12.56758
M204 S500
G0 F7500 X52.607 Y92.999
M204 S550
G1 F1500 X53.428 Y92.583 E12.59541
G1 X54.282 Y92.239 E12.62324
G1 X55.162 Y91.97 E12.65106
G1 X56.063 Y91.779 E12.6789
G1 X56.977 Y91.667 E12.70674
G1 X57.513 Y91.638 E12.72296
G1 X57.833 Y91.629 E12.73264
G1 X58.131 Y91.625 E12.74165
G1 X181.292 Y91.625 E16.46482
G1 X182.142 Y91.636 E16.49052
G1 X183.061 Y91.689 E16.51835
G1 X183.972 Y91.822 E16.54618
G1 X184.868 Y92.033 E16.57401
G1 X185.742 Y92.321 E16.60183
G1 X186.589 Y92.684 E16.62968
G1 X187.4 Y93.119 E16.65751
G1 X188.17 Y93.623 E16.68533
G1 X188.894 Y94.192 E16.71316
G1 X189.566 Y94.822 E16.74101
G1 X190.181 Y95.507 E16.76884
G1 X190.734 Y96.243 E16.79667
G1 X191.221 Y97.024 E16.82449
G1 X191.638 Y97.845 E16.85233
G1 X191.983 Y98.699 E16.88017
G1 X192.252 Y99.579 E16.90799
G1 X192.444 Y100.48 E16.93584
G1 X192.557 Y101.393 E16.96365
G1 X192.586 Y101.937 E16.98012
G1 X192.595 Y102.257 E16.98979
G1 X192.599 Y102.555 E16.9988
G1 X192.598 Y133.069 E17.92125
G1 X192.588 Y133.772 E17.9425
G1 X192.535 Y134.691 E17.97033
G1 X192.402 Y135.602 E17.99816
G1 X192.191 Y136.498 E18.02599
G1 X191.903 Y137.372 E18.05381
G1 X191.54 Y138.219 E18.08166
G1 X191.105 Y139.03 E18.10948
G1 X190.601 Y139.801 E18.13733
G1 X190.033 Y140.525 E18.16515
G1 X189.106 Y141.477 E18.20532
G1 X188.285 Y142.221 E18.23881
G1 X186.438 Y143.942 E18.31513
G1 X184.621 Y145.735 E18.3923
G1 X182.848 Y147.586 E18.46978
G1 X181.174 Y149.435 E18.54518
G1 X179.549 Y151.336 E18.62078
G1 X177.921 Y153.352 E18.69912
G1 X176.415 Y155.33 E18.77427
G1 X174.929 Y157.402 E18.85135
G1 X173.524 Y159.481 E18.92721
G1 X172.162 Y161.626 E19.00402
G1 X171.783 Y162.261 E19.02637
G1 X171.22 Y163.175 E19.05882
G1 X170.704 Y163.937 E19.08664
G1 X170.123 Y164.652 E19.11449
G1 X169.483 Y165.313 E19.14231
G1 X168.787 Y165.917 E19.17017
G1 X168.042 Y166.457 E19.19798
G1 X167.253 Y166.931 E19.22581
G1 X166.426 Y167.335 E19.25363
G1 X165.566 Y167.666 E19.28149
G1 X164.682 Y167.92 E19.30929
G1 X163.778 Y168.097 E19.33714
G1 X162.489 Y168.212 E19.37626
G1 X162.165 Y168.221 E19.38606
G1 X161.871 Y168.225 E19.39495
G1 X58.371 Y168.224 E22.52377
G1 X57.673 Y168.215 E22.54487
G1 X56.754 Y168.163 E22.57269
G1 X55.843 Y168.032 E22.60052
G1 X54.947 Y167.822 E22.62834
G1 X54.072 Y167.535 E22.65618
G1 X53.225 Y167.173 E22.68402
G1 X52.413 Y166.739 E22.71185
G1 X51.642 Y166.237 E22.73967
G1 X50.917 Y165.669 E22.76751
G1 X50.244 Y165.04 E22.79536
G1 X49.629 Y164.356 E22.82316
G1 X49.075 Y163.621 E22.85099
G1 X48.587 Y162.84 E22.87883
G1 X48.168 Y162.02 E22.90666
G1 X47.822 Y161.167 E22.93449
G1 X47.552 Y160.287 E22.96232
G1 X47.359 Y159.386 E22.99017
G1 X47.245 Y158.473 E23.01799
G1 X47.214 Y157.902 E23.03527
G1 X47.205 Y157.569 E23.04534
G1 X47.201 Y157.283 E23.05399
G1 X47.201 Y152.646 E23.19417
G1 X47.164 Y150.021 E23.27353
G1 X47.057 Y147.513 E23.34942
G1 X46.879 Y144.992 E23.42582
G1 X46.631 Y142.493 E23.50173
G1 X46.532 Y141.72 E23.52529
G1 X46.406 Y140.617 E23.55885
G1 X46.342 Y139.713 E23.58625
G1 X46.333 Y139.394 E23.5959
G1 X46.329 Y139.095 E23.60493
G1 X46.33 Y134.98 E23.72933
G1 X46.34 Y134.283 E23.7504
G1 X46.366 Y133.677 E23.76874
G1 X46.426 Y133.065 E23.78733
G1 X46.469 Y132.726 E23.79766
G1 X46.763 Y130.141 E23.87631
G1 X46.976 Y127.633 E23.9524
G1 X47.117 Y125.152 E24.02752
G1 X47.201 Y121.183 E24.14753
G1 X47.202 Y102.74 E24.70507
G1 X47.212 Y102.075 E24.72517
G1 X47.266 Y101.156 E24.753
G1 X47.399 Y100.245 E24.78083
G1 X47.611 Y99.349 E24.80867
G1 X47.9 Y98.474 E24.83652
G1 X48.264 Y97.629 E24.86434
G1 X48.699 Y96.818 E24.89216
G1 X49.204 Y96.047 E24.92002
G1 X49.773 Y95.324 E24.94783
G1 X50.403 Y94.652 E24.97568
G1 X51.089 Y94.038 E25.00351
G1 X51.825 Y93.486 E25.03132
G1 X52.607 Y92.999 E25.05917
M204 S500
G0 F7500 X52.984 Y93.248
M204 S550
G1 F1500 X53.798 Y92.857 E25.08647
G1 X54.643 Y92.538 E25.11377
G1 X55.513 Y92.296 E25.14107
G1 X56.401 Y92.132 E25.16837
G1 X57.524 Y92.038 E25.20244
G1 X57.844 Y92.029 E25.21212
G1 X58.131 Y92.025 E25.22079
G1 X181.292 Y92.025 E28.94397
G1 X182.136 Y92.036 E28.96948
G1 X183.038 Y92.089 E28.9968
G1 X183.931 Y92.221 E29.02409
G1 X184.809 Y92.432 E29.05138
G1 X185.665 Y92.72 E29.07869
G1 X186.492 Y93.082 E29.10598
G1 X187.284 Y93.517 E29.13329
G1 X188.035 Y94.019 E29.1606
G1 X188.738 Y94.586 E29.1879
G1 X189.388 Y95.213 E29.2152
G1 X189.98 Y95.895 E29.24251
G1 X190.51 Y96.626 E29.2698
G1 X190.972 Y97.402 E29.2971
G1 X191.365 Y98.215 E29.3244
G1 X191.683 Y99.06 E29.35169
G1 X191.926 Y99.93 E29.379
G1 X192.091 Y100.818 E29.4063
G1 X192.186 Y101.948 E29.44058
G1 X192.195 Y102.268 E29.45026
G1 X192.199 Y102.555 E29.45894
G1 X192.198 Y133.063 E30.3812
G1 X192.188 Y133.766 E30.40245
G1 X192.135 Y134.668 E30.42977
G1 X192.003 Y135.561 E30.45706
G1 X191.792 Y136.439 E30.48436
G1 X191.504 Y137.295 E30.51166
G1 X191.142 Y138.122 E30.53895
G1 X190.708 Y138.914 E30.56625
G1 X190.206 Y139.665 E30.59356
G1 X189.639 Y140.368 E30.62086
G1 X188.837 Y141.18 E30.65536
G1 X188.061 Y141.883 E30.68702
G1 X186.15 Y143.665 E30.766
G1 X184.334 Y145.456 E30.84311
G1 X182.58 Y147.287 E30.91976
G1 X180.858 Y149.19 E30.99734
G1 X179.209 Y151.118 E31.07404
G1 X177.637 Y153.065 E31.14969
G1 X176.088 Y155.101 E31.22702
G1 X174.605 Y157.167 E31.3039
G1 X173.182 Y159.273 E31.38074
G1 X171.83 Y161.403 E31.457
G1 X171.443 Y162.052 E31.47985
G1 X170.88 Y162.966 E31.5123
G1 X170.372 Y163.713 E31.53961
G1 X169.801 Y164.412 E31.56689
G1 X169.17 Y165.058 E31.59419
G1 X168.485 Y165.646 E31.62148
G1 X167.75 Y166.171 E31.64879
G1 X166.971 Y166.629 E31.6761
G1 X166.155 Y167.016 E31.70341
G1 X165.308 Y167.329 E31.7307
G1 X164.437 Y167.567 E31.758
G1 X163.548 Y167.726 E31.7853
G1 X162.478 Y167.812 E31.81775
G1 X162.154 Y167.821 E31.82755
G1 X161.871 Y167.825 E31.83611
G1 X58.376 Y167.824 E34.96477
G1 X57.678 Y167.815 E34.98588
G1 X56.777 Y167.764 E35.01316
G1 X55.883 Y167.632 E35.04048
G1 X55.005 Y167.423 E35.06776
G1 X54.148 Y167.136 E35.09508
G1 X53.321 Y166.775 E35.12236
G1 X52.528 Y166.342 E35.14967
G1 X51.777 Y165.841 E35.17696
G1 X51.073 Y165.275 E35.20427
G1 X50.422 Y164.649 E35.23157
G1 X49.829 Y163.968 E35.25887
G1 X49.299 Y163.237 E35.28617
G1 X48.835 Y162.462 E35.31347
G1 X48.441 Y161.649 E35.34078
G1 X48.121 Y160.805 E35.36807
G1 X47.877 Y159.935 E35.39538
G1 X47.711 Y159.047 E35.42269
G1 X47.614 Y157.892 E35.45773
G1 X47.605 Y157.559 E35.4678
G1 X47.601 Y157.283 E35.47615
G1 X47.601 Y152.64 E35.61651
G1 X47.564 Y150.034 E35.69529
G1 X47.455 Y147.466 E35.77299
G1 X47.278 Y144.964 E35.84882
G1 X47.027 Y142.431 E35.92577
G1 X46.93 Y141.675 E35.94881
G1 X46.804 Y140.572 E35.98237
G1 X46.742 Y139.702 E36.00874
G1 X46.733 Y139.383 E36.01838
G1 X46.729 Y139.095 E36.02709
G1 X46.73 Y134.986 E36.15131
G1 X46.74 Y134.289 E36.17238
G1 X46.765 Y133.704 E36.19008
G1 X46.823 Y133.116 E36.20794
G1 X46.86 Y132.827 E36.21675
G1 X47.16 Y130.187 E36.29707
G1 X47.375 Y127.651 E36.37401
G1 X47.517 Y125.155 E36.44959
G1 X47.601 Y121.191 E36.56944
G1 X47.602 Y102.746 E37.12704
G1 X47.612 Y102.081 E37.14714
G1 X47.666 Y101.179 E37.17446
G1 X47.799 Y100.286 E37.20175
G1 X48.01 Y99.408 E37.22905
G1 X48.299 Y98.552 E37.25636
G1 X48.662 Y97.725 E37.28367
G1 X49.096 Y96.934 E37.31094
G1 X49.599 Y96.183 E37.33827
G1 X50.167 Y95.481 E37.36556
G1 X50.794 Y94.831 E37.39287
G1 X51.476 Y94.239 E37.42017
G1 X52.208 Y93.71 E37.44747
G1 X52.984 Y93.248 E37.47477
M204 S500
G1 F2400 E33.47477
;MESH:V4_CASE_MIRRORED.stl
G0 F7500 X107.665 Y107.281
G0 X106.21 Y107.16
G0 X106.562 Y152.252
G0 X106.752 Y153.374
G0 X107.302 Y154.369
G0 X108.148 Y155.133
G0 X108.981 Y155.486
G0 X110.29 Y155.821
M204 S550
;TYPE:WALL-INNER
G1 F2400 E37.47477
G1 F1500 X111.221 Y155.609 E37.50363
G1 X111.337 Y155.535 E37.50779
G1 X112.25 Y155.039 E37.5392
G1 X112.342 Y154.917 E37.54382
G1 X113.041 Y154.161 E37.57495
G1 X113.082 Y154.037 E37.5789
G1 X113.419 Y153.373 E37.60141
G1 X113.601 Y152.274 E37.63508
G1 X113.601 Y107.184 E38.99816
G1 X113.402 Y106.019 E39.03389
G1 X113.324 Y105.894 E39.03834
G1 X112.825 Y104.974 E39.06998
G1 X112.695 Y104.873 E39.07496
G1 X111.937 Y104.175 E39.10611
G1 X111.785 Y104.127 E39.11093
G1 X110.872 Y103.724 E39.1411
G1 X109.714 Y103.63 E39.17622
G1 X109.597 Y103.655 E39.17983
G1 X109.075 Y103.744 E39.19584
G1 X108.127 Y104.158 E39.22711
G1 X107.972 Y104.259 E39.23271
G1 X107.53 Y104.603 E39.24964
G1 X106.831 Y105.502 E39.28406
G1 X106.787 Y105.621 E39.2879
G1 X106.58 Y106.094 E39.30351
G1 X106.401 Y107.176 E39.33666
G1 X106.401 Y152.266 E40.69974
G1 X106.598 Y153.433 E40.73552
G1 X106.686 Y153.571 E40.74046
G1 X107.176 Y154.476 E40.77157
G1 X107.306 Y154.577 E40.77655
G1 X108.065 Y155.276 E40.80774
G1 X108.217 Y155.324 E40.81256
G1 X109.14 Y155.73 E40.84304
G1 X109.291 Y155.738 E40.84762
G1 X110.29 Y155.821 E40.87792
M204 S500
G0 F7500 X110.262 Y155.417
M204 S550
;TYPE:WALL-OUTER
G1 F1500 X111.065 Y155.234 E40.90282
G1 X111.139 Y155.187 E40.90547
G1 X111.983 Y154.729 E40.9345
G1 X112.035 Y154.66 E40.93711
G1 X112.689 Y153.952 E40.96624
G1 X112.713 Y153.881 E40.96851
G1 X113.034 Y153.247 E40.98999
G1 X113.201 Y152.241 E41.02082
G1 X113.201 Y107.218 E42.38187
G1 X113.021 Y106.164 E42.4142
G1 X112.973 Y106.087 E42.41694
G1 X112.513 Y105.238 E42.44613
G1 X112.435 Y105.177 E42.44912
G1 X111.731 Y104.529 E42.47805
G1 X111.643 Y104.501 E42.48084
G1 X110.772 Y104.117 E42.50961
G1 X109.74 Y104.033 E42.54092
G1 X109.669 Y104.048 E42.54311
G1 X109.191 Y104.13 E42.55777
G1 X108.317 Y104.512 E42.5866
G1 X108.204 Y104.585 E42.59067
G1 X107.815 Y104.888 E42.60558
G1 X107.185 Y105.699 E42.63662
G1 X107.159 Y105.769 E42.63888
G1 X106.966 Y106.209 E42.6534
G1 X106.801 Y107.209 E42.68404
G1 X106.801 Y152.232 E44.04509
G1 X106.979 Y153.286 E44.07741
G1 X107.029 Y153.364 E44.08021
G1 X107.488 Y154.212 E44.10936
G1 X107.566 Y154.273 E44.11235
G1 X108.271 Y154.922 E44.14132
G1 X108.359 Y154.95 E44.14411
G1 X109.233 Y155.334 E44.17297
G1 X109.314 Y155.338 E44.17542
G1 X110.262 Y155.417 E44.20418
M204 S500
G0 F7500 X110.292 Y155.855
G1 F2400 E40.20418
G0 F7500 X112.487 Y155.041
G0 X112.487 Y156.815
G0 X161.601 Y157.025
M204 S550
;TYPE:WALL-INNER
G1 F2400 E44.20418
G1 F1500 X58.401 Y157.025 E47.32393
G1 X58.401 Y138.825 E47.87412
G1 X57.529 Y138.825 E47.90048
G1 X57.529 Y135.025 E48.01535
G1 X58.401 Y135.025 E48.04171
G1 X58.401 Y102.825 E49.01512
G1 X181.399 Y102.825 E52.73337
G1 X181.399 Y133.025 E53.64632
G1 X161.601 Y133.025 E54.24482
G1 X161.601 Y147.025 E54.66804
G1 X162.473 Y147.025 E54.6944
G1 X162.474 Y150.626 E54.80326
G1 X162.474 Y150.825 E54.80927
G1 X162.275 Y150.825 E54.81317
G1 X161.601 Y150.825 E54.83354
G1 X161.601 Y157.025 E55.02097
M204 S500
G0 F7500 X162.001 Y157.425
M204 S550
;TYPE:WALL-OUTER
G1 F1500 X58.001 Y157.425 E58.1649
G1 X58.001 Y139.225 E58.71509
G1 X57.129 Y139.225 E58.74145
G1 X57.129 Y134.625 E58.88051
G1 X58.001 Y134.625 E58.90687
G1 X58.001 Y102.425 E59.88028
G1 X181.799 Y102.425 E63.62271
G1 X181.799 Y133.425 E64.55985
G1 X162.001 Y133.425 E65.15834
G1 X162.001 Y146.625 E65.55738
G1 X162.873 Y146.625 E65.58374
G1 X162.874 Y151.225 E65.7228
G1 X162.001 Y151.225 E65.74919
G1 X162.001 Y157.425 E65.93662
M204 S500
G0 F7500 X161.731 Y157.155
G0 X161.491 Y156.635
G0 X161.211 Y156.635
M204 S550
;TYPE:SKIN
G1 F1500 X58.791 Y156.635 E69.03279
G1 X58.791 Y138.435 E69.58298
G1 X57.919 Y138.435 E69.60934
G1 X57.919 Y135.415 E69.70063
G1 X58.791 Y135.415 E69.72699
G1 X58.791 Y103.215 E70.7004
G1 X181.009 Y103.215 E74.39507
G1 X181.009 Y132.635 E75.28444
G1 X161.211 Y132.635 E75.88294
G1 X161.211 Y147.415 E76.32974
