;FLAVOR:Marlin
;TIME:17526
;Filament used: 16.2636m
;Layer height: 0.2
;MINX:59.2
;MINY:31.231
;MINZ:0.2
;MAXX:175.8
;MAXY:211.631
;MAXZ:21.6
;POSTPROCESSED
;Generated with Cura_SteamEngine master
M140 S60
M105
M190 S60
M104 S200
M105
M109 S200
M82 ;absolute extrusion mode
; Ender 3 Custom Start G-code
G92 E0 ; Reset Extruder
G28 ; Home all axes
G1 Z2.0 F3000 ; Move Z Axis up little to prevent scratching of Heat Bed
G1 X0.1 Y20 Z0.3 F5000.0 ; Move to start position
G1 X0.1 Y200.0 Z0.3 F1500.0 E15 ; Draw the first line
G1 X0.4 Y200.0 Z0.3 F5000.0 ; Move to side a little
G1 X0.4 Y20 Z0.3 F1500.0 E30 ; Draw the second line
G92 E0 ; Reset Extruder
G1 Z2.0 F3000 ; Move Z Axis up little to prevent scratching of Heat Bed
G1 X5 Y20 Z0.3 F5000.0 ; Move over to prevent blob squish
G92 E0
G92 E0
G1 F2400 E-4
;LAYER_COUNT:108
;LAYER:0
M107
M204 S500
G0 F7500 X60.692 Y36.724 Z0.2
M204 S550
;TYPE:SKIRT
G1 F2400 E0
G1 F1500 X61.196 Y35.934 E0.02833
G1 X61.766 Y35.189 E0.05669
G1 X62.398 Y34.495 E0.08506
G1 X63.086 Y33.858 E0.1134
G1 X63.826 Y33.282 E0.14175
G1 X64.612 Y32.77 E0.17011
G1 X65.439 Y32.328 E0.19846
G1 X66.301 Y31.958 E0.22681
G1 X67.191 Y31.662 E0.25517
G1 X68.103 Y31.444 E0.28352
G1 X69.03 Y31.303 E0.31186
G1 X69.901 Y31.244 E0.33825
G1 X70.222 Y31.235 E0.34796
G1 X70.53 Y31.231 E0.35727
G1 X164.093 Y31.231 E3.18569
G1 X164.949 Y31.242 E3.21157
G1 X165.885 Y31.296 E3.23991
G1 X166.813 Y31.428 E3.26825
G1 X167.727 Y31.64 E3.29661
G1 X168.619 Y31.929 E3.32496
G1 X169.484 Y32.292 E3.35332
G1 X170.314 Y32.728 E3.38166
G1 X171.105 Y33.233 E3.41003
G1 X171.849 Y33.804 E3.43838
G1 X172.542 Y34.436 E3.46673
G1 X173.179 Y35.124 E3.49508
G1 X173.754 Y35.865 E3.52343
G1 X174.265 Y36.651 E3.55177
G1 X174.707 Y37.479 E3.58015
G1 X175.076 Y38.341 E3.60849
G1 X175.371 Y39.231 E3.63684
G1 X175.589 Y40.143 E3.66518
G1 X175.729 Y41.071 E3.69355
G1 X175.787 Y41.932 E3.71964
G1 X175.796 Y42.252 E3.72932
G1 X175.8 Y42.561 E3.73866
G1 X175.799 Y200.031 E8.499
G1 X175.79 Y200.758 E8.52098
G1 X175.739 Y201.695 E8.54935
G1 X175.607 Y202.623 E8.57768
G1 X175.398 Y203.537 E8.60603
G1 X175.111 Y204.43 E8.63438
G1 X174.749 Y205.296 E8.66276
G1 X174.315 Y206.127 E8.6911
G1 X173.811 Y206.918 E8.71945
G1 X173.242 Y207.663 E8.74779
G1 X172.611 Y208.358 E8.77617
G1 X171.924 Y208.996 E8.80451
G1 X171.185 Y209.573 E8.83285
G1 X170.399 Y210.085 E8.86121
G1 X169.573 Y210.528 E8.88955
G1 X168.711 Y210.9 E8.91793
G1 X167.822 Y211.196 E8.94625
G1 X166.91 Y211.416 E8.97461
G1 X165.983 Y211.557 E9.00296
G1 X165.099 Y211.618 E9.02974
G1 X164.778 Y211.627 E9.03945
G1 X164.47 Y211.631 E9.04876
G1 X70.765 Y211.63 E11.88148
G1 X70.067 Y211.621 E11.90258
G1 X69.131 Y211.569 E11.93092
G1 X68.202 Y211.437 E11.95929
G1 X67.288 Y211.227 E11.98764
G1 X66.395 Y210.94 E12.01599
G1 X65.53 Y210.577 E12.04435
G1 X64.699 Y210.143 E12.07269
G1 X63.908 Y209.639 E12.10104
G1 X63.163 Y209.069 E12.1294
G1 X62.469 Y208.438 E12.15776
G1 X61.832 Y207.751 E12.18608
G1 X61.255 Y207.011 E12.21445
G1 X60.743 Y206.225 E12.2428
G1 X60.3 Y205.398 E12.27116
G1 X59.929 Y204.537 E12.29951
G1 X59.633 Y203.647 E12.32786
G1 X59.414 Y202.735 E12.35621
G1 X59.273 Y201.808 E12.38456
G1 X59.213 Y200.919 E12.4115
G1 X59.204 Y200.586 E12.42157
G1 X59.2 Y200.289 E12.43054
G1 X59.201 Y42.756 E17.19279
G1 X59.21 Y42.091 E17.21289
G1 X59.263 Y41.155 E17.24123
G1 X59.395 Y40.226 E17.2696
G1 X59.606 Y39.312 E17.29796
G1 X59.894 Y38.42 E17.32629
G1 X60.257 Y37.555 E17.35465
G1 X60.692 Y36.724 E17.38301
M204 S500
G0 F7500 X61.089 Y36.837
M204 S550
G1 F1500 X61.592 Y36.066 E17.41084
G1 X62.161 Y35.342 E17.43867
G1 X62.789 Y34.67 E17.46648
G1 X63.474 Y34.054 E17.49433
G1 X64.21 Y33.501 E17.52216
G1 X64.991 Y33.013 E17.55
G1 X65.811 Y32.595 E17.57782
G1 X66.665 Y32.25 E17.60566
G1 X67.545 Y31.98 E17.63349
G1 X68.445 Y31.788 E17.66131
G1 X69.359 Y31.674 E17.68915
G1 X69.912 Y31.644 E17.7059
G1 X70.233 Y31.635 E17.7156
G1 X70.53 Y31.631 E17.72458
G1 X164.093 Y31.631 E20.553
G1 X164.943 Y31.642 E20.5787
G1 X165.862 Y31.695 E20.60653
G1 X166.773 Y31.828 E20.63436
G1 X167.669 Y32.039 E20.66219
G1 X168.543 Y32.327 E20.69001
G1 X169.39 Y32.69 E20.71786
G1 X170.201 Y33.125 E20.74569
G1 X170.971 Y33.629 E20.77351
G1 X171.695 Y34.198 E20.80134
G1 X172.367 Y34.828 E20.82919
G1 X172.982 Y35.513 E20.85702
G1 X173.535 Y36.249 E20.88485
G1 X174.022 Y37.03 E20.91267
G1 X174.439 Y37.851 E20.94051
G1 X174.784 Y38.705 E20.96835
G1 X175.053 Y39.585 E20.99617
G1 X175.245 Y40.486 E21.02402
G1 X175.358 Y41.399 E21.05183
G1 X175.387 Y41.943 E21.0683
G1 X175.396 Y42.263 E21.07797
G1 X175.4 Y42.561 E21.08698
G1 X175.399 Y200.026 E25.84717
G1 X175.39 Y200.753 E25.86915
G1 X175.339 Y201.672 E25.89698
G1 X175.208 Y202.584 E25.92483
G1 X174.998 Y203.48 E25.95265
G1 X174.712 Y204.355 E25.98048
G1 X174.351 Y205.202 E26.00831
G1 X173.917 Y206.014 E26.03614
G1 X173.415 Y206.786 E26.06398
G1 X172.847 Y207.511 E26.09182
G1 X172.219 Y208.184 E26.11965
G1 X171.535 Y208.8 E26.14748
G1 X170.8 Y209.354 E26.1753
G1 X170.02 Y209.843 E26.20313
G1 X169.2 Y210.262 E26.23097
G1 X168.347 Y210.608 E26.2588
G1 X167.467 Y210.879 E26.28663
G1 X166.567 Y211.072 E26.31446
G1 X165.653 Y211.187 E26.3423
G1 X165.088 Y211.218 E26.35941
G1 X164.767 Y211.227 E26.36912
G1 X164.47 Y211.231 E26.3781
G1 X70.77 Y211.23 E29.21066
G1 X70.072 Y211.221 E29.23176
G1 X69.153 Y211.169 E29.25959
G1 X68.242 Y211.038 E29.28741
G1 X67.346 Y210.828 E29.31523
G1 X66.471 Y210.541 E29.34307
G1 X65.624 Y210.179 E29.37092
G1 X64.812 Y209.745 E29.39875
G1 X64.041 Y209.243 E29.42656
G1 X63.316 Y208.675 E29.4544
G1 X62.643 Y208.046 E29.48225
G1 X62.028 Y207.362 E29.51006
G1 X61.474 Y206.627 E29.53788
G1 X60.986 Y205.846 E29.56572
G1 X60.567 Y205.026 E29.59356
G1 X60.221 Y204.173 E29.62139
G1 X59.951 Y203.293 E29.64921
G1 X59.758 Y202.392 E29.67707
G1 X59.644 Y201.479 E29.70488
G1 X59.613 Y200.908 E29.72217
G1 X59.604 Y200.575 E29.73224
G1 X59.6 Y200.289 E29.74089
G1 X59.601 Y42.762 E34.50295
G1 X59.61 Y42.097 E34.52305
G1 X59.662 Y41.177 E34.55091
G1 X59.794 Y40.266 E34.57874
G1 X60.005 Y39.37 E34.60656
G1 X60.292 Y38.495 E34.6344
G1 X60.655 Y37.649 E34.66223
G1 X61.089 Y36.837 E34.69006
M204 S500
G0 F7500 X61.486 Y36.953
M204 S550
G1 F1500 X61.988 Y36.202 E34.71737
G1 X62.555 Y35.498 E34.7447
G1 X63.181 Y34.848 E34.77198
G1 X63.862 Y34.255 E34.79928
G1 X64.594 Y33.725 E34.8266
G1 X65.369 Y33.262 E34.85389
G1 X66.182 Y32.869 E34.88118
G1 X67.027 Y32.549 E34.9085
G1 X67.896 Y32.306 E34.93578
G1 X68.784 Y32.14 E34.96309
G1 X69.923 Y32.044 E34.99764
G1 X70.244 Y32.035 E35.00735
G1 X70.53 Y32.031 E35.016
G1 X164.093 Y32.031 E37.84442
G1 X164.937 Y32.042 E37.86993
G1 X165.839 Y32.095 E37.89725
G1 X166.732 Y32.227 E37.92454
G1 X167.61 Y32.438 E37.95184
G1 X168.466 Y32.726 E37.97914
G1 X169.293 Y33.088 E38.00643
G1 X170.085 Y33.523 E38.03374
G1 X170.836 Y34.025 E38.06105
G1 X171.539 Y34.592 E38.08835
G1 X172.189 Y35.219 E38.11566
G1 X172.781 Y35.901 E38.14296
G1 X173.311 Y36.632 E38.17025
G1 X173.773 Y37.408 E38.19755
G1 X174.166 Y38.221 E38.22485
G1 X174.484 Y39.066 E38.25214
G1 X174.727 Y39.936 E38.27945
G1 X174.892 Y40.824 E38.30676
G1 X174.987 Y41.954 E38.34104
G1 X174.996 Y42.274 E38.35071
G1 X175 Y42.561 E38.35939
G1 X174.999 Y200.021 E43.11943
G1 X174.99 Y200.748 E43.14141
G1 X174.939 Y201.65 E43.16872
G1 X174.808 Y202.544 E43.19603
G1 X174.599 Y203.422 E43.22332
G1 X174.313 Y204.279 E43.25063
G1 X173.952 Y205.107 E43.27793
G1 X173.52 Y205.899 E43.30521
G1 X173.019 Y206.651 E43.33252
G1 X172.453 Y207.355 E43.35983
G1 X171.828 Y208.006 E43.38711
G1 X171.147 Y208.6 E43.41443
G1 X170.416 Y209.131 E43.44174
G1 X169.642 Y209.595 E43.46902
G1 X168.829 Y209.989 E43.49633
G1 X167.985 Y210.309 E43.52362
G1 X167.115 Y210.554 E43.55094
G1 X166.228 Y210.72 E43.57822
G1 X165.077 Y210.818 E43.61314
G1 X164.756 Y210.827 E43.62285
G1 X164.47 Y210.831 E43.6315
G1 X70.775 Y210.83 E46.46391
G1 X70.077 Y210.821 E46.48501
G1 X69.176 Y210.77 E46.51229
G1 X68.282 Y210.638 E46.53961
G1 X67.404 Y210.429 E46.5669
G1 X66.547 Y210.142 E46.59422
G1 X65.72 Y209.781 E46.6215
G1 X64.927 Y209.348 E46.64881
G1 X64.176 Y208.847 E46.6761
G1 X63.472 Y208.281 E46.70341
G1 X62.821 Y207.655 E46.73071
G1 X62.228 Y206.974 E46.75801
G1 X61.698 Y206.243 E46.7853
G1 X61.234 Y205.468 E46.81261
G1 X60.84 Y204.655 E46.83992
G1 X60.52 Y203.811 E46.86721
G1 X60.276 Y202.941 E46.89452
G1 X60.11 Y202.053 E46.92183
G1 X60.013 Y200.898 E46.95687
G1 X60.004 Y200.565 E46.96694
G1 X60 Y200.289 E46.97528
G1 X60.001 Y42.767 E51.7372
G1 X60.01 Y42.102 E51.7573
G1 X60.062 Y41.2 E51.78461
G1 X60.194 Y40.307 E51.8119
G1 X60.404 Y39.429 E51.83919
G1 X60.691 Y38.572 E51.86652
G1 X61.053 Y37.745 E51.89381
G1 X61.486 Y36.953 E51.92109
M204 S500
G1 F2400 E47.92109
;MESH:V4_TOP_DRAWER_MIRRORED.stl
G0 F7500 X69.535 Y43.041
G0 X71.01 Y43.041
G0 X164.018 Y43.013
G0 X164.2 Y200.031
M204 S550
;TYPE:WALL-INNER
G1 F2400 E51.92109
G1 F1500 X70.8 Y200.031 E54.74459
G1 X70.8 Y42.831 E59.49676
G1 X164.2 Y42.831 E62.32026
G1 X164.2 Y200.031 E67.07244
M204 S500
G0 F7500 X164.6 Y200.431
M204 S550
;TYPE:WALL-OUTER
G1 F1500 X70.4 Y200.431 E69.92012
G1 X70.4 Y42.431 E74.69648
G1 X164.6 Y42.431 E77.54416
G1 X164.6 Y200.431 E82.32052
M204 S500
G0 F7500 X164.33 Y200.161
G0 X164.09 Y199.641
G0 X163.81 Y199.641
M204 S550
;TYPE:SKIN
G1 F1500 X71.19 Y199.641 E85.12043
G1 X71.19 Y43.221 E89.84903
G1 X163.81 Y43.221 E92.64895
G1 X163.81 Y199.641 E97.37754
M204 S500
G1 F2400 E93.37754
G0 F7500 X164.09 Y199.641
G0 X71.635 Y199.921
G0 X71.635 Y199.48
M204 S550
G1 F2400 E97.37754
G1 F1500 X71.349 Y199.194 E97.38977
M204 S500
G0 F7500 X71.349 Y198.629
M204 S550
G1 F1500 X72.201 Y199.48 E97.42617
M204 S500
G0 F7500 X72.766 Y199.48
M204 S550
G1 F1500 X71.349 Y198.063 E97.48675
M204 S500
G0 F7500 X71.349 Y197.497
M204 S550
G1 F1500 X73.332 Y199.48 E97.57153
M204 S500
G0 F7500 X73.898 Y199.48
M204 S550
G1 F1500 X71.349 Y196.932 E97.68048
M204 S500
G0 F7500 X71.349 Y196.366
M204 S550
G1 F1500 X74.464 Y199.48 E97.81364
M204 S500
G0 F7500 X75.029 Y199.48
M204 S550
G1 F1500 X71.349 Y195.8 E97.97096
M204 S500
G0 F7500 X71.349 Y195.235
M204 S550
G1 F1500 X75.595 Y199.48 E98.15247
M204 S500
G0 F7500 X76.161 Y199.48
M204 S550
G1 F1500 X71.349 Y194.669 E98.35817
M204 S500
G0 F7500 X71.349 Y194.103
M204 S550
G1 F1500 X76.726 Y199.48 E98.58804
M204 S500
G0 F7500 X77.292 Y199.48
M204 S550
G1 F1500 X71.349 Y193.537 E98.84212
M204 S500
G0 F7500 X71.349 Y192.972
M204 S550
G1 F1500 X77.858 Y199.48 E99.12037
M204 S500
G0 F7500 X78.423 Y199.48
M204 S550
G1 F1500 X71.349 Y192.406 E99.42279
M204 S500
G0 F7500 X71.349 Y191.84
M204 S550
G1 F1500 X78.989 Y199.48 E99.74942
M204 S500
G0 F7500 X79.555 Y199.48
M204 S550
G1 F1500 X71.349 Y191.275 E100.10022
M204 S500
G0 F7500 X71.349 Y190.709
M204 S550
G1 F1500 X80.12 Y199.48 E100.4752
M204 S500
G0 F7500 X80.686 Y199.48
M204 S550
G1 F1500 X71.349 Y190.143 E100.87437
M204 S500
G0 F7500 X71.349 Y189.578
M204 S550
G1 F1500 X81.252 Y199.48 E101.29772
M204 S500
G0 F7500 X81.817 Y199.48
M204 S550
G1 F1500 X71.349 Y189.012 E101.74525
M204 S500
G0 F7500 X71.349 Y188.446
M204 S550
G1 F1500 X82.383 Y199.48 E102.21697
M204 S500
G0 F7500 X82.949 Y199.48
M204 S550
G1 F1500 X71.349 Y187.881 E102.71287
M204 S500
G0 F7500 X71.349 Y187.315
M204 S550
G1 F1500 X83.514 Y199.48 E103.23295
M204 S500
G0 F7500 X84.08 Y199.48
M204 S550
G1 F1500 X71.349 Y186.749 E103.77722
M204 S500
G0 F7500 X71.349 Y186.184
M204 S550
G1 F1500 X84.646 Y199.48 E104.34567
M204 S500
G0 F7500 X85.212 Y199.48
M204 S550
G1 F1500 X71.349 Y185.618 E104.93832
M204 S500
G0 F7500 X71.349 Y185.052
M204 S550
G1 F1500 X85.777 Y199.48 E105.55514
M204 S500
G0 F7500 X86.343 Y199.48
M204 S550
G1 F1500 X71.349 Y184.486 E106.19617
M204 S500
G0 F7500 X71.349 Y183.921
M204 S550
G1 F1500 X86.909 Y199.48 E106.86136
M204 S500
G0 F7500 X87.474 Y199.48
M204 S550
G1 F1500 X71.349 Y183.355 E107.55074
M204 S500
G0 F7500 X71.349 Y182.789
M204 S550
G1 F1500 X88.04 Y199.48 E108.26431
M204 S500
G0 F7500 X88.606 Y199.48
M204 S550
G1 F1500 X71.349 Y182.224 E109.00206
M204 S500
G0 F7500 X71.349 Y181.658
M204 S550
G1 F1500 X89.171 Y199.48 E109.76398
M204 S500
G0 F7500 X89.737 Y199.48
M204 S550
G1 F1500 X71.349 Y181.092 E110.5501
M204 S500
G0 F7500 X71.349 Y180.527
M204 S550
G1 F1500 X90.303 Y199.48 E111.3604
M204 S500
G0 F7500 X90.868 Y199.48
M204 S550
G1 F1500 X71.349 Y179.961 E112.19487
M204 S500
G0 F7500 X71.349 Y179.395
M204 S550
G1 F1500 X91.434 Y199.48 E113.05354
M204 S500
G0 F7500 X92 Y199.48
M204 S550
G1 F1500 X71.349 Y178.83 E113.93639
M204 S500
G0 F7500 X71.349 Y178.264
M204 S550
G1 F1500 X92.565 Y199.48 E114.84341
M204 S500
G0 F7500 X93.131 Y199.48
M204 S550
G1 F1500 X71.349 Y177.698 E115.77464
M204 S500
G0 F7500 X71.349 Y177.133
M204 S550
G1 F1500 X93.697 Y199.48 E116.73003
M204 S500
G0 F7500 X94.262 Y199.48
M204 S550
G1 F1500 X71.349 Y176.567 E117.70961
M204 S500
G0 F7500 X71.349 Y176.001
M204 S550
G1 F1500 X94.828 Y199.48 E118.71338
M204 S500
G0 F7500 X95.394 Y199.48
M204 S550
G1 F1500 X71.349 Y175.436 E119.74133
M204 S500
G0 F7500 X71.349 Y174.87
M204 S550
G1 F1500 X95.96 Y199.48 E120.79347
M204 S500
G0 F7500 X96.525 Y199.48
M204 S550
G1 F1500 X71.349 Y174.304 E121.86979
M204 S500
G0 F7500 X71.349 Y173.738
M204 S550
G1 F1500 X97.091 Y199.48 E122.97031
M204 S500
G0 F7500 X97.657 Y199.48
M204 S550
G1 F1500 X71.349 Y173.173 E124.095
M204 S500
G0 F7500 X71.349 Y172.607
M204 S550
G1 F1500 X98.222 Y199.48 E125.24388
M204 S500
G0 F7500 X98.788 Y199.48
M204 S550
G1 F1500 X71.349 Y172.041 E126.41694
M204 S500
G0 F7500 X71.349 Y171.476
M204 S550
G1 F1500 X99.354 Y199.48 E127.61419
M204 S500
G0 F7500 X99.919 Y199.48
M204 S550
G1 F1500 X71.349 Y170.91 E128.83561
M204 S500
G0 F7500 X71.349 Y170.344
M204 S550
G1 F1500 X100.485 Y199.48 E130.08123
M204 S500
G0 F7500 X101.051 Y199.48
M204 S550
G1 F1500 X71.349 Y169.779 E131.35102
M204 S500
G0 F7500 X71.349 Y169.213
M204 S550
G1 F1500 X101.616 Y199.48 E132.64499
M204 S500
G0 F7500 X102.182 Y199.48
M204 S550
G1 F1500 X71.349 Y168.647 E133.96316
M204 S500
G0 F7500 X71.349 Y168.082
M204 S550
G1 F1500 X102.748 Y199.48 E135.30551
M204 S500
G0 F7500 X103.313 Y199.48
M204 S550
G1 F1500 X71.349 Y167.516 E136.67203
M204 S500
G0 F7500 X71.349 Y166.95
M204 S550
G1 F1500 X103.879 Y199.48 E138.06275
M204 S500
G0 F7500 X104.445 Y199.48
M204 S550
G1 F1500 X71.349 Y166.385 E139.47764
M204 S500
G0 F7500 X71.349 Y165.819
M204 S550
G1 F1500 X105.011 Y199.48 E140.91673
M204 S500
G0 F7500 X105.576 Y199.48
M204 S550
G1 F1500 X71.349 Y165.253 E142.38
M204 S500
G0 F7500 X71.349 Y164.687
M204 S550
G1 F1500 X106.142 Y199.48 E143.86747
M204 S500
G0 F7500 X106.708 Y199.48
M204 S550
G1 F1500 X71.349 Y164.122 E145.37911
M204 S500
G0 F7500 X71.349 Y163.556
M204 S550
G1 F1500 X107.273 Y199.48 E146.91493
M204 S500
G0 F7500 X107.839 Y199.48
M204 S550
G1 F1500 X71.349 Y162.99 E148.47494
M204 S500
G0 F7500 X71.349 Y162.425
M204 S550
G1 F1500 X108.405 Y199.48 E150.05913
M204 S500
G0 F7500 X108.97 Y199.48
M204 S550
G1 F1500 X71.349 Y161.859 E151.6675
M204 S500
G0 F7500 X71.349 Y161.293
M204 S550
G1 F1500 X109.536 Y199.48 E153.30007
M204 S500
G0 F7500 X110.102 Y199.48
M204 S550
G1 F1500 X71.349 Y160.728 E154.95681
M204 S500
G0 F7500 X71.349 Y160.162
M204 S550
G1 F1500 X110.667 Y199.48 E156.63773
M204 S500
G0 F7500 X111.233 Y199.48
M204 S550
G1 F1500 X71.349 Y159.596 E158.34284
M204 S500
G0 F7500 X71.349 Y159.031
M204 S550
G1 F1500 X111.799 Y199.48 E160.07214
M204 S500
G0 F7500 X112.364 Y199.48
M204 S550
G1 F1500 X71.349 Y158.465 E161.8256
M204 S500
G0 F7500 X71.349 Y157.899
M204 S550
G1 F1500 X112.93 Y199.48 E163.60327
M204 S500
G0 F7500 X113.496 Y199.48
M204 S550
G1 F1500 X71.349 Y157.334 E165.40511
M204 S500
G0 F7500 X71.349 Y156.768
M204 S550
G1 F1500 X114.061 Y199.48 E167.23113
M204 S500
G0 F7500 X114.627 Y199.48
M204 S550
G1 F1500 X71.349 Y156.202 E169.08134
M204 S500
G0 F7500 X71.349 Y155.637
M204 S550
G1 F1500 X115.193 Y199.48 E170.95573
M204 S500
G0 F7500 X115.759 Y199.48
M204 S550
G1 F1500 X71.349 Y155.071 E172.85432
M204 S500
G0 F7500 X71.349 Y154.505
M204 S550
G1 F1500 X116.324 Y199.48 E174.77709
M204 S500
