;FLAVOR:Marlin
;TIME:1579
;Filament used: 0.773745m
;Layer height: 0.2
;MINX:91.558
;MINY:91.558
;MINZ:0.2
;MAXX:143.442
;MAXY:143.442
;MAXZ:10
;Generated with Cura_SteamEngine master
M140 S60
M105
M190 S60
M104 S200
M105
M109 S200
M82 ;absolute extrusion mode
; Ender 3 Custom Start G-code
G92 E0 ; Reset Extruder
G28 ; Home all axes
G1 Z2.0 F3000 ; Move Z Axis up little to prevent scratching of Heat Bed
G1 X0.1 Y20 Z0.3 F5000.0 ; Move to start position
G1 X0.1 Y200.0 Z0.3 F1500.0 E15 ; Draw the first line
G1 X0.4 Y200.0 Z0.3 F5000.0 ; Move to side a little
G1 X0.4 Y20 Z0.3 F1500.0 E30 ; Draw the second line
G92 E0 ; Reset Extruder
G1 Z2.0 F3000 ; Move Z Axis up little to prevent scratching of Heat Bed
G1 X5 Y20 Z0.3 F5000.0 ; Move over to prevent blob squish
G92 E0
G92 E0
G1 F2400 E-4
;LAYER_COUNT:50
;LAYER:0
M107
M204 S500
G0 F7500 X102.468 Y95.851 Z0.2
M204 S550
;TYPE:SKIRT
G1 F2400 E0
G1 F1500 X102.965 Y95.339 E0.02157
G1 X103.115 Y95.194 E0.02788
G1 X104.097 Y94.351 E0.067
G1 X104.252 Y94.233 E0.07289
G1 X105.102 Y93.646 E0.10412
G1 X105.343 Y93.496 E0.1127
G1 X106.339 Y92.946 E0.14709
G1 X106.532 Y92.852 E0.15358
G1 X107.57 Y92.411 E0.18768
G1 X107.898 Y92.291 E0.19824
G1 X108.791 Y92.006 E0.22657
G1 X109.726 Y91.795 E0.25555
G1 X110.009 Y91.744 E0.26424
G1 X111.016 Y91.611 E0.29495
G1 X111.167 Y91.598 E0.29953
G1 X112.256 Y91.558 E0.33247
G1 X112.712 Y91.564 E0.34626
G1 X113.075 Y91.575 E0.35724
G1 X113.296 Y91.585 E0.36392
G1 X115.89 Y91.67 E0.44238
G1 X118.406 Y91.68 E0.51844
G1 X121.874 Y91.58 E0.62332
G1 X122.182 Y91.566 E0.63265
G1 X123.16 Y91.564 E0.66221
G1 X123.49 Y91.578 E0.6722
G1 X124.517 Y91.67 E0.70337
G1 X124.59 Y91.68 E0.70559
G1 X125.69 Y91.888 E0.73944
G1 X126.061 Y91.978 E0.75098
G1 X126.962 Y92.238 E0.77933
G1 X127.545 Y92.451 E0.79809
G1 X127.753 Y92.534 E0.80486
G1 X128.181 Y92.716 E0.81892
G1 X128.279 Y92.76 E0.82217
G1 X129.224 Y93.24 E0.85421
G1 X129.508 Y93.402 E0.86409
G1 X130.302 Y93.901 E0.89244
G1 X131.028 Y94.447 E0.9199
G1 X131.238 Y94.619 E0.92811
G1 X132.163 Y95.47 E0.9661
G1 X132.358 Y95.671 E0.97457
G1 X132.578 Y95.904 E0.98426
G1 X132.929 Y96.288 E0.99998
G1 X134.708 Y98.18 E1.07849
G1 X136.492 Y99.973 E1.15495
G1 X138.932 Y102.271 E1.25628
G1 X139.141 Y102.461 E1.26482
G1 X139.585 Y102.887 E1.28342
G1 X139.712 Y103.016 E1.28889
G1 X140.341 Y103.712 E1.31725
G1 X140.644 Y104.095 E1.33201
G1 X140.837 Y104.35 E1.34168
G1 X141.37 Y105.119 E1.36997
G1 X141.411 Y105.184 E1.37229
G1 X141.982 Y106.206 E1.40768
G1 X142.116 Y106.479 E1.41687
G1 X142.311 Y106.898 E1.43084
G1 X142.596 Y107.598 E1.45369
G1 X142.707 Y107.9 E1.46342
G1 X142.992 Y108.793 E1.49176
G1 X143.202 Y109.713 E1.52028
G1 X143.25 Y109.975 E1.52834
G1 X143.39 Y111.02 E1.56021
G1 X143.403 Y111.172 E1.56482
G1 X143.442 Y112.253 E1.59752
G1 X143.436 Y112.711 E1.61137
G1 X143.425 Y113.075 E1.62238
G1 X143.415 Y113.296 E1.62906
G1 X143.33 Y115.89 E1.70752
G1 X143.32 Y118.406 E1.78358
G1 X143.419 Y121.866 E1.88822
G1 X143.434 Y122.178 E1.89766
G1 X143.436 Y123.158 E1.92729
G1 X143.422 Y123.489 E1.9373
G1 X143.33 Y124.517 E1.9685
G1 X143.32 Y124.59 E1.97073
G1 X143.114 Y125.683 E2.00436
G1 X143.025 Y126.051 E2.0158
G1 X142.766 Y126.952 E2.04414
G1 X142.553 Y127.534 E2.06288
G1 X142.469 Y127.745 E2.06974
G1 X142.284 Y128.181 E2.08406
G1 X142.24 Y128.279 E2.08731
G1 X141.76 Y129.224 E2.11935
G1 X141.598 Y129.508 E2.12923
G1 X141.099 Y130.302 E2.15758
G1 X140.553 Y131.028 E2.18504
G1 X140.381 Y131.238 E2.19325
G1 X139.535 Y132.159 E2.23105
G1 X139.326 Y132.362 E2.23986
G1 X139.081 Y132.593 E2.25004
G1 X138.685 Y132.955 E2.26626
G1 X136.82 Y134.708 E2.34364
G1 X135.027 Y136.492 E2.4201
G1 X132.75 Y138.909 E2.52048
G1 X132.536 Y139.145 E2.53011
G1 X132.067 Y139.63 E2.55051
G1 X131.916 Y139.777 E2.55688
G1 X130.896 Y140.655 E2.59756
G1 X130.738 Y140.775 E2.60356
G1 X129.898 Y141.354 E2.6344
G1 X129.657 Y141.504 E2.64298
G1 X128.661 Y142.054 E2.67738
G1 X128.468 Y142.148 E2.68387
G1 X127.43 Y142.589 E2.71796
G1 X127.102 Y142.709 E2.72852
G1 X126.209 Y142.994 E2.75686
G1 X125.274 Y143.205 E2.78583
G1 X124.991 Y143.256 E2.79452
G1 X123.984 Y143.389 E2.82523
G1 X123.833 Y143.402 E2.82981
G1 X122.744 Y143.442 E2.86276
G1 X122.288 Y143.436 E2.87654
G1 X121.925 Y143.425 E2.88752
G1 X121.704 Y143.415 E2.89421
G1 X119.11 Y143.33 E2.97267
G1 X116.594 Y143.32 E3.04873
G1 X113.126 Y143.42 E3.15361
G1 X112.818 Y143.434 E3.16293
G1 X111.84 Y143.436 E3.19249
G1 X111.51 Y143.422 E3.20248
G1 X110.483 Y143.33 E3.23365
G1 X110.41 Y143.32 E3.23588
G1 X109.31 Y143.112 E3.26972
G1 X108.939 Y143.022 E3.28126
G1 X108.038 Y142.762 E3.30961
G1 X107.455 Y142.549 E3.32837
G1 X107.247 Y142.466 E3.33514
G1 X106.81 Y142.28 E3.3495
G1 X106.71 Y142.235 E3.35281
G1 X105.756 Y141.748 E3.38519
G1 X105.475 Y141.587 E3.39498
G1 X104.681 Y141.087 E3.42335
G1 X103.988 Y140.565 E3.44958
G1 X103.776 Y140.392 E3.45785
G1 X102.841 Y139.535 E3.49619
G1 X102.637 Y139.325 E3.50504
G1 X102.404 Y139.077 E3.51533
G1 X102.074 Y138.715 E3.53014
G1 X100.292 Y136.82 E3.60877
G1 X98.508 Y135.027 E3.68524
G1 X96.091 Y132.75 E3.78562
G1 X95.855 Y132.536 E3.79525
G1 X95.325 Y132.02 E3.81761
G1 X95.173 Y131.862 E3.82424
G1 X94.349 Y130.901 E3.86251
G1 X94.234 Y130.75 E3.86824
G1 X93.642 Y129.891 E3.89978
G1 X93.491 Y129.648 E3.90843
G1 X92.946 Y128.661 E3.94251
G1 X92.85 Y128.464 E3.94914
G1 X92.399 Y127.402 E3.98402
G1 X92.282 Y127.08 E3.99438
G1 X92 Y126.185 E4.02274
G1 X91.795 Y125.274 E4.05097
G1 X91.744 Y124.991 E4.05966
G1 X91.612 Y123.996 E4.09001
G1 X91.599 Y123.847 E4.09453
G1 X91.558 Y122.747 E4.1278
G1 X91.564 Y122.289 E4.14165
G1 X91.575 Y121.925 E4.15266
G1 X91.585 Y121.704 E4.15935
G1 X91.67 Y119.11 E4.23781
G1 X91.68 Y116.594 E4.31387
G1 X91.581 Y113.134 E4.4185
G1 X91.566 Y112.822 E4.42795
G1 X91.564 Y111.842 E4.45757
G1 X91.578 Y111.511 E4.46759
G1 X91.67 Y110.483 E4.49879
G1 X91.68 Y110.41 E4.50102
G1 X91.888 Y109.31 E4.53486
G1 X91.978 Y108.939 E4.5464
G1 X92.238 Y108.038 E4.57475
G1 X92.451 Y107.455 E4.59351
G1 X92.534 Y107.247 E4.60028
G1 X92.716 Y106.819 E4.61434
G1 X93.216 Y105.823 E4.64803
G1 X93.347 Y105.592 E4.65606
G1 X93.918 Y104.689 E4.68836
G1 X94.039 Y104.517 E4.69471
G1 X94.636 Y103.743 E4.72426
G1 X94.751 Y103.607 E4.72965
G1 X95.497 Y102.809 E4.76267
G1 X95.689 Y102.623 E4.77075
G1 X95.926 Y102.401 E4.78057
G1 X96.288 Y102.071 E4.79538
G1 X98.183 Y100.289 E4.87401
G1 X99.976 Y98.505 E4.95048
G1 X102.254 Y96.087 E5.0509
G1 X102.468 Y95.851 E5.06053
M204 S500
G0 F7500 X102.764 Y96.12
M204 S550
G1 F1500 X103.243 Y95.627 E5.08131
G1 X103.393 Y95.482 E5.08762
G1 X104.339 Y94.669 E5.12533
G1 X104.494 Y94.551 E5.13121
G1 X105.314 Y93.986 E5.16132
G1 X105.555 Y93.836 E5.1699
G1 X106.515 Y93.305 E5.20306
G1 X106.708 Y93.211 E5.20955
G1 X107.707 Y92.786 E5.24237
G1 X108.035 Y92.666 E5.25293
G1 X108.913 Y92.388 E5.28077
G1 X109.797 Y92.189 E5.30816
G1 X110.08 Y92.138 E5.31686
G1 X111.051 Y92.009 E5.34647
G1 X111.202 Y91.996 E5.35105
G1 X112.25 Y91.958 E5.38275
G1 X112.706 Y91.964 E5.39654
G1 X113.056 Y91.974 E5.40712
G1 X113.336 Y91.987 E5.4156
G1 X115.875 Y92.07 E5.49239
G1 X118.386 Y92.08 E5.5683
G1 X121.957 Y91.977 E5.6763
G1 X122.2 Y91.966 E5.68365
G1 X123.143 Y91.964 E5.71216
G1 X123.473 Y91.978 E5.72214
G1 X124.463 Y92.066 E5.75219
G1 X124.536 Y92.076 E5.75442
G1 X125.596 Y92.277 E5.78703
G1 X125.967 Y92.367 E5.79857
G1 X126.851 Y92.622 E5.82638
G1 X127.397 Y92.823 E5.84397
G1 X127.605 Y92.906 E5.85074
G1 X128.018 Y93.081 E5.8643
G1 X128.116 Y93.125 E5.86755
G1 X129.026 Y93.588 E5.89842
G1 X129.31 Y93.75 E5.9083
G1 X130.089 Y94.24 E5.93612
G1 X130.775 Y94.757 E5.96209
G1 X130.985 Y94.929 E5.97029
G1 X131.876 Y95.748 E6.00688
G1 X132.071 Y95.949 E6.01534
G1 X132.283 Y96.174 E6.02469
G1 X132.662 Y96.589 E6.04168
G1 X134.415 Y98.454 E6.11906
G1 X136.201 Y100.249 E6.1956
G1 X138.668 Y102.572 E6.29804
G1 X138.872 Y102.757 E6.30636
G1 X139.3 Y103.167 E6.32428
G1 X139.427 Y103.296 E6.32975
G1 X140.325 Y104.336 E6.37129
G1 X140.518 Y104.591 E6.38096
G1 X141.031 Y105.333 E6.40823
G1 X141.072 Y105.398 E6.41055
G1 X141.623 Y106.382 E6.44465
G1 X141.757 Y106.655 E6.45384
G1 X141.945 Y107.061 E6.46736
G1 X142.22 Y107.736 E6.4894
G1 X142.331 Y108.038 E6.49912
G1 X142.611 Y108.915 E6.52695
G1 X142.808 Y109.785 E6.55392
G1 X142.856 Y110.047 E6.56197
G1 X142.991 Y111.054 E6.59269
G1 X143.004 Y111.206 E6.5973
G1 X143.042 Y112.248 E6.62882
G1 X143.036 Y112.706 E6.64267
G1 X143.026 Y113.056 E6.65325
G1 X143.012 Y113.359 E6.66242
G1 X142.93 Y115.875 E6.73852
G1 X142.92 Y118.386 E6.81443
G1 X143.022 Y121.944 E6.92203
G1 X143.034 Y122.197 E6.92969
G1 X143.037 Y123.141 E6.95823
G1 X143.023 Y123.472 E6.96824
G1 X142.934 Y124.463 E6.99832
G1 X142.924 Y124.536 E7.00055
G1 X142.725 Y125.589 E7.03294
G1 X142.636 Y125.957 E7.04439
G1 X142.381 Y126.841 E7.0722
G1 X142.181 Y127.386 E7.08975
G1 X142.097 Y127.597 E7.09662
G1 X141.919 Y128.018 E7.11043
G1 X141.875 Y128.116 E7.11368
G1 X141.412 Y129.026 E7.14455
G1 X141.25 Y129.31 E7.15443
G1 X140.76 Y130.089 E7.18225
G1 X140.243 Y130.775 E7.20822
G1 X140.071 Y130.985 E7.21642
G1 X139.256 Y131.872 E7.25284
G1 X139.047 Y132.075 E7.26165
G1 X138.811 Y132.297 E7.27144
G1 X138.424 Y132.65 E7.28728
G1 X136.546 Y134.415 E7.36519
G1 X134.751 Y136.201 E7.44173
G1 X132.446 Y138.649 E7.54338
G1 X132.24 Y138.876 E7.55265
G1 X131.788 Y139.343 E7.57229
G1 X131.637 Y139.49 E7.57866
G1 X130.654 Y140.336 E7.61787
G1 X130.496 Y140.456 E7.62387
G1 X129.686 Y141.014 E7.6536
G1 X129.445 Y141.164 E7.66218
G1 X128.485 Y141.695 E7.69535
G1 X128.292 Y141.789 E7.70184
G1 X127.293 Y142.214 E7.73466
G1 X126.965 Y142.334 E7.74522
G1 X126.087 Y142.612 E7.77306
G1 X125.203 Y142.811 E7.80045
G1 X124.92 Y142.862 E7.80914
G1 X123.949 Y142.991 E7.83875
G1 X123.798 Y143.004 E7.84333
G1 X122.75 Y143.042 E7.87504
G1 X122.294 Y143.036 E7.88882
G1 X121.944 Y143.026 E7.89941
G1 X121.664 Y143.013 E7.90788
G1 X119.125 Y142.93 E7.98468
G1 X116.614 Y142.92 E8.06058
G1 X113.043 Y143.023 E8.16858
G1 X112.8 Y143.034 E8.17593
G1 X111.857 Y143.036 E8.20444
G1 X111.527 Y143.022 E8.21443
G1 X110.537 Y142.934 E8.24447
G1 X110.464 Y142.924 E8.2467
G1 X109.404 Y142.723 E8.27932
G1 X109.033 Y142.633 E8.29086
G1 X108.149 Y142.378 E8.31867
G1 X107.603 Y142.177 E8.33626
G1 X107.395 Y142.094 E8.34303
G1 X106.974 Y141.915 E8.35686
G1 X106.874 Y141.87 E8.36017
G1 X105.954 Y141.401 E8.39139
G1 X105.673 Y141.24 E8.40118
G1 X104.895 Y140.748 E8.42901
G1 X104.241 Y140.256 E8.45375
G1 X104.029 Y140.083 E8.46202
G1 X103.128 Y139.256 E8.49899
G1 X102.924 Y139.046 E8.50784
G1 X102.699 Y138.807 E8.51776
G1 X102.343 Y138.417 E8.53373
G1 X100.585 Y136.546 E8.61134
G1 X98.799 Y134.751 E8.68789
G1 X96.351 Y132.446 E8.78953
G1 X96.124 Y132.24 E8.7988
G1 X95.613 Y131.743 E8.82035
G1 X95.461 Y131.585 E8.82697
G1 X94.667 Y130.658 E8.86387
G1 X94.552 Y130.507 E8.86961
G1 X93.982 Y129.68 E8.89997
G1 X93.831 Y129.437 E8.90862
G1 X93.305 Y128.485 E8.9415
G1 X93.209 Y128.288 E8.94813
G1 X92.775 Y127.265 E8.98172
G1 X92.658 Y126.943 E8.99208
G1 X92.382 Y126.065 E9.0199
G1 X92.189 Y125.203 E9.0466
G1 X92.138 Y124.92 E9.0553
G1 X92.01 Y123.961 E9.08454
G1 X91.997 Y123.812 E9.08906
G1 X91.958 Y122.752 E9.12113
G1 X91.964 Y122.294 E9.13498
G1 X91.974 Y121.944 E9.14556
G1 X91.988 Y121.641 E9.15473
G1 X92.07 Y119.125 E9.23083
G1 X92.08 Y116.614 E9.30674
G1 X91.978 Y113.049 E9.41455
G1 X91.966 Y112.803 E9.422
G1 X91.963 Y111.859 E9.45054
G1 X91.977 Y111.528 E9.46055
G1 X92.066 Y110.537 E9.49063
G1 X92.076 Y110.464 E9.49286
G1 X92.277 Y109.404 E9.52547
G1 X92.367 Y109.033 E9.53701
G1 X92.622 Y108.149 E9.56483
G1 X92.823 Y107.603 E9.58241
G1 X92.906 Y107.395 E9.58918
G1 X93.082 Y106.98 E9.60281
G1 X93.563 Y106.02 E9.63527
G1 X93.694 Y105.789 E9.6433
G1 X94.245 Y104.919 E9.67443
G1 X94.366 Y104.747 E9.68079
G1 X94.942 Y104.002 E9.70926
G1 X95.057 Y103.866 E9.71464
G1 X95.776 Y103.097 E9.74647
G1 X95.968 Y102.911 E9.75455
G1 X96.196 Y102.696 E9.76402
G1 X96.586 Y102.34 E9.77998
G1 X98.457 Y100.582 E9.85759
G1 X100.252 Y98.796 E9.93414
G1 X102.558 Y96.347 E10.03583
G1 X102.764 Y96.12 E10.0451
M204 S500
G0 F7500 X103.06 Y96.389
M204 S550
G1 F1500 X103.521 Y95.914 E10.06511
G1 X103.671 Y95.769 E10.07141
G1 X104.582 Y94.987 E10.10771
G1 X104.737 Y94.869 E10.1136
G1 X105.525 Y94.325 E10.14254
G1 X105.766 Y94.175 E10.15112
G1 X106.69 Y93.665 E10.18303
G1 X106.883 Y93.571 E10.18952
G1 X107.844 Y93.162 E10.22109
G1 X108.172 Y93.042 E10.23165
G1 X109.034 Y92.77 E10.25898
G1 X109.868 Y92.583 E10.28481
G1 X110.151 Y92.532 E10.29351
G1 X111.085 Y92.408 E10.32199
G1 X111.236 Y92.395 E10.32657
G1 X112.245 Y92.358 E10.35709
G1 X112.701 Y92.364 E10.37088
G1 X113.038 Y92.374 E10.38107
G1 X113.233 Y92.383 E10.38697
G1 X115.896 Y92.47 E10.46752
G1 X118.395 Y92.48 E10.54306
G1 X121.933 Y92.378 E10.65006
G1 X122.219 Y92.365 E10.65872
G1 X123.126 Y92.363 E10.68614
G1 X123.456 Y92.377 E10.69612
G1 X124.408 Y92.462 E10.72501
G1 X124.481 Y92.472 E10.72724
G1 X125.502 Y92.665 E10.75865
G1 X125.873 Y92.755 E10.77019
G1 X126.74 Y93.007 E10.79749
G1 X127.248 Y93.194 E10.81385
G1 X127.456 Y93.277 E10.82062
G1 X127.854 Y93.446 E10.83369
G1 X127.952 Y93.49 E10.83694
G1 X128.828 Y93.935 E10.86664
G1 X129.112 Y94.097 E10.87653
G1 X129.876 Y94.579 E10.90384
G1 X130.521 Y95.066 E10.92827
G1 X130.731 Y95.238 E10.93647
G1 X131.589 Y96.027 E10.97171
G1 X131.784 Y96.228 E10.98018
G1 X131.988 Y96.444 E10.98916
G1 X132.359 Y96.849 E11.00576
G1 X134.158 Y98.763 E11.08517
G1 X135.895 Y100.509 E11.15962
G1 X138.411 Y102.879 E11.26411
G1 X138.603 Y103.053 E11.27194
G1 X139.015 Y103.448 E11.2892
G1 X139.142 Y103.577 E11.29467
G1 X140.006 Y104.577 E11.33462
G1 X140.199 Y104.832 E11.34429
G1 X140.693 Y105.546 E11.37054
G1 X140.734 Y105.611 E11.37286
G1 X141.263 Y106.559 E11.40568
G1 X141.397 Y106.832 E11.41487
G1 X141.58 Y107.225 E11.42798
G1 X141.845 Y107.874 E11.44917
G1 X141.956 Y108.176 E11.45889
G1 X142.23 Y109.037 E11.48621
G1 X142.415 Y109.857 E11.51162
G1 X142.463 Y110.119 E11.51967
G1 X142.593 Y111.088 E11.54923
G1 X142.606 Y111.24 E11.55384
G1 X142.642 Y112.243 E11.58418
G1 X142.636 Y112.701 E11.59803
G1 X142.626 Y113.038 E11.60822
G1 X142.618 Y113.202 E11.61318
G1 X142.53 Y115.896 E11.69467
G1 X142.52 Y118.395 E11.77021
G1 X142.621 Y121.925 E11.87697
G1 X142.635 Y122.215 E11.88575
G1 X142.637 Y123.124 E11.91322
G1 X142.623 Y123.455 E11.92324
G1 X142.538 Y124.408 E11.95216
G1 X142.528 Y124.481 E11.95439
G1 X142.336 Y125.495 E11.98559
G1 X142.247 Y125.863 E11.99703
G1 X141.996 Y126.73 E12.02432
G1 X141.81 Y127.238 E12.04067
G1 X141.726 Y127.449 E12.04754
G1 X141.554 Y127.854 E12.06084
G1 X141.51 Y127.952 E12.06409
G1 X141.065 Y128.828 E12.09379
G1 X140.903 Y129.112 E12.10367
G1 X140.421 Y129.876 E12.13098
G1 X139.934 Y130.521 E12.15541
G1 X139.762 Y130.731 E12.16362
G1 X138.978 Y131.585 E12.19867
G1 X138.769 Y131.788 E12.20747
G1 X138.541 Y132.002 E12.21693
G1 X138.163 Y132.347 E12.2324
G1 X136.237 Y134.158 E12.31232
G1 X134.491 Y135.895 E12.38677
G1 X132.142 Y138.389 E12.49034
G1 X131.944 Y138.607 E12.49924
G1 X131.509 Y139.057 E12.51816
G1 X131.358 Y139.204 E12.52453
G1 X130.412 Y140.018 E12.56226
G1 X130.254 Y140.138 E12.56826
G1 X129.475 Y140.675 E12.59686
G1 X129.234 Y140.825 E12.60544
G1 X128.31 Y141.335 E12.63735
G1 X128.117 Y141.429 E12.64384
G1 X127.156 Y141.838 E12.67541
G1 X126.828 Y141.958 E12.68597
G1 X125.966 Y142.23 E12.71329
G1 X125.132 Y142.417 E12.73913
G1 X124.849 Y142.468 E12.74782
G1 X123.915 Y142.592 E12.77631
G1 X123.764 Y142.605 E12.78089
G1 X122.755 Y142.642 E12.81141
G1 X122.299 Y142.636 E12.8252
G1 X121.962 Y142.626 E12.83539
G1 X121.767 Y142.617 E12.84129
G1 X119.104 Y142.53 E12.92184
G1 X116.605 Y142.52 E12.99738
G1 X113.067 Y142.622 E13.10438
G1 X112.781 Y142.635 E13.11304
G1 X111.874 Y142.637 E13.14045
G1 X111.544 Y142.623 E13.15044
G1 X110.592 Y142.538 E13.17933
G1 X110.519 Y142.528 E13.18156
G1 X109.498 Y142.335 E13.21297
G1 X109.127 Y142.245 E13.22451
G1 X108.26 Y141.993 E13.25181
G1 X107.752 Y141.806 E13.26817
G1 X107.544 Y141.723 E13.27494
G1 X107.138 Y141.551 E13.28827
G1 X107.038 Y141.506 E13.29159
