;FLAVOR:Marlin
;TIME:1547
;Filament used: 0.868268m
;Layer height: 0.2
;MINX:86.5
;MINY:101.164
;MINZ:0.2
;MAXX:148.5
;MAXY:133.836
;MAXZ:15
;Generated with Cura_SteamEngine master
M140 S60
M105
M190 S60
M104 S200
M105
M109 S200
M82 ;absolute extrusion mode
; Ender 3 Custom Start G-code
G92 E0 ; Reset Extruder
G28 ; Home all axes
G1 Z2.0 F3000 ; Move Z Axis up little to prevent scratching of Heat Bed
G1 X0.1 Y20 Z0.3 F5000.0 ; Move to start position
G1 X0.1 Y200.0 Z0.3 F1500.0 E15 ; Draw the first line
G1 X0.4 Y200.0 Z0.3 F5000.0 ; Move to side a little
G1 X0.4 Y20 Z0.3 F1500.0 E30 ; Draw the second line
G92 E0 ; Reset Extruder
G1 Z2.0 F3000 ; Move Z Axis up little to prevent scratching of Heat Bed
G1 X5 Y20 Z0.3 F5000.0 ; Move over to prevent blob squish
G92 E0
G92 E0
G1 F2400 E-4
;LAYER_COUNT:75
;LAYER:0
M107
M204 S500
G0 F7500 X90.393 Y109.612 Z0.2
M204 S550
;TYPE:SKIRT
G1 F2400 E0
G1 F1500 X91.086 Y109.07 E0.0266
G1 X92.166 Y108.293 E0.06682
G1 X94.244 Y106.753 E0.145
G1 X96.243 Y105.183 E0.22184
G1 X96.984 Y104.565 E0.25101
G1 X98.081 Y103.666 E0.29389
G1 X98.831 Y103.103 E0.32224
G1 X99.626 Y102.606 E0.35058
G1 X100.461 Y102.178 E0.37895
G1 X101.329 Y101.824 E0.40728
G1 X102.224 Y101.544 E0.43563
G1 X103.14 Y101.342 E0.46399
G1 X104.07 Y101.218 E0.49235
G1 X104.643 Y101.182 E0.50971
G1 X104.804 Y101.176 E0.51458
G1 X105.1 Y101.169 E0.52353
G1 X105.599 Y101.164 E0.53862
G1 X109.243 Y101.164 E0.64877
G1 X110.099 Y101.175 E0.67465
G1 X110.719 Y101.201 E0.69341
G1 X111.142 Y101.231 E0.70623
G1 X113.676 Y101.374 E0.78296
G1 X116.171 Y101.446 E0.85841
G1 X118.696 Y101.446 E0.93474
G1 X121.258 Y101.374 E1.01222
G1 X123.242 Y101.268 E1.07229
G1 X124.34 Y101.197 E1.10555
G1 X124.648 Y101.181 E1.11487
G1 X124.812 Y101.175 E1.11983
G1 X125.1 Y101.169 E1.12854
G1 X125.599 Y101.164 E1.14363
G1 X129.399 Y101.165 E1.2585
G1 X130.102 Y101.175 E1.27975
G1 X131.039 Y101.228 E1.30813
G1 X131.967 Y101.361 E1.33647
G1 X132.881 Y101.573 E1.36483
G1 X133.773 Y101.861 E1.39317
G1 X134.638 Y102.225 E1.42154
G1 X135.468 Y102.661 E1.44988
G1 X136.259 Y103.166 E1.47825
G1 X136.972 Y103.71 E1.50536
G1 X137.908 Y104.487 E1.54213
G1 X139.933 Y106.122 E1.62081
G1 X141.933 Y107.644 E1.69679
G1 X143.842 Y109.013 E1.7678
G1 X144.006 Y109.134 E1.77396
G1 X144.694 Y109.686 E1.80063
G1 X145.376 Y110.33 E1.82898
G1 X146.001 Y111.03 E1.85735
G1 X146.563 Y111.78 E1.88569
G1 X147.06 Y112.576 E1.91405
G1 X147.487 Y113.411 E1.9424
G1 X147.842 Y114.279 E1.97075
G1 X148.121 Y115.174 E1.99909
G1 X148.323 Y116.09 E2.02745
G1 X148.446 Y117.02 E2.05581
G1 X148.485 Y117.66 E2.07519
G1 X148.495 Y117.984 E2.08499
G1 X148.5 Y118.323 E2.09524
G1 X148.499 Y122.236 E2.21353
G1 X148.49 Y122.963 E2.23551
G1 X148.439 Y123.9 E2.26388
G1 X148.307 Y124.828 E2.29221
G1 X148.098 Y125.742 E2.32056
G1 X147.811 Y126.635 E2.34891
G1 X147.449 Y127.501 E2.37729
G1 X147.015 Y128.332 E2.40563
G1 X146.511 Y129.123 E2.43398
G1 X145.942 Y129.868 E2.46232
G1 X145.311 Y130.563 E2.4907
G1 X144.624 Y131.201 E2.51904
G1 X143.885 Y131.778 E2.54738
G1 X143.099 Y132.29 E2.57574
G1 X142.273 Y132.733 E2.60408
G1 X141.411 Y133.105 E2.63246
G1 X140.522 Y133.401 E2.66078
G1 X139.61 Y133.621 E2.68914
G1 X138.683 Y133.762 E2.71749
G1 X137.799 Y133.823 E2.74428
G1 X137.478 Y133.832 E2.75398
G1 X137.17 Y133.836 E2.76329
G1 X98.065 Y133.835 E3.94544
G1 X97.367 Y133.826 E3.96655
G1 X96.431 Y133.774 E3.99489
G1 X95.502 Y133.642 E4.02325
G1 X94.588 Y133.432 E4.0516
G1 X93.695 Y133.145 E4.07996
G1 X92.83 Y132.782 E4.10832
G1 X91.999 Y132.348 E4.13666
G1 X91.208 Y131.844 E4.16501
G1 X90.463 Y131.274 E4.19337
G1 X89.769 Y130.643 E4.22172
G1 X89.132 Y129.956 E4.25004
G1 X88.555 Y129.216 E4.27841
G1 X88.043 Y128.43 E4.30677
G1 X87.6 Y127.603 E4.33513
G1 X87.229 Y126.742 E4.36347
G1 X86.933 Y125.852 E4.39183
G1 X86.714 Y124.94 E4.42018
G1 X86.573 Y124.013 E4.44852
G1 X86.513 Y123.124 E4.47546
G1 X86.504 Y122.791 E4.48553
G1 X86.5 Y122.494 E4.49451
G1 X86.501 Y118.543 E4.61395
G1 X86.511 Y117.842 E4.63514
G1 X86.564 Y116.906 E4.66348
G1 X86.697 Y115.977 E4.69185
G1 X86.909 Y115.064 E4.72019
G1 X87.197 Y114.171 E4.74855
G1 X87.561 Y113.307 E4.77689
G1 X87.997 Y112.476 E4.80526
G1 X88.502 Y111.686 E4.83361
G1 X89.072 Y110.942 E4.86194
G1 X89.704 Y110.249 E4.89029
G1 X90.393 Y109.612 E4.91866
M204 S500
G0 F7500 X90.781 Y109.808
M204 S550
G1 F1500 X91.32 Y109.394 E4.93921
G1 X92.399 Y108.618 E4.97938
G1 X94.506 Y107.056 E5.05867
G1 X96.48 Y105.506 E5.13454
G1 X97.237 Y104.874 E5.16436
G1 X98.334 Y103.975 E5.20723
G1 X99.071 Y103.423 E5.23507
G1 X99.853 Y102.937 E5.2629
G1 X100.674 Y102.521 E5.29072
G1 X101.528 Y102.177 E5.31856
G1 X102.409 Y101.909 E5.34639
G1 X103.309 Y101.718 E5.37421
G1 X104.658 Y101.581 E5.4152
G1 X104.819 Y101.575 E5.42007
G1 X105.104 Y101.569 E5.42869
G1 X105.599 Y101.564 E5.44365
G1 X109.243 Y101.564 E5.55381
G1 X110.094 Y101.575 E5.57954
G1 X110.69 Y101.6 E5.59757
G1 X111.084 Y101.628 E5.60951
G1 X113.643 Y101.773 E5.68699
G1 X116.195 Y101.846 E5.76417
G1 X118.707 Y101.846 E5.84011
G1 X121.251 Y101.775 E5.91705
G1 X123.292 Y101.665 E5.97884
G1 X124.366 Y101.596 E6.01137
G1 X124.662 Y101.581 E6.02033
G1 X124.826 Y101.575 E6.02529
G1 X125.104 Y101.569 E6.0337
G1 X125.599 Y101.564 E6.04866
G1 X129.394 Y101.565 E6.16338
G1 X130.097 Y101.575 E6.18464
G1 X131.016 Y101.628 E6.21247
G1 X131.927 Y101.761 E6.2403
G1 X132.823 Y101.972 E6.26812
G1 X133.697 Y102.26 E6.29594
G1 X134.544 Y102.623 E6.3238
G1 X135.355 Y103.058 E6.35162
G1 X136.126 Y103.562 E6.37947
G1 X136.717 Y104.018 E6.40203
G1 X137.643 Y104.787 E6.43842
G1 X139.707 Y106.453 E6.5186
G1 X141.681 Y107.955 E6.59359
G1 X143.604 Y109.335 E6.66514
G1 X143.768 Y109.456 E6.6713
G1 X144.432 Y109.989 E6.69704
G1 X145.101 Y110.621 E6.72486
G1 X145.713 Y111.31 E6.75272
G1 X146.262 Y112.048 E6.78053
G1 X146.745 Y112.832 E6.80837
G1 X147.159 Y113.654 E6.83619
G1 X147.499 Y114.51 E6.86403
G1 X147.764 Y115.392 E6.89187
G1 X147.952 Y116.293 E6.9197
G1 X148.06 Y117.207 E6.94752
G1 X148.085 Y117.672 E6.9616
G1 X148.095 Y117.996 E6.9714
G1 X148.1 Y118.323 E6.98128
G1 X148.099 Y122.231 E7.09942
G1 X148.09 Y122.958 E7.1214
G1 X148.039 Y123.877 E7.14922
G1 X147.908 Y124.789 E7.17708
G1 X147.698 Y125.685 E7.2049
G1 X147.412 Y126.56 E7.23273
G1 X147.051 Y127.407 E7.26056
G1 X146.617 Y128.219 E7.28839
G1 X146.115 Y128.991 E7.31623
G1 X145.547 Y129.716 E7.34407
G1 X144.919 Y130.389 E7.3719
G1 X144.235 Y131.005 E7.39973
G1 X143.5 Y131.559 E7.42755
G1 X142.72 Y132.048 E7.45538
G1 X141.9 Y132.467 E7.48322
G1 X141.047 Y132.813 E7.51104
G1 X140.167 Y133.084 E7.53888
G1 X139.267 Y133.277 E7.56671
G1 X138.353 Y133.392 E7.59455
G1 X137.788 Y133.423 E7.61166
G1 X137.467 Y133.432 E7.62137
G1 X137.17 Y133.436 E7.63035
G1 X98.07 Y133.435 E8.81234
G1 X97.372 Y133.426 E8.83345
G1 X96.453 Y133.374 E8.86127
G1 X95.542 Y133.243 E8.8891
G1 X94.646 Y133.033 E8.91692
G1 X93.771 Y132.746 E8.94475
G1 X92.924 Y132.384 E8.9726
G1 X92.112 Y131.95 E9.00043
G1 X91.341 Y131.448 E9.02824
G1 X90.616 Y130.88 E9.05609
G1 X89.943 Y130.251 E9.08393
G1 X89.328 Y129.567 E9.11174
G1 X88.774 Y128.832 E9.13956
G1 X88.286 Y128.051 E9.1674
G1 X87.867 Y127.231 E9.19524
G1 X87.521 Y126.378 E9.22307
G1 X87.251 Y125.498 E9.2509
G1 X87.058 Y124.597 E9.27875
G1 X86.944 Y123.684 E9.30656
G1 X86.913 Y123.113 E9.32385
G1 X86.904 Y122.78 E9.33392
G1 X86.9 Y122.494 E9.34257
G1 X86.901 Y118.549 E9.46183
G1 X86.911 Y117.848 E9.48302
G1 X86.964 Y116.929 E9.51085
G1 X87.097 Y116.018 E9.53868
G1 X87.308 Y115.122 E9.56651
G1 X87.596 Y114.247 E9.59435
G1 X87.959 Y113.401 E9.62218
G1 X88.394 Y112.59 E9.65
G1 X88.898 Y111.819 E9.67785
G1 X89.467 Y111.095 E9.70569
G1 X90.096 Y110.423 E9.73351
G1 X90.781 Y109.808 E9.76134
M204 S500
G0 F7500 X91.169 Y110.009
M204 S550
G1 F1500 X91.553 Y109.719 E9.77589
G1 X92.664 Y108.92 E9.81726
G1 X94.723 Y107.393 E9.89475
G1 X96.738 Y105.812 E9.97218
G1 X97.491 Y105.184 E10.00182
G1 X98.588 Y104.285 E10.04469
G1 X99.311 Y103.744 E10.07199
G1 X100.079 Y103.269 E10.09929
G1 X100.886 Y102.864 E10.12658
G1 X101.726 Y102.532 E10.15389
G1 X102.592 Y102.275 E10.1812
G1 X103.477 Y102.096 E10.20849
G1 X104.673 Y101.981 E10.24481
G1 X104.834 Y101.975 E10.24968
G1 X105.108 Y101.969 E10.25797
G1 X105.599 Y101.964 E10.27281
G1 X109.243 Y101.964 E10.38297
G1 X110.088 Y101.975 E10.40852
G1 X110.662 Y101.999 E10.42589
G1 X111.036 Y102.025 E10.43722
G1 X113.644 Y102.173 E10.51619
G1 X116.183 Y102.246 E10.59297
G1 X118.718 Y102.246 E10.66961
G1 X121.285 Y102.174 E10.74724
G1 X123.247 Y102.069 E10.80663
G1 X124.392 Y101.995 E10.84132
G1 X124.841 Y101.975 E10.85491
G1 X125.108 Y101.969 E10.86298
G1 X125.599 Y101.964 E10.87782
G1 X129.388 Y101.965 E10.99236
G1 X130.091 Y101.975 E11.01362
G1 X130.993 Y102.028 E11.04093
G1 X131.886 Y102.16 E11.06822
G1 X132.764 Y102.371 E11.09552
G1 X133.62 Y102.659 E11.12282
G1 X134.447 Y103.021 E11.15011
G1 X135.239 Y103.455 E11.17741
G1 X135.99 Y103.957 E11.20472
G1 X136.461 Y104.326 E11.22281
G1 X137.421 Y105.123 E11.26053
G1 X139.42 Y106.737 E11.3382
G1 X141.451 Y108.282 E11.41534
G1 X143.367 Y109.657 E11.48663
G1 X143.531 Y109.778 E11.49279
G1 X144.17 Y110.291 E11.51757
G1 X144.826 Y110.912 E11.54487
G1 X145.424 Y111.589 E11.57218
G1 X145.96 Y112.316 E11.59948
G1 X146.429 Y113.087 E11.62677
G1 X146.829 Y113.897 E11.65407
G1 X147.155 Y114.739 E11.68137
G1 X147.406 Y115.607 E11.70868
G1 X147.578 Y116.493 E11.73597
G1 X147.685 Y117.684 E11.77212
G1 X147.695 Y118.008 E11.78192
G1 X147.7 Y118.323 E11.79144
G1 X147.699 Y122.226 E11.90943
G1 X147.69 Y122.953 E11.93141
G1 X147.639 Y123.855 E11.95872
G1 X147.508 Y124.749 E11.98603
G1 X147.299 Y125.627 E12.01332
G1 X147.013 Y126.484 E12.04063
G1 X146.652 Y127.312 E12.06793
G1 X146.22 Y128.104 E12.09521
G1 X145.719 Y128.856 E12.12252
G1 X145.153 Y129.56 E12.14983
G1 X144.528 Y130.211 E12.17711
G1 X143.847 Y130.805 E12.20443
G1 X143.116 Y131.336 E12.23174
G1 X142.342 Y131.8 E12.25902
G1 X141.529 Y132.194 E12.28633
G1 X140.685 Y132.514 E12.31362
G1 X139.815 Y132.759 E12.34094
G1 X138.928 Y132.925 E12.36822
G1 X137.777 Y133.023 E12.40314
G1 X137.456 Y133.032 E12.41285
G1 X137.17 Y133.036 E12.4215
G1 X98.075 Y133.035 E13.60335
G1 X97.377 Y133.026 E13.62445
G1 X96.476 Y132.975 E13.65173
G1 X95.582 Y132.843 E13.67905
G1 X94.704 Y132.634 E13.70633
G1 X93.847 Y132.347 E13.73365
G1 X93.02 Y131.986 E13.76093
G1 X92.227 Y131.553 E13.78824
G1 X91.476 Y131.052 E13.81554
G1 X90.772 Y130.486 E13.84284
G1 X90.121 Y129.86 E13.87015
G1 X89.528 Y129.179 E13.89744
G1 X88.998 Y128.448 E13.92474
G1 X88.534 Y127.673 E13.95204
G1 X88.14 Y126.86 E13.97936
G1 X87.82 Y126.016 E14.00664
G1 X87.576 Y125.146 E14.03396
G1 X87.41 Y124.258 E14.06127
G1 X87.313 Y123.103 E14.09631
G1 X87.304 Y122.77 E14.10638
G1 X87.3 Y122.494 E14.11472
G1 X87.301 Y118.555 E14.2338
G1 X87.311 Y117.854 E14.25499
G1 X87.364 Y116.952 E14.2823
G1 X87.496 Y116.059 E14.30959
G1 X87.707 Y115.18 E14.33692
G1 X87.995 Y114.324 E14.36422
G1 X88.357 Y113.497 E14.39151
G1 X88.791 Y112.705 E14.41881
G1 X89.294 Y111.955 E14.44611
G1 X89.861 Y111.252 E14.47342
G1 X90.487 Y110.602 E14.5007
G1 X91.169 Y110.009 E14.52802
M204 S500
G1 F2400 E10.52802
;MESH:Ender_3_Scraper_Holder.stl
G0 F7500 X101.621 Y114.748
G0 X102.64 Y115.164
G0 X105.37 Y112.938
G0 X109.63 Y112.938
G0 X111.759 Y115.098
G0 X108.846 Y115.111
G0 X109.192 Y117.424
G0 X110.197 Y118.429
G0 X124.943 Y118.767
G0 X126.146 Y117.564
G0 X126.154 Y115.111
G0 X123.241 Y115.098
G0 X125.37 Y112.938
G0 X129.63 Y112.938
G0 X131.759 Y115.098
G0 X128.846 Y115.111
G0 X128.854 Y117.564
G0 X130.057 Y118.767
G0 X136.718 Y118.775
G0 X136.9 Y122.236
M204 S550
;TYPE:WALL-INNER
G1 F2400 E14.52802
G1 F1500 X98.1 Y122.236 E15.70095
G1 X98.1 Y118.593 E15.81108
G1 X104.871 Y118.593 E16.01576
G1 X105.972 Y117.492 E16.06283
G1 X105.972 Y115.293 E16.12931
G1 X103.24 Y115.293 E16.2119
G1 X102.822 Y115.293 E16.22454
G1 X102.822 Y115.241 E16.22611
G1 X103.117 Y114.946 E16.23365
G1 X105.298 Y112.764 E16.32691
G1 X109.702 Y112.764 E16.46005
G1 X111.883 Y114.946 E16.55331
G1 X112.178 Y115.241 E16.56592
G1 X112.178 Y115.293 E16.56749
G1 X111.76 Y115.293 E16.57506
G1 X109.028 Y115.293 E16.65765
G1 X109.028 Y117.492 E16.72413
G1 X110.129 Y118.593 E16.7712
G1 X124.871 Y118.593 E17.21685
G1 X125.972 Y117.492 E17.26392
G1 X125.972 Y115.293 E17.33039
G1 X123.24 Y115.293 E17.41298
G1 X122.822 Y115.293 E17.42562
G1 X122.822 Y115.241 E17.42719
G1 X123.117 Y114.946 E17.43473
G1 X125.298 Y112.764 E17.528
G1 X129.702 Y112.764 E17.66113
G1 X131.883 Y114.946 E17.75439
G1 X132.178 Y115.241 E17.76701
G1 X132.178 Y115.293 E17.76858
G1 X131.76 Y115.293 E17.77615
G1 X129.028 Y115.293 E17.85873
G1 X129.028 Y117.492 E17.92521
G1 X130.129 Y118.593 E17.97228
G1 X136.9 Y118.593 E18.17697
G1 X136.9 Y122.236 E18.2871
M204 S500
G0 F7500 X137.3 Y122.636
M204 S550
;TYPE:WALL-OUTER
G1 F1500 X97.7 Y122.636 E19.48421
G1 X97.7 Y118.193 E19.61852
G1 X104.705 Y118.193 E19.83029
G1 X105.572 Y117.326 E19.86735
G1 X105.572 Y115.693 E19.91672
G1 X102.422 Y115.693 E20.01194
G1 X102.422 Y115.075 E20.03062
G1 X105.132 Y112.364 E20.1465
G1 X109.868 Y112.364 E20.28967
G1 X112.578 Y115.075 E20.40555
G1 X112.578 Y115.693 E20.42423
G1 X109.428 Y115.693 E20.51946
G1 X109.428 Y117.326 E20.56882
G1 X110.295 Y118.193 E20.60589
G1 X124.705 Y118.193 E21.04151
G1 X125.572 Y117.326 E21.07857
G1 X125.572 Y115.693 E21.12794
G1 X122.422 Y115.693 E21.22316
G1 X122.422 Y115.075 E21.24185
G1 X125.132 Y112.364 E21.35772
G1 X129.868 Y112.364 E21.50089
G1 X132.578 Y115.075 E21.61677
G1 X132.578 Y115.693 E21.63546
G1 X129.428 Y115.693 E21.73068
G1 X129.428 Y117.326 E21.78005
G1 X130.295 Y118.193 E21.81711
G1 X137.3 Y118.193 E22.02887
G1 X137.3 Y122.636 E22.16319
M204 S500
G0 F7500 X137.03 Y122.366
G0 X136.79 Y121.846
G0 X136.51 Y121.846
M204 S550
;TYPE:SKIN
G1 F1500 X98.49 Y121.846 E23.31254
G1 X98.49 Y118.983 E23.39909
G1 X105.033 Y118.983 E23.59688
G1 X106.362 Y117.654 E23.6537
G1 X106.362 Y114.903 E23.73686
G1 X103.71 Y114.903 E23.81703
G1 X105.458 Y113.154 E23.89178
G1 X109.542 Y113.154 E24.01524
G1 X111.29 Y114.903 E24.09
G1 X108.638 Y114.903 E24.17017
G1 X108.638 Y117.654 E24.25333
G1 X109.967 Y118.983 E24.31015
G1 X125.033 Y118.983 E24.76559
G1 X126.362 Y117.654 E24.82241
G1 X126.362 Y114.903 E24.90557
G1 X123.71 Y114.903 E24.98574
G1 X125.458 Y113.154 E25.0605
G1 X129.542 Y113.154 E25.18396
G1 X131.29 Y114.903 E25.25871
G1 X128.638 Y114.903 E25.33888
G1 X128.638 Y117.654 E25.42204
G1 X129.967 Y118.983 E25.47886
G1 X136.51 Y118.983 E25.67665
G1 X136.51 Y121.846 E25.7632
M204 S500
G0 F7500 X136.79 Y121.846
G0 X136.79 Y119.379
G0 X136.349 Y119.379
M204 S550
G1 F1500 X136.113 Y119.142 E25.77331
M204 S500
G0 F7500 X135.547 Y119.142
M204 S550
G1 F1500 X136.349 Y119.945 E25.80762
M204 S500
G0 F7500 X136.349 Y120.51
M204 S550
G1 F1500 X134.981 Y119.142 E25.86611
M204 S500
G0 F7500 X134.416 Y119.142
M204 S550
G1 F1500 X136.349 Y121.076 E25.94877
M204 S500
G0 F7500 X136.349 Y121.642
M204 S550
G1 F1500 X133.85 Y119.142 E26.05563
M204 S500
G0 F7500 X133.284 Y119.142
M204 S550
G1 F1500 X135.827 Y121.685 E26.16434
M204 S500
G0 F7500 X135.261 Y121.685
M204 S550
G1 F1500 X132.718 Y119.142 E26.27306
M204 S500
G0 F7500 X132.153 Y119.142
M204 S550
G1 F1500 X134.696 Y121.685 E26.38178
M204 S500
G0 F7500 X134.13 Y121.685
M204 S550
G1 F1500 X131.587 Y119.142 E26.4905
M204 S500
G0 F7500 X131.021 Y119.142
M204 S550
G1 F1500 X133.564 Y121.685 E26.59922
M204 S500
G0 F7500 X132.999 Y121.685
M204 S550
G1 F1500 X130.456 Y119.142 E26.70793
M204 S500
G0 F7500 X130.456 Y118.703
G0 X136.718 Y118.775
G0 X136.718 Y122.054
G0 X130.736 Y122.126
G0 X130.736 Y121.685
M204 S550
G1 F1500 X126.521 Y117.47 E26.88813
M204 S500
G0 F7500 X126.363 Y117.878
M204 S550
G1 F1500 X130.17 Y121.685 E27.05089
M204 S500
G0 F7500 X129.604 Y121.685
M204 S550
G1 F1500 X126.08 Y118.161 E27.20155
M204 S500
G0 F7500 X125.797 Y118.443
M204 S550
G1 F1500 X129.039 Y121.685 E27.34015
M204 S500
G0 F7500 X128.473 Y121.685
M204 S550
G1 F1500 X125.514 Y118.726 E27.46665
M204 S500
G0 F7500 X125.232 Y119.009
M204 S550
G1 F1500 X127.907 Y121.685 E27.58103
M204 S500
