;FLAVOR:Marlin
;TIME:6187
;Filament used: 4.6366m
;Layer height: 0.2
;MINX:54.538
;MINY:97.658
;MINZ:0.2
;MAXX:180.43
;MAXY:137.332
;MAXZ:24
;Generated with Cura_SteamEngine master
M140 S60
M105
M190 S60
M104 S200
M105
M109 S200
M82 ;absolute extrusion mode
; Ender 3 Custom Start G-code
G92 E0 ; Reset Extruder
G28 ; Home all axes
G1 Z2.0 F3000 ; Move Z Axis up little to prevent scratching of Heat Bed
G1 X0.1 Y20 Z0.3 F5000.0 ; Move to start position
G1 X0.1 Y200.0 Z0.3 F1500.0 E15 ; Draw the first line
G1 X0.4 Y200.0 Z0.3 F5000.0 ; Move to side a little
G1 X0.4 Y20 Z0.3 F1500.0 E30 ; Draw the second line
G92 E0 ; Reset Extruder
G1 Z2.0 F3000 ; Move Z Axis up little to prevent scratching of Heat Bed
G1 X5 Y20 Z0.3 F5000.0 ; Move over to prevent blob squish
G92 E0
G92 E0
G1 F2400 E-4
;LAYER_COUNT:120
;LAYER:0
M107
M204 S500
G0 F7500 X67.154 Y99.727 Z0.2
M204 S550
;TYPE:SKIRT
G1 F2400 E0
G1 F1500 X67.695 Y99.407 E0.019
G1 X67.979 Y99.25 E0.02881
G1 X68.818 Y98.832 E0.05715
G1 X69.69 Y98.486 E0.08551
G1 X70.418 Y98.262 E0.10853
G1 X71.332 Y98.054 E0.13687
G1 X72.598 Y97.897 E0.17543
G1 X72.921 Y97.876 E0.18522
G1 X73.368 Y97.856 E0.19875
G1 X73.652 Y97.85 E0.20733
G1 X73.945 Y97.848 E0.21619
G1 X74.282 Y97.851 E0.22638
G1 X74.576 Y97.858 E0.23527
G1 X75.512 Y97.92 E0.26363
G1 X76.087 Y97.999 E0.28117
G1 X76.583 Y98.08 E0.29636
G1 X79.192 Y98.469 E0.37611
G1 X81.669 Y98.767 E0.45153
G1 X84.193 Y98.999 E0.52815
G1 X86.713 Y99.159 E0.60448
G1 X89.233 Y99.246 E0.68071
G1 X91.08 Y99.266 E0.73655
G1 X104.426 Y99.267 E1.14
G1 X106.057 Y99.265 E1.1893
G1 X143.361 Y99.266 E2.31701
G1 X145.969 Y99.229 E2.39586
G1 X148.491 Y99.122 E2.47217
G1 X150.986 Y98.945 E2.54778
G1 X153.485 Y98.697 E2.6237
G1 X155.997 Y98.376 E2.70025
G1 X158.476 Y97.987 E2.77611
G1 X158.993 Y97.894 E2.79199
G1 X159.582 Y97.798 E2.81003
G1 X160.513 Y97.689 E2.83837
G1 X161.225 Y97.659 E2.85991
G1 X161.336 Y97.658 E2.86326
G1 X162.23 Y97.687 E2.8903
G1 X162.437 Y97.702 E2.89658
G1 X163.369 Y97.809 E2.92494
G1 X164.288 Y97.996 E2.95329
G1 X165.188 Y98.26 E2.98164
G1 X165.727 Y98.46 E2.99902
G1 X165.847 Y98.508 E3.00293
G1 X166.754 Y98.919 E3.03303
G1 X166.968 Y99.028 E3.04029
G1 X167.785 Y99.489 E3.06865
G1 X168.56 Y100.018 E3.09702
G1 X169.392 Y100.706 E3.12965
G1 X171.284 Y102.433 E3.20709
G1 X173.185 Y104.075 E3.28303
G1 X174.946 Y105.499 E3.35149
G1 X176.021 Y106.377 E3.39345
G1 X176.722 Y107.001 E3.42182
G1 X177.366 Y107.682 E3.45016
G1 X177.951 Y108.416 E3.47853
G1 X178.471 Y109.196 E3.50687
G1 X178.922 Y110.019 E3.53524
G1 X179.302 Y110.876 E3.56358
G1 X179.684 Y112.034 E3.60044
G1 X179.87 Y112.727 E3.62213
G1 X179.934 Y112.979 E3.62999
G1 X180.085 Y113.669 E3.65134
G1 X180.127 Y113.894 E3.65826
G1 X180.23 Y114.559 E3.67861
G1 X180.335 Y115.406 E3.70441
G1 X180.409 Y116.301 E3.73156
G1 X180.423 Y116.706 E3.74381
G1 X180.43 Y117.217 E3.75926
G1 X180.43 Y117.626 E3.77162
G1 X180.422 Y118.38 E3.79441
G1 X180.372 Y119.316 E3.82275
G1 X180.301 Y119.895 E3.84038
G1 X180.175 Y120.731 E3.86594
G1 X180.064 Y121.426 E3.88722
G1 X179.877 Y122.345 E3.91557
G1 X179.547 Y123.43 E3.94985
G1 X179.517 Y123.513 E3.95252
G1 X179.349 Y123.948 E3.96662
G1 X179.187 Y124.343 E3.97952
G1 X178.795 Y125.195 E4.00787
G1 X178.331 Y126.01 E4.03623
G1 X177.8 Y126.783 E4.06458
G1 X177.007 Y127.722 E4.10173
G1 X176.973 Y127.758 E4.10323
G1 X176.301 Y128.412 E4.13157
G1 X175.934 Y128.725 E4.14616
G1 X175.432 Y129.135 E4.16575
G1 X174.195 Y130.116 E4.21348
G1 X172.269 Y131.736 E4.28956
G1 X170.379 Y133.418 E4.36604
G1 X169.834 Y133.923 E4.3885
G1 X169.423 Y134.294 E4.40524
G1 X168.7 Y134.893 E4.43362
G1 X167.93 Y135.427 E4.46195
G1 X167.142 Y135.88 E4.48943
G1 X166.96 Y135.975 E4.49563
G1 X166.601 Y136.155 E4.50777
G1 X166.41 Y136.246 E4.51417
G1 X165.547 Y136.612 E4.54251
G1 X164.656 Y136.905 E4.57086
G1 X163.743 Y137.12 E4.59922
G1 X163.218 Y137.207 E4.6153
G1 X161.964 Y137.317 E4.65336
G1 X161.468 Y137.332 E4.66836
G1 X160.53 Y137.32 E4.69672
G1 X159.216 Y137.168 E4.7367
G1 X158.978 Y137.126 E4.74401
G1 X156.379 Y136.701 E4.82362
G1 X153.909 Y136.37 E4.89896
G1 X151.414 Y136.106 E4.9748
G1 X148.87 Y135.911 E5.05193
G1 X146.381 Y135.79 E5.12727
G1 X143.241 Y135.736 E5.2222
G1 X91.233 Y135.735 E6.79441
G1 X88.625 Y135.772 E6.87326
G1 X86.103 Y135.879 E6.94957
G1 X83.608 Y136.056 E7.02518
G1 X81.11 Y136.304 E7.10107
G1 X78.599 Y136.625 E7.17759
G1 X77.024 Y136.863 E7.22575
G1 X76.102 Y137.011 E7.25398
G1 X74.716 Y137.144 E7.29607
G1 X74.472 Y137.152 E7.30345
G1 X74.035 Y137.158 E7.31666
G1 X73.749 Y137.156 E7.32531
G1 X73.434 Y137.149 E7.33483
G1 X72.957 Y137.132 E7.34926
G1 X72.022 Y137.059 E7.37761
G1 X71.097 Y136.906 E7.40595
G1 X70.178 Y136.672 E7.43462
G1 X69.292 Y136.365 E7.46297
G1 X68.355 Y135.942 E7.49405
G1 X68.05 Y135.787 E7.50439
G1 X67.233 Y135.327 E7.53273
G1 X66.458 Y134.799 E7.56108
G1 X66.075 Y134.5 E7.57577
G1 X65.873 Y134.335 E7.58365
G1 X65.576 Y134.083 E7.59543
G1 X63.577 Y132.328 E7.67584
G1 X61.659 Y130.738 E7.75116
G1 X60.41 Y129.77 E7.79893
G1 X59.267 Y128.866 E7.84298
G1 X58.885 Y128.549 E7.85799
G1 X58.742 Y128.425 E7.86371
G1 X58.06 Y127.781 E7.89206
G1 X57.435 Y127.081 E7.92043
G1 X56.873 Y126.33 E7.94879
G1 X56.376 Y125.535 E7.97713
G1 X55.949 Y124.7 E8.00548
G1 X55.595 Y123.831 E8.03385
G1 X55.409 Y123.265 E8.05186
G1 X55.325 Y122.984 E8.06073
G1 X55.201 Y122.534 E8.07484
G1 X55.049 Y121.934 E8.09355
G1 X54.829 Y120.832 E8.12752
G1 X54.672 Y119.753 E8.16048
G1 X54.633 Y119.447 E8.1698
G1 X54.546 Y118.217 E8.20708
G1 X54.538 Y117.67 E8.22362
G1 X54.538 Y117.333 E8.23381
G1 X54.547 Y116.771 E8.2508
G1 X54.635 Y115.547 E8.28789
G1 X54.717 Y114.908 E8.30737
G1 X54.812 Y114.249 E8.3275
G1 X55.066 Y113.009 E8.36576
G1 X55.223 Y112.42 E8.38419
G1 X55.283 Y112.206 E8.39091
G1 X55.575 Y111.315 E8.41925
G1 X55.941 Y110.452 E8.44759
G1 X56.38 Y109.623 E8.47595
G1 X56.887 Y108.834 E8.5043
G1 X57.46 Y108.091 E8.53266
G1 X58.094 Y107.4 E8.56101
G1 X58.594 Y106.931 E8.58174
G1 X58.917 Y106.648 E8.59472
G1 X59.011 Y106.568 E8.59845
G1 X59.305 Y106.327 E8.60994
G1 X59.702 Y106.013 E8.62524
G1 X61.748 Y104.34 E8.70514
G1 X63.622 Y102.718 E8.78006
G1 X64.91 Y101.531 E8.83301
G1 X65.659 Y100.857 E8.86347
G1 X66.382 Y100.26 E8.89182
G1 X67.154 Y99.727 E8.92018
M204 S500
G0 F7500 X67.396 Y100.047
M204 S550
G1 F1500 X67.889 Y99.757 E8.93747
G1 X68.173 Y99.6 E8.94728
G1 X68.997 Y99.19 E8.9751
G1 X69.854 Y98.853 E9.00294
G1 X70.523 Y98.648 E9.02409
G1 X71.421 Y98.444 E9.05193
G1 X72.624 Y98.296 E9.08857
G1 X72.947 Y98.275 E9.09836
G1 X73.382 Y98.256 E9.11152
G1 X73.655 Y98.25 E9.11977
G1 X73.948 Y98.248 E9.12863
G1 X74.272 Y98.251 E9.13843
G1 X74.566 Y98.258 E9.14732
G1 X75.485 Y98.32 E9.17516
G1 X76.023 Y98.394 E9.19158
G1 X76.536 Y98.478 E9.20729
G1 X79.122 Y98.863 E9.28633
G1 X81.656 Y99.168 E9.36349
G1 X84.129 Y99.396 E9.43856
G1 X86.675 Y99.557 E9.51568
G1 X89.256 Y99.647 E9.59375
G1 X91.076 Y99.666 E9.64877
G1 X104.427 Y99.667 E10.05238
G1 X106.057 Y99.665 E10.10165
G1 X143.367 Y99.666 E11.22954
G1 X145.991 Y99.629 E11.30887
G1 X148.5 Y99.522 E11.38479
G1 X151.021 Y99.344 E11.46119
G1 X153.539 Y99.094 E11.53768
G1 X156.039 Y98.774 E11.61387
G1 X158.564 Y98.378 E11.69114
G1 X159.064 Y98.288 E11.70649
G1 X159.645 Y98.193 E11.72429
G1 X160.559 Y98.087 E11.75211
G1 X161.229 Y98.059 E11.77238
G1 X161.34 Y98.058 E11.77573
G1 X162.201 Y98.086 E11.80178
G1 X162.408 Y98.101 E11.80805
G1 X163.323 Y98.207 E11.8359
G1 X164.224 Y98.392 E11.8637
G1 X165.107 Y98.655 E11.89155
G1 X165.579 Y98.831 E11.90678
G1 X165.699 Y98.879 E11.91069
G1 X166.573 Y99.276 E11.93971
G1 X166.787 Y99.385 E11.94697
G1 X167.588 Y99.838 E11.97479
G1 X168.348 Y100.359 E12.00264
G1 X169.123 Y101.002 E12.03308
G1 X171.034 Y102.747 E12.11131
G1 X172.922 Y104.377 E12.18672
G1 X174.693 Y105.809 E12.25557
G1 X175.768 Y106.687 E12.29753
G1 X176.455 Y107.3 E12.32536
G1 X177.087 Y107.97 E12.3532
G1 X177.657 Y108.693 E12.38103
G1 X178.163 Y109.462 E12.40886
G1 X178.601 Y110.272 E12.4367
G1 X178.966 Y111.117 E12.46453
G1 X179.298 Y112.139 E12.49701
G1 X179.482 Y112.826 E12.51851
G1 X179.546 Y113.078 E12.52637
G1 X179.692 Y113.742 E12.54692
G1 X179.734 Y113.967 E12.55384
G1 X179.833 Y114.608 E12.57345
G1 X179.938 Y115.455 E12.59925
G1 X180.01 Y116.318 E12.62543
G1 X180.023 Y116.713 E12.63738
G1 X180.03 Y117.218 E12.65264
G1 X180.03 Y117.621 E12.66483
G1 X180.022 Y118.375 E12.68762
G1 X179.973 Y119.295 E12.71547
G1 X179.906 Y119.836 E12.73195
G1 X179.78 Y120.668 E12.75739
G1 X179.669 Y121.363 E12.77867
G1 X179.485 Y122.265 E12.8065
G1 X179.171 Y123.294 E12.83902
G1 X179.141 Y123.377 E12.84169
G1 X178.979 Y123.796 E12.85527
G1 X178.817 Y124.191 E12.86817
G1 X178.431 Y125.027 E12.89601
G1 X177.974 Y125.826 E12.92383
G1 X177.449 Y126.583 E12.95168
G1 X176.716 Y127.447 E12.98594
G1 X176.682 Y127.483 E12.98743
G1 X175.681 Y128.415 E13.02878
G1 X175.06 Y128.921 E13.05299
G1 X173.935 Y129.813 E13.0964
G1 X172.012 Y131.43 E13.17235
G1 X170.076 Y133.153 E13.2507
G1 X169.566 Y133.626 E13.27172
G1 X169.155 Y133.997 E13.28846
G1 X168.445 Y134.584 E13.31631
G1 X167.687 Y135.107 E13.34415
G1 X166.957 Y135.526 E13.3696
G1 X166.775 Y135.621 E13.3758
G1 X166.429 Y135.793 E13.38748
G1 X166.238 Y135.884 E13.39388
G1 X165.391 Y136.244 E13.4217
G1 X164.515 Y136.529 E13.44955
G1 X163.209 Y136.804 E13.48989
G1 X163.161 Y136.811 E13.49136
G1 X161.951 Y136.917 E13.52808
G1 X161.455 Y136.932 E13.54308
G1 X160.535 Y136.92 E13.57089
G1 X159.286 Y136.774 E13.60891
G1 X159.035 Y136.729 E13.61662
G1 X156.465 Y136.31 E13.69533
G1 X153.933 Y135.97 E13.77256
G1 X151.451 Y135.708 E13.84801
G1 X148.919 Y135.513 E13.92478
G1 X146.376 Y135.39 E14.00175
G1 X143.248 Y135.336 E14.09632
G1 X91.227 Y135.335 E15.66892
G1 X88.602 Y135.372 E15.74828
G1 X86.094 Y135.479 E15.82417
G1 X83.577 Y135.657 E15.90045
G1 X81.053 Y135.907 E15.97712
G1 X78.532 Y136.23 E16.05396
G1 X77.001 Y136.461 E16.10076
G1 X76.038 Y136.616 E16.13025
G1 X74.703 Y136.744 E16.17079
G1 X74.459 Y136.752 E16.17817
G1 X74.038 Y136.758 E16.1909
G1 X73.752 Y136.756 E16.19955
G1 X73.448 Y136.749 E16.20874
G1 X72.971 Y136.732 E16.22317
G1 X72.054 Y136.66 E16.25097
G1 X71.146 Y136.507 E16.27881
G1 X70.293 Y136.289 E16.30543
G1 X69.424 Y135.986 E16.33325
G1 X68.537 Y135.586 E16.36266
G1 X68.232 Y135.431 E16.373
G1 X67.43 Y134.978 E16.40085
G1 X66.328 Y134.19 E16.4418
G1 X66.126 Y134.025 E16.44969
G1 X65.84 Y133.783 E16.46101
G1 X63.83 Y132.019 E16.54186
G1 X61.891 Y130.411 E16.61801
G1 X60.658 Y129.456 E16.66515
G1 X59.515 Y128.552 E16.70921
G1 X59.147 Y128.246 E16.72368
G1 X59.004 Y128.122 E16.7294
G1 X58.335 Y127.49 E16.75722
G1 X57.724 Y126.801 E16.78506
G1 X57.174 Y126.062 E16.81291
G1 X56.691 Y125.279 E16.84072
G1 X56.278 Y124.456 E16.86855
G1 X55.938 Y123.6 E16.8964
G1 X55.792 Y123.15 E16.9107
G1 X55.708 Y122.869 E16.91956
G1 X55.589 Y122.436 E16.93314
G1 X55.437 Y121.836 E16.95185
G1 X55.225 Y120.774 E16.98459
G1 X55.069 Y119.702 E17.01734
G1 X55.03 Y119.396 E17.02666
G1 X54.946 Y118.211 E17.06257
G1 X54.938 Y117.664 E17.07911
G1 X54.938 Y117.339 E17.08894
G1 X54.947 Y116.777 E17.10593
G1 X55.032 Y115.598 E17.14166
G1 X55.114 Y114.959 E17.16114
G1 X55.208 Y114.307 E17.18105
G1 X55.453 Y113.111 E17.21796
G1 X55.609 Y112.528 E17.2362
G1 X55.669 Y112.314 E17.24292
G1 X55.955 Y111.44 E17.27072
G1 X56.317 Y110.593 E17.29857
G1 X56.751 Y109.781 E17.3264
G1 X57.253 Y109.009 E17.35424
G1 X57.821 Y108.285 E17.38205
G1 X58.449 Y107.612 E17.40988
G1 X58.859 Y107.23 E17.42682
G1 X59.176 Y106.953 E17.43955
G1 X59.27 Y106.873 E17.44328
G1 X59.553 Y106.64 E17.45436
G1 X59.995 Y106.289 E17.47142
G1 X61.997 Y104.654 E17.54956
G1 X63.906 Y103.002 E17.62588
G1 X65.178 Y101.829 E17.67819
G1 X65.927 Y101.155 E17.70865
G1 X66.637 Y100.569 E17.73648
G1 X67.396 Y100.047 E17.76432
M204 S500
G0 F7500 X67.637 Y100.368
M204 S550
G1 F1500 X68.082 Y100.107 E17.77992
G1 X68.366 Y99.95 E17.78973
G1 X69.175 Y99.549 E17.81702
G1 X70.016 Y99.22 E17.84432
G1 X70.628 Y99.033 E17.86367
G1 X71.509 Y98.835 E17.89097
G1 X72.65 Y98.695 E17.92572
G1 X72.973 Y98.674 E17.9355
G1 X73.395 Y98.655 E17.94827
G1 X73.657 Y98.65 E17.95619
G1 X73.95 Y98.648 E17.96505
G1 X74.263 Y98.651 E17.97451
G1 X74.557 Y98.658 E17.98341
G1 X75.458 Y98.719 E18.0107
G1 X75.958 Y98.788 E18.02596
G1 X76.549 Y98.885 E18.04407
G1 X79.052 Y99.258 E18.12057
G1 X81.604 Y99.565 E18.19827
G1 X84.106 Y99.795 E18.27423
G1 X86.668 Y99.957 E18.35183
G1 X89.24 Y100.047 E18.42963
G1 X91.071 Y100.066 E18.48499
G1 X104.427 Y100.067 E18.88874
G1 X106.057 Y100.065 E18.93801
G1 X143.373 Y100.066 E20.06608
G1 X145.978 Y100.029 E20.14484
G1 X148.547 Y99.92 E20.22257
G1 X151.049 Y99.743 E20.2984
G1 X153.562 Y99.494 E20.37474
G1 X156.115 Y99.167 E20.45254
G1 X158.653 Y98.769 E20.53021
G1 X159.334 Y98.648 E20.55112
G1 X159.708 Y98.588 E20.56257
G1 X160.605 Y98.484 E20.58986
G1 X161.232 Y98.459 E20.60883
G1 X161.343 Y98.458 E20.61219
G1 X162.172 Y98.485 E20.63726
G1 X162.379 Y98.5 E20.64354
G1 X163.276 Y98.605 E20.67084
G1 X164.16 Y98.789 E20.69814
G1 X165.43 Y99.203 E20.73852
G1 X165.55 Y99.251 E20.74242
G1 X166.391 Y99.632 E20.77033
G1 X166.605 Y99.741 E20.77759
G1 X167.391 Y100.186 E20.8049
G1 X168.135 Y100.699 E20.83222
G1 X168.853 Y101.297 E20.86047
G1 X170.749 Y103.028 E20.93808
G1 X172.677 Y104.693 E21.01509
G1 X174.44 Y106.119 E21.08363
G1 X175.515 Y106.997 E21.12559
G1 X176.189 Y107.599 E21.15291
G1 X176.806 Y108.258 E21.1802
G1 X177.363 Y108.969 E21.20751
G1 X177.855 Y109.726 E21.2348
G1 X178.278 Y110.524 E21.2621
G1 X178.629 Y111.356 E21.2894
G1 X178.912 Y112.243 E21.31755
G1 X179.094 Y112.924 E21.33885
G1 X179.158 Y113.176 E21.34671
G1 X179.299 Y113.815 E21.3665
G1 X179.341 Y114.04 E21.37342
G1 X179.437 Y114.657 E21.39229
G1 X179.542 Y115.504 E21.41809
G1 X179.61 Y116.334 E21.44327
G1 X179.623 Y116.719 E21.45491
G1 X179.63 Y117.22 E21.47006
G1 X179.63 Y117.617 E21.48206
G1 X179.622 Y118.371 E21.50486
G1 X179.573 Y119.273 E21.53216
G1 X179.51 Y119.777 E21.54752
G1 X179.385 Y120.605 E21.57283
G1 X179.274 Y121.3 E21.59411
G1 X179.093 Y122.184 E21.62139
G1 X178.795 Y123.158 E21.65218
G1 X178.765 Y123.241 E21.65485
G1 X178.609 Y123.644 E21.66791
G1 X178.447 Y124.039 E21.68082
G1 X178.068 Y124.859 E21.70812
G1 X177.617 Y125.642 E21.73544
G1 X177.1 Y126.382 E21.76273
G1 X176.426 Y127.173 E21.79414
G1 X176.392 Y127.209 E21.79564
G1 X175.428 Y128.105 E21.83543
G1 X174.811 Y128.607 E21.85947
G1 X173.713 Y129.478 E21.90184
G1 X171.734 Y131.141 E21.97998
G1 X169.797 Y132.865 E22.05837
G1 X169.298 Y133.33 E22.07899
G1 X168.887 Y133.701 E22.09573
G1 X168.19 Y134.275 E22.12303
G1 X167.445 Y134.786 E22.15034
G1 X166.772 Y135.171 E22.17378
G1 X166.59 Y135.266 E22.17998
G1 X166.257 Y135.432 E22.19123
G1 X166.066 Y135.523 E22.19763
G1 X165.234 Y135.875 E22.22494
G1 X164.375 Y136.152 E22.25222
G1 X163.151 Y136.408 E22.29002
G1 X163.103 Y136.415 E22.29149
G1 X161.939 Y136.517 E22.32681
G1 X161.443 Y136.532 E22.34181
G1 X160.54 Y136.52 E22.36911
G1 X159.356 Y136.381 E22.40515
G1 X159.103 Y136.336 E22.41292
G1 X156.511 Y135.913 E22.49231
G1 X153.991 Y135.575 E22.56917
G1 X151.455 Y135.307 E22.64627
G1 X148.933 Y135.113 E22.72273
G1 X146.401 Y134.99 E22.79936
G1 X143.255 Y134.936 E22.89448
G1 X91.221 Y134.935 E24.46748
G1 X88.615 Y134.972 E24.54626
G1 X86.047 Y135.081 E24.62397
G1 X83.545 Y135.258 E24.69979
G1 X81.033 Y135.507 E24.7761
G1 X78.466 Y135.836 E24.85434
G1 X76.891 Y136.074 E24.90249
G1 X75.975 Y136.221 E24.93053
G1 X74.69 Y136.345 E24.96956
G1 X74.446 Y136.353 E24.97694
G1 X74.041 Y136.358 E24.98918
G1 X73.755 Y136.356 E24.99783
G1 X73.463 Y136.35 E25.00666
G1 X72.986 Y136.333 E25.02109
G1 X72.085 Y136.26 E25.04842
G1 X71.195 Y136.109 E25.0757
G1 X70.408 Y135.906 E25.10027
G1 X69.555 Y135.608 E25.12759
G1 X68.718 Y135.229 E25.15536
G1 X68.413 Y135.074 E25.16571
G1 X67.627 Y134.63 E25.193
G1 X66.581 Y133.881 E25.23189
G1 X66.379 Y133.716 E25.23977
G1 X66.104 Y133.482 E25.25069
G1 X64.086 Y131.711 E25.33185
G1 X62.157 Y130.111 E25.40762
G1 X60.907 Y129.142 E25.45543
G1 X59.764 Y128.238 E25.49948
G1 X59.409 Y127.944 E25.51342
G1 X59.266 Y127.82 E25.51914
