;FLAVOR:Marlin
;TIME:168
;Filament used: 0.134343m
;Layer height: 0.2
;MINX:102.613
;MINY:102.61
;MINZ:0.2
;MAXX:132.386
;MAXY:132.39
;MAXZ:11
;Generated with Cura_SteamEngine master
M140 S60
M105
M190 S60
M104 S200
M105
M109 S200
M82 ;absolute extrusion mode
; Ender 3 Custom Start G-code
G92 E0 ; Reset Extruder
G28 ; Home all axes
G1 Z2.0 F3000 ; Move Z Axis up little to prevent scratching of Heat Bed
G1 X0.1 Y20 Z0.3 F5000.0 ; Move to start position
G1 X0.1 Y200.0 Z0.3 F1500.0 E15 ; Draw the first line
G1 X0.4 Y200.0 Z0.3 F5000.0 ; Move to side a little
G1 X0.4 Y20 Z0.3 F1500.0 E30 ; Draw the second line
G92 E0 ; Reset Extruder
G1 Z2.0 F3000 ; Move Z Axis up little to prevent scratching of Heat Bed
G1 X5 Y20 Z0.3 F5000.0 ; Move over to prevent blob squish
G92 E0
G92 E0
G1 F2400 E-4
;LAYER_COUNT:55
;LAYER:0
M107
M204 S500
G0 F7500 X107.148 Y106.796 Z0.2
M204 S550
;TYPE:SKIRT
G1 F2400 E0
G1 F1500 X107.306 Y106.646 E0.00659
G1 X107.67 Y106.316 E0.02144
G1 X107.948 Y106.078 E0.0325
G1 X108.104 Y105.949 E0.03862
G1 X108.436 Y105.684 E0.05146
G1 X108.932 Y105.323 E0.07001
G1 X109.198 Y105.14 E0.07977
G1 X109.925 Y104.681 E0.10576
G1 X110.167 Y104.541 E0.11421
G1 X110.849 Y104.177 E0.13758
G1 X111.062 Y104.073 E0.14475
G1 X111.657 Y103.804 E0.16449
G1 X111.849 Y103.724 E0.17077
G1 X112.421 Y103.504 E0.1893
G1 X112.679 Y103.413 E0.19757
G1 X113.46 Y103.17 E0.2223
G1 X113.685 Y103.109 E0.22934
G1 X114.454 Y102.93 E0.25321
G1 X114.797 Y102.863 E0.26378
G1 X115.563 Y102.741 E0.28723
G1 X115.872 Y102.703 E0.29664
G1 X116.634 Y102.636 E0.31976
G1 X116.842 Y102.625 E0.32606
G1 X117.485 Y102.61 E0.3455
G1 X117.662 Y102.611 E0.35085
G1 X118.233 Y102.629 E0.36812
G1 X118.476 Y102.643 E0.37548
G1 X119.293 Y102.721 E0.40029
G1 X119.466 Y102.744 E0.40557
G1 X119.896 Y102.81 E0.41872
G1 X120.167 Y102.857 E0.42703
G1 X120.483 Y102.916 E0.43675
G1 X120.645 Y102.949 E0.44175
G1 X121.58 Y103.183 E0.47088
G1 X121.9 Y103.278 E0.48098
G1 X122.988 Y103.664 E0.51587
G1 X123.354 Y103.816 E0.52786
G1 X124.157 Y104.188 E0.55461
G1 X124.385 Y104.305 E0.56236
G1 X125.093 Y104.702 E0.58689
G1 X125.27 Y104.81 E0.59316
G1 X125.63 Y105.04 E0.60608
G1 X125.988 Y105.278 E0.61907
G1 X126.893 Y105.948 E0.65311
G1 X127.035 Y106.065 E0.65867
G1 X127.342 Y106.328 E0.67089
G1 X127.502 Y106.47 E0.67736
G1 X128.046 Y106.988 E0.70007
G1 X128.215 Y107.16 E0.70736
G1 X128.775 Y107.773 E0.73246
G1 X128.905 Y107.927 E0.73855
G1 X129.338 Y108.475 E0.75966
G1 X129.599 Y108.836 E0.77313
G1 X129.893 Y109.26 E0.78873
G1 X130.562 Y110.357 E0.82757
G1 X130.717 Y110.648 E0.83754
G1 X131.053 Y111.336 E0.86068
G1 X131.136 Y111.522 E0.86684
G1 X131.329 Y111.983 E0.88195
G1 X131.406 Y112.179 E0.88831
G1 X131.654 Y112.879 E0.91076
G1 X131.718 Y113.081 E0.91717
G1 X131.993 Y114.124 E0.94978
G1 X132.119 Y114.719 E0.96816
G1 X132.307 Y115.94 E1.00551
G1 X132.333 Y116.209 E1.01368
G1 X132.381 Y117.016 E1.03812
G1 X132.386 Y117.235 E1.04474
G1 X132.386 Y117.762 E1.06067
G1 X132.379 Y118.041 E1.06911
G1 X132.315 Y118.98 E1.09756
G1 X132.279 Y119.304 E1.10742
G1 X132.204 Y119.853 E1.12417
G1 X132.191 Y119.933 E1.12662
G1 X132.113 Y120.356 E1.13962
G1 X132.071 Y120.563 E1.146
G1 X131.98 Y120.976 E1.15879
G1 X131.854 Y121.458 E1.17385
G1 X131.788 Y121.69 E1.18114
G1 X131.639 Y122.173 E1.19642
G1 X131.519 Y122.52 E1.20752
G1 X131.447 Y122.717 E1.21386
G1 X131.169 Y123.405 E1.23629
G1 X131.058 Y123.655 E1.24456
G1 X130.843 Y124.11 E1.25978
G1 X130.796 Y124.204 E1.26295
G1 X130.595 Y124.586 E1.276
G1 X130.485 Y124.786 E1.2829
G1 X130.215 Y125.25 E1.29913
G1 X130.024 Y125.553 E1.30996
G1 X129.901 Y125.741 E1.31675
G1 X129.635 Y126.131 E1.33102
G1 X129.38 Y126.477 E1.34401
G1 X129.249 Y126.648 E1.35053
G1 X128.986 Y126.979 E1.36331
G1 X128.661 Y127.358 E1.3784
G1 X128.513 Y127.523 E1.3851
G1 X128.22 Y127.837 E1.39808
G1 X127.852 Y128.204 E1.41379
G1 X127.694 Y128.354 E1.42038
G1 X127.234 Y128.766 E1.43905
G1 X127.004 Y128.961 E1.44816
G1 X126.589 Y129.296 E1.46429
G1 X126.533 Y129.339 E1.46642
G1 X126.076 Y129.672 E1.48351
G1 X125.809 Y129.856 E1.49332
G1 X125.075 Y130.319 E1.51955
G1 X124.833 Y130.459 E1.528
G1 X124.147 Y130.825 E1.55151
G1 X123.944 Y130.924 E1.55834
G1 X123.388 Y131.176 E1.57679
G1 X123.186 Y131.261 E1.58341
G1 X122.579 Y131.496 E1.60309
G1 X122.321 Y131.587 E1.61136
G1 X121.54 Y131.83 E1.63609
G1 X121.315 Y131.891 E1.64313
G1 X120.546 Y132.07 E1.667
G1 X120.203 Y132.137 E1.67757
G1 X119.437 Y132.259 E1.70102
G1 X119.128 Y132.297 E1.71043
G1 X118.366 Y132.364 E1.73355
G1 X118.158 Y132.375 E1.73985
G1 X117.515 Y132.39 E1.75929
G1 X117.338 Y132.389 E1.76464
G1 X116.767 Y132.371 E1.78191
G1 X116.524 Y132.357 E1.78927
G1 X115.707 Y132.279 E1.81408
G1 X115.534 Y132.256 E1.81936
G1 X115.104 Y132.19 E1.83251
G1 X114.833 Y132.143 E1.84082
G1 X114.517 Y132.084 E1.85054
G1 X114.355 Y132.051 E1.85554
G1 X113.42 Y131.817 E1.88468
G1 X113.1 Y131.722 E1.89477
G1 X112.012 Y131.336 E1.92967
G1 X111.646 Y131.184 E1.94165
G1 X110.828 Y130.804 E1.96891
G1 X110.595 Y130.684 E1.97683
G1 X109.9 Y130.294 E2.00093
G1 X109.728 Y130.189 E2.00702
G1 X109.37 Y129.96 E2.01987
G1 X109.012 Y129.722 E2.03286
G1 X108.105 Y129.05 E2.06699
G1 X107.957 Y128.928 E2.07278
G1 X107.587 Y128.609 E2.08755
G1 X107.424 Y128.462 E2.09419
G1 X106.942 Y128 E2.11437
G1 X106.779 Y127.834 E2.1214
G1 X106.225 Y127.225 E2.14629
G1 X106.089 Y127.064 E2.15266
G1 X105.601 Y126.443 E2.17654
G1 X105.4 Y126.162 E2.18698
G1 X105.102 Y125.732 E2.2028
G1 X104.413 Y124.597 E2.24294
G1 X104.259 Y124.305 E2.25292
G1 X103.891 Y123.537 E2.27866
G1 X103.751 Y123.213 E2.28933
G1 X103.374 Y122.207 E2.32181
G1 X103.291 Y121.948 E2.33003
G1 X103.002 Y120.857 E2.36415
G1 X102.878 Y120.268 E2.38234
G1 X102.694 Y119.065 E2.41913
G1 X102.667 Y118.787 E2.42758
G1 X102.617 Y117.933 E2.45344
G1 X102.613 Y117.723 E2.45979
G1 X102.616 Y117.195 E2.47575
G1 X102.625 Y116.885 E2.48512
G1 X102.691 Y115.953 E2.51337
G1 X102.725 Y115.656 E2.52241
G1 X102.807 Y115.076 E2.54011
G1 X102.881 Y114.673 E2.5525
G1 X102.923 Y114.463 E2.55897
G1 X103.023 Y114.011 E2.57297
G1 X103.044 Y113.925 E2.57565
G1 X103.187 Y113.397 E2.59218
G1 X103.27 Y113.118 E2.60098
G1 X103.495 Y112.443 E2.62249
G1 X103.57 Y112.24 E2.62903
G1 X103.711 Y111.876 E2.64083
G1 X103.921 Y111.39 E2.65684
G1 X104.014 Y111.188 E2.66356
G1 X104.231 Y110.742 E2.67855
G1 X104.44 Y110.35 E2.69198
G1 X104.578 Y110.103 E2.70054
G1 X105.008 Y109.397 E2.72553
G1 X105.143 Y109.193 E2.73292
G1 X105.365 Y108.869 E2.74479
G1 X105.673 Y108.454 E2.76042
G1 X105.849 Y108.228 E2.76908
G1 X106.396 Y107.58 E2.79471
G1 X106.59 Y107.367 E2.80342
G1 X107.148 Y106.796 E2.82756
M204 S500
G0 F7500 X107.424 Y107.087
M204 S550
G1 F1500 X107.582 Y106.937 E2.83414
G1 X107.857 Y106.685 E2.84542
G1 X108.203 Y106.386 E2.85924
G1 X108.359 Y106.257 E2.86536
G1 X108.681 Y106.001 E2.8778
G1 X109.159 Y105.652 E2.89569
G1 X109.425 Y105.469 E2.90545
G1 X110.125 Y105.027 E2.93048
G1 X110.367 Y104.887 E2.93893
G1 X111.024 Y104.537 E2.96143
G1 X111.237 Y104.433 E2.9686
G1 X111.811 Y104.173 E2.98765
G1 X112.003 Y104.093 E2.99393
G1 X112.554 Y103.882 E3.01177
G1 X112.812 Y103.791 E3.02004
G1 X113.564 Y103.556 E3.04386
G1 X113.789 Y103.495 E3.05091
G1 X114.531 Y103.323 E3.07393
G1 X114.874 Y103.256 E3.0845
G1 X115.612 Y103.138 E3.10709
G1 X115.921 Y103.1 E3.1165
G1 X116.655 Y103.036 E3.13877
G1 X116.863 Y103.025 E3.14507
G1 X117.483 Y103.01 E3.16382
G1 X117.66 Y103.011 E3.16917
G1 X118.21 Y103.029 E3.1858
G1 X118.453 Y103.043 E3.19316
G1 X119.24 Y103.117 E3.21706
G1 X119.413 Y103.14 E3.22233
G1 X119.827 Y103.204 E3.235
G1 X120.098 Y103.251 E3.24331
G1 X120.403 Y103.308 E3.25269
G1 X120.565 Y103.341 E3.25769
G1 X121.466 Y103.566 E3.28576
G1 X121.786 Y103.661 E3.29586
G1 X122.835 Y104.034 E3.32951
G1 X123.201 Y104.186 E3.34149
G1 X123.974 Y104.544 E3.36725
G1 X124.202 Y104.661 E3.37499
G1 X124.884 Y105.043 E3.39862
G1 X125.061 Y105.151 E3.40489
G1 X125.408 Y105.373 E3.41734
G1 X125.766 Y105.611 E3.43034
G1 X126.639 Y106.257 E3.46317
G1 X126.781 Y106.374 E3.46873
G1 X127.076 Y106.627 E3.48048
G1 X127.236 Y106.769 E3.48695
G1 X127.761 Y107.268 E3.50884
G1 X127.93 Y107.44 E3.51613
G1 X128.469 Y108.031 E3.54031
G1 X128.599 Y108.185 E3.54641
G1 X129.017 Y108.714 E3.56679
G1 X129.27 Y109.064 E3.57984
G1 X129.564 Y109.488 E3.59544
G1 X130.209 Y110.545 E3.63287
G1 X130.364 Y110.836 E3.64284
G1 X130.688 Y111.499 E3.66515
G1 X130.771 Y111.685 E3.67131
G1 X130.957 Y112.129 E3.68586
G1 X131.034 Y112.325 E3.69222
G1 X131.273 Y112.999 E3.71384
G1 X131.337 Y113.201 E3.72025
G1 X131.602 Y114.207 E3.7517
G1 X131.728 Y114.802 E3.77008
G1 X131.909 Y115.978 E3.80605
G1 X131.935 Y116.247 E3.81422
G1 X131.981 Y117.025 E3.83778
G1 X131.986 Y117.244 E3.8444
G1 X131.986 Y117.752 E3.85976
G1 X131.979 Y118.031 E3.8682
G1 X131.917 Y118.936 E3.89562
G1 X131.881 Y119.26 E3.90547
G1 X131.809 Y119.789 E3.92161
G1 X131.721 Y120.277 E3.9366
G1 X131.679 Y120.484 E3.94299
G1 X131.59 Y120.884 E3.95538
G1 X131.469 Y121.348 E3.96987
G1 X131.403 Y121.58 E3.97716
G1 X131.259 Y122.049 E3.992
G1 X131.143 Y122.383 E4.00268
G1 X131.071 Y122.58 E4.00902
G1 X130.803 Y123.242 E4.03061
G1 X130.692 Y123.492 E4.03888
G1 X130.485 Y123.931 E4.05356
G1 X130.438 Y124.025 E4.05673
G1 X130.245 Y124.393 E4.06929
G1 X130.135 Y124.593 E4.07619
G1 X129.874 Y125.042 E4.09189
G1 X129.689 Y125.334 E4.10234
G1 X129.566 Y125.522 E4.10914
G1 X129.308 Y125.9 E4.12297
G1 X129.063 Y126.233 E4.13547
G1 X128.932 Y126.404 E4.14198
G1 X128.676 Y126.725 E4.15439
G1 X128.363 Y127.091 E4.16895
G1 X128.215 Y127.256 E4.17565
G1 X127.931 Y127.56 E4.18823
G1 X127.576 Y127.913 E4.20336
G1 X127.418 Y128.063 E4.20995
G1 X126.975 Y128.461 E4.22795
G1 X126.745 Y128.656 E4.23707
G1 X126.346 Y128.978 E4.25257
G1 X126.29 Y129.021 E4.2547
G1 X125.849 Y129.342 E4.27119
G1 X125.582 Y129.526 E4.28099
G1 X124.875 Y129.973 E4.30628
G1 X124.633 Y130.113 E4.31473
G1 X123.971 Y130.465 E4.3374
G1 X123.768 Y130.564 E4.34422
G1 X123.233 Y130.807 E4.36199
G1 X123.031 Y130.892 E4.36861
G1 X122.446 Y131.118 E4.38757
G1 X122.188 Y131.209 E4.39584
G1 X121.436 Y131.444 E4.41966
G1 X121.211 Y131.505 E4.4267
G1 X120.469 Y131.677 E4.44973
G1 X120.126 Y131.744 E4.4603
G1 X119.388 Y131.862 E4.48289
G1 X119.079 Y131.9 E4.4923
G1 X118.345 Y131.964 E4.51457
G1 X118.137 Y131.975 E4.52087
G1 X117.517 Y131.99 E4.53962
G1 X117.34 Y131.989 E4.54497
G1 X116.79 Y131.971 E4.5616
G1 X116.547 Y131.957 E4.56896
G1 X115.76 Y131.883 E4.59286
G1 X115.587 Y131.86 E4.59813
G1 X115.173 Y131.796 E4.6108
G1 X114.902 Y131.749 E4.61911
G1 X114.597 Y131.692 E4.62849
G1 X114.435 Y131.659 E4.63349
G1 X113.534 Y131.434 E4.66156
G1 X113.214 Y131.339 E4.67166
G1 X112.165 Y130.966 E4.70531
G1 X111.799 Y130.814 E4.71729
G1 X111.012 Y130.449 E4.74352
G1 X110.779 Y130.329 E4.75144
G1 X110.109 Y129.952 E4.77468
G1 X109.937 Y129.847 E4.78077
G1 X109.592 Y129.627 E4.79314
G1 X109.234 Y129.389 E4.80614
G1 X108.36 Y128.741 E4.83903
G1 X108.212 Y128.619 E4.84483
G1 X107.855 Y128.312 E4.85906
G1 X107.692 Y128.165 E4.8657
G1 X107.228 Y127.72 E4.88513
G1 X107.065 Y127.554 E4.89216
G1 X106.53 Y126.967 E4.91617
G1 X106.394 Y126.806 E4.92254
G1 X105.925 Y126.208 E4.94552
G1 X105.729 Y125.934 E4.9557
G1 X105.431 Y125.504 E4.97152
G1 X104.767 Y124.411 E5.01018
G1 X104.613 Y124.119 E5.02016
G1 X104.259 Y123.379 E5.04496
G1 X104.119 Y123.055 E5.05563
G1 X103.755 Y122.085 E5.08695
G1 X103.672 Y121.826 E5.09517
G1 X103.393 Y120.775 E5.12804
G1 X103.269 Y120.186 E5.14624
G1 X103.092 Y119.027 E5.18168
G1 X103.065 Y118.749 E5.19012
G1 X103.017 Y117.926 E5.21504
G1 X103.013 Y117.716 E5.22139
G1 X103.015 Y117.206 E5.23681
G1 X103.024 Y116.896 E5.24619
G1 X103.089 Y115.998 E5.2734
G1 X103.123 Y115.701 E5.28244
G1 X103.202 Y115.142 E5.29951
G1 X103.273 Y114.751 E5.31152
G1 X103.315 Y114.541 E5.318
G1 X103.412 Y114.106 E5.33147
G1 X103.433 Y114.02 E5.33414
G1 X103.57 Y113.512 E5.35005
G1 X103.653 Y113.233 E5.35885
G1 X103.87 Y112.581 E5.37962
G1 X103.945 Y112.378 E5.38617
G1 X104.082 Y112.026 E5.39758
G1 X104.284 Y111.557 E5.41302
G1 X104.377 Y111.355 E5.41974
G1 X104.588 Y110.923 E5.43428
G1 X104.789 Y110.545 E5.44722
G1 X104.927 Y110.298 E5.45577
G1 X105.341 Y109.618 E5.47984
G1 X105.476 Y109.414 E5.48723
G1 X105.692 Y109.1 E5.49876
G1 X105.989 Y108.7 E5.51382
G1 X106.165 Y108.474 E5.52248
G1 X106.691 Y107.849 E5.54717
G1 X106.885 Y107.636 E5.55588
G1 X107.424 Y107.087 E5.57914
M204 S500
G0 F7500 X107.699 Y107.377
M204 S550
G1 F1500 X107.857 Y107.227 E5.58572
G1 X108.122 Y106.984 E5.59659
G1 X108.458 Y106.694 E5.61001
G1 X108.614 Y106.565 E5.61613
G1 X108.926 Y106.317 E5.62818
G1 X109.386 Y105.982 E5.64538
G1 X109.652 Y105.799 E5.65514
G1 X110.325 Y105.373 E5.67922
G1 X110.567 Y105.233 E5.68767
G1 X111.2 Y104.896 E5.70935
G1 X111.413 Y104.792 E5.71652
G1 X111.965 Y104.543 E5.73482
G1 X112.157 Y104.463 E5.74111
G1 X112.687 Y104.259 E5.75828
G1 X112.945 Y104.168 E5.76655
G1 X113.669 Y103.942 E5.78948
G1 X113.894 Y103.881 E5.79652
G1 X114.608 Y103.715 E5.81868
G1 X114.951 Y103.648 E5.82925
G1 X115.661 Y103.535 E5.85098
G1 X115.97 Y103.497 E5.86039
G1 X116.676 Y103.435 E5.88182
G1 X116.884 Y103.424 E5.88811
G1 X117.481 Y103.41 E5.90617
G1 X117.658 Y103.411 E5.91152
G1 X118.187 Y103.428 E5.92752
G1 X118.43 Y103.442 E5.93488
G1 X119.187 Y103.514 E5.95786
G1 X119.36 Y103.537 E5.96314
G1 X119.759 Y103.598 E5.97534
G1 X120.03 Y103.645 E5.98366
G1 X120.323 Y103.7 E5.99267
G1 X120.485 Y103.733 E5.99767
G1 X121.352 Y103.95 E6.02468
G1 X121.672 Y104.045 E6.03477
G1 X122.681 Y104.403 E6.06714
G1 X123.047 Y104.555 E6.07912
G1 X123.792 Y104.9 E6.10394
G1 X124.02 Y105.017 E6.11169
G1 X124.676 Y105.385 E6.13442
G1 X124.853 Y105.493 E6.14069
G1 X125.187 Y105.706 E6.15267
G1 X125.545 Y105.944 E6.16566
G1 X126.384 Y106.566 E6.19724
G1 X126.526 Y106.683 E6.2028
G1 X126.811 Y106.926 E6.21412
G1 X126.971 Y107.068 E6.22059
G1 X127.476 Y107.548 E6.24165
G1 X127.645 Y107.72 E6.24894
G1 X128.163 Y108.289 E6.2722
G1 X128.293 Y108.443 E6.27829
G1 X128.695 Y108.952 E6.2979
G1 X128.941 Y109.292 E6.31059
G1 X129.235 Y109.716 E6.32618
G1 X129.856 Y110.733 E6.36221
G1 X130.011 Y111.024 E6.37217
G1 X130.323 Y111.662 E6.39364
G1 X130.406 Y111.848 E6.3998
G1 X130.585 Y112.275 E6.4138
G1 X130.662 Y112.471 E6.42016
G1 X130.892 Y113.12 E6.44098
G1 X130.956 Y113.322 E6.44738
G1 X131.211 Y114.29 E6.47764
G1 X131.337 Y114.885 E6.49603
G1 X131.511 Y116.017 E6.53065
G1 X131.537 Y116.286 E6.53882
G1 X131.581 Y117.034 E6.56147
G1 X131.586 Y117.253 E6.5681
G1 X131.586 Y117.742 E6.58288
G1 X131.579 Y118.021 E6.59132
G1 X131.52 Y118.891 E6.61768
G1 X131.484 Y119.215 E6.62753
G1 X131.414 Y119.725 E6.64309
G1 X131.329 Y120.197 E6.65759
G1 X131.287 Y120.404 E6.66398
G1 X131.201 Y120.792 E6.67599
G1 X131.085 Y121.239 E6.68995
G1 X131.019 Y121.471 E6.69724
G1 X130.879 Y121.924 E6.71158
G1 X130.767 Y122.245 E6.72185
G1 X130.695 Y122.442 E6.72819
G1 X130.437 Y123.08 E6.749
G1 X130.326 Y123.33 E6.75727
G1 X130.127 Y123.753 E6.7714
G1 X130.08 Y123.847 E6.77458
G1 X129.894 Y124.201 E6.78666
G1 X129.784 Y124.401 E6.79356
G1 X129.532 Y124.834 E6.80871
G1 X129.354 Y125.115 E6.81876
G1 X129.231 Y125.303 E6.82556
G1 X128.981 Y125.669 E6.83896
G1 X128.745 Y125.99 E6.851
G1 X128.614 Y126.161 E6.85751
G1 X128.366 Y126.472 E6.86954
G1 X128.065 Y126.824 E6.88354
G1 X127.917 Y126.989 E6.89024
G1 X127.642 Y127.283 E6.90241
G1 X127.301 Y127.623 E6.91696
G1 X127.143 Y127.773 E6.92355
G1 X126.716 Y128.156 E6.94089
G1 X126.486 Y128.351 E6.95001
G1 X126.102 Y128.661 E6.96493
G1 X126.046 Y128.704 E6.96706
G1 X125.622 Y129.013 E6.98292
G1 X125.355 Y129.197 E6.99272
G1 X124.675 Y129.627 E7.01704
G1 X124.433 Y129.767 E7.0255
G1 X123.796 Y130.106 E7.04731
G1 X123.593 Y130.205 E7.05414
G1 X123.078 Y130.439 E7.07124
G1 X122.876 Y130.524 E7.07786
G1 X122.313 Y130.741 E7.0961
G1 X122.055 Y130.832 E7.10437
G1 X121.331 Y131.058 E7.1273
G1 X121.106 Y131.119 E7.13435
G1 X120.392 Y131.285 E7.15651
G1 X120.049 Y131.352 E7.16707
G1 X119.339 Y131.465 E7.18881
G1 X119.03 Y131.503 E7.19822
G1 X118.324 Y131.565 E7.21964
G1 X118.116 Y131.576 E7.22594
G1 X117.519 Y131.59 E7.24399
