;FLAVOR:Marlin
;TIME:2851
;Filament used: 1.48859m
;Layer height: 0.2
;MINX:97.875
;MINY:87.006
;MINZ:0.2
;MAXX:137.121
;MAXY:141.243
;MAXZ:16
;Generated with Cura_SteamEngine master
M140 S60
M105
M190 S60
M104 S200
M105
M109 S200
M82 ;absolute extrusion mode
; Ender 3 Custom Start G-code
G92 E0 ; Reset Extruder
G28 ; Home all axes
G1 Z2.0 F3000 ; Move Z Axis up little to prevent scratching of Heat Bed
G1 X0.1 Y20 Z0.3 F5000.0 ; Move to start position
G1 X0.1 Y200.0 Z0.3 F1500.0 E15 ; Draw the first line
G1 X0.4 Y200.0 Z0.3 F5000.0 ; Move to side a little
G1 X0.4 Y20 Z0.3 F1500.0 E30 ; Draw the second line
G92 E0 ; Reset Extruder
G1 Z2.0 F3000 ; Move Z Axis up little to prevent scratching of Heat Bed
G1 X5 Y20 Z0.3 F5000.0 ; Move over to prevent blob squish
G92 E0
G92 E0
G1 F2400 E-4
;LAYER_COUNT:80
;LAYER:0
M107
M204 S500
G0 F7500 X101.536 Y92.572 Z0.2
M204 S550
;TYPE:SKIRT
G1 F2400 E0
G1 F1500 X102.184 Y91.895 E0.02833
G1 X102.915 Y91.252 E0.05776
G1 X103.515 Y90.77 E0.08103
G1 X103.83 Y90.527 E0.09305
G1 X104.245 Y90.219 E0.10868
G1 X104.728 Y89.871 E0.12667
G1 X104.938 Y89.723 E0.13444
G1 X105.45 Y89.372 E0.1532
G1 X105.718 Y89.195 E0.16291
G1 X105.948 Y89.047 E0.17118
G1 X106.757 Y88.573 E0.19953
G1 X107.82 Y88.082 E0.23492
G1 X108.705 Y87.771 E0.26328
G1 X109.613 Y87.537 E0.29163
G1 X110.537 Y87.38 E0.31996
G1 X111.472 Y87.304 E0.34832
G1 X112.125 Y87.297 E0.36806
G1 X113.148 Y87.317 E0.39899
G1 X115.755 Y87.333 E0.4778
G1 X118.249 Y87.277 E0.55322
G1 X120.777 Y87.149 E0.62974
G1 X121.974 Y87.058 E0.66603
G1 X122.462 Y87.028 E0.68081
G1 X122.828 Y87.013 E0.69188
G1 X122.984 Y87.009 E0.6966
G1 X123.43 Y87.006 E0.71008
G1 X123.765 Y87.011 E0.72021
G1 X124.701 Y87.065 E0.74855
G1 X125.63 Y87.199 E0.77692
G1 X126.543 Y87.411 E0.80526
G1 X127.436 Y87.7 E0.83363
G1 X128.3 Y88.064 E0.86197
G1 X129.166 Y88.521 E0.89158
G1 X129.727 Y88.85 E0.91124
G1 X130.113 Y89.088 E0.92494
G1 X130.475 Y89.323 E0.93799
G1 X130.979 Y89.66 E0.95632
G1 X131.276 Y89.865 E0.96723
G1 X131.626 Y90.116 E0.98025
G1 X132.364 Y90.695 E1.00861
G1 X133.05 Y91.334 E1.03695
G1 X133.679 Y92.029 E1.06528
G1 X134.247 Y92.776 E1.09365
G1 X134.749 Y93.568 E1.122
G1 X135.026 Y94.081 E1.13962
G1 X135.339 Y94.699 E1.16057
G1 X135.98 Y96.001 E1.20444
G1 X136.358 Y96.86 E1.23281
G1 X136.661 Y97.747 E1.26114
G1 X136.888 Y98.657 E1.28949
G1 X137.037 Y99.583 E1.31785
G1 X137.104 Y100.47 E1.34474
G1 X137.119 Y100.967 E1.35977
G1 X137.12 Y101.316 E1.37032
G1 X137.118 Y101.453 E1.37446
G1 X137.117 Y103.84 E1.44662
G1 X137.12 Y104.074 E1.4537
G1 X137.117 Y106.84 E1.53731
G1 X137.12 Y107.067 E1.54418
G1 X137.117 Y109.84 E1.628
G1 X137.12 Y110.074 E1.63508
G1 X137.117 Y112.84 E1.71869
G1 X137.12 Y113.074 E1.72577
G1 X137.117 Y115.84 E1.80939
G1 X137.12 Y116.323 E1.82399
G1 X137.117 Y116.552 E1.83091
G1 X137.115 Y118.729 E1.89672
G1 X137.121 Y119.343 E1.91528
G1 X137.117 Y122.434 E2.00872
G1 X137.117 Y128.749 E2.19963
G1 X137.113 Y129.031 E2.20815
G1 X137.099 Y129.576 E2.22463
G1 X137.021 Y130.631 E2.25661
G1 X136.949 Y131.144 E2.27227
G1 X136.908 Y131.391 E2.27984
G1 X136.612 Y132.685 E2.31997
G1 X136.539 Y132.934 E2.32782
G1 X136.237 Y133.822 E2.35617
G1 X135.737 Y134.924 E2.39275
G1 X135.639 Y135.112 E2.39916
G1 X135.171 Y135.924 E2.42749
G1 X134.635 Y136.694 E2.45586
G1 X133.925 Y137.534 E2.4891
G1 X133.77 Y137.7 E2.49597
G1 X133.101 Y138.358 E2.52434
G1 X132.379 Y138.956 E2.55268
G1 X131.608 Y139.491 E2.58105
G1 X130.795 Y139.958 E2.60939
G1 X129.945 Y140.353 E2.63772
G1 X129.064 Y140.676 E2.66609
G1 X128.159 Y140.921 E2.69443
G1 X127.362 Y141.071 E2.71895
G1 X127.042 Y141.119 E2.72873
G1 X126.109 Y141.219 E2.7571
G1 X125.062 Y141.235 E2.78875
G1 X124.841 Y141.228 E2.79544
G1 X124.482 Y141.211 E2.8063
G1 X123.434 Y141.143 E2.83805
G1 X123.136 Y141.133 E2.84706
G1 X122.253 Y141.073 E2.87382
G1 X119.761 Y140.973 E2.94921
G1 X117.237 Y140.944 E3.02552
G1 X114.75 Y140.985 E3.10071
G1 X112.225 Y141.099 E3.17712
G1 X111.386 Y141.16 E3.20255
G1 X111.163 Y141.174 E3.2093
G1 X110.028 Y141.234 E3.24366
G1 X109.09 Y141.243 E3.27202
G1 X108.155 Y141.173 E3.30036
G1 X107.229 Y141.023 E3.32872
G1 X106.319 Y140.795 E3.35708
G1 X105.432 Y140.49 E3.38544
G1 X104.755 Y140.198 E3.40773
G1 X104.509 Y140.082 E3.41595
G1 X103.679 Y139.647 E3.44428
G1 X102.889 Y139.142 E3.47262
G1 X102.144 Y138.571 E3.501
G1 X101.208 Y137.69 E3.53985
G1 X101.156 Y137.635 E3.54214
G1 X100.541 Y136.927 E3.57049
G1 X99.989 Y136.169 E3.59884
G1 X99.304 Y134.985 E3.64019
G1 X99.149 Y134.674 E3.65069
G1 X98.767 Y133.817 E3.67906
G1 X98.459 Y132.931 E3.70741
G1 X98.316 Y132.408 E3.72381
G1 X98.246 Y132.125 E3.73262
G1 X97.999 Y130.764 E3.77443
G1 X97.969 Y130.508 E3.78223
G1 X97.897 Y129.486 E3.8132
G1 X97.879 Y128.719 E3.83639
G1 X97.876 Y128.46 E3.84422
G1 X97.877 Y120.621 E4.08119
G1 X97.875 Y119.89 E4.10329
G1 X97.877 Y117.322 E4.18092
G1 X97.879 Y117.124 E4.18691
G1 X97.883 Y114.523 E4.26554
G1 X97.881 Y114.135 E4.27727
G1 X97.883 Y113.99 E4.28165
G1 X97.883 Y111.664 E4.35197
G1 X97.88 Y111.43 E4.35904
G1 X97.88 Y111.144 E4.36769
G1 X97.883 Y110.917 E4.37455
G1 X97.883 Y108.663 E4.44269
G1 X97.88 Y108.433 E4.44964
G1 X97.88 Y108.143 E4.45841
G1 X97.883 Y107.918 E4.46521
G1 X97.883 Y105.658 E4.53353
G1 X97.88 Y105.416 E4.54085
G1 X97.886 Y103.341 E4.60358
G1 X97.88 Y102.448 E4.63057
G1 X97.888 Y101.545 E4.65787
G1 X97.937 Y100.608 E4.68623
G1 X98.065 Y99.679 E4.71458
G1 X98.273 Y98.764 E4.74295
G1 X98.557 Y97.871 E4.77128
G1 X99.048 Y96.732 E4.80877
G1 X99.641 Y95.548 E4.8488
G1 X99.755 Y95.329 E4.85627
G1 X99.969 Y94.901 E4.87073
G1 X100.425 Y94.081 E4.8991
G1 X100.948 Y93.303 E4.92744
G1 X101.536 Y92.572 E4.9558
M204 S500
G0 F7500 X101.87 Y92.798
M204 S550
G1 F1500 X102.51 Y92.136 E4.98363
G1 X103.165 Y91.564 E5.00992
G1 X103.765 Y91.082 E5.03319
G1 X104.069 Y90.847 E5.0448
G1 X104.479 Y90.544 E5.06021
G1 X104.962 Y90.196 E5.07821
G1 X105.164 Y90.053 E5.08569
G1 X105.676 Y89.702 E5.10446
G1 X105.934 Y89.531 E5.11381
G1 X106.164 Y89.383 E5.12208
G1 X106.959 Y88.919 E5.14991
G1 X107.968 Y88.453 E5.18351
G1 X108.837 Y88.149 E5.21134
G1 X109.729 Y87.921 E5.23917
G1 X110.637 Y87.771 E5.26699
G1 X111.555 Y87.701 E5.29482
G1 X112.117 Y87.697 E5.31181
G1 X113.138 Y87.717 E5.34268
G1 X115.761 Y87.733 E5.42198
G1 X118.278 Y87.676 E5.49809
G1 X120.787 Y87.549 E5.57403
G1 X122.181 Y87.445 E5.61629
G1 X122.486 Y87.427 E5.62553
G1 X122.838 Y87.412 E5.63618
G1 X122.994 Y87.408 E5.64089
G1 X123.424 Y87.406 E5.65389
G1 X123.759 Y87.411 E5.66402
G1 X124.678 Y87.465 E5.69185
G1 X125.589 Y87.598 E5.71968
G1 X126.485 Y87.81 E5.74752
G1 X127.359 Y88.099 E5.77534
G1 X128.205 Y88.462 E5.80317
G1 X128.963 Y88.866 E5.82914
G1 X129.524 Y89.195 E5.8488
G1 X129.896 Y89.424 E5.86201
G1 X130.253 Y89.655 E5.87486
G1 X130.757 Y89.992 E5.89319
G1 X131.042 Y90.19 E5.90368
G1 X131.392 Y90.441 E5.9167
G1 X132.117 Y91.01 E5.94456
G1 X132.789 Y91.639 E5.97239
G1 X133.404 Y92.324 E6.00021
G1 X133.957 Y93.06 E6.02804
G1 X134.444 Y93.841 E6.05587
G1 X134.669 Y94.262 E6.0703
G1 X134.98 Y94.876 E6.0911
G1 X135.621 Y96.178 E6.13498
G1 X135.991 Y97.021 E6.16281
G1 X136.287 Y97.893 E6.19064
G1 X136.506 Y98.787 E6.21847
G1 X136.647 Y99.697 E6.24631
G1 X136.704 Y100.485 E6.27019
G1 X136.719 Y100.973 E6.28495
G1 X136.72 Y101.312 E6.2952
G1 X136.718 Y101.452 E6.29943
G1 X136.717 Y103.839 E6.37159
G1 X136.72 Y104.322 E6.38619
G1 X136.718 Y104.452 E6.39012
G1 X136.717 Y106.839 E6.46228
G1 X136.72 Y107.315 E6.47667
G1 X136.718 Y107.452 E6.48081
G1 X136.717 Y109.839 E6.55297
G1 X136.72 Y110.322 E6.56757
G1 X136.718 Y110.452 E6.5715
G1 X136.717 Y112.839 E6.64366
G1 X136.72 Y113.322 E6.65826
G1 X136.718 Y113.452 E6.6622
G1 X136.717 Y115.839 E6.73435
G1 X136.72 Y116.319 E6.74887
G1 X136.717 Y116.552 E6.75591
G1 X136.715 Y118.729 E6.82172
G1 X136.721 Y119.343 E6.84028
G1 X136.717 Y122.434 E6.93372
G1 X136.717 Y128.749 E7.12463
G1 X136.714 Y129.021 E7.13285
G1 X136.7 Y129.566 E7.14933
G1 X136.624 Y130.582 E7.18013
G1 X136.554 Y131.079 E7.1953
G1 X136.513 Y131.326 E7.20287
G1 X136.228 Y132.572 E7.24151
G1 X136.155 Y132.821 E7.24936
G1 X135.858 Y133.693 E7.2772
G1 X135.383 Y134.739 E7.31193
G1 X135.285 Y134.927 E7.31834
G1 X134.824 Y135.724 E7.34618
G1 X134.296 Y136.478 E7.374
G1 X133.633 Y137.261 E7.40502
G1 X133.478 Y137.427 E7.41188
G1 X132.821 Y138.072 E7.43972
G1 X132.11 Y138.658 E7.46757
G1 X131.352 Y139.179 E7.49537
G1 X130.551 Y139.633 E7.52321
G1 X129.713 Y140.016 E7.55106
G1 X128.846 Y140.325 E7.57889
G1 X127.955 Y140.557 E7.60672
G1 X127.302 Y140.676 E7.62678
G1 X126.982 Y140.724 E7.63657
G1 X126.067 Y140.821 E7.66438
G1 X125.074 Y140.836 E7.6944
G1 X124.853 Y140.829 E7.70109
G1 X124.508 Y140.812 E7.71153
G1 X123.294 Y140.734 E7.7483
G1 X123.163 Y140.733 E7.75226
G1 X122.333 Y140.676 E7.77741
G1 X119.746 Y140.573 E7.85568
G1 X117.27 Y140.544 E7.93054
G1 X114.69 Y140.587 E8.00854
G1 X112.213 Y140.698 E8.0835
G1 X111.357 Y140.761 E8.10944
G1 X110.007 Y140.834 E8.15031
G1 X109.086 Y140.843 E8.17816
G1 X108.168 Y140.772 E8.20599
G1 X107.26 Y140.621 E8.23382
G1 X106.368 Y140.392 E8.26166
G1 X105.5 Y140.087 E8.28947
G1 X104.926 Y139.837 E8.3084
G1 X104.68 Y139.721 E8.31662
G1 X103.865 Y139.292 E8.34446
G1 X103.091 Y138.795 E8.37227
G1 X102.362 Y138.232 E8.40011
G1 X101.499 Y137.415 E8.43604
G1 X101.447 Y137.36 E8.43833
G1 X100.844 Y136.664 E8.46616
G1 X100.303 Y135.919 E8.494
G1 X99.662 Y134.806 E8.53282
G1 X99.507 Y134.495 E8.54333
G1 X99.132 Y133.654 E8.57116
G1 X98.832 Y132.784 E8.59898
G1 X98.704 Y132.312 E8.61377
G1 X98.634 Y132.029 E8.62258
G1 X98.396 Y130.718 E8.66286
G1 X98.366 Y130.462 E8.67065
G1 X98.297 Y129.477 E8.7005
G1 X98.279 Y128.71 E8.7237
G1 X98.276 Y128.46 E8.73125
G1 X98.277 Y120.621 E8.96823
G1 X98.275 Y119.891 E8.9903
G1 X98.277 Y117.323 E9.06793
G1 X98.279 Y117.132 E9.0737
G1 X98.283 Y114.523 E9.15257
G1 X98.281 Y114.139 E9.16418
G1 X98.283 Y113.99 E9.16868
G1 X98.283 Y111.659 E9.23915
G1 X98.28 Y111.425 E9.24623
G1 X98.28 Y111.149 E9.25457
G1 X98.283 Y110.922 E9.26143
G1 X98.283 Y108.658 E9.32987
G1 X98.28 Y108.428 E9.33683
G1 X98.28 Y108.149 E9.34526
G1 X98.283 Y107.924 E9.35206
G1 X98.283 Y105.653 E9.42072
G1 X98.28 Y105.411 E9.42803
G1 X98.286 Y103.338 E9.4907
G1 X98.28 Y102.271 E9.52296
G1 X98.287 Y101.548 E9.54481
G1 X98.336 Y100.629 E9.57263
G1 X98.465 Y99.717 E9.60048
G1 X98.672 Y98.82 E9.62831
G1 X98.956 Y97.945 E9.65612
G1 X99.406 Y96.911 E9.69021
G1 X99.996 Y95.733 E9.73003
G1 X100.109 Y95.514 E9.73748
G1 X100.327 Y95.08 E9.75217
G1 X100.774 Y94.276 E9.77998
G1 X101.29 Y93.513 E9.80782
G1 X101.87 Y92.798 E9.83565
M204 S500
G0 F7500 X102.204 Y93.025
M204 S550
G1 F1500 X102.836 Y92.379 E9.86297
G1 X103.416 Y91.876 E9.88618
G1 X104.016 Y91.394 E9.90945
G1 X104.308 Y91.168 E9.92061
G1 X104.712 Y90.868 E9.93582
G1 X105.195 Y90.52 E9.95382
G1 X105.391 Y90.383 E9.96105
G1 X105.903 Y90.032 E9.97981
G1 X106.151 Y89.867 E9.98882
G1 X106.381 Y89.719 E9.99708
G1 X107.161 Y89.265 E10.02437
G1 X108.117 Y88.825 E10.05618
G1 X108.969 Y88.527 E10.08347
G1 X109.845 Y88.305 E10.11079
G1 X110.737 Y88.162 E10.1381
G1 X111.637 Y88.099 E10.16537
G1 X112.109 Y88.097 E10.17964
G1 X113.127 Y88.117 E10.21042
G1 X115.768 Y88.133 E10.29026
G1 X118.271 Y88.077 E10.36594
G1 X120.837 Y87.947 E10.44361
G1 X122.034 Y87.856 E10.4799
G1 X122.509 Y87.827 E10.49429
G1 X122.849 Y87.812 E10.50458
G1 X123.005 Y87.808 E10.50929
G1 X123.418 Y87.806 E10.52178
G1 X123.753 Y87.811 E10.53191
G1 X124.655 Y87.865 E10.55922
G1 X125.548 Y87.998 E10.58652
G1 X126.426 Y88.209 E10.61382
G1 X127.282 Y88.497 E10.64112
G1 X128.109 Y88.86 E10.66842
G1 X128.761 Y89.211 E10.69081
G1 X129.322 Y89.54 E10.71047
G1 X129.68 Y89.76 E10.72317
G1 X130.031 Y89.988 E10.73582
G1 X130.535 Y90.325 E10.75415
G1 X130.809 Y90.515 E10.76423
G1 X131.159 Y90.766 E10.77725
G1 X131.869 Y91.324 E10.80455
G1 X132.527 Y91.943 E10.83186
G1 X133.127 Y92.618 E10.85916
G1 X133.666 Y93.343 E10.88647
G1 X134.313 Y94.443 E10.92505
G1 X134.621 Y95.053 E10.94571
G1 X135.262 Y96.355 E10.98958
G1 X135.625 Y97.182 E11.01688
G1 X135.913 Y98.038 E11.04418
G1 X136.124 Y98.916 E11.07148
G1 X136.257 Y99.809 E11.09877
G1 X136.305 Y100.499 E11.11968
G1 X136.314 Y100.753 E11.12737
G1 X136.32 Y101.053 E11.13644
G1 X136.317 Y103.839 E11.22066
G1 X136.32 Y104.317 E11.23511
G1 X136.318 Y104.452 E11.23919
G1 X136.317 Y106.839 E11.31135
G1 X136.32 Y107.31 E11.32559
G1 X136.318 Y107.452 E11.32988
G1 X136.317 Y109.839 E11.40204
G1 X136.32 Y110.317 E11.41649
G1 X136.318 Y110.452 E11.42057
G1 X136.317 Y112.839 E11.49273
G1 X136.32 Y113.317 E11.50718
G1 X136.318 Y113.452 E11.51126
G1 X136.317 Y115.839 E11.58342
G1 X136.32 Y116.314 E11.59778
G1 X136.317 Y116.551 E11.60495
G1 X136.315 Y118.619 E11.66746
G1 X136.321 Y119.342 E11.68932
G1 X136.317 Y122.433 E11.78276
G1 X136.317 Y128.749 E11.97369
G1 X136.314 Y129.011 E11.98162
G1 X136.3 Y129.556 E11.9981
G1 X136.227 Y130.534 E12.02774
G1 X136.159 Y131.013 E12.04237
G1 X136.118 Y131.26 E12.04994
G1 X135.844 Y132.46 E12.08715
G1 X135.771 Y132.709 E12.09499
G1 X135.479 Y133.563 E12.12228
G1 X135.028 Y134.554 E12.15519
G1 X134.93 Y134.742 E12.1616
G1 X134.477 Y135.523 E12.18889
G1 X133.958 Y136.262 E12.21619
G1 X133.34 Y136.988 E12.24501
G1 X133.185 Y137.154 E12.25188
G1 X132.54 Y137.786 E12.27918
G1 X131.842 Y138.359 E12.30648
G1 X131.096 Y138.868 E12.33378
G1 X130.307 Y139.308 E12.36109
G1 X129.483 Y139.677 E12.38838
G1 X128.63 Y139.972 E12.41567
G1 X127.753 Y140.19 E12.44299
G1 X127.243 Y140.28 E12.45864
G1 X126.923 Y140.328 E12.46842
G1 X126.025 Y140.422 E12.49572
G1 X125.087 Y140.436 E12.52408
G1 X124.866 Y140.429 E12.53076
G1 X124.533 Y140.413 E12.54084
G1 X123.36 Y140.337 E12.57637
G1 X123.19 Y140.334 E12.58151
G1 X122.34 Y140.276 E12.60727
G1 X119.766 Y140.173 E12.68514
G1 X117.269 Y140.144 E12.76063
G1 X114.7 Y140.187 E12.83831
G1 X112.167 Y140.3 E12.91495
G1 X111.328 Y140.362 E12.94039
G1 X111.12 Y140.375 E12.94669
G1 X109.985 Y140.435 E12.98105
G1 X109.082 Y140.442 E13.00834
G1 X108.182 Y140.37 E13.03564
G1 X107.292 Y140.219 E13.06293
G1 X106.418 Y139.989 E13.09025
G1 X105.569 Y139.683 E13.11753
G1 X105.097 Y139.475 E13.13312
G1 X104.851 Y139.359 E13.14135
G1 X104.052 Y138.938 E13.16865
G1 X103.293 Y138.448 E13.19596
G1 X102.581 Y137.893 E13.22325
G1 X101.789 Y137.141 E13.25626
G1 X101.737 Y137.086 E13.25855
G1 X101.146 Y136.402 E13.28588
G1 X100.618 Y135.67 E13.31316
G1 X100.02 Y134.628 E13.34948
G1 X99.865 Y134.317 E13.35999
G1 X99.498 Y133.492 E13.38728
G1 X99.092 Y132.216 E13.42776
G1 X99.022 Y131.933 E13.43657
G1 X98.793 Y130.671 E13.47535
G1 X98.763 Y130.415 E13.48314
G1 X98.697 Y129.467 E13.51187
G1 X98.679 Y128.7 E13.53506
G1 X98.676 Y128.46 E13.54232
G1 X98.677 Y120.621 E13.77929
G1 X98.675 Y119.891 E13.80136
G1 X98.677 Y117.323 E13.87899
G1 X98.679 Y117.141 E13.88449
G1 X98.683 Y114.508 E13.96409
G1 X98.681 Y114.144 E13.97509
G1 X98.683 Y113.99 E13.97975
G1 X98.683 Y111.654 E14.05036
G1 X98.68 Y111.42 E14.05744
G1 X98.68 Y111.154 E14.06548
G1 X98.683 Y110.927 E14.07234
G1 X98.683 Y108.653 E14.14109
G1 X98.68 Y108.423 E14.14804
G1 X98.68 Y108.154 E14.15617
G1 X98.683 Y107.929 E14.16297
G1 X98.683 Y105.648 E14.23193
G1 X98.68 Y105.406 E14.23925
G1 X98.686 Y103.336 E14.30182
G1 X98.68 Y102.275 E14.3339
G1 X98.687 Y101.552 E14.35575
G1 X98.736 Y100.65 E14.38306
G1 X98.864 Y99.757 E14.41033
G1 X99.071 Y98.877 E14.43766
G1 X99.355 Y98.02 E14.46495
G1 X99.764 Y97.089 E14.49569
G1 X100.351 Y95.917 E14.53532
G1 X100.45 Y95.727 E14.5418
G1 X100.684 Y95.259 E14.55761
G1 X101.124 Y94.471 E14.5849
G1 X101.632 Y93.724 E14.61221
G1 X102.204 Y93.025 E14.63951
M204 S500
G1 F2400 E10.63951
;MESH:ender_3_pro_pro_tevo_tornado_x_tensioner_slider_misterguru_solid.stl
G0 F7500 X108.225 Y115.2
G0 X109.166 Y115.905
G0 X109.38 Y116.866
G0 X109.372 Y129.769
G1 F2400 E14.63951
G0 F7500 X109.5 Y130.059
M204 S550
;TYPE:WALL-OUTER
G1 F1500 X109.343 Y130.006 E14.64452
G1 X109.2 Y129.774 E14.65276
G1 X109.116 Y129.468 E14.66235
G1 X109.09 Y129.253 E14.6689
G1 X109.083 Y128.993 E14.67676
G1 X109.076 Y128.839 E14.68142
G1 X109.077 Y120.622 E14.92982
G1 X109.075 Y119.899 E14.95168
