;FLAVOR:Marlin
;TIME:2816
;Filament used: 2.09284m
;Layer height: 0.2
;MINX:88.204
;MINY:88.216
;MINZ:0.2
;MAXX:146.794
;MAXY:146.782
;MAXZ:25
;POSTPROCESSED
;Generated with Cura_SteamEngine master
M140 S60
M105
M190 S60
M104 S200
M105
M109 S200
M82 ;absolute extrusion mode
; Ender 3 Custom Start G-code
G92 E0 ; Reset Extruder
G28 ; Home all axes
G1 Z2.0 F3000 ; Move Z Axis up little to prevent scratching of Heat Bed
G1 X0.1 Y20 Z0.3 F5000.0 ; Move to start position
G1 X0.1 Y200.0 Z0.3 F1500.0 E15 ; Draw the first line
G1 X0.4 Y200.0 Z0.3 F5000.0 ; Move to side a little
G1 X0.4 Y20 Z0.3 F1500.0 E30 ; Draw the second line
G92 E0 ; Reset Extruder
G1 Z2.0 F3000 ; Move Z Axis up little to prevent scratching of Heat Bed
G1 X5 Y20 Z0.3 F5000.0 ; Move over to prevent blob squish
G92 E0
G92 E0
G1 F2400 E-4
;LAYER_COUNT:125
;LAYER:0
M107
M204 S500
G0 F7500 X96.381 Y96.726 Z0.2
M204 S550
;TYPE:SKIRT
G1 F2400 E0
G1 F1500 X97.176 Y95.948 E0.03363
G1 X97.465 Y95.676 E0.04562
G1 X97.8 Y95.371 E0.05932
G1 X98.519 Y94.77 E0.08765
G1 X99.119 Y94.342 E0.10993
G1 X99.25 Y94.255 E0.11468
G1 X100.091 Y93.749 E0.14435
G1 X100.443 Y93.558 E0.15646
G1 X102.718 Y92.286 E0.23525
G1 X105.656 Y90.518 E0.33891
G1 X106.736 Y89.947 E0.37584
G1 X106.958 Y89.845 E0.38323
G1 X108.206 Y89.361 E0.42369
G1 X108.679 Y89.21 E0.4387
G1 X108.95 Y89.127 E0.44727
G1 X109.328 Y89.017 E0.45917
G1 X109.685 Y88.92 E0.47035
G1 X110.709 Y88.659 E0.5023
G1 X111.072 Y88.573 E0.51358
G1 X111.492 Y88.481 E0.52657
G1 X112.416 Y88.319 E0.55493
G1 X113.14 Y88.249 E0.57692
G1 X113.311 Y88.238 E0.5821
G1 X114.152 Y88.216 E0.60753
G1 X114.79 Y88.225 E0.62682
G1 X116.483 Y88.269 E0.67802
G1 X119.064 Y88.262 E0.75604
G1 X120.685 Y88.221 E0.80506
G1 X121.52 Y88.231 E0.83031
G1 X121.698 Y88.24 E0.83569
G1 X122.632 Y88.327 E0.86405
G1 X123.494 Y88.48 E0.89052
G1 X124.166 Y88.627 E0.91131
G1 X124.475 Y88.699 E0.9209
G1 X124.788 Y88.777 E0.93065
G1 X125.151 Y88.875 E0.94202
G1 X126.085 Y89.142 E0.97139
G1 X126.433 Y89.247 E0.98238
G1 X126.902 Y89.398 E0.99727
G1 X127.782 Y89.724 E1.02564
G1 X128.45 Y90.03 E1.04785
G1 X128.588 Y90.099 E1.05252
G1 X129.285 Y90.48 E1.07653
G1 X129.598 Y90.667 E1.08755
G1 X131.442 Y91.794 E1.15288
G1 X134.289 Y93.415 E1.25192
G1 X134.95 Y93.776 E1.27469
G1 X136.005 Y94.432 E1.31224
G1 X136.177 Y94.553 E1.3186
G1 X136.921 Y95.125 E1.34697
G1 X137.289 Y95.449 E1.36179
G1 X137.682 Y95.81 E1.37792
G1 X137.896 Y96.011 E1.3868
G1 X138.154 Y96.261 E1.39766
G1 X138.419 Y96.527 E1.40901
G1 X139.218 Y97.356 E1.44382
G1 X139.5 Y97.661 E1.45637
G1 X139.777 Y97.971 E1.46894
G1 X140.372 Y98.696 E1.49729
G1 X140.941 Y99.531 E1.52784
G1 X141.087 Y99.768 E1.53625
G1 X141.385 Y100.283 E1.55424
G1 X142.521 Y102.372 E1.62613
G1 X143.769 Y104.519 E1.7012
G1 X144.102 Y105.061 E1.72043
G1 X144.438 Y105.627 E1.74033
G1 X144.764 Y106.218 E1.76073
G1 X144.951 Y106.584 E1.77316
G1 X145.341 Y107.437 E1.80151
G1 X145.578 Y108.074 E1.82206
G1 X145.636 Y108.246 E1.82754
G1 X145.738 Y108.564 E1.83764
G1 X145.901 Y109.106 E1.85475
G1 X146.012 Y109.497 E1.86703
G1 X146.109 Y109.862 E1.87845
G1 X146.371 Y110.922 E1.91146
G1 X146.455 Y111.291 E1.9229
G1 X146.552 Y111.751 E1.93711
G1 X146.707 Y112.676 E1.96546
G1 X146.764 Y113.273 E1.98359
G1 X146.776 Y113.449 E1.98893
G1 X146.794 Y114.576 E2.023
G1 X146.786 Y114.807 E2.02999
G1 X146.729 Y117.47 E2.11051
G1 X146.756 Y120.403 E2.19918
G1 X146.762 Y120.652 E2.20671
G1 X146.746 Y121.59 E2.23507
G1 X146.702 Y122.115 E2.25099
G1 X146.675 Y122.365 E2.2586
G1 X146.473 Y123.589 E2.2961
G1 X146.354 Y124.12 E2.31255
G1 X146.288 Y124.398 E2.32119
G1 X146.119 Y125.07 E2.34213
G1 X146.041 Y125.363 E2.3513
G1 X145.955 Y125.669 E2.36091
G1 X145.87 Y125.957 E2.36999
G1 X145.774 Y126.266 E2.37977
G1 X145.487 Y127.139 E2.40755
G1 X145.156 Y128.017 E2.43591
G1 X144.796 Y128.779 E2.46139
G1 X144.709 Y128.946 E2.46708
G1 X144.369 Y129.551 E2.48806
G1 X143.847 Y130.414 E2.51855
G1 X143.379 Y131.166 E2.54533
G1 X142.099 Y133.36 E2.62211
G1 X141.369 Y134.687 E2.6679
G1 X141.305 Y134.8 E2.67182
G1 X141.096 Y135.154 E2.68425
G1 X140.935 Y135.415 E2.69352
G1 X140.409 Y136.192 E2.72189
G1 X139.749 Y136.999 E2.7534
G1 X139.118 Y137.7 E2.78192
G1 X138.854 Y137.983 E2.79361
G1 X138.515 Y138.334 E2.80837
G1 X138.32 Y138.531 E2.81675
G1 X138.126 Y138.722 E2.82498
G1 X137.865 Y138.971 E2.83588
G1 X137.421 Y139.379 E2.85411
G1 X136.902 Y139.843 E2.87515
G1 X136.176 Y140.437 E2.90351
G1 X135.672 Y140.795 E2.9222
G1 X135.552 Y140.875 E2.92656
G1 X134.851 Y141.305 E2.95142
G1 X134.427 Y141.542 E2.9661
G1 X132.636 Y142.519 E3.02778
G1 X129.631 Y144.297 E3.13333
G1 X129.225 Y144.526 E3.14742
G1 X128.82 Y144.743 E3.16131
G1 X127.975 Y145.15 E3.18966
G1 X127.029 Y145.507 E3.22023
G1 X126.313 Y145.74 E3.24299
G1 X125.992 Y145.839 E3.25315
G1 X125.331 Y146.032 E3.27396
G1 X125.013 Y146.12 E3.28394
G1 X124.859 Y146.16 E3.28875
G1 X124.572 Y146.23 E3.29768
G1 X124.04 Y146.353 E3.31419
G1 X123.826 Y146.4 E3.32081
G1 X123.17 Y146.538 E3.34107
G1 X122.245 Y146.692 E3.36942
G1 X121.575 Y146.754 E3.38976
G1 X121.411 Y146.764 E3.39473
G1 X120.523 Y146.782 E3.42158
G1 X119.194 Y146.756 E3.46176
G1 X116.596 Y146.742 E3.5403
G1 X115.073 Y146.776 E3.58635
G1 X114.29 Y146.782 E3.61002
G1 X113.353 Y146.749 E3.63837
G1 X112.716 Y146.681 E3.65773
G1 X112.46 Y146.646 E3.66554
G1 X111.636 Y146.501 E3.69084
G1 X111.097 Y146.385 E3.7075
G1 X110.81 Y146.319 E3.71641
G1 X110.095 Y146.145 E3.73865
G1 X109.825 Y146.076 E3.74708
G1 X109.629 Y146.023 E3.75321
G1 X109.317 Y145.933 E3.76303
G1 X108.6 Y145.715 E3.78569
G1 X107.969 Y145.511 E3.80573
G1 X107.09 Y145.184 E3.83408
G1 X106.406 Y144.869 E3.85685
G1 X106.265 Y144.798 E3.86162
G1 X105.613 Y144.441 E3.88409
G1 X104.762 Y143.937 E3.91399
G1 X103.874 Y143.395 E3.94544
G1 X101.71 Y142.155 E4.02084
G1 X100.476 Y141.486 E4.06327
G1 X100.092 Y141.269 E4.07661
G1 X99.548 Y140.94 E4.09582
G1 X99.489 Y140.902 E4.09795
G1 X98.723 Y140.361 E4.12629
G1 X98.127 Y139.866 E4.14972
G1 X97.53 Y139.334 E4.17389
G1 X97.295 Y139.119 E4.18352
G1 X96.844 Y138.693 E4.20227
G1 X96.595 Y138.45 E4.21279
G1 X96.283 Y138.133 E4.22624
G1 X96.028 Y137.865 E4.23742
G1 X95.797 Y137.616 E4.24769
G1 X95.323 Y137.097 E4.26893
G1 X94.72 Y136.378 E4.2973
G1 X94.076 Y135.442 E4.33165
G1 X93.889 Y135.138 E4.34244
G1 X93.637 Y134.708 E4.3575
G1 X92.554 Y132.754 E4.42504
G1 X91.236 Y130.528 E4.50324
G1 X90.684 Y129.638 E4.5349
G1 X90.571 Y129.449 E4.54156
G1 X90.124 Y128.624 E4.56992
G1 X89.838 Y127.987 E4.59103
G1 X89.72 Y127.7 E4.60041
G1 X89.419 Y126.874 E4.62699
G1 X89.226 Y126.266 E4.64627
G1 X89.011 Y125.55 E4.66887
G1 X88.922 Y125.237 E4.67871
G1 X88.849 Y124.965 E4.68722
G1 X88.772 Y124.662 E4.69668
G1 X88.641 Y124.105 E4.71397
G1 X88.499 Y123.461 E4.73391
G1 X88.336 Y122.537 E4.76227
G1 X88.261 Y121.753 E4.78608
G1 X88.251 Y121.587 E4.79111
G1 X88.232 Y120.81 E4.8146
G1 X88.243 Y119.816 E4.84466
G1 X88.266 Y118.818 E4.87483
G1 X88.254 Y116.274 E4.95174
G1 X88.204 Y114.499 E5.00542
G1 X88.254 Y113.101 E5.04771
G1 X88.279 Y112.85 E5.05533
G1 X88.461 Y111.672 E5.09137
G1 X88.567 Y111.169 E5.10691
G1 X88.636 Y110.865 E5.11633
G1 X88.8 Y110.183 E5.13753
G1 X88.876 Y109.886 E5.1468
G1 X88.963 Y109.564 E5.15689
G1 X89.047 Y109.268 E5.16619
G1 X89.16 Y108.897 E5.17791
G1 X89.375 Y108.214 E5.19956
G1 X89.694 Y107.332 E5.22791
G1 X90.028 Y106.598 E5.25229
G1 X90.102 Y106.45 E5.25729
G1 X90.462 Y105.787 E5.2801
G1 X90.693 Y105.397 E5.2938
G1 X91.691 Y103.743 E5.3522
G1 X93.357 Y100.77 E5.45522
G1 X93.651 Y100.223 E5.47399
G1 X94.13 Y99.416 E5.50236
G1 X94.422 Y98.99 E5.51798
G1 X94.57 Y98.785 E5.52562
G1 X95.333 Y97.843 E5.56227
G1 X95.666 Y97.475 E5.57727
G1 X95.823 Y97.305 E5.58426
G1 X96.076 Y97.037 E5.59541
G1 X96.381 Y96.726 E5.60857
M204 S500
G0 F7500 X96.661 Y97.012
M204 S550
G1 F1500 X97.456 Y96.234 E5.6422
G1 X97.734 Y95.972 E5.65375
G1 X98.069 Y95.667 E5.66744
G1 X98.776 Y95.077 E5.69528
G1 X99.341 Y94.675 E5.71624
G1 X99.472 Y94.588 E5.721
G1 X100.282 Y94.101 E5.74957
G1 X100.587 Y93.935 E5.76007
G1 X102.904 Y92.64 E5.84031
G1 X105.862 Y90.86 E5.94467
G1 X106.903 Y90.31 E5.98026
G1 X107.125 Y90.208 E5.98765
G1 X108.327 Y89.742 E6.02662
G1 X108.8 Y89.591 E6.04163
G1 X109.062 Y89.511 E6.04991
G1 X109.44 Y89.401 E6.06181
G1 X109.784 Y89.307 E6.07259
G1 X110.808 Y89.046 E6.10454
G1 X111.158 Y88.964 E6.1154
G1 X111.578 Y88.872 E6.1284
G1 X112.485 Y88.714 E6.15623
G1 X113.166 Y88.648 E6.17692
G1 X113.337 Y88.637 E6.1821
G1 X114.147 Y88.616 E6.20659
G1 X114.78 Y88.625 E6.22573
G1 X116.474 Y88.669 E6.27696
G1 X119.031 Y88.662 E6.35425
G1 X120.695 Y88.62 E6.40457
G1 X121.5 Y88.631 E6.42891
G1 X121.678 Y88.64 E6.4343
G1 X122.595 Y88.726 E6.46214
G1 X123.408 Y88.871 E6.48711
G1 X124.08 Y89.018 E6.5079
G1 X124.378 Y89.088 E6.51716
G1 X124.691 Y89.166 E6.52691
G1 X125.041 Y89.259 E6.53785
G1 X125.975 Y89.526 E6.56722
G1 X126.311 Y89.628 E6.57784
G1 X126.78 Y89.779 E6.59273
G1 X127.643 Y90.099 E6.62055
G1 X128.271 Y90.388 E6.64145
G1 X128.409 Y90.457 E6.64612
G1 X129.081 Y90.824 E6.66926
G1 X129.39 Y91.008 E6.68014
G1 X131.265 Y92.154 E6.74657
G1 X134.055 Y93.742 E6.84361
G1 X134.759 Y94.127 E6.86787
G1 X135.775 Y94.759 E6.90404
G1 X135.947 Y94.88 E6.9104
G1 X137.019 Y95.744 E6.95202
G1 X137.412 Y96.105 E6.96815
G1 X137.617 Y96.299 E6.97668
G1 X137.875 Y96.549 E6.98754
G1 X138.131 Y96.805 E6.99849
G1 X138.93 Y97.634 E7.03329
G1 X139.202 Y97.927 E7.04538
G1 X139.479 Y98.237 E7.05795
G1 X140.062 Y98.95 E7.08579
G1 X140.6 Y99.74 E7.11468
G1 X140.746 Y99.977 E7.1231
G1 X141.034 Y100.474 E7.14046
G1 X142.167 Y102.558 E7.21217
G1 X143.45 Y104.765 E7.28934
G1 X143.86 Y105.434 E7.31306
G1 X144.094 Y105.83 E7.32697
G1 X144.407 Y106.4 E7.34663
G1 X144.594 Y106.766 E7.35905
G1 X144.977 Y107.603 E7.38688
G1 X145.199 Y108.202 E7.40619
G1 X145.257 Y108.374 E7.41168
G1 X145.356 Y108.68 E7.4214
G1 X145.462 Y109.029 E7.43243
G1 X145.627 Y109.606 E7.45057
G1 X145.72 Y109.958 E7.46157
G1 X145.982 Y111.018 E7.49458
G1 X146.064 Y111.374 E7.50563
G1 X146.161 Y111.834 E7.51984
G1 X146.312 Y112.742 E7.54766
G1 X146.364 Y113.3 E7.5646
G1 X146.376 Y113.476 E7.56994
G1 X146.395 Y114.562 E7.60277
G1 X146.385 Y114.861 E7.61182
G1 X146.329 Y117.465 E7.69055
G1 X146.355 Y120.357 E7.77798
G1 X146.363 Y120.662 E7.78721
G1 X146.346 Y121.583 E7.81505
G1 X146.305 Y122.072 E7.82989
G1 X146.278 Y122.322 E7.83749
G1 X146.082 Y123.502 E7.87365
G1 X145.963 Y124.033 E7.8901
G1 X145.9 Y124.3 E7.89839
G1 X145.731 Y124.972 E7.91934
G1 X145.656 Y125.255 E7.92819
G1 X145.57 Y125.561 E7.9378
G1 X145.488 Y125.838 E7.94653
G1 X145.337 Y126.319 E7.96177
G1 X145.108 Y127.014 E7.98389
G1 X144.782 Y127.875 E8.01172
G1 X144.441 Y128.594 E8.03578
G1 X144.354 Y128.761 E8.04147
G1 X144.026 Y129.345 E8.06172
G1 X143.507 Y130.203 E8.09203
G1 X143.036 Y130.959 E8.11896
G1 X141.77 Y133.131 E8.19496
G1 X141.021 Y134.49 E8.24187
G1 X140.957 Y134.603 E8.2458
G1 X140.756 Y134.944 E8.25776
G1 X140.595 Y135.205 E8.26703
G1 X140.078 Y135.967 E8.29487
G1 X139.451 Y136.732 E8.32477
G1 X138.82 Y137.433 E8.35328
G1 X138.567 Y137.705 E8.36451
G1 X138.228 Y138.056 E8.37926
G1 X138.04 Y138.246 E8.38734
G1 X137.846 Y138.437 E8.39557
G1 X137.594 Y138.677 E8.40609
G1 X137.154 Y139.08 E8.42413
G1 X136.635 Y139.544 E8.44518
G1 X135.923 Y140.128 E8.47301
G1 X135.45 Y140.462 E8.49052
G1 X135.33 Y140.542 E8.49488
G1 X134.654 Y140.956 E8.51884
G1 X134.235 Y141.191 E8.53336
G1 X132.455 Y142.162 E8.59466
G1 X129.428 Y143.953 E8.70098
G1 X129.036 Y144.173 E8.71457
G1 X128.631 Y144.39 E8.72846
G1 X127.802 Y144.79 E8.75629
G1 X126.905 Y145.127 E8.78526
G1 X126.189 Y145.36 E8.80802
G1 X125.88 Y145.455 E8.81779
G1 X125.219 Y145.648 E8.83861
G1 X124.913 Y145.733 E8.84821
G1 X124.482 Y145.841 E8.86164
G1 X123.95 Y145.964 E8.87815
G1 X123.088 Y146.147 E8.90479
G1 X122.18 Y146.297 E8.93261
G1 X121.551 Y146.354 E8.9517
G1 X121.387 Y146.364 E8.95667
G1 X120.531 Y146.382 E8.98255
G1 X119.204 Y146.356 E9.02267
G1 X116.588 Y146.342 E9.10175
G1 X115.07 Y146.376 E9.14766
G1 X114.287 Y146.382 E9.17133
G1 X113.367 Y146.349 E9.19916
G1 X112.77 Y146.284 E9.21731
G1 X112.514 Y146.249 E9.22512
G1 X111.72 Y146.11 E9.24949
G1 X111.181 Y145.994 E9.26616
G1 X110.905 Y145.93 E9.27472
G1 X110.19 Y145.756 E9.29697
G1 X109.929 Y145.689 E9.30511
G1 X109.733 Y145.636 E9.31125
G1 X109.432 Y145.55 E9.32071
G1 X108.723 Y145.334 E9.34312
G1 X108.092 Y145.13 E9.36317
G1 X107.229 Y144.809 E9.391
G1 X106.586 Y144.511 E9.41243
G1 X106.445 Y144.44 E9.4172
G1 X105.816 Y144.097 E9.43886
G1 X104.971 Y143.596 E9.46855
G1 X104.091 Y143.059 E9.49972
G1 X101.887 Y141.796 E9.57651
G1 X100.846 Y141.233 E9.61229
G1 X100.289 Y140.92 E9.6316
G1 X99.764 Y140.604 E9.65012
G1 X99.705 Y140.566 E9.65225
G1 X98.954 Y140.034 E9.68007
G1 X98.393 Y139.568 E9.70211
G1 X97.796 Y139.036 E9.72629
G1 X97.569 Y138.828 E9.7356
G1 X97.118 Y138.402 E9.75435
G1 X96.879 Y138.169 E9.76444
G1 X96.572 Y137.857 E9.77767
G1 X96.32 Y137.592 E9.78873
G1 X96.092 Y137.346 E9.79887
G1 X95.618 Y136.827 E9.82011
G1 X95.027 Y136.121 E9.84795
G1 X94.416 Y135.233 E9.88053
G1 X94.229 Y134.929 E9.89132
G1 X93.987 Y134.514 E9.90585
G1 X92.889 Y132.533 E9.97431
G1 X91.593 Y130.345 E10.05119
G1 X91.027 Y129.432 E10.08366
G1 X90.914 Y129.243 E10.09032
G1 X90.476 Y128.434 E10.11813
G1 X90.208 Y127.835 E10.13797
G1 X90.09 Y127.548 E10.14735
G1 X89.8 Y126.752 E10.17296
G1 X89.609 Y126.15 E10.19205
G1 X89.394 Y125.434 E10.21465
G1 X89.308 Y125.134 E10.22409
G1 X89.235 Y124.862 E10.2326
G1 X89.161 Y124.569 E10.24174
G1 X89.071 Y124.191 E10.25348
G1 X88.89 Y123.374 E10.27878
G1 X88.731 Y122.468 E10.30659
G1 X88.66 Y121.729 E10.32903
G1 X88.65 Y121.563 E10.33406
G1 X88.632 Y120.814 E10.35671
G1 X88.643 Y119.825 E10.3866
G1 X88.666 Y118.825 E10.41684
G1 X88.654 Y116.261 E10.49435
G1 X88.604 Y114.488 E10.54797
G1 X88.652 Y113.14 E10.58875
G1 X88.677 Y112.889 E10.59637
G1 X88.853 Y111.754 E10.6311
G1 X88.959 Y111.251 E10.64664
G1 X89.025 Y110.959 E10.65569
G1 X89.189 Y110.277 E10.67689
G1 X89.262 Y109.99 E10.68584
G1 X89.349 Y109.668 E10.69593
G1 X89.43 Y109.383 E10.70488
G1 X89.541 Y109.017 E10.71644
G1 X89.756 Y108.334 E10.73809
G1 X90.07 Y107.469 E10.76591
G1 X90.386 Y106.777 E10.78891
G1 X90.46 Y106.629 E10.79391
G1 X90.807 Y105.99 E10.81589
G1 X91.036 Y105.603 E10.82948
G1 X92.032 Y103.953 E10.88775
G1 X93.701 Y100.974 E10.99097
G1 X94.003 Y100.412 E11.01026
G1 X94.474 Y99.621 E11.03809
G1 X94.747 Y99.224 E11.05265
G1 X94.895 Y99.019 E11.0603
G1 X95.629 Y98.112 E11.09557
G1 X96.114 Y97.579 E11.11736
G1 X96.367 Y97.311 E11.1285
G1 X96.661 Y97.012 E11.14117
M204 S500
G0 F7500 X96.941 Y97.298
M204 S550
G1 F1500 X97.736 Y96.52 E11.1748
G1 X98.003 Y96.268 E11.1859
G1 X98.338 Y95.963 E11.19959
G1 X99.032 Y95.385 E11.2269
G1 X99.562 Y95.008 E11.24656
G1 X99.693 Y94.921 E11.25131
G1 X100.472 Y94.452 E11.2788
G1 X100.826 Y94.26 E11.29097
G1 X103.128 Y92.974 E11.37069
G1 X106.069 Y91.203 E11.47447
G1 X107.07 Y90.673 E11.50871
G1 X107.292 Y90.571 E11.51609
G1 X108.449 Y90.123 E11.5536
G1 X108.922 Y89.972 E11.56861
G1 X109.174 Y89.895 E11.57658
G1 X109.552 Y89.785 E11.58848
G1 X109.883 Y89.695 E11.59885
G1 X110.907 Y89.434 E11.63079
G1 X111.243 Y89.354 E11.64123
G1 X111.663 Y89.262 E11.65423
G1 X112.553 Y89.108 E11.68154
G1 X113.191 Y89.047 E11.70091
G1 X113.362 Y89.036 E11.70609
G1 X114.142 Y89.016 E11.72968
G1 X114.77 Y89.024 E11.74866
G1 X116.501 Y89.069 E11.80101
G1 X119.042 Y89.062 E11.87783
G1 X120.705 Y89.02 E11.92811
G1 X121.48 Y89.03 E11.95154
G1 X121.658 Y89.039 E11.95693
G1 X122.557 Y89.125 E11.98423
G1 X123.323 Y89.262 E12.00776
G1 X123.995 Y89.409 E12.02855
G1 X124.281 Y89.476 E12.03743
G1 X124.594 Y89.554 E12.04718
G1 X124.932 Y89.644 E12.05776
G1 X125.866 Y89.911 E12.08712
G1 X126.188 Y90.009 E12.0973
G1 X126.657 Y90.16 E12.11219
G1 X127.504 Y90.474 E12.1395
G1 X128.093 Y90.746 E12.15911
G1 X128.231 Y90.815 E12.16378
G1 X128.876 Y91.167 E12.18599
G1 X129.181 Y91.349 E12.19673
G1 X131.05 Y92.491 E12.26294
G1 X133.889 Y94.107 E12.36169
G1 X134.567 Y94.478 E12.38506
G1 X135.545 Y95.087 E12.41989
G1 X135.717 Y95.208 E12.42624
