;FLAVOR:Marlin
;TIME:16713
;Filament used: 12.7658m
;Layer height: 0.2
;MINX:73.645
;MINY:38.58
;MINZ:0.2
;MAXX:161.35
;MAXY:196.431
;MAXZ:20
;Generated with Cura_SteamEngine master
M140 S60
M105
M190 S60
M104 S200
M105
M109 S200
M82 ;absolute extrusion mode
; Ender 3 Custom Start G-code
G92 E0 ; Reset Extruder
G28 ; Home all axes
G1 Z2.0 F3000 ; Move Z Axis up little to prevent scratching of Heat Bed
G1 X0.1 Y20 Z0.3 F5000.0 ; Move to start position
G1 X0.1 Y200.0 Z0.3 F1500.0 E15 ; Draw the first line
G1 X0.4 Y200.0 Z0.3 F5000.0 ; Move to side a little
G1 X0.4 Y20 Z0.3 F1500.0 E30 ; Draw the second line
G92 E0 ; Reset Extruder
G1 Z2.0 F3000 ; Move Z Axis up little to prevent scratching of Heat Bed
G1 X5 Y20 Z0.3 F5000.0 ; Move over to prevent blob squish
G92 E0
G92 E0
G1 F2400 E-4
;LAYER_COUNT:100
;LAYER:0
M107
M204 S500
G0 F7500 X76.153 Y47.756 Z0.2
M204 S550
;TYPE:SKIRT
G1 F2400 E0
G1 F1500 X76.658 Y46.987 E0.02781
G1 X76.964 Y46.561 E0.04367
G1 X77.443 Y45.941 E0.06735
G1 X77.84 Y45.464 E0.08611
G1 X78.423 Y44.818 E0.11242
G1 X79.005 Y44.223 E0.13758
G1 X81.083 Y42.146 E0.2264
G1 X81.557 Y41.686 E0.24636
G1 X82.258 Y41.062 E0.27473
G1 X83.008 Y40.5 E0.30307
G1 X83.804 Y40.004 E0.33142
G1 X84.64 Y39.578 E0.35978
G1 X85.508 Y39.224 E0.38812
G1 X86.404 Y38.946 E0.41648
G1 X87.32 Y38.745 E0.44483
G1 X88.25 Y38.623 E0.47319
G1 X89.187 Y38.58 E0.50154
G1 X90.367 Y38.64 E0.53726
G1 X91.605 Y38.77 E0.57489
G1 X94.169 Y39.005 E0.65272
G1 X96.672 Y39.163 E0.72854
G1 X97.992 Y39.205 E0.76847
G1 X99.258 Y39.259 E0.80677
G1 X100.192 Y39.339 E0.83511
G1 X100.798 Y39.434 E0.85365
G1 X101.162 Y39.502 E0.86485
G1 X103.693 Y39.935 E0.94247
G1 X106.183 Y40.289 E1.0185
G1 X108.687 Y40.574 E1.09469
G1 X111.229 Y40.789 E1.17181
G1 X113.688 Y40.929 E1.24626
G1 X116.246 Y41.001 E1.32362
G1 X118.734 Y41.001 E1.39883
G1 X121.293 Y40.929 E1.47622
G1 X123.777 Y40.788 E1.55144
G1 X126.266 Y40.576 E1.62695
G1 X128.794 Y40.289 E1.70386
G1 X131.286 Y39.934 E1.77996
G1 X133.257 Y39.602 E1.84038
G1 X134.273 Y39.421 E1.87158
G1 X135.202 Y39.296 E1.89991
G1 X135.811 Y39.257 E1.91836
G1 X137.217 Y39.206 E1.96089
G1 X137.332 Y39.198 E1.96438
G1 X137.744 Y39.187 E1.97684
G1 X140.242 Y39.049 E2.05247
G1 X142.794 Y38.836 E2.12988
G1 X144.347 Y38.666 E2.17711
G1 X144.601 Y38.641 E2.18483
G1 X144.833 Y38.621 E2.19187
G1 X145.77 Y38.58 E2.22022
G1 X146.707 Y38.619 E2.24857
G1 X147.638 Y38.738 E2.27694
G1 X148.554 Y38.936 E2.30527
G1 X149.451 Y39.211 E2.33364
G1 X150.321 Y39.562 E2.362
G1 X151.158 Y39.985 E2.39035
G1 X151.955 Y40.478 E2.41868
G1 X152.708 Y41.038 E2.44704
G1 X153.305 Y41.558 E2.47098
G1 X153.548 Y41.786 E2.48105
G1 X153.799 Y42.03 E2.49163
G1 X156.021 Y44.253 E2.58665
G1 X156.513 Y44.759 E2.60798
G1 X156.71 Y44.968 E2.61667
G1 X156.889 Y45.162 E2.62465
G1 X157.236 Y45.555 E2.6405
G1 X157.469 Y45.833 E2.65146
G1 X157.873 Y46.345 E2.67118
G1 X158.212 Y46.802 E2.68838
G1 X158.809 Y47.697 E2.7209
G1 X158.941 Y47.917 E2.72866
G1 X159.142 Y48.264 E2.74078
G1 X159.394 Y48.721 E2.75656
G1 X159.842 Y49.631 E2.78722
G1 X160.042 Y50.089 E2.80233
G1 X160.373 Y50.943 E2.83001
G1 X160.48 Y51.257 E2.84004
G1 X160.682 Y51.917 E2.86091
G1 X160.83 Y52.461 E2.87795
G1 X161.074 Y53.585 E2.91272
G1 X161.178 Y54.225 E2.93232
G1 X161.27 Y54.943 E2.9542
G1 X161.285 Y55.1 E2.95897
G1 X161.33 Y55.81 E2.98048
G1 X161.35 Y56.465 E3.00029
G1 X161.348 Y57.198 E3.02245
G1 X161.339 Y57.447 E3.02998
G1 X161.313 Y57.907 E3.04391
G1 X161.264 Y58.446 E3.06027
G1 X161.226 Y58.771 E3.07016
G1 X161.152 Y59.295 E3.08616
G1 X161.114 Y59.524 E3.09318
G1 X161.03 Y59.968 E3.10684
G1 X160.976 Y60.227 E3.11483
G1 X160.855 Y60.745 E3.13091
G1 X160.773 Y61.061 E3.14078
G1 X160.656 Y61.48 E3.15393
G1 X160.614 Y61.619 E3.15832
G1 X160.429 Y62.176 E3.17607
G1 X160.296 Y62.544 E3.1879
G1 X160.062 Y63.138 E3.2072
G1 X159.975 Y63.341 E3.21387
G1 X159.774 Y63.783 E3.22855
G1 X159.469 Y64.416 E3.24979
G1 X159.302 Y64.748 E3.26103
G1 X158.72 Y65.857 E3.29889
G1 X158.524 Y66.227 E3.31155
G1 X157.392 Y68.486 E3.38793
G1 X156.328 Y70.767 E3.46402
G1 X155.318 Y73.102 E3.54093
G1 X154.394 Y75.416 E3.61625
G1 X153.522 Y77.792 E3.69276
G1 X152.716 Y80.199 E3.76949
G1 X151.994 Y82.573 E3.84451
G1 X151.327 Y85.018 E3.92112
G1 X150.719 Y87.516 E3.99884
G1 X150.21 Y89.908 E4.07277
G1 X149.75 Y92.413 E4.14976
G1 X149.368 Y94.876 E4.22511
G1 X149.051 Y97.396 E4.30189
G1 X148.81 Y99.874 E4.37715
G1 X148.637 Y102.388 E4.45333
G1 X148.533 Y104.932 E4.5303
G1 X148.502 Y107.322 E4.60256
G1 X148.501 Y184.861 E6.94657
G1 X148.49 Y185.588 E6.96855
G1 X148.436 Y186.525 E6.99692
G1 X148.302 Y187.453 E7.02527
G1 X148.09 Y188.367 E7.05363
G1 X147.8 Y189.259 E7.08199
G1 X147.436 Y190.123 E7.11033
G1 X146.999 Y190.953 E7.13869
G1 X146.494 Y191.743 E7.16703
G1 X145.922 Y192.487 E7.1954
G1 X145.29 Y193.179 E7.22373
G1 X144.601 Y193.815 E7.25208
G1 X143.86 Y194.391 E7.28045
G1 X143.073 Y194.9 E7.30878
G1 X142.245 Y195.342 E7.33716
G1 X141.383 Y195.71 E7.36549
G1 X140.492 Y196.005 E7.39386
G1 X139.58 Y196.222 E7.4222
G1 X138.653 Y196.361 E7.45054
G1 X137.801 Y196.418 E7.47635
G1 X137.482 Y196.427 E7.486
G1 X137.172 Y196.431 E7.49537
G1 X98.067 Y196.43 E8.67752
G1 X97.369 Y196.421 E8.69862
G1 X96.433 Y196.369 E8.72696
G1 X95.504 Y196.237 E8.75533
G1 X94.59 Y196.027 E8.78368
G1 X93.697 Y195.74 E8.81203
G1 X92.832 Y195.377 E8.84039
G1 X92.001 Y194.943 E8.86873
G1 X91.21 Y194.439 E8.89709
G1 X90.465 Y193.869 E8.92544
G1 X89.771 Y193.238 E8.9538
G1 X89.134 Y192.551 E8.98212
G1 X88.557 Y191.811 E9.01049
G1 X88.045 Y191.025 E9.03885
G1 X87.602 Y190.198 E9.06721
G1 X87.231 Y189.337 E9.09555
G1 X86.935 Y188.447 E9.1239
G1 X86.716 Y187.535 E9.15226
G1 X86.575 Y186.608 E9.1806
G1 X86.515 Y185.719 E9.20754
G1 X86.506 Y185.386 E9.21761
G1 X86.502 Y185.089 E9.22659
G1 X86.502 Y107.349 E11.57668
G1 X86.465 Y104.741 E11.65553
G1 X86.358 Y102.219 E11.73183
G1 X86.181 Y99.724 E11.80745
G1 X85.933 Y97.225 E11.88336
G1 X85.615 Y94.735 E11.95925
G1 X85.221 Y92.227 E12.036
G1 X84.762 Y89.761 E12.11182
G1 X84.228 Y87.278 E12.1886
G1 X83.639 Y84.874 E12.26342
G1 X82.963 Y82.417 E12.34046
G1 X82.233 Y80.033 E12.41583
G1 X81.423 Y77.634 E12.49238
G1 X80.543 Y75.246 E12.56931
G1 X79.619 Y72.947 E12.64421
G1 X78.611 Y70.631 E12.72057
G1 X77.547 Y68.361 E12.79636
G1 X76.047 Y65.41 E12.89643
G1 X75.604 Y64.575 E12.925
G1 X75.385 Y64.14 E12.93973
G1 X75.241 Y63.837 E12.94987
G1 X75.09 Y63.505 E12.96089
G1 X74.979 Y63.25 E12.9693
G1 X74.649 Y62.395 E12.99701
G1 X74.518 Y62.009 E13.00933
G1 X74.391 Y61.612 E13.02193
G1 X74.291 Y61.276 E13.03253
G1 X74.081 Y60.456 E13.05811
G1 X73.97 Y59.941 E13.07404
G1 X73.884 Y59.501 E13.08759
G1 X73.763 Y58.615 E13.11463
G1 X73.701 Y57.967 E13.13431
G1 X73.656 Y57.246 E13.15614
G1 X73.645 Y56.876 E13.16733
G1 X73.668 Y55.761 E13.20105
G1 X73.705 Y55.246 E13.21666
G1 X73.743 Y54.832 E13.22922
G1 X73.773 Y54.559 E13.23753
G1 X73.926 Y53.575 E13.26763
G1 X74.042 Y53.003 E13.28527
G1 X74.217 Y52.272 E13.308
G1 X74.316 Y51.912 E13.31928
G1 X74.566 Y51.119 E13.34442
G1 X74.681 Y50.798 E13.35473
G1 X74.822 Y50.428 E13.3667
G1 X74.965 Y50.07 E13.37835
G1 X75.242 Y49.435 E13.39929
G1 X75.307 Y49.298 E13.40388
G1 X75.5 Y48.91 E13.41698
G1 X75.622 Y48.677 E13.42493
G1 X75.928 Y48.132 E13.44382
G1 X76.153 Y47.756 E13.45707
M204 S500
G0 F7500 X76.496 Y47.961
M204 S550
G1 F1500 X76.983 Y47.22 E13.48387
G1 X77.289 Y46.794 E13.49973
G1 X77.751 Y46.197 E13.52255
G1 X78.148 Y45.72 E13.54131
G1 X78.709 Y45.097 E13.56666
G1 X79.197 Y44.597 E13.58778
G1 X81.362 Y42.433 E13.68031
G1 X81.836 Y41.973 E13.70028
G1 X82.524 Y41.361 E13.72812
G1 X83.262 Y40.811 E13.75594
G1 X84.045 Y40.328 E13.78375
G1 X84.868 Y39.914 E13.8116
G1 X85.723 Y39.573 E13.83943
G1 X86.605 Y39.307 E13.86728
G1 X87.506 Y39.119 E13.8951
G1 X88.42 Y39.01 E13.92293
G1 X89.34 Y38.981 E13.95075
G1 X90.326 Y39.038 E13.98061
G1 X91.53 Y39.165 E14.01721
G1 X94.144 Y39.404 E14.09656
G1 X96.634 Y39.561 E14.17198
G1 X97.975 Y39.605 E14.21254
G1 X99.241 Y39.659 E14.25085
G1 X100.158 Y39.738 E14.27867
G1 X100.724 Y39.827 E14.29599
G1 X101.086 Y39.894 E14.30712
G1 X103.64 Y40.331 E14.38545
G1 X106.148 Y40.688 E14.46203
G1 X108.645 Y40.972 E14.538
G1 X111.171 Y41.186 E14.61464
G1 X113.69 Y41.329 E14.69091
G1 X116.235 Y41.401 E14.76788
G1 X118.745 Y41.401 E14.84376
G1 X121.291 Y41.329 E14.92075
G1 X123.796 Y41.187 E14.9966
G1 X126.347 Y40.97 E15.074
G1 X128.829 Y40.688 E15.14951
G1 X131.363 Y40.327 E15.22689
G1 X133.295 Y40.002 E15.28611
G1 X134.343 Y39.815 E15.31829
G1 X135.255 Y39.693 E15.34611
G1 X135.825 Y39.657 E15.36337
G1 X137.163 Y39.609 E15.40385
G1 X137.343 Y39.598 E15.4093
G1 X137.741 Y39.587 E15.42134
G1 X140.299 Y39.446 E15.49878
G1 X142.79 Y39.239 E15.57435
G1 X144.39 Y39.063 E15.62301
G1 X144.868 Y39.019 E15.63752
G1 X145.787 Y38.98 E15.66532
G1 X146.707 Y39.021 E15.69316
G1 X147.62 Y39.141 E15.721
G1 X148.519 Y39.34 E15.74883
G1 X149.397 Y39.617 E15.77667
G1 X150.248 Y39.968 E15.80449
G1 X151.065 Y40.393 E15.83233
G1 X151.842 Y40.886 E15.86015
G1 X152.574 Y41.445 E15.888
G1 X153.031 Y41.85 E15.90645
G1 X153.274 Y42.078 E15.91653
G1 X153.516 Y42.313 E15.92673
G1 X155.734 Y44.532 E16.02157
G1 X156.226 Y45.038 E16.04291
G1 X156.416 Y45.239 E16.05127
G1 X156.595 Y45.433 E16.05925
G1 X156.929 Y45.812 E16.07452
G1 X157.162 Y46.09 E16.08548
G1 X157.551 Y46.584 E16.10449
G1 X157.89 Y47.041 E16.12169
G1 X158.466 Y47.902 E16.15301
G1 X158.598 Y48.122 E16.16076
G1 X158.791 Y48.458 E16.17248
G1 X159.043 Y48.915 E16.18825
G1 X159.475 Y49.791 E16.21778
G1 X159.675 Y50.249 E16.23289
G1 X159.994 Y51.072 E16.25957
G1 X160.101 Y51.386 E16.2696
G1 X160.296 Y52.022 E16.28971
G1 X160.444 Y52.566 E16.30675
G1 X160.679 Y53.649 E16.34025
G1 X160.783 Y54.289 E16.35985
G1 X160.872 Y54.981 E16.38095
G1 X160.887 Y55.138 E16.38571
G1 X160.93 Y55.822 E16.40643
G1 X160.95 Y56.477 E16.42624
G1 X160.948 Y57.184 E16.44762
G1 X160.939 Y57.433 E16.45515
G1 X160.914 Y57.88 E16.46868
G1 X160.866 Y58.4 E16.48447
G1 X160.828 Y58.725 E16.49436
G1 X160.757 Y59.229 E16.50975
G1 X160.719 Y59.458 E16.51676
G1 X160.639 Y59.887 E16.52996
G1 X160.585 Y60.146 E16.53795
G1 X160.468 Y60.644 E16.55342
G1 X160.386 Y60.96 E16.56329
G1 X160.273 Y61.364 E16.57597
G1 X160.231 Y61.503 E16.58036
G1 X160.053 Y62.04 E16.59746
G1 X159.92 Y62.408 E16.60929
G1 X159.694 Y62.981 E16.62791
G1 X159.607 Y63.184 E16.63459
G1 X159.413 Y63.609 E16.64871
G1 X159.108 Y64.242 E16.66995
G1 X158.947 Y64.562 E16.68078
G1 X158.171 Y66.04 E16.73124
G1 X157.018 Y68.341 E16.80905
G1 X155.966 Y70.596 E16.88427
G1 X154.96 Y72.922 E16.96088
G1 X154.004 Y75.316 E17.03881
G1 X153.143 Y77.664 E17.11441
G1 X152.339 Y80.061 E17.19084
G1 X151.611 Y82.457 E17.26654
G1 X150.936 Y84.933 E17.34412
G1 X150.332 Y87.41 E17.4212
G1 X149.82 Y89.819 E17.49565
G1 X149.355 Y92.351 E17.57347
G1 X148.973 Y94.814 E17.64882
G1 X148.655 Y97.344 E17.7259
G1 X148.41 Y99.857 E17.80223
G1 X148.236 Y102.392 E17.87904
G1 X148.133 Y104.911 E17.95526
G1 X148.102 Y107.317 E18.028
G1 X148.101 Y184.855 E20.37198
G1 X148.09 Y185.582 E20.39396
G1 X148.036 Y186.501 E20.42179
G1 X147.902 Y187.412 E20.44963
G1 X147.69 Y188.308 E20.47746
G1 X147.402 Y189.182 E20.50528
G1 X147.038 Y190.028 E20.53312
G1 X146.602 Y190.839 E20.56095
G1 X146.098 Y191.609 E20.58877
G1 X145.528 Y192.333 E20.61663
G1 X144.898 Y193.004 E20.64445
G1 X144.213 Y193.618 E20.67226
G1 X143.476 Y194.171 E20.70012
G1 X142.694 Y194.657 E20.72795
G1 X141.873 Y195.074 E20.75579
G1 X141.019 Y195.418 E20.78362
G1 X140.139 Y195.686 E20.81143
G1 X139.238 Y195.877 E20.83927
G1 X138.324 Y195.989 E20.86711
G1 X137.79 Y196.018 E20.88327
G1 X137.471 Y196.027 E20.89292
G1 X137.172 Y196.031 E20.90196
G1 X98.072 Y196.03 E22.08396
G1 X97.374 Y196.021 E22.10506
G1 X96.455 Y195.969 E22.13289
G1 X95.544 Y195.838 E22.16071
G1 X94.648 Y195.628 E22.18853
G1 X93.773 Y195.341 E22.21637
G1 X92.926 Y194.979 E22.24421
G1 X92.114 Y194.545 E22.27205
G1 X91.343 Y194.043 E22.29986
G1 X90.618 Y193.475 E22.3277
G1 X89.945 Y192.846 E22.35555
G1 X89.33 Y192.162 E22.38336
G1 X88.776 Y191.427 E22.41118
G1 X88.288 Y190.646 E22.43902
G1 X87.869 Y189.826 E22.46686
G1 X87.523 Y188.973 E22.49468
G1 X87.253 Y188.093 E22.52251
G1 X87.06 Y187.192 E22.55037
G1 X86.946 Y186.279 E22.57818
G1 X86.915 Y185.708 E22.59547
G1 X86.906 Y185.375 E22.60554
G1 X86.902 Y185.089 E22.61418
G1 X86.902 Y107.343 E24.96446
G1 X86.865 Y104.718 E25.04382
G1 X86.758 Y102.21 E25.1197
G1 X86.58 Y99.689 E25.1961
G1 X86.33 Y97.171 E25.2726
G1 X86.009 Y94.66 E25.34912
G1 X85.622 Y92.198 E25.42446
G1 X85.153 Y89.676 E25.50201
G1 X84.621 Y87.204 E25.57845
G1 X84.021 Y84.754 E25.6547
G1 X83.354 Y82.331 E25.73068
G1 X82.609 Y79.897 E25.80763
G1 X81.791 Y77.472 E25.88499
G1 X80.93 Y75.137 E25.96023
G1 X79.981 Y72.775 E26.03718
G1 X78.982 Y70.48 E26.11284
G1 X77.902 Y68.177 E26.18974
G1 X76.411 Y65.242 E26.28926
G1 X75.957 Y64.387 E26.31852
G1 X75.746 Y63.968 E26.3327
G1 X75.602 Y63.665 E26.34284
G1 X75.457 Y63.346 E26.35344
G1 X75.346 Y63.091 E26.36184
G1 X75.027 Y62.267 E26.38856
G1 X74.896 Y61.881 E26.40088
G1 X74.774 Y61.498 E26.41303
G1 X74.674 Y61.162 E26.42363
G1 X74.472 Y60.371 E26.44831
G1 X74.361 Y59.856 E26.46423
G1 X74.278 Y59.43 E26.47735
G1 X74.161 Y58.577 E26.50338
G1 X74.099 Y57.929 E26.52306
G1 X74.056 Y57.234 E26.54411
G1 X74.045 Y56.864 E26.5553
G1 X74.067 Y55.789 E26.5878
G1 X74.104 Y55.274 E26.60341
G1 X74.14 Y54.876 E26.61549
G1 X74.17 Y54.603 E26.6238
G1 X74.318 Y53.654 E26.65283
G1 X74.434 Y53.082 E26.67047
G1 X74.602 Y52.378 E26.69235
G1 X74.701 Y52.018 E26.70364
G1 X74.943 Y51.254 E26.72787
G1 X75.058 Y50.933 E26.73818
G1 X75.193 Y50.576 E26.74971
G1 X75.336 Y50.218 E26.76137
G1 X75.603 Y49.606 E26.78155
G1 X75.668 Y49.469 E26.78614
G1 X75.854 Y49.096 E26.79874
G1 X75.976 Y48.863 E26.80669
G1 X76.271 Y48.337 E26.82492
G1 X76.496 Y47.961 E26.83816
M204 S500
G0 F7500 X76.839 Y48.166
M204 S550
G1 F1500 X77.308 Y47.453 E26.86396
G1 X77.614 Y47.027 E26.87982
G1 X78.058 Y46.453 E26.90176
G1 X78.455 Y45.976 E26.92052
G1 X78.995 Y45.377 E26.9449
G1 X79.483 Y44.877 E26.96602
G1 X81.64 Y42.72 E27.05823
G1 X82.114 Y42.26 E27.0782
G1 X82.79 Y41.661 E27.10551
G1 X83.515 Y41.123 E27.1328
G1 X84.286 Y40.652 E27.16011
G1 X85.095 Y40.25 E27.18742
G1 X85.936 Y39.922 E27.21471
G1 X86.803 Y39.67 E27.242
G1 X87.689 Y39.495 E27.2693
G1 X88.587 Y39.4 E27.2966
G1 X89.49 Y39.384 E27.3239
G1 X90.284 Y39.436 E27.34796
G1 X91.529 Y39.567 E27.3858
G1 X94.08 Y39.8 E27.46324
G1 X96.629 Y39.961 E27.54045
G1 X97.958 Y40.004 E27.58065
G1 X99.224 Y40.058 E27.61895
G1 X100.123 Y40.137 E27.64623
G1 X100.651 Y40.22 E27.66239
G1 X101.011 Y40.287 E27.67346
G1 X103.588 Y40.728 E27.7525
G1 X106.083 Y41.083 E27.82868
G1 X108.602 Y41.369 E27.90532
G1 X111.15 Y41.585 E27.98262
G1 X113.69 Y41.729 E28.05953
G1 X116.224 Y41.801 E28.13616
G1 X118.757 Y41.801 E28.21274
G1 X121.29 Y41.729 E28.28934
G1 X123.852 Y41.584 E28.36692
G1 X126.354 Y41.371 E28.44282
G1 X128.894 Y41.083 E28.5201
G1 X131.413 Y40.724 E28.59702
G1 X133.414 Y40.387 E28.65836
G1 X134.413 Y40.209 E28.68904
G1 X135.308 Y40.09 E28.71633
G1 X135.839 Y40.057 E28.73242
G1 X137.257 Y40.007 E28.77531
G1 X137.353 Y39.998 E28.77822
G1 X137.774 Y39.987 E28.79095
G1 X140.283 Y39.848 E28.86692
G1 X142.869 Y39.633 E28.94536
G1 X144.434 Y39.461 E28.99296
G1 X144.902 Y39.418 E29.00717
G1 X145.804 Y39.38 E29.03446
G1 X146.706 Y39.422 E29.06175
G1 X147.601 Y39.544 E29.08906
G1 X148.482 Y39.745 E29.11638
G1 X149.341 Y40.023 E29.14367
G1 X150.173 Y40.375 E29.17098
G1 X150.969 Y40.8 E29.19826
G1 X151.726 Y41.294 E29.22559
G1 X152.757 Y42.142 E29.26594
G1 X153 Y42.37 E29.27601
G1 X153.233 Y42.596 E29.28583
G1 X155.447 Y44.81 E29.38048
G1 X155.939 Y45.316 E29.40181
G1 X156.122 Y45.51 E29.40988
G1 X156.301 Y45.704 E29.41786
G1 X156.622 Y46.069 E29.43255
G1 X156.855 Y46.347 E29.44352
G1 X157.23 Y46.822 E29.46181
G1 X157.569 Y47.279 E29.47901
G1 X158.123 Y48.108 E29.50915
G1 X158.255 Y48.328 E29.51691
G1 X158.441 Y48.651 E29.52818
G1 X158.693 Y49.108 E29.54395
G1 X159.109 Y49.951 E29.57237
G1 X159.309 Y50.409 E29.58748
G1 X159.616 Y51.201 E29.61316
