;FLAVOR:Marlin
;TIME:4325
;Filament used: 2.03581m
;Layer height: 0.2
;MINX:95.058
;MINY:86.912
;MINZ:0.2
;MAXX:139.946
;MAXY:146.093
;MAXZ:23.4
;Generated with Cura_SteamEngine master
M140 S60
M105
M190 S60
M104 S200
M105
M109 S200
M82 ;absolute extrusion mode
; Ender 3 Custom Start G-code
G92 E0 ; Reset Extruder
G28 ; Home all axes
G1 Z2.0 F3000 ; Move Z Axis up little to prevent scratching of Heat Bed
G1 X0.1 Y20 Z0.3 F5000.0 ; Move to start position
G1 X0.1 Y200.0 Z0.3 F1500.0 E15 ; Draw the first line
G1 X0.4 Y200.0 Z0.3 F5000.0 ; Move to side a little
G1 X0.4 Y20 Z0.3 F1500.0 E30 ; Draw the second line
G92 E0 ; Reset Extruder
G1 Z2.0 F3000 ; Move Z Axis up little to prevent scratching of Heat Bed
G1 X5 Y20 Z0.3 F5000.0 ; Move over to prevent blob squish
G92 E0
G92 E0
G1 F2400 E-4
;LAYER_COUNT:118
;LAYER:0
M107
M204 S500
G0 F7500 X100.932 Y91.159 Z0.2
M204 S550
;TYPE:SKIRT
G1 F2400 E0
G1 F1500 X101.577 Y90.478 E0.02835
G1 X102.277 Y89.854 E0.0567
G1 X103.028 Y89.292 E0.08506
G1 X103.824 Y88.796 E0.11341
G1 X105.005 Y88.219 E0.15315
G1 X105.209 Y88.134 E0.15983
G1 X106.09 Y87.811 E0.18819
G1 X106.994 Y87.563 E0.21653
G1 X108.127 Y87.367 E0.25129
G1 X108.285 Y87.348 E0.2561
G1 X108.672 Y87.308 E0.26786
G1 X109.222 Y87.262 E0.28455
G1 X112.483 Y87.021 E0.3834
G1 X113.143 Y86.981 E0.40339
G1 X114.097 Y86.965 E0.43223
G1 X114.25 Y86.969 E0.43686
G1 X116.802 Y86.996 E0.51401
G1 X119.293 Y86.956 E0.58932
G1 X120.581 Y86.917 E0.62827
G1 X120.911 Y86.912 E0.63825
G1 X124.856 Y86.912 E0.75751
G1 X125.712 Y86.923 E0.78339
G1 X126.649 Y86.977 E0.81176
G1 X127.577 Y87.109 E0.8401
G1 X128.491 Y87.321 E0.86846
G1 X129.383 Y87.61 E0.89681
G1 X130.248 Y87.973 E0.92516
G1 X131.078 Y88.409 E0.95351
G1 X131.868 Y88.914 E0.98185
G1 X132.613 Y89.485 E1.01023
G1 X133.306 Y90.117 E1.03858
G1 X133.943 Y90.805 E1.06692
G1 X134.518 Y91.546 E1.09528
G1 X135.029 Y92.332 E1.12362
G1 X135.471 Y93.16 E1.15199
G1 X135.84 Y94.021 E1.18031
G1 X136.084 Y94.736 E1.20315
G1 X136.642 Y96.58 E1.26139
G1 X136.944 Y97.844 E1.30068
G1 X136.988 Y98.092 E1.30829
G1 X137.112 Y99.022 E1.33665
G1 X137.153 Y99.732 E1.35815
G1 X137.168 Y100.36 E1.37714
G1 X137.188 Y102.128 E1.43059
G1 X137.194 Y103.164 E1.46191
G1 X137.196 Y105.469 E1.53159
G1 X137.235 Y108.087 E1.61074
G1 X137.343 Y110.606 E1.68696
G1 X137.519 Y113.086 E1.76212
G1 X137.774 Y115.63 E1.83941
G1 X138.091 Y118.1 E1.91469
G1 X138.485 Y120.598 E1.99114
G1 X138.938 Y123.031 E2.06596
G1 X139.683 Y126.421 E2.17088
G1 X139.845 Y127.345 E2.19924
G1 X139.938 Y128.653 E2.23888
G1 X139.946 Y129.329 E2.25932
G1 X139.946 Y129.629 E2.26839
G1 X139.933 Y130.469 E2.29378
G1 X139.878 Y131.406 E2.32216
G1 X139.794 Y132.048 E2.34173
G1 X139.655 Y132.902 E2.36789
G1 X139.463 Y133.999 E2.40155
G1 X139.168 Y136.038 E2.46383
G1 X139.066 Y136.685 E2.48364
G1 X138.88 Y137.604 E2.51198
G1 X138.617 Y138.505 E2.54035
G1 X138.279 Y139.379 E2.56868
G1 X137.867 Y140.222 E2.59705
G1 X137.384 Y141.026 E2.6254
G1 X136.835 Y141.786 E2.65374
G1 X136.076 Y142.651 E2.68853
G1 X136.037 Y142.691 E2.69022
G1 X135.354 Y143.334 E2.71858
G1 X134.619 Y143.917 E2.74694
G1 X133.837 Y144.434 E2.77528
G1 X133.014 Y144.884 E2.80363
G1 X132.155 Y145.261 E2.83199
G1 X131.268 Y145.564 E2.86033
G1 X130.358 Y145.79 E2.88867
G1 X129.432 Y145.938 E2.91702
G1 X128.496 Y146.007 E2.94539
G1 X127.544 Y145.995 E2.97417
G1 X126.712 Y145.947 E2.99937
G1 X125.423 Y145.858 E3.03843
G1 X124.241 Y145.814 E3.07418
G1 X123.901 Y145.787 E3.08449
G1 X121.434 Y145.683 E3.15914
G1 X120.949 Y145.657 E3.17382
G1 X118.446 Y145.591 E3.24951
G1 X115.923 Y145.597 E3.32578
G1 X113.401 Y145.673 E3.40206
G1 X110.907 Y145.82 E3.47758
G1 X109.617 Y145.939 E3.51675
G1 X109.256 Y145.957 E3.52767
G1 X108.141 Y146.053 E3.5615
G1 X107.198 Y146.093 E3.59004
G1 X106.916 Y146.093 E3.59856
G1 X105.979 Y146.053 E3.62691
G1 X105.049 Y145.933 E3.65526
G1 X104.132 Y145.735 E3.68362
G1 X103.236 Y145.459 E3.71196
G1 X102.366 Y145.108 E3.74032
G1 X101.53 Y144.684 E3.76866
G1 X100.732 Y144.19 E3.79703
G1 X99.98 Y143.63 E3.82537
G1 X99.138 Y142.871 E3.85964
G1 X99.021 Y142.754 E3.86465
G1 X98.387 Y142.063 E3.89299
G1 X97.813 Y141.321 E3.92135
G1 X97.306 Y140.532 E3.94971
G1 X96.867 Y139.704 E3.97804
G1 X96.5 Y138.84 E4.00641
G1 X96.208 Y137.949 E4.03476
G1 X95.921 Y136.612 E4.0761
G1 X95.742 Y135.422 E4.11248
G1 X95.436 Y133.53 E4.17041
G1 X95.218 Y132.263 E4.20928
G1 X95.099 Y131.333 E4.23762
G1 X95.059 Y130.487 E4.26322
G1 X95.058 Y130.364 E4.26694
G1 X95.091 Y129.427 E4.29529
G1 X95.2 Y128.513 E4.32311
G1 X95.261 Y128.137 E4.33463
G1 X95.393 Y127.459 E4.35551
G1 X95.538 Y126.823 E4.37523
G1 X96.082 Y124.261 E4.4544
G1 X96.527 Y121.827 E4.5292
G1 X96.918 Y119.295 E4.60665
G1 X97.227 Y116.818 E4.68211
G1 X97.469 Y114.321 E4.75795
G1 X97.642 Y111.774 E4.83513
G1 X97.741 Y109.285 E4.91043
G1 X97.771 Y106.945 E4.98117
G1 X97.772 Y103.625 E5.08154
G1 X97.783 Y102.906 E5.10328
G1 X97.836 Y101.981 E5.13128
G1 X97.895 Y101.39 E5.14924
G1 X98.108 Y98.886 E5.22521
G1 X98.174 Y97.825 E5.25734
G1 X98.273 Y96.892 E5.28571
G1 X98.45 Y95.971 E5.31406
G1 X98.705 Y95.069 E5.3424
G1 X99.036 Y94.191 E5.37076
G1 X99.441 Y93.345 E5.39912
G1 X99.745 Y92.81 E5.41772
G1 X99.828 Y92.673 E5.42256
G1 X100.348 Y91.893 E5.4509
G1 X100.932 Y91.159 E5.47925
M204 S500
G0 F7500 X101.256 Y91.396
M204 S550
G1 F1500 X101.892 Y90.73 E5.50709
G1 X102.583 Y90.121 E5.53494
G1 X103.324 Y89.575 E5.56276
G1 X104.109 Y89.095 E5.59058
G1 X105.159 Y88.588 E5.62583
G1 X105.363 Y88.503 E5.63251
G1 X106.227 Y88.187 E5.66032
G1 X107.116 Y87.946 E5.68816
G1 X108.174 Y87.764 E5.72061
G1 X108.332 Y87.745 E5.72543
G1 X108.706 Y87.707 E5.73679
G1 X109.251 Y87.661 E5.75332
G1 X112.507 Y87.42 E5.85202
G1 X113.167 Y87.38 E5.87201
G1 X114.087 Y87.365 E5.89983
G1 X114.237 Y87.369 E5.90436
G1 X116.804 Y87.396 E5.98197
G1 X119.311 Y87.355 E6.05776
G1 X120.593 Y87.317 E6.09654
G1 X120.911 Y87.312 E6.10615
G1 X124.856 Y87.312 E6.22541
G1 X125.707 Y87.323 E6.25114
G1 X126.626 Y87.376 E6.27896
G1 X127.537 Y87.509 E6.3068
G1 X128.433 Y87.72 E6.33462
G1 X129.307 Y88.008 E6.36244
G1 X130.153 Y88.371 E6.39027
G1 X130.965 Y88.806 E6.41812
G1 X131.735 Y89.31 E6.44594
G1 X132.459 Y89.879 E6.47378
G1 X133.131 Y90.508 E6.5016
G1 X133.746 Y91.194 E6.52945
G1 X134.299 Y91.93 E6.55728
G1 X134.786 Y92.711 E6.58511
G1 X135.203 Y93.532 E6.61294
G1 X135.548 Y94.386 E6.64079
G1 X135.701 Y94.852 E6.65561
G1 X136.259 Y96.696 E6.71385
G1 X136.55 Y97.914 E6.75171
G1 X136.594 Y98.162 E6.75933
G1 X136.715 Y99.075 E6.78717
G1 X136.754 Y99.742 E6.80736
G1 X136.766 Y100.21 E6.82152
G1 X136.788 Y102.13 E6.87956
G1 X136.794 Y103.164 E6.91082
G1 X136.796 Y105.476 E6.98071
G1 X136.835 Y108.11 E7.06035
G1 X136.942 Y110.616 E7.13617
G1 X137.121 Y113.117 E7.21197
G1 X137.377 Y115.688 E7.29008
G1 X137.693 Y118.142 E7.36488
G1 X138.09 Y120.662 E7.442
G1 X138.55 Y123.13 E7.51789
G1 X139.292 Y126.507 E7.62241
G1 X139.45 Y127.414 E7.65024
G1 X139.538 Y128.658 E7.68794
G1 X139.546 Y129.334 E7.70838
G1 X139.546 Y129.623 E7.71712
G1 X139.533 Y130.463 E7.74251
G1 X139.479 Y131.382 E7.77034
G1 X139.399 Y131.984 E7.7887
G1 X139.261 Y132.833 E7.8147
G1 X139.068 Y133.938 E7.84861
G1 X138.773 Y135.976 E7.91086
G1 X138.671 Y136.623 E7.93066
G1 X138.488 Y137.525 E7.95849
G1 X138.228 Y138.408 E7.98631
G1 X137.892 Y139.265 E8.01414
G1 X137.483 Y140.09 E8.04198
G1 X137.003 Y140.876 E8.06982
G1 X136.458 Y141.618 E8.09765
G1 X135.79 Y142.372 E8.1281
G1 X135.751 Y142.412 E8.12979
G1 X135.08 Y143.043 E8.15764
G1 X134.357 Y143.613 E8.18547
G1 X133.587 Y144.118 E8.2133
G1 X132.777 Y144.554 E8.24111
G1 X131.931 Y144.919 E8.26897
G1 X131.057 Y145.209 E8.2968
G1 X130.162 Y145.421 E8.32461
G1 X129.251 Y145.556 E8.35245
G1 X128.332 Y145.611 E8.38028
G1 X127.566 Y145.595 E8.40344
G1 X126.739 Y145.548 E8.42848
G1 X125.465 Y145.46 E8.46709
G1 X124.256 Y145.415 E8.50366
G1 X123.927 Y145.388 E8.51364
G1 X121.456 Y145.284 E8.5884
G1 X120.945 Y145.256 E8.60388
G1 X118.456 Y145.191 E8.67914
G1 X115.91 Y145.197 E8.75611
G1 X113.399 Y145.273 E8.83205
G1 X110.877 Y145.421 E8.90842
G1 X109.58 Y145.541 E8.9478
G1 X109.209 Y145.559 E8.95903
G1 X108.106 Y145.654 E8.9925
G1 X107.198 Y145.693 E9.01997
G1 X106.916 Y145.693 E9.02849
G1 X105.996 Y145.653 E9.05633
G1 X105.083 Y145.533 E9.08417
G1 X104.184 Y145.335 E9.112
G1 X103.306 Y145.059 E9.13982
G1 X102.455 Y144.708 E9.16765
G1 X101.637 Y144.285 E9.19549
G1 X100.86 Y143.792 E9.22331
G1 X100.128 Y143.234 E9.25113
G1 X99.421 Y142.588 E9.28008
G1 X99.304 Y142.471 E9.28508
G1 X98.682 Y141.793 E9.3129
G1 X98.121 Y141.063 E9.34073
G1 X97.625 Y140.287 E9.36857
G1 X97.199 Y139.471 E9.3964
G1 X96.845 Y138.621 E9.42423
G1 X96.567 Y137.743 E9.45207
G1 X96.317 Y136.553 E9.48883
G1 X96.146 Y135.416 E9.52359
G1 X95.813 Y133.357 E9.58664
G1 X95.613 Y132.195 E9.62229
G1 X95.496 Y131.282 E9.65011
G1 X95.459 Y130.484 E9.67426
G1 X95.458 Y130.361 E9.67798
G1 X95.491 Y129.441 E9.70581
G1 X95.595 Y128.578 E9.73209
G1 X95.656 Y128.202 E9.7436
G1 X95.783 Y127.548 E9.76374
G1 X95.939 Y126.864 E9.78495
G1 X96.467 Y124.378 E9.86178
G1 X96.929 Y121.854 E9.93935
G1 X97.311 Y119.373 E10.01523
G1 X97.624 Y116.869 E10.09152
G1 X97.868 Y114.35 E10.16803
G1 X98.04 Y111.816 E10.2448
G1 X98.141 Y109.269 E10.32186
G1 X98.171 Y106.95 E10.39197
G1 X98.172 Y103.631 E10.4923
G1 X98.183 Y102.912 E10.51404
G1 X98.234 Y102.021 E10.54102
G1 X98.287 Y101.49 E10.55715
G1 X98.511 Y98.857 E10.63704
G1 X98.574 Y97.85 E10.66754
G1 X98.671 Y96.934 E10.69538
G1 X98.847 Y96.031 E10.7232
G1 X99.101 Y95.146 E10.75103
G1 X99.431 Y94.286 E10.77888
G1 X99.834 Y93.459 E10.80669
G1 X100.087 Y93.017 E10.82208
G1 X100.17 Y92.88 E10.82692
G1 X100.681 Y92.115 E10.85474
G1 X101.256 Y91.396 E10.88257
M204 S500
G0 F7500 X101.58 Y91.633
M204 S550
G1 F1500 X102.206 Y90.982 E10.90987
G1 X102.887 Y90.39 E10.93715
G1 X103.618 Y89.859 E10.96446
G1 X104.394 Y89.396 E10.99178
G1 X105.313 Y88.958 E11.02255
G1 X105.517 Y88.873 E11.02923
G1 X106.365 Y88.563 E11.05653
G1 X107.237 Y88.329 E11.08382
G1 X108.222 Y88.161 E11.11403
G1 X108.38 Y88.142 E11.11884
G1 X108.739 Y88.105 E11.12975
G1 X109.281 Y88.06 E11.14619
G1 X112.531 Y87.82 E11.24471
G1 X113.191 Y87.78 E11.26469
G1 X114.076 Y87.765 E11.29145
G1 X114.221 Y87.769 E11.29584
G1 X116.806 Y87.796 E11.37399
G1 X119.33 Y87.755 E11.4503
G1 X120.605 Y87.717 E11.48886
G1 X120.911 Y87.712 E11.49811
G1 X124.856 Y87.712 E11.61737
G1 X125.701 Y87.723 E11.64291
G1 X126.602 Y87.776 E11.6702
G1 X127.496 Y87.908 E11.69752
G1 X128.374 Y88.119 E11.72481
G1 X129.23 Y88.407 E11.75212
G1 X130.057 Y88.769 E11.77941
G1 X130.849 Y89.203 E11.80671
G1 X131.6 Y89.706 E11.83403
G1 X132.303 Y90.273 E11.86134
G1 X132.953 Y90.9 E11.88864
G1 X133.545 Y91.582 E11.91594
G1 X134.074 Y92.313 E11.94322
G1 X134.537 Y93.089 E11.97053
G1 X134.929 Y93.902 E11.99782
G1 X135.318 Y94.968 E12.03212
G1 X135.876 Y96.812 E12.09036
G1 X136.156 Y97.984 E12.12679
G1 X136.2 Y98.232 E12.1344
G1 X136.318 Y99.127 E12.16169
G1 X136.354 Y99.753 E12.18065
G1 X136.368 Y100.369 E12.19927
G1 X136.388 Y102.132 E12.25257
G1 X136.394 Y103.164 E12.28377
G1 X136.396 Y105.482 E12.35385
G1 X136.435 Y108.097 E12.43291
G1 X136.545 Y110.663 E12.51055
G1 X136.724 Y113.185 E12.58698
G1 X136.973 Y115.673 E12.66257
G1 X137.301 Y118.224 E12.74032
G1 X137.694 Y120.72 E12.8167
G1 X138.161 Y123.229 E12.89385
G1 X138.901 Y126.593 E12.99798
G1 X139.056 Y127.483 E13.02529
G1 X139.138 Y128.662 E13.06102
G1 X139.146 Y129.338 E13.08145
G1 X139.146 Y129.617 E13.08989
G1 X139.133 Y130.457 E13.11528
G1 X139.079 Y131.358 E13.14257
G1 X139.004 Y131.92 E13.15971
G1 X138.867 Y132.765 E13.18559
G1 X138.671 Y133.884 E13.21993
G1 X138.378 Y135.913 E13.2819
G1 X138.276 Y136.56 E13.3017
G1 X138.096 Y137.445 E13.32901
G1 X137.838 Y138.311 E13.35632
G1 X137.505 Y139.15 E13.38361
G1 X137.099 Y139.957 E13.41092
G1 X136.623 Y140.725 E13.43823
G1 X136.081 Y141.447 E13.46553
G1 X135.503 Y142.093 E13.49173
G1 X135.464 Y142.133 E13.49342
G1 X134.806 Y142.751 E13.52071
G1 X134.095 Y143.308 E13.54801
G1 X133.338 Y143.8 E13.5753
G1 X132.54 Y144.224 E13.60262
G1 X131.708 Y144.575 E13.62992
G1 X130.849 Y144.852 E13.6572
G1 X129.968 Y145.051 E13.68451
G1 X129.073 Y145.171 E13.71181
G1 X128.171 Y145.212 E13.7391
G1 X127.589 Y145.196 E13.7567
G1 X126.767 Y145.149 E13.78159
G1 X125.476 Y145.06 E13.82071
G1 X124.271 Y145.015 E13.85716
G1 X123.945 Y144.988 E13.86705
G1 X121.477 Y144.884 E13.94173
G1 X121.012 Y144.859 E13.95581
G1 X118.43 Y144.791 E14.03389
G1 X115.897 Y144.797 E14.11046
G1 X113.365 Y144.874 E14.18704
G1 X110.875 Y145.02 E14.26244
G1 X109.543 Y145.143 E14.30288
G1 X109.165 Y145.161 E14.31432
G1 X108.072 Y145.255 E14.34748
G1 X107.198 Y145.293 E14.37393
G1 X106.916 Y145.293 E14.38245
G1 X106.014 Y145.253 E14.40975
G1 X105.119 Y145.133 E14.43704
G1 X104.238 Y144.935 E14.46434
G1 X103.378 Y144.66 E14.49164
G1 X102.545 Y144.309 E14.51896
G1 X101.747 Y143.886 E14.54627
G1 X100.99 Y143.395 E14.57354
G1 X100.279 Y142.838 E14.60085
G1 X99.704 Y142.305 E14.62455
G1 X99.587 Y142.188 E14.62955
G1 X98.977 Y141.522 E14.65685
G1 X98.428 Y140.805 E14.68415
G1 X97.946 Y140.041 E14.71146
G1 X97.532 Y139.238 E14.73877
G1 X97.192 Y138.402 E14.76605
G1 X96.926 Y137.539 E14.79335
G1 X96.712 Y136.493 E14.82563
G1 X96.533 Y135.303 E14.86201
G1 X96.217 Y133.346 E14.92193
G1 X96.007 Y132.128 E14.9593
G1 X95.893 Y131.232 E14.9866
G1 X95.859 Y130.481 E15.00933
G1 X95.858 Y130.358 E15.01305
G1 X95.891 Y129.455 E15.04036
G1 X95.99 Y128.642 E15.06512
G1 X96.051 Y128.266 E15.07664
G1 X96.173 Y127.637 E15.096
G1 X96.324 Y126.971 E15.11665
G1 X96.865 Y124.428 E15.19524
G1 X97.317 Y121.955 E15.27124
G1 X97.71 Y119.407 E15.34918
G1 X98.021 Y116.922 E15.42489
G1 X98.27 Y114.348 E15.50306
G1 X98.439 Y111.859 E15.57848
G1 X98.541 Y109.29 E15.6562
G1 X98.571 Y106.955 E15.72679
G1 X98.572 Y103.637 E15.8271
G1 X98.583 Y102.918 E15.84884
G1 X98.632 Y102.061 E15.87479
G1 X98.691 Y101.47 E15.89274
G1 X98.908 Y98.916 E15.97023
G1 X98.973 Y97.875 E16.00176
G1 X99.069 Y96.977 E16.02906
G1 X99.244 Y96.091 E16.05636
G1 X99.497 Y95.224 E16.08366
G1 X99.825 Y94.383 E16.11095
G1 X100.429 Y93.225 E16.15043
G1 X100.512 Y93.088 E16.15528
G1 X101.014 Y92.337 E16.18258
G1 X101.58 Y91.633 E16.20989
M204 S500
G1 F2400 E12.20989
G0 F7500 X109.675 Y130.892
M204 S550
G1 F2400 E16.20989
G1 F1500 X109.675 Y132.532 E16.25947
G1 X109.557 Y132.532 E16.26304
G1 X109.557 Y131.225 E16.30255
G1 X109.545 Y131.029 E16.30848
G1 X109.675 Y130.892 E16.31419
M204 S500
G0 F7500 X109.347 Y130.672
M204 S550
G1 F1500 X109.606 Y130.388 E16.32581
G1 X109.842 Y130.066 E16.33788
G1 X110.032 Y129.739 E16.34931
G1 X110.075 Y129.607 E16.35351
G1 X110.075 Y132.932 E16.45402
G1 X109.157 Y132.933 E16.48178
G1 X109.157 Y131.225 E16.53341
G1 X109.117 Y130.848 E16.54487
G1 X109.114 Y130.839 E16.54516
G1 X109.347 Y130.672 E16.55382
M204 S500
G0 F7500 X109.14 Y130.318
M204 S550
G1 F1500 X109.283 Y130.152 E16.56045
G1 X109.519 Y129.83 E16.57251
G1 X109.683 Y129.539 E16.58261
G1 X109.773 Y129.217 E16.59272
G1 X109.79 Y129.002 E16.59924
G1 X109.789 Y121.329 E16.8312
G1 X110.006 Y120.922 E16.84514
G1 X110.127 Y120.611 E16.85523
G1 X110.171 Y120.263 E16.86583
G1 X110.171 Y103.473 E17.37339
G1 X110.311 Y103.161 E17.38373
G1 X110.37 Y102.849 E17.39333
G1 X110.502 Y101.042 E17.4481
G1 X110.54 Y101.291 E17.45572
G1 X110.59 Y101.413 E17.4597
G1 X110.539 Y101.517 E17.4632
G1 X110.467 Y101.843 E17.4733
G1 X110.46 Y102.017 E17.47856
G1 X110.484 Y102.95 E17.50678
G1 X110.533 Y103.281 E17.51689
G1 X110.587 Y103.415 E17.52126
G1 X110.534 Y103.525 E17.52495
G1 X110.462 Y103.851 E17.53504
G1 X110.457 Y104.029 E17.54042
G1 X110.487 Y104.96 E17.56858
G1 X110.537 Y105.29 E17.57867
G1 X110.588 Y105.413 E17.5827
G1 X110.534 Y105.525 E17.58646
G1 X110.462 Y105.851 E17.59655
G1 X110.457 Y106.029 E17.60193
G1 X110.487 Y106.96 E17.63009
G1 X110.537 Y107.29 E17.64018
G1 X110.588 Y107.413 E17.64421
G1 X110.534 Y107.525 E17.64797
G1 X110.462 Y107.851 E17.65806
G1 X110.457 Y108.029 E17.66344
G1 X110.487 Y108.96 E17.6916
G1 X110.537 Y109.29 E17.70169
G1 X110.588 Y109.413 E17.70572
