;FLAVOR:Marlin
;TIME:21914
;Filament used: 21.7824m
;Layer height: 0.2
;MINX:46.66
;MINY:31.502
;MINZ:0.2
;MAXX:188.34
;MAXY:211.902
;MAXZ:27.4
;POSTPROCESSED
;Generated with Cura_SteamEngine master
M140 S60
M105
M190 S60
M104 S200
M105
M109 S200
M82 ;absolute extrusion mode
; Ender 3 Custom Start G-code
G92 E0 ; Reset Extruder
G28 ; Home all axes
G1 Z2.0 F3000 ; Move Z Axis up little to prevent scratching of Heat Bed
G1 X0.1 Y20 Z0.3 F5000.0 ; Move to start position
G1 X0.1 Y200.0 Z0.3 F1500.0 E15 ; Draw the first line
G1 X0.4 Y200.0 Z0.3 F5000.0 ; Move to side a little
G1 X0.4 Y20 Z0.3 F1500.0 E30 ; Draw the second line
G92 E0 ; Reset Extruder
G1 Z2.0 F3000 ; Move Z Axis up little to prevent scratching of Heat Bed
G1 X5 Y20 Z0.3 F5000.0 ; Move over to prevent blob squish
G92 E0
G92 E0
G1 F2400 E-4
;LAYER_COUNT:137
;LAYER:0
M107
M204 S500
G0 F7500 X48.656 Y36.205 Z0.2
M204 S550
;TYPE:SKIRT
G1 F2400 E0
G1 F1500 X49.226 Y35.46 E0.02836
G1 X49.858 Y34.766 E0.05673
G1 X50.546 Y34.129 E0.08508
G1 X51.286 Y33.553 E0.11343
G1 X52.072 Y33.041 E0.14178
G1 X52.899 Y32.599 E0.17013
G1 X53.761 Y32.229 E0.19849
G1 X54.651 Y31.933 E0.22684
G1 X55.563 Y31.715 E0.25519
G1 X56.49 Y31.574 E0.28353
G1 X57.361 Y31.515 E0.30992
G1 X57.682 Y31.506 E0.31963
G1 X57.99 Y31.502 E0.32894
G1 X176.633 Y31.502 E3.91554
G1 X177.489 Y31.513 E3.94142
G1 X178.425 Y31.567 E3.96976
G1 X179.353 Y31.699 E3.99809
G1 X180.267 Y31.911 E4.02646
G1 X181.159 Y32.2 E4.0548
G1 X182.024 Y32.563 E4.08316
G1 X182.854 Y32.999 E4.1115
G1 X183.645 Y33.504 E4.13987
G1 X184.389 Y34.075 E4.16823
G1 X185.082 Y34.707 E4.19658
G1 X185.719 Y35.395 E4.22492
G1 X186.294 Y36.136 E4.25328
G1 X186.805 Y36.922 E4.28162
G1 X187.247 Y37.75 E4.30999
G1 X187.616 Y38.612 E4.33834
G1 X187.911 Y39.502 E4.36668
G1 X188.129 Y40.414 E4.39503
G1 X188.269 Y41.342 E4.4234
G1 X188.327 Y42.203 E4.44949
G1 X188.336 Y42.523 E4.45916
G1 X188.34 Y42.832 E4.46851
G1 X188.339 Y200.302 E9.22884
G1 X188.33 Y201.029 E9.25082
G1 X188.279 Y201.966 E9.27919
G1 X188.147 Y202.894 E9.30753
G1 X187.938 Y203.808 E9.33587
G1 X187.651 Y204.701 E9.36423
G1 X187.289 Y205.567 E9.3926
G1 X186.855 Y206.398 E9.42094
G1 X186.351 Y207.189 E9.4493
G1 X185.782 Y207.934 E9.47763
G1 X185.151 Y208.629 E9.50601
G1 X184.464 Y209.267 E9.53435
G1 X183.725 Y209.844 E9.5627
G1 X182.939 Y210.356 E9.59105
G1 X182.113 Y210.799 E9.61939
G1 X181.251 Y211.171 E9.64777
G1 X180.362 Y211.467 E9.6761
G1 X179.45 Y211.687 E9.70446
G1 X178.523 Y211.828 E9.7328
G1 X177.639 Y211.889 E9.75959
G1 X177.318 Y211.898 E9.7693
G1 X177.01 Y211.902 E9.77861
G1 X58.225 Y211.901 E13.36949
G1 X57.527 Y211.892 E13.3906
G1 X56.591 Y211.84 E13.41894
G1 X55.662 Y211.708 E13.4473
G1 X54.748 Y211.498 E13.47565
G1 X53.855 Y211.211 E13.50401
G1 X52.99 Y210.848 E13.53237
G1 X52.159 Y210.414 E13.56071
G1 X51.368 Y209.91 E13.58906
G1 X50.623 Y209.34 E13.61742
G1 X49.929 Y208.709 E13.64577
G1 X49.292 Y208.022 E13.67409
G1 X48.715 Y207.282 E13.70246
G1 X48.203 Y206.496 E13.73082
G1 X47.76 Y205.669 E13.75918
G1 X47.389 Y204.808 E13.78752
G1 X47.093 Y203.918 E13.81588
G1 X46.874 Y203.006 E13.84423
G1 X46.733 Y202.079 E13.87258
G1 X46.673 Y201.19 E13.89951
G1 X46.664 Y200.857 E13.90958
G1 X46.66 Y200.56 E13.91856
G1 X46.661 Y43.027 E18.6808
G1 X46.67 Y42.362 E18.70091
G1 X46.723 Y41.426 E18.72925
G1 X46.855 Y40.497 E18.75762
G1 X47.066 Y39.583 E18.78597
G1 X47.354 Y38.691 E18.81431
G1 X47.717 Y37.826 E18.84267
G1 X48.152 Y36.995 E18.87102
G1 X48.656 Y36.205 E18.89935
M204 S500
G0 F7500 X49.052 Y36.337
M204 S550
G1 F1500 X49.621 Y35.613 E18.92719
G1 X50.249 Y34.941 E18.95499
G1 X50.934 Y34.325 E18.98284
G1 X51.67 Y33.772 E19.01067
G1 X52.451 Y33.284 E19.03851
G1 X53.271 Y32.866 E19.06633
G1 X54.125 Y32.521 E19.09418
G1 X55.005 Y32.251 E19.122
G1 X55.905 Y32.059 E19.14982
G1 X56.819 Y31.945 E19.17767
G1 X57.372 Y31.915 E19.19441
G1 X57.693 Y31.906 E19.20412
G1 X57.99 Y31.902 E19.2131
G1 X176.633 Y31.902 E22.79969
G1 X177.483 Y31.913 E22.82539
G1 X178.402 Y31.966 E22.85322
G1 X179.313 Y32.099 E22.88105
G1 X180.209 Y32.31 E22.90887
G1 X181.083 Y32.598 E22.93669
G1 X181.93 Y32.961 E22.96455
G1 X182.741 Y33.396 E22.99237
G1 X183.511 Y33.9 E23.02019
G1 X184.235 Y34.469 E23.04803
G1 X184.907 Y35.099 E23.07587
G1 X185.522 Y35.784 E23.1037
G1 X186.075 Y36.52 E23.13153
G1 X186.562 Y37.301 E23.15936
G1 X186.979 Y38.122 E23.18719
G1 X187.324 Y38.976 E23.21504
G1 X187.593 Y39.856 E23.24286
G1 X187.785 Y40.757 E23.2707
G1 X187.898 Y41.67 E23.29852
G1 X187.927 Y42.214 E23.31498
G1 X187.936 Y42.534 E23.32466
G1 X187.94 Y42.832 E23.33367
G1 X187.939 Y200.297 E28.09386
G1 X187.93 Y201.024 E28.11584
G1 X187.879 Y201.943 E28.14366
G1 X187.748 Y202.855 E28.17152
G1 X187.538 Y203.751 E28.19934
G1 X187.252 Y204.626 E28.22716
G1 X186.891 Y205.473 E28.255
G1 X186.457 Y206.285 E28.28283
G1 X185.955 Y207.057 E28.31067
G1 X185.387 Y207.782 E28.33851
G1 X184.759 Y208.455 E28.36634
G1 X184.075 Y209.071 E28.39416
G1 X183.34 Y209.625 E28.42199
G1 X182.56 Y210.114 E28.44982
G1 X181.74 Y210.533 E28.47766
G1 X180.887 Y210.879 E28.50548
G1 X180.007 Y211.15 E28.53332
G1 X179.107 Y211.343 E28.56114
G1 X178.193 Y211.458 E28.58899
G1 X177.628 Y211.489 E28.6061
G1 X177.307 Y211.498 E28.6158
G1 X177.01 Y211.502 E28.62478
G1 X58.23 Y211.501 E32.21552
G1 X57.532 Y211.492 E32.23662
G1 X56.613 Y211.44 E32.26445
G1 X55.702 Y211.309 E32.29227
G1 X54.806 Y211.099 E32.32009
G1 X53.931 Y210.812 E32.34793
G1 X53.084 Y210.45 E32.37577
G1 X52.272 Y210.016 E32.40361
G1 X51.501 Y209.514 E32.43142
G1 X50.776 Y208.946 E32.45926
G1 X50.103 Y208.317 E32.48711
G1 X49.488 Y207.633 E32.51492
G1 X48.934 Y206.898 E32.54274
G1 X48.446 Y206.117 E32.57058
G1 X48.027 Y205.297 E32.59842
G1 X47.681 Y204.444 E32.62624
G1 X47.411 Y203.564 E32.65407
G1 X47.218 Y202.663 E32.68193
G1 X47.104 Y201.75 E32.70974
G1 X47.073 Y201.179 E32.72703
G1 X47.064 Y200.846 E32.7371
G1 X47.06 Y200.56 E32.74574
G1 X47.061 Y43.033 E37.50781
G1 X47.07 Y42.368 E37.52791
G1 X47.122 Y41.448 E37.55577
G1 X47.254 Y40.537 E37.58359
G1 X47.465 Y39.641 E37.61142
G1 X47.752 Y38.766 E37.63926
G1 X48.115 Y37.92 E37.66709
G1 X48.549 Y37.108 E37.69492
G1 X49.052 Y36.337 E37.72275
M204 S500
G0 F7500 X49.448 Y36.473
M204 S550
G1 F1500 X50.015 Y35.769 E37.75008
G1 X50.641 Y35.119 E37.77736
G1 X51.322 Y34.526 E37.80466
G1 X52.054 Y33.996 E37.83198
G1 X52.829 Y33.533 E37.85927
G1 X53.642 Y33.14 E37.88656
G1 X54.487 Y32.82 E37.91388
G1 X55.356 Y32.577 E37.94116
G1 X56.244 Y32.411 E37.96847
G1 X57.383 Y32.315 E38.00302
G1 X57.704 Y32.306 E38.01273
G1 X57.99 Y32.302 E38.02137
G1 X176.633 Y32.302 E41.60797
G1 X177.477 Y32.313 E41.63349
G1 X178.379 Y32.366 E41.6608
G1 X179.272 Y32.498 E41.68809
G1 X180.15 Y32.709 E41.71539
G1 X181.006 Y32.997 E41.74269
G1 X181.833 Y33.359 E41.76998
G1 X182.625 Y33.794 E41.7973
G1 X183.376 Y34.296 E41.8246
G1 X184.079 Y34.863 E41.85191
G1 X184.729 Y35.49 E41.87921
G1 X185.321 Y36.172 E41.90651
G1 X185.851 Y36.903 E41.9338
G1 X186.313 Y37.679 E41.9611
G1 X186.706 Y38.492 E41.9884
G1 X187.024 Y39.337 E42.0157
G1 X187.267 Y40.207 E42.043
G1 X187.432 Y41.095 E42.07031
G1 X187.527 Y42.225 E42.10459
G1 X187.536 Y42.545 E42.11426
G1 X187.54 Y42.832 E42.12294
G1 X187.539 Y200.292 E46.88298
G1 X187.53 Y201.019 E46.90496
G1 X187.479 Y201.921 E46.93227
G1 X187.348 Y202.815 E46.95958
G1 X187.139 Y203.693 E46.98687
G1 X186.853 Y204.55 E47.01418
G1 X186.492 Y205.378 E47.04149
G1 X186.06 Y206.17 E47.06876
G1 X185.559 Y206.922 E47.09607
G1 X184.993 Y207.626 E47.12338
G1 X184.368 Y208.277 E47.15066
G1 X183.687 Y208.871 E47.17798
G1 X182.956 Y209.402 E47.20529
G1 X182.182 Y209.866 E47.23257
G1 X181.369 Y210.26 E47.25988
G1 X180.525 Y210.58 E47.28717
G1 X179.655 Y210.825 E47.31449
G1 X178.768 Y210.991 E47.34177
G1 X177.617 Y211.089 E47.37669
G1 X177.296 Y211.098 E47.3864
G1 X177.01 Y211.102 E47.39505
G1 X58.235 Y211.101 E50.98563
G1 X57.537 Y211.092 E51.00674
G1 X56.636 Y211.041 E51.03402
G1 X55.742 Y210.909 E51.06134
G1 X54.864 Y210.7 E51.08862
G1 X54.007 Y210.413 E51.11594
G1 X53.18 Y210.052 E51.14322
G1 X52.387 Y209.619 E51.17053
G1 X51.636 Y209.118 E51.19782
G1 X50.932 Y208.552 E51.22513
G1 X50.281 Y207.926 E51.25243
G1 X49.688 Y207.245 E51.27973
G1 X49.158 Y206.514 E51.30703
G1 X48.694 Y205.739 E51.33433
G1 X48.3 Y204.926 E51.36164
G1 X47.98 Y204.082 E51.38893
G1 X47.736 Y203.212 E51.41625
G1 X47.57 Y202.324 E51.44355
G1 X47.473 Y201.169 E51.47859
G1 X47.464 Y200.836 E51.48866
G1 X47.46 Y200.56 E51.49701
G1 X47.461 Y43.038 E56.25892
G1 X47.47 Y42.373 E56.27902
G1 X47.522 Y41.471 E56.30634
G1 X47.654 Y40.578 E56.33363
G1 X47.864 Y39.7 E56.36092
G1 X48.151 Y38.843 E56.38824
G1 X48.513 Y38.016 E56.41553
G1 X48.946 Y37.224 E56.44282
G1 X49.448 Y36.473 E56.47012
M204 S500
G1 F2400 E52.47012
;MESH:V4_BOTTOM_DRAWER_MIRRORED.stl
G0 F7500 X56.995 Y43.312
G0 X58.47 Y43.312
G0 X176.558 Y43.284
G0 X176.74 Y200.302
M204 S550
;TYPE:WALL-INNER
G1 F2400 E56.47012
G1 F1500 X58.26 Y200.302 E60.05179
G1 X58.26 Y43.102 E64.80397
G1 X176.74 Y43.102 E68.38563
G1 X176.74 Y200.302 E73.13781
M204 S500
G0 F7500 X177.14 Y200.702
M204 S550
;TYPE:WALL-OUTER
G1 F1500 X57.86 Y200.702 E76.74366
G1 X57.86 Y42.702 E81.52002
G1 X177.14 Y42.702 E85.12587
G1 X177.14 Y200.702 E89.90224
M204 S500
G0 F7500 X176.87 Y200.432
G0 X176.63 Y199.912
G0 X176.35 Y199.912
M204 S550
;TYPE:SKIN
G1 F1500 X58.65 Y199.912 E93.46032
G1 X58.65 Y43.492 E98.18892
G1 X176.35 Y43.492 E101.74701
G1 X176.35 Y199.912 E106.47561
M204 S500
G1 F2400 E102.47561
G0 F7500 X176.63 Y199.912
G0 X58.895 Y200.192
G0 X58.895 Y199.751
M204 S550
G1 F2400 E106.47561
G1 F1500 X58.809 Y199.665 E106.47928
M204 S500
G0 F7500 X58.809 Y199.099
M204 S550
G1 F1500 X59.461 Y199.751 E106.50716
M204 S500
G0 F7500 X60.027 Y199.751
M204 S550
G1 F1500 X58.809 Y198.533 E106.55923
M204 S500
G0 F7500 X58.809 Y197.967
M204 S550
G1 F1500 X60.592 Y199.751 E106.63548
M204 S500
G0 F7500 X61.158 Y199.751
M204 S550
G1 F1500 X58.809 Y197.402 E106.7359
M204 S500
G0 F7500 X58.809 Y196.836
M204 S550
G1 F1500 X61.724 Y199.751 E106.86052
M204 S500
G0 F7500 X62.289 Y199.751
M204 S550
G1 F1500 X58.809 Y196.27 E107.00932
M204 S500
G0 F7500 X58.809 Y195.705
M204 S550
G1 F1500 X62.855 Y199.751 E107.18229
M204 S500
G0 F7500 X63.421 Y199.751
M204 S550
G1 F1500 X58.809 Y195.139 E107.37947
M204 S500
G0 F7500 X58.809 Y194.573
M204 S550
G1 F1500 X63.986 Y199.751 E107.60081
M204 S500
G0 F7500 X64.552 Y199.751
M204 S550
G1 F1500 X58.809 Y194.008 E107.84634
M204 S500
G0 F7500 X58.809 Y193.442
M204 S550
G1 F1500 X65.118 Y199.751 E108.11606
M204 S500
G0 F7500 X65.683 Y199.751
M204 S550
G1 F1500 X58.809 Y192.876 E108.40996
M204 S500
G0 F7500 X58.809 Y192.311
M204 S550
G1 F1500 X66.249 Y199.751 E108.72803
M204 S500
G0 F7500 X66.815 Y199.751
M204 S550
G1 F1500 X58.809 Y191.745 E109.0703
M204 S500
G0 F7500 X58.809 Y191.179
M204 S550
G1 F1500 X67.38 Y199.751 E109.43675
M204 S500
G0 F7500 X67.946 Y199.751
M204 S550
G1 F1500 X58.809 Y190.614 E109.82737
M204 S500
G0 F7500 X58.809 Y190.048
M204 S550
G1 F1500 X68.512 Y199.751 E110.2422
M204 S500
G0 F7500 X69.077 Y199.751
M204 S550
G1 F1500 X58.809 Y189.482 E110.68119
M204 S500
G0 F7500 X58.809 Y188.917
M204 S550
G1 F1500 X69.643 Y199.751 E111.14437
M204 S500
G0 F7500 X70.209 Y199.751
M204 S550
G1 F1500 X58.809 Y188.351 E111.63174
M204 S500
G0 F7500 X58.809 Y187.785
M204 S550
G1 F1500 X70.775 Y199.751 E112.14331
M204 S500
G0 F7500 X71.34 Y199.751
M204 S550
G1 F1500 X58.809 Y187.219 E112.67905
M204 S500
G0 F7500 X58.809 Y186.654
M204 S550
G1 F1500 X71.906 Y199.751 E113.23897
M204 S500
G0 F7500 X72.472 Y199.751
M204 S550
G1 F1500 X58.809 Y186.088 E113.82309
M204 S500
G0 F7500 X58.809 Y185.522
M204 S550
G1 F1500 X73.037 Y199.751 E114.43139
M204 S500
G0 F7500 X73.603 Y199.751
M204 S550
G1 F1500 X58.809 Y184.957 E115.06386
M204 S500
G0 F7500 X58.809 Y184.391
M204 S550
G1 F1500 X74.169 Y199.751 E115.72053
M204 S500
G0 F7500 X74.734 Y199.751
M204 S550
G1 F1500 X58.809 Y183.825 E116.40137
M204 S500
G0 F7500 X58.809 Y183.26
M204 S550
G1 F1500 X75.3 Y199.751 E117.10639
M204 S500
G0 F7500 X75.866 Y199.751
M204 S550
G1 F1500 X58.809 Y182.694 E117.83561
M204 S500
G0 F7500 X58.809 Y182.128
M204 S550
G1 F1500 X76.431 Y199.751 E118.58901
M204 S500
G0 F7500 X76.997 Y199.751
M204 S550
G1 F1500 X58.809 Y181.563 E119.36658
M204 S500
G0 F7500 X58.809 Y180.997
M204 S550
G1 F1500 X77.563 Y199.751 E120.16835
M204 S500
G0 F7500 X78.128 Y199.751
M204 S550
G1 F1500 X58.809 Y180.431 E120.99429
M204 S500
G0 F7500 X58.809 Y179.866
M204 S550
G1 F1500 X78.694 Y199.751 E121.84441
M204 S500
G0 F7500 X79.26 Y199.751
M204 S550
G1 F1500 X58.809 Y179.3 E122.71873
M204 S500
G0 F7500 X58.809 Y178.734
M204 S550
G1 F1500 X79.825 Y199.751 E123.61723
M204 S500
G0 F7500 X80.391 Y199.751
M204 S550
G1 F1500 X58.809 Y178.168 E124.53992
M204 S500
G0 F7500 X58.809 Y177.603
M204 S550
G1 F1500 X80.957 Y199.751 E125.48679
M204 S500
G0 F7500 X81.523 Y199.751
M204 S550
G1 F1500 X58.809 Y177.037 E126.45785
M204 S500
G0 F7500 X58.809 Y176.471
M204 S550
G1 F1500 X82.088 Y199.751 E127.45309
M204 S500
G0 F7500 X82.654 Y199.751
M204 S550
G1 F1500 X58.809 Y175.906 E128.47251
M204 S500
G0 F7500 X58.809 Y175.34
M204 S550
G1 F1500 X83.22 Y199.751 E129.51613
M204 S500
G0 F7500 X83.785 Y199.751
M204 S550
G1 F1500 X58.809 Y174.774 E130.58392
M204 S500
G0 F7500 X58.809 Y174.209
M204 S550
G1 F1500 X84.351 Y199.751 E131.67589
M204 S500
G0 F7500 X84.917 Y199.751
M204 S550
G1 F1500 X58.809 Y173.643 E132.79205
M204 S500
G0 F7500 X58.809 Y173.077
M204 S550
G1 F1500 X85.482 Y199.751 E133.9324
M204 S500
G0 F7500 X86.048 Y199.751
M204 S550
G1 F1500 X58.809 Y172.512 E135.09691
M204 S500
G0 F7500 X58.809 Y171.946
M204 S550
G1 F1500 X86.614 Y199.751 E136.28563
M204 S500
G0 F7500 X87.179 Y199.751
M204 S550
G1 F1500 X58.809 Y171.38 E137.49852
M204 S500
G0 F7500 X58.809 Y170.815
M204 S550
G1 F1500 X87.745 Y199.751 E138.73559
M204 S500
G0 F7500 X88.311 Y199.751
M204 S550
G1 F1500 X58.809 Y170.249 E139.99686
M204 S500
G0 F7500 X58.809 Y169.683
M204 S550
G1 F1500 X88.876 Y199.751 E141.2823
M204 S500
G0 F7500 X89.442 Y199.751
M204 S550
G1 F1500 X58.809 Y169.118 E142.59192
M204 S500
G0 F7500 X58.809 Y168.552
M204 S550
G1 F1500 X90.008 Y199.751 E143.92573
M204 S500
G0 F7500 X90.574 Y199.751
M204 S550
G1 F1500 X58.809 Y167.986 E145.28374
M204 S500
G0 F7500 X58.809 Y167.42
M204 S550
G1 F1500 X91.139 Y199.751 E146.66593
M204 S500
G0 F7500 X91.705 Y199.751
M204 S550
G1 F1500 X58.809 Y166.855 E148.0723
M204 S500
G0 F7500 X58.809 Y166.289
M204 S550
G1 F1500 X92.271 Y199.751 E149.50286
M204 S500
G0 F7500 X92.836 Y199.751
M204 S550
G1 F1500 X58.809 Y165.723 E150.9576
M204 S500
G0 F7500 X58.809 Y165.158
M204 S550
G1 F1500 X93.402 Y199.751 E152.43652
M204 S500
G0 F7500 X93.968 Y199.751
M204 S550
G1 F1500 X58.809 Y164.592 E153.93963
M204 S500
G0 F7500 X58.809 Y164.026
M204 S550
G1 F1500 X94.533 Y199.751 E155.46692
M204 S500
G0 F7500 X95.099 Y199.751
M204 S550
G1 F1500 X58.809 Y163.461 E157.01838
M204 S500
G0 F7500 X58.809 Y162.895
M204 S550
G1 F1500 X95.665 Y199.751 E158.59405
M204 S500
G0 F7500 X96.23 Y199.751
M204 S550
G1 F1500 X58.809 Y162.329 E160.19389
M204 S500
G0 F7500 X58.809 Y161.764
M204 S550
G1 F1500 X96.796 Y199.751 E161.8179
M204 S500
G0 F7500 X97.362 Y199.751
M204 S550
G1 F1500 X58.809 Y161.198 E163.46611
M204 S500
G0 F7500 X58.809 Y160.632
M204 S550
G1 F1500 X97.927 Y199.751 E165.1385
M204 S500
G0 F7500 X98.493 Y199.751
M204 S550
G1 F1500 X58.809 Y160.067 E166.83507
M204 S500
G0 F7500 X58.809 Y159.501
M204 S550
G1 F1500 X99.059 Y199.751 E168.55583
M204 S500
G0 F7500 X99.624 Y199.751
M204 S550
G1 F1500 X58.809 Y158.935 E170.30077
M204 S500
G0 F7500 X58.809 Y158.369
M204 S550
G1 F1500 X100.19 Y199.751 E172.06991
M204 S500
G0 F7500 X100.756 Y199.751
M204 S550
G1 F1500 X58.809 Y157.804 E173.86322
M204 S500
G0 F7500 X58.809 Y157.238
M204 S550
G1 F1500 X101.322 Y199.751 E175.68073
M204 S500
G0 F7500 X101.887 Y199.751
M204 S550
G1 F1500 X58.809 Y156.672 E177.52242
M204 S500
G0 F7500 X58.809 Y156.107
M204 S550
G1 F1500 X102.453 Y199.751 E179.38828
M204 S500
G0 F7500 X103.019 Y199.751
M204 S550
