;FLAVOR:Marlin
;TIME:2632
;Filament used: 1.4615m
;Layer height: 0.2
;MINX:95.778
;MINY:95.635
;MINZ:0.2
;MAXX:140.297
;MAXY:140.153
;MAXZ:39.2
;POSTPROCESSED
;Generated with Cura_SteamEngine master
M140 S60
M105
M190 S60
M104 S200
M105
M109 S200
M82 ;absolute extrusion mode
; Ender 3 Custom Start G-code
G92 E0 ; Reset Extruder
G28 ; Home all axes
G1 Z2.0 F3000 ; Move Z Axis up little to prevent scratching of Heat Bed
G1 X0.1 Y20 Z0.3 F5000.0 ; Move to start position
G1 X0.1 Y200.0 Z0.3 F1500.0 E15 ; Draw the first line
G1 X0.4 Y200.0 Z0.3 F5000.0 ; Move to side a little
G1 X0.4 Y20 Z0.3 F1500.0 E30 ; Draw the second line
G92 E0 ; Reset Extruder
G1 Z2.0 F3000 ; Move Z Axis up little to prevent scratching of Heat Bed
G1 X5 Y20 Z0.3 F5000.0 ; Move over to prevent blob squish
G92 E0
G92 E0
G1 F2400 E-4
;LAYER_COUNT:196
;LAYER:0
M107
M204 S500
G0 F7500 X102.311 Y101.983 Z0.2
M204 S550
;TYPE:SKIRT
G1 F2400 E0
G1 F1500 X102.514 Y101.785 E0.00857
G1 X102.9 Y101.424 E0.02455
G1 X103.165 Y101.186 E0.03532
G1 X103.458 Y100.935 E0.04698
G1 X103.749 Y100.692 E0.05844
G1 X104.193 Y100.34 E0.07557
G1 X104.82 Y99.869 E0.09928
G1 X105.231 Y99.575 E0.11455
G1 X105.542 Y99.363 E0.12593
G1 X106.177 Y98.961 E0.14865
G1 X106.718 Y98.644 E0.1676
G1 X107.043 Y98.461 E0.17888
G1 X107.492 Y98.218 E0.19431
G1 X107.936 Y97.99 E0.2094
G1 X108.195 Y97.867 E0.21807
G1 X108.683 Y97.642 E0.23431
G1 X108.98 Y97.51 E0.24414
G1 X109.135 Y97.444 E0.24923
G1 X109.446 Y97.317 E0.25939
G1 X109.81 Y97.175 E0.2712
G1 X110.082 Y97.073 E0.27998
G1 X110.307 Y96.992 E0.28721
G1 X110.656 Y96.873 E0.29836
G1 X111.059 Y96.743 E0.31116
G1 X111.332 Y96.659 E0.31979
G1 X111.536 Y96.599 E0.32622
G1 X111.903 Y96.498 E0.33773
G1 X112.487 Y96.348 E0.35595
G1 X112.789 Y96.275 E0.36535
G1 X113.187 Y96.187 E0.37767
G1 X114.089 Y96.001 E0.40551
G1 X114.616 Y95.905 E0.4217
G1 X114.834 Y95.871 E0.42837
G1 X115.155 Y95.826 E0.43817
G1 X115.592 Y95.771 E0.45149
G1 X116.001 Y95.727 E0.46392
G1 X116.394 Y95.695 E0.47584
G1 X116.996 Y95.657 E0.49408
G1 X117.701 Y95.635 E0.5154
G1 X118.64 Y95.636 E0.54379
G1 X119.2 Y95.651 E0.56072
G1 X119.392 Y95.661 E0.56653
G1 X119.869 Y95.696 E0.58099
G1 X120.516 Y95.758 E0.60064
G1 X121.334 Y95.868 E0.62559
G1 X122.24 Y96.024 E0.65338
G1 X122.938 Y96.167 E0.67492
G1 X123.355 Y96.267 E0.68789
G1 X123.673 Y96.348 E0.69781
G1 X124.137 Y96.474 E0.71234
G1 X124.502 Y96.58 E0.72383
G1 X124.896 Y96.706 E0.73633
G1 X125.504 Y96.913 E0.75575
G1 X126.19 Y97.172 E0.77792
G1 X126.982 Y97.502 E0.80385
G1 X127.482 Y97.725 E0.82041
G1 X127.736 Y97.846 E0.82891
G1 X128.152 Y98.054 E0.84297
G1 X128.629 Y98.308 E0.85931
G1 X128.971 Y98.5 E0.87116
G1 X129.429 Y98.768 E0.88721
G1 X129.778 Y98.98 E0.89955
G1 X130.083 Y99.174 E0.91048
G1 X130.332 Y99.338 E0.91949
G1 X130.578 Y99.504 E0.92846
G1 X130.832 Y99.681 E0.93782
G1 X131.079 Y99.858 E0.94701
G1 X131.347 Y100.056 E0.95708
G1 X131.664 Y100.298 E0.96914
G1 X131.905 Y100.487 E0.97839
G1 X132.114 Y100.656 E0.98652
G1 X132.376 Y100.875 E0.99684
G1 X132.592 Y101.061 E1.00546
G1 X132.812 Y101.255 E1.01433
G1 X133.086 Y101.504 E1.02552
G1 X133.298 Y101.702 E1.03429
G1 X133.489 Y101.885 E1.04228
G1 X133.735 Y102.129 E1.05276
G1 X134.156 Y102.562 E1.07102
G1 X134.389 Y102.811 E1.08132
G1 X134.648 Y103.098 E1.09301
G1 X134.885 Y103.372 E1.10396
G1 X135.033 Y103.548 E1.11091
G1 X135.3 Y103.879 E1.12377
G1 X135.854 Y104.592 E1.15107
G1 X136.191 Y105.049 E1.16823
G1 X136.433 Y105.396 E1.18102
G1 X136.783 Y105.93 E1.20032
G1 X137.041 Y106.35 E1.21522
G1 X137.2 Y106.618 E1.22464
G1 X137.447 Y107.051 E1.23971
G1 X137.586 Y107.305 E1.24847
G1 X137.748 Y107.614 E1.25901
G1 X137.973 Y108.058 E1.27406
G1 X138.141 Y108.404 E1.28569
G1 X138.281 Y108.706 E1.29575
G1 X138.405 Y108.983 E1.30492
G1 X138.507 Y109.22 E1.31272
G1 X138.636 Y109.534 E1.32299
G1 X138.817 Y109.993 E1.3379
G1 X139.075 Y110.72 E1.36122
G1 X139.366 Y111.643 E1.39048
G1 X139.545 Y112.276 E1.41036
G1 X139.719 Y112.97 E1.43199
G1 X139.809 Y113.358 E1.44403
G1 X139.836 Y113.485 E1.44796
G1 X139.944 Y114.075 E1.46609
G1 X140.075 Y114.914 E1.49176
G1 X140.159 Y115.583 E1.51214
G1 X140.217 Y116.201 E1.53091
G1 X140.256 Y116.775 E1.5483
G1 X140.288 Y117.549 E1.57172
G1 X140.297 Y118.095 E1.58823
G1 X140.295 Y118.333 E1.59542
G1 X140.286 Y118.681 E1.60595
G1 X140.262 Y119.281 E1.6241
G1 X140.235 Y119.741 E1.63803
G1 X140.173 Y120.389 E1.65771
G1 X140.041 Y121.43 E1.68943
G1 X139.958 Y121.975 E1.70609
G1 X139.89 Y122.333 E1.71711
G1 X139.817 Y122.685 E1.72798
G1 X139.698 Y123.23 E1.74484
G1 X139.469 Y124.104 E1.77215
G1 X139.247 Y124.829 E1.79507
G1 X139.009 Y125.521 E1.8172
G1 X138.899 Y125.81 E1.82654
G1 X138.737 Y126.212 E1.83965
G1 X138.56 Y126.627 E1.85329
G1 X138.359 Y127.072 E1.86805
G1 X138.072 Y127.67 E1.8881
G1 X137.921 Y127.972 E1.89831
G1 X137.693 Y128.405 E1.9131
G1 X137.453 Y128.841 E1.92814
G1 X137.198 Y129.279 E1.94347
G1 X137.035 Y129.544 E1.95287
G1 X136.801 Y129.913 E1.96608
G1 X136.617 Y130.193 E1.97621
G1 X136.432 Y130.466 E1.98618
G1 X136.181 Y130.823 E1.99937
G1 X135.954 Y131.128 E2.01086
G1 X135.434 Y131.803 E2.03662
G1 X135.213 Y132.081 E2.04736
G1 X135.064 Y132.262 E2.05444
G1 X134.854 Y132.51 E2.06427
G1 X134.646 Y132.748 E2.07382
G1 X134.312 Y133.113 E2.08878
G1 X133.937 Y133.505 E2.10518
G1 X133.574 Y133.867 E2.12068
G1 X133.217 Y134.207 E2.13558
G1 X132.998 Y134.41 E2.14461
G1 X132.723 Y134.658 E2.1558
G1 X132.483 Y134.868 E2.16544
G1 X132.202 Y135.107 E2.17659
G1 X131.985 Y135.287 E2.18512
G1 X131.85 Y135.396 E2.19036
G1 X131.54 Y135.637 E2.20223
G1 X131.228 Y135.871 E2.21402
G1 X130.976 Y136.055 E2.22345
G1 X130.642 Y136.291 E2.23582
G1 X130.378 Y136.471 E2.24548
G1 X130.009 Y136.716 E2.25887
G1 X129.715 Y136.905 E2.26943
G1 X129.463 Y137.061 E2.27839
G1 X129.037 Y137.311 E2.29332
G1 X128.815 Y137.435 E2.30101
G1 X128.5 Y137.605 E2.31183
G1 X127.809 Y137.962 E2.33534
G1 X127.002 Y138.338 E2.36226
G1 X126.612 Y138.501 E2.37504
G1 X126.355 Y138.605 E2.38342
G1 X126.144 Y138.687 E2.39026
G1 X125.801 Y138.814 E2.40132
G1 X125.565 Y138.895 E2.40886
G1 X125.03 Y139.073 E2.4259
G1 X124.714 Y139.173 E2.43592
G1 X124.457 Y139.25 E2.44403
G1 X123.986 Y139.38 E2.45881
G1 X123.426 Y139.521 E2.47626
G1 X122.98 Y139.625 E2.49011
G1 X122.344 Y139.75 E2.5097
G1 X121.531 Y139.885 E2.53462
G1 X121.149 Y139.942 E2.54629
G1 X120.788 Y139.989 E2.5573
G1 X120.395 Y140.033 E2.56925
G1 X120.107 Y140.06 E2.578
G1 X119.727 Y140.089 E2.58952
G1 X119.031 Y140.13 E2.61059
G1 X118.6 Y140.148 E2.62363
G1 X118.256 Y140.153 E2.63403
G1 X117.803 Y140.153 E2.64773
G1 X117.346 Y140.144 E2.66155
G1 X116.933 Y140.125 E2.67404
G1 X116.558 Y140.1 E2.68541
G1 X116.257 Y140.075 E2.69454
G1 X115.695 Y140.022 E2.7116
G1 X115.334 Y139.982 E2.72258
G1 X115.013 Y139.941 E2.73236
G1 X114.734 Y139.902 E2.74088
G1 X114.487 Y139.864 E2.74843
G1 X114.036 Y139.785 E2.76228
G1 X113.604 Y139.7 E2.77559
G1 X113.229 Y139.619 E2.78718
G1 X112.676 Y139.49 E2.80435
G1 X112.204 Y139.369 E2.81908
G1 X111.737 Y139.238 E2.83374
G1 X111.217 Y139.078 E2.85019
G1 X110.718 Y138.911 E2.8661
G1 X110.413 Y138.804 E2.87587
G1 X110.054 Y138.672 E2.88743
G1 X109.619 Y138.502 E2.90155
G1 X109.243 Y138.34 E2.91393
G1 X108.706 Y138.097 E2.93174
G1 X108.371 Y137.938 E2.94295
G1 X107.735 Y137.624 E2.9644
G1 X107.204 Y137.344 E2.98254
G1 X106.874 Y137.158 E2.99399
G1 X106.441 Y136.902 E3.0092
G1 X106.21 Y136.76 E3.0174
G1 X105.975 Y136.611 E3.02581
G1 X105.683 Y136.419 E3.03637
G1 X105.268 Y136.137 E3.05154
G1 X104.98 Y135.935 E3.06218
G1 X104.694 Y135.727 E3.07287
G1 X104.257 Y135.392 E3.08951
G1 X103.75 Y134.983 E3.1092
G1 X103.442 Y134.726 E3.12133
G1 X103.149 Y134.468 E3.13313
G1 X102.883 Y134.227 E3.14398
G1 X102.541 Y133.905 E3.15818
G1 X102.294 Y133.663 E3.16864
G1 X102.07 Y133.436 E3.17828
G1 X101.873 Y133.231 E3.18687
G1 X101.561 Y132.898 E3.20067
G1 X101.325 Y132.638 E3.21128
G1 X101.144 Y132.432 E3.21957
G1 X100.936 Y132.189 E3.22924
G1 X100.709 Y131.915 E3.24
G1 X100.451 Y131.591 E3.25252
G1 X100.132 Y131.175 E3.26837
G1 X99.685 Y130.548 E3.29164
G1 X99.285 Y129.943 E3.31357
G1 X99.069 Y129.602 E3.32577
G1 X98.905 Y129.333 E3.33529
G1 X98.59 Y128.781 E3.35451
G1 X98.105 Y127.871 E3.38568
G1 X97.868 Y127.399 E3.40165
G1 X97.807 Y127.27 E3.40596
G1 X97.672 Y126.973 E3.41582
G1 X97.547 Y126.687 E3.42526
G1 X97.449 Y126.456 E3.43284
G1 X97.344 Y126.2 E3.44121
G1 X97.211 Y125.861 E3.45222
G1 X97.06 Y125.455 E3.46531
G1 X96.917 Y125.047 E3.47838
G1 X96.777 Y124.62 E3.49197
G1 X96.61 Y124.06 E3.50963
G1 X96.512 Y123.697 E3.521
G1 X96.382 Y123.164 E3.53758
G1 X96.164 Y122.16 E3.56864
G1 X96.056 Y121.585 E3.58633
G1 X96.021 Y121.369 E3.59294
G1 X95.958 Y120.931 E3.60632
G1 X95.924 Y120.65 E3.61488
G1 X95.898 Y120.405 E3.62232
G1 X95.868 Y120.066 E3.63261
G1 X95.815 Y119.359 E3.65404
G1 X95.784 Y118.61 E3.67671
G1 X95.778 Y117.711 E3.70388
G1 X95.783 Y117.317 E3.7158
G1 X95.79 Y117.077 E3.72305
G1 X95.806 Y116.711 E3.73413
G1 X95.843 Y116.12 E3.75203
G1 X95.866 Y115.83 E3.76082
G1 X95.909 Y115.348 E3.77545
G1 X95.972 Y114.791 E3.7924
G1 X96.06 Y114.166 E3.81148
G1 X96.141 Y113.673 E3.82658
G1 X96.222 Y113.241 E3.83987
G1 X96.383 Y112.519 E3.86223
G1 X96.598 Y111.686 E3.88824
G1 X96.698 Y111.324 E3.89959
G1 X96.744 Y111.168 E3.90451
G1 X96.888 Y110.718 E3.91879
G1 X97.068 Y110.192 E3.9356
G1 X97.218 Y109.778 E3.94891
G1 X97.342 Y109.458 E3.95928
G1 X97.492 Y109.091 E3.97127
G1 X97.608 Y108.821 E3.98015
G1 X97.728 Y108.551 E3.98908
G1 X97.861 Y108.263 E3.99867
G1 X98.062 Y107.846 E4.01267
G1 X98.208 Y107.56 E4.02237
G1 X98.388 Y107.218 E4.03406
G1 X98.649 Y106.749 E4.05028
G1 X99.015 Y106.129 E4.07205
G1 X99.279 Y105.704 E4.08717
G1 X99.509 Y105.352 E4.09988
G1 X99.937 Y104.744 E4.12236
G1 X100.398 Y104.133 E4.1455
G1 X100.595 Y103.88 E4.15519
G1 X100.72 Y103.724 E4.16124
G1 X101.069 Y103.309 E4.17763
G1 X101.433 Y102.898 E4.19423
G1 X101.784 Y102.52 E4.20982
G1 X102.108 Y102.187 E4.22386
G1 X102.311 Y101.983 E4.23256
M204 S500
G0 F7500 X102.591 Y102.27
M204 S550
G1 F1500 X102.794 Y102.072 E4.24114
G1 X103 Y101.876 E4.24973
G1 X103.172 Y101.717 E4.25681
G1 X103.427 Y101.489 E4.26715
G1 X103.715 Y101.242 E4.27862
G1 X104.006 Y100.999 E4.29008
G1 X104.434 Y100.66 E4.30659
G1 X105.061 Y100.189 E4.3303
G1 X105.457 Y99.905 E4.34503
G1 X105.768 Y99.693 E4.35641
G1 X106.379 Y99.306 E4.37827
G1 X106.92 Y98.989 E4.39723
G1 X107.234 Y98.813 E4.40811
G1 X107.683 Y98.57 E4.42354
G1 X108.113 Y98.349 E4.43816
G1 X108.363 Y98.23 E4.44653
G1 X108.851 Y98.005 E4.46277
G1 X109.136 Y97.878 E4.4722
G1 X109.291 Y97.812 E4.4773
G1 X109.592 Y97.69 E4.48711
G1 X109.956 Y97.548 E4.49893
G1 X110.218 Y97.45 E4.50738
G1 X110.443 Y97.369 E4.51461
G1 X110.779 Y97.254 E4.52535
G1 X111.182 Y97.124 E4.53815
G1 X111.445 Y97.043 E4.54647
G1 X111.649 Y96.983 E4.55289
G1 X112.003 Y96.885 E4.564
G1 X112.587 Y96.735 E4.58223
G1 X112.877 Y96.665 E4.59124
G1 X113.268 Y96.578 E4.60335
G1 X114.17 Y96.392 E4.63119
G1 X114.678 Y96.301 E4.6468
G1 X114.896 Y96.267 E4.65347
G1 X115.205 Y96.223 E4.6629
G1 X115.642 Y96.168 E4.67622
G1 X116.041 Y96.125 E4.68835
G1 X116.419 Y96.094 E4.69981
G1 X117.021 Y96.056 E4.71805
G1 X117.7 Y96.035 E4.73858
G1 X118.639 Y96.036 E4.76697
G1 X119.179 Y96.05 E4.7833
G1 X119.371 Y96.06 E4.78911
G1 X119.831 Y96.094 E4.80306
G1 X120.478 Y96.156 E4.8227
G1 X121.266 Y96.262 E4.84674
G1 X122.172 Y96.418 E4.87453
G1 X122.845 Y96.556 E4.8953
G1 X123.262 Y96.656 E4.90826
G1 X123.568 Y96.734 E4.91781
G1 X124.032 Y96.86 E4.93234
G1 X124.387 Y96.963 E4.94352
G1 X124.767 Y97.085 E4.95558
G1 X125.375 Y97.292 E4.975
G1 X126.036 Y97.541 E4.99635
G1 X126.828 Y97.871 E5.02229
G1 X127.31 Y98.086 E5.03824
G1 X127.564 Y98.207 E5.04675
G1 X127.97 Y98.41 E5.06047
G1 X128.439 Y98.66 E5.07654
G1 X128.769 Y98.845 E5.08797
G1 X129.227 Y99.113 E5.10402
G1 X129.563 Y99.318 E5.11592
G1 X129.868 Y99.512 E5.12684
G1 X130.108 Y99.669 E5.13551
G1 X130.354 Y99.835 E5.14448
G1 X130.599 Y100.006 E5.15352
G1 X130.846 Y100.183 E5.1627
G1 X131.104 Y100.374 E5.17241
G1 X131.421 Y100.616 E5.18446
G1 X131.654 Y100.799 E5.19342
G1 X131.863 Y100.968 E5.20154
G1 X132.115 Y101.178 E5.21146
G1 X132.331 Y101.364 E5.22008
G1 X132.543 Y101.551 E5.22862
G1 X132.817 Y101.8 E5.23982
G1 X133.021 Y101.991 E5.24826
G1 X133.212 Y102.174 E5.25626
G1 X133.45 Y102.409 E5.26637
G1 X133.695 Y102.659 E5.27695
G1 X133.864 Y102.835 E5.28433
G1 X134.097 Y103.084 E5.29464
G1 X134.346 Y103.36 E5.30587
G1 X134.579 Y103.63 E5.31666
G1 X134.727 Y103.806 E5.32361
G1 X134.984 Y104.124 E5.33597
G1 X135.538 Y104.837 E5.36326
G1 X135.862 Y105.277 E5.37978
G1 X136.104 Y105.624 E5.39257
G1 X136.442 Y106.14 E5.41122
G1 X136.7 Y106.56 E5.42612
G1 X136.854 Y106.818 E5.4352
G1 X137.096 Y107.243 E5.44999
G1 X137.235 Y107.497 E5.45874
G1 X137.391 Y107.794 E5.46888
G1 X137.616 Y108.238 E5.48393
G1 X137.778 Y108.572 E5.49515
G1 X137.918 Y108.874 E5.50521
G1 X138.038 Y109.142 E5.51409
G1 X138.14 Y109.379 E5.52189
G1 X138.264 Y109.68 E5.53173
G1 X138.445 Y110.139 E5.54665
G1 X138.693 Y110.841 E5.56915
G1 X138.984 Y111.764 E5.59841
G1 X139.157 Y112.373 E5.61755
G1 X139.331 Y113.067 E5.63918
G1 X139.417 Y113.441 E5.65078
G1 X139.444 Y113.568 E5.6547
G1 X139.549 Y114.137 E5.67219
G1 X139.68 Y114.976 E5.69786
G1 X139.761 Y115.621 E5.71752
G1 X139.819 Y116.239 E5.73628
G1 X139.856 Y116.791 E5.75301
G1 X139.888 Y117.565 E5.77642
G1 X139.897 Y118.092 E5.79236
G1 X139.895 Y118.33 E5.79955
G1 X139.887 Y118.665 E5.80968
G1 X139.863 Y119.265 E5.82783
G1 X139.836 Y119.714 E5.84143
G1 X139.776 Y120.338 E5.86038
G1 X139.644 Y121.379 E5.8921
G1 X139.564 Y121.904 E5.90816
G1 X139.498 Y122.253 E5.9189
G1 X139.426 Y122.599 E5.92958
G1 X139.307 Y123.144 E5.94644
G1 X139.086 Y123.987 E5.97279
G1 X138.864 Y124.712 E5.99571
G1 X138.636 Y125.379 E6.01702
G1 X138.526 Y125.668 E6.02637
G1 X138.369 Y126.056 E6.03902
G1 X138.192 Y126.471 E6.05266
G1 X137.998 Y126.898 E6.06684
G1 X137.711 Y127.496 E6.08689
G1 X137.566 Y127.788 E6.09674
G1 X137.467 Y127.979 E6.10325
G1 X137.342 Y128.213 E6.11127
G1 X137.102 Y128.649 E6.12631
G1 X136.857 Y129.071 E6.14106
G1 X136.697 Y129.33 E6.15027
G1 X136.463 Y129.699 E6.16348
G1 X136.286 Y129.968 E6.17321
G1 X136.101 Y130.241 E6.18318
G1 X135.942 Y130.47 E6.19161
G1 X135.856 Y130.59 E6.19607
G1 X135.637 Y130.884 E6.20715
G1 X135.117 Y131.559 E6.23291
G1 X134.904 Y131.827 E6.24326
G1 X134.755 Y132.008 E6.25035
G1 X134.552 Y132.246 E6.2598
G1 X134.344 Y132.484 E6.26936
G1 X134.023 Y132.836 E6.28376
G1 X133.648 Y133.228 E6.30016
G1 X133.298 Y133.577 E6.3151
G1 X132.941 Y133.917 E6.33
G1 X132.73 Y134.113 E6.33871
G1 X132.455 Y134.361 E6.3499
G1 X132.224 Y134.563 E6.35918
G1 X131.943 Y134.802 E6.37033
G1 X131.599 Y135.084 E6.38378
G1 X131.3 Y135.317 E6.39524
G1 X130.988 Y135.551 E6.40703
G1 X130.745 Y135.728 E6.41612
G1 X130.411 Y135.964 E6.42848
G1 X130.157 Y136.138 E6.43779
G1 X129.788 Y136.383 E6.45118
G1 X129.504 Y136.565 E6.46137
G1 X129.252 Y136.721 E6.47033
G1 X128.842 Y136.962 E6.48471
G1 X128.62 Y137.086 E6.4924
G1 X128.316 Y137.249 E6.50283
G1 X127.625 Y137.606 E6.52634
G1 X126.848 Y137.969 E6.55226
G1 X126.458 Y138.132 E6.56504
G1 X126.21 Y138.232 E6.57312
G1 X125.999 Y138.314 E6.57997
G1 X125.667 Y138.437 E6.59067
G1 X125.438 Y138.516 E6.59799
G1 X124.903 Y138.694 E6.61504
G1 X124.599 Y138.79 E6.62468
G1 X124.342 Y138.867 E6.63279
G1 X123.888 Y138.992 E6.64702
G1 X123.328 Y139.133 E6.66448
G1 X122.891 Y139.235 E6.67804
G1 X122.278 Y139.356 E6.69693
G1 X121.465 Y139.491 E6.72185
G1 X121.098 Y139.545 E6.73306
G1 X120.737 Y139.592 E6.74407
G1 X120.357 Y139.635 E6.75563
G1 X120.069 Y139.662 E6.76437
G1 X119.703 Y139.69 E6.77547
G1 X119.007 Y139.731 E6.79654
G1 X118.587 Y139.748 E6.80925
G1 X118.256 Y139.753 E6.81926
G1 X117.803 Y139.753 E6.83295
G1 X117.496 Y139.749 E6.84223
G1 X117.358 Y139.745 E6.84641
G1 X116.96 Y139.726 E6.85845
G1 X116.585 Y139.701 E6.86981
G1 X116.295 Y139.677 E6.87861
G1 X115.733 Y139.624 E6.89568
G1 X115.385 Y139.586 E6.90626
G1 X115.064 Y139.545 E6.91604
G1 X114.795 Y139.507 E6.92425
G1 X114.548 Y139.469 E6.93181
G1 X114.114 Y139.393 E6.94513
