;FLAVOR:Marlin
;TIME:3486
;Filament used: 2.84027m
;Layer height: 0.2
;MINX:91.5
;MINY:92.005
;MINZ:0.2
;MAXX:143.5
;MAXY:148.584
;MAXZ:26.2
;POSTPROCESSED
;Generated with Cura_SteamEngine master
M140 S60
M105
M190 S60
M104 S200
M105
M109 S200
M82 ;absolute extrusion mode
; Ender 3 Custom Start G-code
G92 E0 ; Reset Extruder
G28 ; Home all axes
G1 Z2.0 F3000 ; Move Z Axis up little to prevent scratching of Heat Bed
G1 X0.1 Y20 Z0.3 F5000.0 ; Move to start position
G1 X0.1 Y200.0 Z0.3 F1500.0 E15 ; Draw the first line
G1 X0.4 Y200.0 Z0.3 F5000.0 ; Move to side a little
G1 X0.4 Y20 Z0.3 F1500.0 E30 ; Draw the second line
G92 E0 ; Reset Extruder
G1 Z2.0 F3000 ; Move Z Axis up little to prevent scratching of Heat Bed
G1 X5 Y20 Z0.3 F5000.0 ; Move over to prevent blob squish
G92 E0
G92 E0
G1 F2400 E-4
;LAYER_COUNT:131
;LAYER:0
M107
M204 S500
G0 F7500 X94.708 Y95.261 Z0.2
M204 S550
;TYPE:SKIRT
G1 F2400 E0
G1 F1500 X95.397 Y94.624 E0.02837
G1 X96.138 Y94.049 E0.05672
G1 X96.925 Y93.539 E0.08507
G1 X97.752 Y93.097 E0.11342
G1 X98.614 Y92.728 E0.14176
G1 X99.505 Y92.433 E0.17014
G1 X100.417 Y92.216 E0.19847
G1 X101.345 Y92.077 E0.22684
G1 X102.183 Y92.02 E0.25223
G1 X102.486 Y92.011 E0.2614
G1 X102.813 Y92.006 E0.27128
G1 X131.792 Y92.005 E1.14732
G1 X132.648 Y92.016 E1.1732
G1 X133.584 Y92.07 E1.20154
G1 X134.512 Y92.202 E1.22988
G1 X135.426 Y92.414 E1.25824
G1 X136.318 Y92.703 E1.28659
G1 X137.183 Y93.066 E1.31495
G1 X138.013 Y93.502 E1.34329
G1 X138.804 Y94.007 E1.37166
G1 X139.548 Y94.578 E1.40001
G1 X140.241 Y95.21 E1.42836
G1 X140.878 Y95.898 E1.45671
G1 X141.453 Y96.639 E1.48506
G1 X141.964 Y97.425 E1.5134
G1 X142.406 Y98.253 E1.54178
G1 X142.775 Y99.115 E1.57012
G1 X143.07 Y100.005 E1.59847
G1 X143.288 Y100.917 E1.62681
G1 X143.428 Y101.845 E1.65518
G1 X143.486 Y102.707 E1.6813
G1 X143.496 Y103.064 E1.6921
G1 X143.5 Y103.372 E1.70141
G1 X143.499 Y116.068 E2.08521
G1 X143.488 Y116.786 E2.10692
G1 X143.398 Y118.029 E2.14459
G1 X143.321 Y118.618 E2.16255
G1 X143.082 Y120.295 E2.21376
G1 X142.797 Y122.786 E2.28955
G1 X142.582 Y125.299 E2.3658
G1 X142.46 Y127.434 E2.43045
G1 X142.449 Y127.545 E2.43382
G1 X142.392 Y128.718 E2.46932
G1 X142.307 Y129.652 E2.49767
G1 X142.142 Y130.576 E2.52604
G1 X141.899 Y131.482 E2.5544
G1 X141.441 Y132.689 E2.59343
G1 X141.02 Y133.627 E2.62451
G1 X140.87 Y133.948 E2.63522
G1 X140.564 Y134.575 E2.65631
G1 X140.103 Y135.422 E2.68546
G1 X139.65 Y136.173 E2.71198
G1 X139.412 Y136.556 E2.72561
G1 X139.027 Y137.158 E2.74721
G1 X138.478 Y137.939 E2.77607
G1 X137.968 Y138.6 E2.80131
G1 X137.637 Y139.015 E2.81735
G1 X137.225 Y139.52 E2.83706
G1 X136.6 Y140.222 E2.86547
G1 X135.974 Y140.866 E2.89262
G1 X135.632 Y141.207 E2.90722
G1 X135.159 Y141.667 E2.92717
G1 X134.454 Y142.296 E2.95573
G1 X133.746 Y142.874 E2.98336
G1 X133.415 Y143.135 E2.9961
G1 X132.84 Y143.577 E3.01802
G1 X132.083 Y144.11 E3.04601
G1 X131.292 Y144.617 E3.07441
G1 X130.96 Y144.822 E3.08621
G1 X130.348 Y145.19 E3.1078
G1 X129.526 Y145.638 E3.1361
G1 X128.681 Y146.051 E3.16453
G1 X128.278 Y146.24 E3.17799
G1 X127.648 Y146.525 E3.19889
G1 X126.8 Y146.867 E3.22653
G1 X125.945 Y147.17 E3.25395
G1 X125.571 Y147.295 E3.26587
G1 X124.869 Y147.522 E3.28818
G1 X123.938 Y147.779 E3.31737
G1 X123.01 Y147.99 E3.34614
G1 X122.624 Y148.071 E3.35807
G1 X121.962 Y148.203 E3.37847
G1 X121.032 Y148.347 E3.40692
G1 X120.087 Y148.451 E3.43566
G1 X119.675 Y148.49 E3.44817
G1 X118.98 Y148.547 E3.46925
G1 X118.035 Y148.584 E3.49784
G1 X117.162 Y148.579 E3.52423
G1 X116.699 Y148.569 E3.53823
G1 X116.022 Y148.547 E3.55871
G1 X115.072 Y148.475 E3.58751
G1 X114.121 Y148.36 E3.61647
G1 X113.641 Y148.294 E3.63112
G1 X112.992 Y148.195 E3.65096
G1 X112.118 Y148.025 E3.67788
G1 X111.408 Y147.857 E3.69993
G1 X110.925 Y147.735 E3.71499
G1 X110.141 Y147.525 E3.73953
G1 X109.238 Y147.241 E3.76815
G1 X108.506 Y146.975 E3.79169
G1 X107.934 Y146.757 E3.8102
G1 X107.319 Y146.512 E3.83021
G1 X106.471 Y146.132 E3.8583
G1 X105.607 Y145.699 E3.88751
G1 X105.27 Y145.522 E3.89902
G1 X104.633 Y145.179 E3.92089
G1 X103.835 Y144.705 E3.94895
G1 X103.054 Y144.194 E3.97717
G1 X102.71 Y143.96 E3.98974
G1 X102.147 Y143.568 E4.01048
G1 X101.405 Y143.004 E4.03866
G1 X100.664 Y142.387 E4.06781
G1 X100.348 Y142.115 E4.08041
G1 X99.833 Y141.66 E4.10118
G1 X99.148 Y141 E4.12994
G1 X98.537 Y140.357 E4.15675
G1 X98.238 Y140.034 E4.17006
G1 X97.763 Y139.506 E4.19153
G1 X97.16 Y138.774 E4.2202
G1 X96.601 Y138.031 E4.24831
G1 X96.366 Y137.71 E4.26033
G1 X95.962 Y137.142 E4.2814
G1 X95.441 Y136.336 E4.31042
G1 X94.973 Y135.538 E4.33838
G1 X94.768 Y135.177 E4.35093
G1 X94.438 Y134.578 E4.37161
G1 X94.013 Y133.72 E4.40055
G1 X93.642 Y132.878 E4.42837
G1 X93.491 Y132.52 E4.44011
G1 X93.22 Y131.86 E4.46168
G1 X92.891 Y130.944 E4.4911
G1 X92.63 Y130.101 E4.51778
G1 X92.503 Y129.669 E4.53139
G1 X92.31 Y128.976 E4.55314
G1 X92.101 Y128.082 E4.5809
G1 X91.933 Y127.193 E4.60825
G1 X91.856 Y126.747 E4.62193
G1 X91.75 Y126.085 E4.64219
G1 X91.641 Y125.145 E4.6708
G1 X91.574 Y124.208 E4.6992
G1 X91.551 Y123.792 E4.71179
G1 X91.521 Y123.099 E4.73276
G1 X91.512 Y122.786 E4.74223
G1 X91.5 Y121.881 E4.76959
G1 X91.501 Y103.53 E5.32434
G1 X91.511 Y102.853 E5.34481
G1 X91.565 Y101.916 E5.37318
G1 X91.698 Y100.988 E5.40152
G1 X91.91 Y100.074 E5.42989
G1 X92.199 Y99.182 E5.45823
G1 X92.563 Y98.318 E5.48658
G1 X93 Y97.487 E5.51496
G1 X93.505 Y96.697 E5.5433
G1 X94.076 Y95.953 E5.57165
G1 X94.708 Y95.261 E5.59999
M204 S500
G0 F7500 X95.1 Y95.435
M204 S550
G1 F1500 X95.786 Y94.821 E5.62782
G1 X96.522 Y94.268 E5.65565
G1 X97.303 Y93.782 E5.68345
G1 X98.124 Y93.365 E5.71129
G1 X98.978 Y93.021 E5.73912
G1 X99.859 Y92.752 E5.76697
G1 X100.759 Y92.561 E5.79478
G1 X101.673 Y92.448 E5.82262
G1 X102.195 Y92.42 E5.83843
G1 X102.498 Y92.411 E5.84759
G1 X102.813 Y92.406 E5.85711
G1 X131.792 Y92.405 E6.73315
G1 X132.642 Y92.416 E6.75885
G1 X133.561 Y92.469 E6.78668
G1 X134.472 Y92.602 E6.81451
G1 X135.368 Y92.813 E6.84234
G1 X136.242 Y93.101 E6.87016
G1 X137.089 Y93.464 E6.89801
G1 X137.9 Y93.899 E6.92583
G1 X138.67 Y94.403 E6.95365
G1 X139.394 Y94.972 E6.98149
G1 X140.066 Y95.602 E7.00934
G1 X140.681 Y96.287 E7.03717
G1 X141.234 Y97.023 E7.065
G1 X141.721 Y97.804 E7.09282
G1 X142.138 Y98.625 E7.12066
G1 X142.483 Y99.479 E7.1485
G1 X142.752 Y100.359 E7.17632
G1 X142.944 Y101.26 E7.20417
G1 X143.057 Y102.173 E7.23198
G1 X143.086 Y102.718 E7.24848
G1 X143.096 Y103.075 E7.25927
G1 X143.1 Y103.372 E7.26825
G1 X143.099 Y116.061 E7.65184
G1 X143.088 Y116.779 E7.67355
G1 X143.001 Y117.978 E7.70989
G1 X142.925 Y118.562 E7.72769
G1 X142.687 Y120.229 E7.7786
G1 X142.396 Y122.78 E7.85622
G1 X142.185 Y125.243 E7.93095
G1 X142.061 Y127.411 E7.99659
G1 X142.051 Y127.514 E7.99972
G1 X141.993 Y128.699 E8.03559
G1 X141.908 Y129.616 E8.06343
G1 X141.744 Y130.522 E8.09126
G1 X141.502 Y131.41 E8.11908
G1 X141.076 Y132.525 E8.15517
G1 X140.655 Y133.463 E8.18625
G1 X140.51 Y133.772 E8.19656
G1 X140.204 Y134.399 E8.21766
G1 X139.76 Y135.216 E8.24577
G1 X139.31 Y135.962 E8.2721
G1 X139.075 Y136.34 E8.28556
G1 X138.69 Y136.942 E8.30716
G1 X138.161 Y137.695 E8.33498
G1 X137.754 Y138.224 E8.35516
G1 X137.327 Y138.762 E8.37592
G1 X136.915 Y139.267 E8.39562
G1 X136.313 Y139.944 E8.42301
G1 X135.807 Y140.466 E8.44499
G1 X135.353 Y140.92 E8.46439
G1 X134.88 Y141.38 E8.48434
G1 X134.201 Y141.986 E8.51185
G1 X133.497 Y142.561 E8.53933
G1 X133.171 Y142.818 E8.55188
G1 X132.596 Y143.26 E8.57381
G1 X131.867 Y143.773 E8.60075
G1 X131.081 Y144.277 E8.62898
G1 X130.753 Y144.479 E8.64062
G1 X130.141 Y144.847 E8.66221
G1 X129.349 Y145.279 E8.68948
G1 X128.51 Y145.69 E8.71773
G1 X128.113 Y145.876 E8.73098
G1 X127.483 Y146.161 E8.75188
G1 X126.666 Y146.49 E8.77851
G1 X125.817 Y146.791 E8.80574
G1 X125.448 Y146.915 E8.81751
G1 X124.746 Y147.142 E8.83981
G1 X123.848 Y147.389 E8.86797
G1 X122.927 Y147.599 E8.89652
G1 X122.546 Y147.678 E8.90828
G1 X121.884 Y147.81 E8.92869
G1 X120.987 Y147.95 E8.95614
G1 X120.199 Y148.038 E8.9801
G1 X119.642 Y148.092 E8.99702
G1 X118.947 Y148.149 E9.0181
G1 X118.036 Y148.184 E9.04566
G1 X117.169 Y148.179 E9.07187
G1 X116.712 Y148.169 E9.08569
G1 X116.035 Y148.147 E9.10617
G1 X115.119 Y148.078 E9.13394
G1 X114.174 Y147.964 E9.16271
G1 X113.702 Y147.899 E9.17711
G1 X113.053 Y147.8 E9.19696
G1 X112.21 Y147.636 E9.22292
G1 X111.3 Y147.419 E9.2512
G1 X110.915 Y147.319 E9.26323
G1 X110.245 Y147.139 E9.2842
G1 X109.375 Y146.865 E9.31177
G1 X108.499 Y146.545 E9.33997
G1 X108.082 Y146.385 E9.35347
G1 X107.467 Y146.14 E9.37348
G1 X106.65 Y145.774 E9.40055
G1 X105.791 Y145.343 E9.4296
G1 X105.46 Y145.17 E9.44089
G1 X104.823 Y144.827 E9.46276
G1 X104.053 Y144.37 E9.48983
G1 X103.277 Y143.862 E9.51787
G1 X102.938 Y143.632 E9.53025
G1 X102.375 Y143.24 E9.55099
G1 X101.66 Y142.696 E9.57815
G1 X100.924 Y142.083 E9.6071
G1 X100.613 Y141.815 E9.61951
G1 X100.098 Y141.36 E9.64029
G1 X99.438 Y140.724 E9.668
G1 X98.83 Y140.084 E9.69468
G1 X98.536 Y139.766 E9.70777
G1 X98.061 Y139.238 E9.72924
G1 X97.479 Y138.533 E9.75688
G1 X96.923 Y137.794 E9.78484
G1 X96.692 Y137.478 E9.79667
G1 X96.288 Y136.91 E9.81774
G1 X95.786 Y136.134 E9.84568
G1 X95.32 Y135.34 E9.87351
G1 X95.119 Y134.984 E9.88587
G1 X94.789 Y134.385 E9.90655
G1 X94.379 Y133.558 E9.93445
G1 X94.011 Y132.722 E9.96206
G1 X93.861 Y132.368 E9.97368
G1 X93.59 Y131.708 E9.99525
G1 X93.273 Y130.825 E10.02361
G1 X93.013 Y129.987 E10.05014
G1 X92.889 Y129.562 E10.06352
G1 X92.696 Y128.869 E10.08527
G1 X92.494 Y128.007 E10.11203
G1 X92.327 Y127.124 E10.1392
G1 X92.251 Y126.684 E10.1527
G1 X92.145 Y126.022 E10.17296
G1 X92.04 Y125.116 E10.20054
G1 X91.973 Y124.185 E10.22875
G1 X91.951 Y123.774 E10.2412
G1 X91.921 Y123.081 E10.26217
G1 X91.912 Y122.78 E10.27127
G1 X91.9 Y121.881 E10.29845
G1 X91.901 Y103.535 E10.85305
G1 X91.911 Y102.858 E10.87352
G1 X91.965 Y101.939 E10.90135
G1 X92.098 Y101.028 E10.92918
G1 X92.309 Y100.132 E10.95701
G1 X92.598 Y99.258 E10.98483
G1 X92.961 Y98.412 E11.01266
G1 X93.397 Y97.601 E11.0405
G1 X93.901 Y96.831 E11.06832
G1 X94.47 Y96.107 E11.09616
G1 X95.1 Y95.435 E11.124
M204 S500
G0 F7500 X95.491 Y95.614
M204 S550
G1 F1500 X96.173 Y95.022 E11.1513
G1 X96.905 Y94.493 E11.1786
G1 X97.681 Y94.031 E11.20591
G1 X98.494 Y93.639 E11.23319
G1 X99.34 Y93.32 E11.26052
G1 X100.21 Y93.078 E11.28782
G1 X101.098 Y92.913 E11.31513
G1 X102.207 Y92.819 E11.34877
G1 X102.51 Y92.81 E11.35793
G1 X102.813 Y92.806 E11.3671
G1 X131.792 Y92.805 E12.24313
G1 X132.636 Y92.816 E12.26865
G1 X133.538 Y92.869 E12.29597
G1 X134.431 Y93.001 E12.32325
G1 X135.309 Y93.212 E12.35055
G1 X136.165 Y93.5 E12.37785
G1 X136.992 Y93.862 E12.40515
G1 X137.784 Y94.297 E12.43246
G1 X138.535 Y94.799 E12.45977
G1 X139.238 Y95.366 E12.48707
G1 X139.888 Y95.993 E12.51437
G1 X140.48 Y96.675 E12.54167
G1 X141.01 Y97.406 E12.56897
G1 X141.472 Y98.182 E12.59627
G1 X141.865 Y98.995 E12.62357
G1 X142.183 Y99.84 E12.65086
G1 X142.426 Y100.71 E12.67817
G1 X142.591 Y101.598 E12.70547
G1 X142.686 Y102.729 E12.73978
G1 X142.696 Y103.086 E12.75058
G1 X142.7 Y103.372 E12.75923
G1 X142.699 Y116.055 E13.14264
G1 X142.688 Y116.773 E13.16434
G1 X142.605 Y117.927 E13.19932
G1 X142.529 Y118.505 E13.21694
G1 X142.288 Y120.195 E13.26855
G1 X142.001 Y122.707 E13.34498
G1 X141.783 Y125.258 E13.42238
G1 X141.661 Y127.388 E13.48687
G1 X141.651 Y127.488 E13.48991
G1 X141.593 Y128.68 E13.52599
G1 X141.509 Y129.579 E13.55328
G1 X141.346 Y130.467 E13.58058
G1 X141.106 Y131.338 E13.60789
G1 X140.711 Y132.362 E13.64107
G1 X140.29 Y133.3 E13.67215
G1 X140.151 Y133.597 E13.68206
G1 X139.845 Y134.224 E13.70315
G1 X139.417 Y135.01 E13.73021
G1 X138.97 Y135.752 E13.75639
G1 X138.738 Y136.125 E13.76967
G1 X138.353 Y136.727 E13.79128
G1 X137.844 Y137.451 E13.81803
G1 X137.341 Y138.103 E13.84292
G1 X137.017 Y138.509 E13.85863
G1 X136.605 Y139.014 E13.87833
G1 X136.026 Y139.665 E13.90467
G1 X135.52 Y140.187 E13.92664
G1 X135.074 Y140.633 E13.94571
G1 X134.601 Y141.093 E13.96566
G1 X133.948 Y141.677 E13.99214
G1 X133.248 Y142.248 E14.01945
G1 X132.927 Y142.501 E14.0318
G1 X132.352 Y142.943 E14.05373
G1 X131.65 Y143.437 E14.07968
G1 X130.87 Y143.937 E14.10768
G1 X130.547 Y144.136 E14.11915
G1 X129.935 Y144.504 E14.14074
G1 X129.173 Y144.92 E14.16699
G1 X128.338 Y145.328 E14.19508
G1 X127.948 Y145.511 E14.2081
G1 X127.318 Y145.796 E14.22901
G1 X126.532 Y146.113 E14.25463
G1 X125.688 Y146.412 E14.2817
G1 X125.325 Y146.534 E14.29327
G1 X124.623 Y146.761 E14.31558
G1 X123.759 Y146.999 E14.34267
G1 X122.844 Y147.207 E14.37103
G1 X122.468 Y147.286 E14.38265
G1 X121.806 Y147.418 E14.40305
G1 X120.943 Y147.552 E14.42946
G1 X120.009 Y147.655 E14.45786
G1 X119.61 Y147.693 E14.46998
G1 X118.915 Y147.75 E14.49106
G1 X118.038 Y147.784 E14.51759
G1 X117.177 Y147.779 E14.54362
G1 X116.725 Y147.77 E14.55729
G1 X116.048 Y147.748 E14.57776
G1 X115.167 Y147.681 E14.60447
G1 X114.227 Y147.567 E14.6331
G1 X113.762 Y147.503 E14.64729
G1 X113.113 Y147.404 E14.66713
G1 X112.302 Y147.247 E14.6921
G1 X111.592 Y147.079 E14.71416
G1 X111.019 Y146.933 E14.73204
G1 X110.349 Y146.753 E14.75301
G1 X109.511 Y146.489 E14.77957
G1 X108.779 Y146.223 E14.80311
G1 X108.23 Y146.014 E14.82087
G1 X107.615 Y145.769 E14.84088
G1 X106.828 Y145.416 E14.86696
G1 X105.975 Y144.988 E14.89581
G1 X105.649 Y144.818 E14.90692
G1 X105.012 Y144.475 E14.92879
G1 X104.272 Y144.035 E14.95482
G1 X103.5 Y143.53 E14.98271
G1 X103.167 Y143.304 E14.99487
G1 X102.604 Y142.912 E15.01561
G1 X101.916 Y142.388 E15.04176
G1 X101.184 Y141.779 E15.07054
G1 X100.878 Y141.515 E15.08276
G1 X100.363 Y141.06 E15.10353
G1 X99.728 Y140.449 E15.13017
G1 X99.122 Y139.812 E15.15675
G1 X98.833 Y139.499 E15.16963
G1 X98.358 Y138.971 E15.1911
G1 X97.798 Y138.292 E15.21771
G1 X97.245 Y137.558 E15.24549
G1 X97.018 Y137.246 E15.25715
G1 X96.614 Y136.678 E15.27822
G1 X96.131 Y135.931 E15.30511
G1 X95.668 Y135.142 E15.33277
G1 X95.469 Y134.791 E15.34497
G1 X95.139 Y134.192 E15.36564
G1 X94.745 Y133.396 E15.39249
G1 X94.379 Y132.566 E15.41991
G1 X94.231 Y132.216 E15.4314
G1 X93.96 Y131.556 E15.45297
G1 X93.655 Y130.707 E15.48024
G1 X93.397 Y129.873 E15.50663
G1 X93.274 Y129.455 E15.5198
G1 X93.081 Y128.762 E15.54155
G1 X92.887 Y127.932 E15.56732
G1 X92.721 Y127.055 E15.5943
G1 X92.646 Y126.621 E15.60761
G1 X92.54 Y125.959 E15.62788
G1 X92.439 Y125.087 E15.65442
G1 X92.373 Y124.162 E15.68245
G1 X92.351 Y123.757 E15.69471
G1 X92.321 Y123.064 E15.71568
G1 X92.312 Y122.774 E15.72445
G1 X92.3 Y121.881 E15.75145
G1 X92.301 Y103.541 E16.30587
G1 X92.311 Y102.864 E16.32634
G1 X92.364 Y101.963 E16.35362
G1 X92.497 Y101.07 E16.38092
G1 X92.709 Y100.192 E16.40822
G1 X92.997 Y99.336 E16.43552
G1 X93.359 Y98.509 E16.46281
G1 X93.794 Y97.717 E16.49013
G1 X94.297 Y96.967 E16.51743
G1 X94.864 Y96.264 E16.54473
G1 X95.491 Y95.614 E16.57203
M204 S500
G1 F2400 E12.57203
;MESH:Ender_3_Z_Axis_Stabilizer.STL
G0 F7500 X102.913 Y102.341
G0 X102.914 Y103.42
G0 X131.318 Y104.187
G0 X131.326 Y116.121
G0 X130.515 Y116.932
G0 X115.144 Y116.897
G0 X111.412 Y121.57
G0 X112.366 Y124.404
G0 X113.977 Y127.68
G0 X119.897 Y128.277
G0 X129.823 Y128.28
G0 X129.644 Y129.217
G0 X128.812 Y130.556
G0 X127.817 Y131.812
G0 X126.708 Y132.921
G0 X125.457 Y133.913
G0 X124.113 Y134.749
G0 X122.662 Y135.432
G0 X121.454 Y135.841
G0 X118.043 Y136.594
M204 S550
;TYPE:WALL-INNER
G1 F2400 E16.57203
G1 F1500 X116.42 Y136.562 E16.62111
G1 X114.851 Y136.351 E16.66896
G1 X113.279 Y135.952 E16.71799
G1 X111.763 Y135.373 E16.76705
G1 X110.364 Y134.647 E16.8147
G1 X109.007 Y133.733 E16.86416
G1 X107.792 Y132.691 E16.91255
G1 X106.699 Y131.512 E16.96115
G1 X105.757 Y130.225 E17.00936
G1 X104.952 Y128.81 E17.05857
G1 X104.33 Y127.346 E17.10666
G1 X103.867 Y125.783 E17.15594
G1 X103.595 Y124.212 E17.20414
G1 X103.5 Y122.595 E17.2531
G1 X103.5 Y104.006 E17.81505
G1 X131.301 Y104.005 E18.65548
G1 X131.5 Y104.005 E18.6615
G1 X131.5 Y104.204 E18.66539
G1 X131.5 Y116.192 E19.02779
G1 X130.586 Y117.106 E19.06686
G1 X119.865 Y117.106 E19.39096
G1 X119.174 Y116.839 E19.41335
G1 X118.184 Y116.641 E19.44387
G1 X117.173 Y116.611 E19.47445
G1 X116.173 Y116.749 E19.50497
G1 X115.21 Y117.056 E19.53552
