;FLAVOR:Marlin
;TIME:8473
;Filament used: 6.89338m
;Layer height: 0.2
;MINX:56.737
;MINY:61.449
;MINZ:0.2
;MAXX:178.263
;MAXY:174.473
;MAXZ:21.8
;Generated with Cura_SteamEngine master
M140 S60
M105
M190 S60
M104 S200
M105
M109 S200
M82 ;absolute extrusion mode
; Ender 3 Custom Start G-code
G92 E0 ; Reset Extruder
G28 ; Home all axes
G1 Z2.0 F3000 ; Move Z Axis up little to prevent scratching of Heat Bed
G1 X0.1 Y20 Z0.3 F5000.0 ; Move to start position
G1 X0.1 Y200.0 Z0.3 F1500.0 E15 ; Draw the first line
G1 X0.4 Y200.0 Z0.3 F5000.0 ; Move to side a little
G1 X0.4 Y20 Z0.3 F1500.0 E30 ; Draw the second line
G92 E0 ; Reset Extruder
G1 Z2.0 F3000 ; Move Z Axis up little to prevent scratching of Heat Bed
G1 X5 Y20 Z0.3 F5000.0 ; Move over to prevent blob squish
G92 E0
G92 E0
G1 F2400 E-4
;LAYER_COUNT:109
;LAYER:0
M107
M204 S500
G0 F7500 X60.451 Y65.226 Z0.2
M204 S550
;TYPE:SKIRT
G1 F2400 E0
G1 F1500 X61.098 Y64.622 E0.02676
G1 X61.256 Y64.486 E0.03306
G1 X62.297 Y63.693 E0.07262
G1 X62.547 Y63.525 E0.08172
G1 X63.347 Y63.036 E0.11007
G1 X64.462 Y62.497 E0.14751
G1 X64.669 Y62.411 E0.15428
G1 X65.971 Y61.963 E0.19591
G1 X66.28 Y61.878 E0.2056
G1 X67.195 Y61.668 E0.23398
G1 X68.147 Y61.534 E0.26304
G1 X68.397 Y61.51 E0.27063
G1 X69.111 Y61.465 E0.29226
G1 X69.58 Y61.453 E0.30644
G1 X69.88 Y61.45 E0.31551
G1 X137.01 Y61.449 E2.34486
G1 X165.051 Y61.452 E3.19254
G1 X165.745 Y61.462 E3.21352
G1 X166.682 Y61.516 E3.2419
G1 X167.22 Y61.583 E3.25829
G1 X167.573 Y61.636 E3.26908
G1 X168.494 Y61.815 E3.29744
G1 X169.535 Y62.118 E3.33022
G1 X169.749 Y62.192 E3.33706
G1 X170.806 Y62.62 E3.37153
G1 X171.016 Y62.718 E3.37854
G1 X171.848 Y63.15 E3.40688
G1 X172.434 Y63.512 E3.4277
G1 X172.567 Y63.6 E3.43252
G1 X173.331 Y64.155 E3.46107
G1 X173.529 Y64.312 E3.46871
G1 X174.239 Y64.925 E3.49706
G1 X174.914 Y65.62 E3.52635
G1 X175.059 Y65.783 E3.53295
G1 X175.606 Y66.448 E3.55898
G1 X175.769 Y66.663 E3.56713
G1 X176.303 Y67.434 E3.59549
G1 X176.769 Y68.248 E3.62384
G1 X177.062 Y68.857 E3.64427
G1 X177.22 Y69.214 E3.65607
G1 X177.558 Y70.074 E3.68401
G1 X177.596 Y70.184 E3.68752
G1 X177.864 Y71.083 E3.71588
G1 X178.046 Y71.95 E3.74266
G1 X178.08 Y72.152 E3.74886
G1 X178.167 Y72.776 E3.7679
G1 X178.177 Y72.867 E3.77067
G1 X178.232 Y73.57 E3.79199
G1 X178.244 Y73.834 E3.79998
G1 X178.254 Y74.172 E3.8102
G1 X178.263 Y74.881 E3.83163
G1 X178.261 Y161.173 E6.44025
G1 X178.251 Y161.92 E6.46284
G1 X178.211 Y162.717 E6.48696
G1 X178.198 Y162.868 E6.49154
G1 X178.078 Y163.802 E6.52001
G1 X178.043 Y164.004 E6.52621
G1 X177.843 Y164.92 E6.55455
G1 X177.64 Y165.605 E6.57615
G1 X177.557 Y165.854 E6.58408
G1 X177.173 Y166.843 E6.61615
G1 X177.149 Y166.897 E6.61794
G1 X176.82 Y167.574 E6.64069
G1 X176.693 Y167.814 E6.6489
G1 X176.219 Y168.623 E6.67725
G1 X175.717 Y169.339 E6.70368
G1 X175.566 Y169.537 E6.71121
G1 X175.126 Y170.078 E6.73229
G1 X174.211 Y171.019 E6.77197
G1 X174.004 Y171.208 E6.78044
G1 X173.285 Y171.811 E6.80881
G1 X172.749 Y172.197 E6.82878
G1 X172.539 Y172.339 E6.83644
G1 X171.74 Y172.831 E6.86481
G1 X171.296 Y173.066 E6.87999
G1 X171.108 Y173.16 E6.88635
G1 X169.908 Y173.673 E6.9258
G1 X169.702 Y173.747 E6.93242
G1 X168.806 Y174.026 E6.96078
G1 X168.228 Y174.163 E6.97874
G1 X167.993 Y174.212 E6.986
G1 X166.806 Y174.393 E7.0223
G1 X166.599 Y174.413 E7.02858
G1 X165.994 Y174.455 E7.04692
G1 X165.56 Y174.467 E7.06004
G1 X164.967 Y174.473 E7.07797
G1 X152.047 Y174.471 E7.46854
G1 X151.345 Y174.461 E7.48977
G1 X150.409 Y174.408 E7.51811
G1 X149.481 Y174.275 E7.54645
G1 X148.567 Y174.063 E7.57481
G1 X147.985 Y173.885 E7.59321
G1 X146.682 Y173.444 E7.63479
G1 X146.459 Y173.365 E7.64195
G1 X144.073 Y172.596 E7.71773
G1 X141.692 Y171.903 E7.79269
G1 X139.204 Y171.254 E7.87042
G1 X136.738 Y170.683 E7.94694
G1 X134.317 Y170.198 E8.02158
G1 X131.82 Y169.769 E8.09817
G1 X129.347 Y169.416 E8.17369
G1 X126.832 Y169.129 E8.25021
G1 X124.323 Y168.914 E8.32634
G1 X121.791 Y168.769 E8.40301
G1 X119.312 Y168.698 E8.47798
G1 X116.789 Y168.696 E8.55425
G1 X114.259 Y168.767 E8.63076
G1 X111.739 Y168.908 E8.70706
G1 X109.233 Y169.119 E8.78308
G1 X106.744 Y169.401 E8.85881
G1 X104.242 Y169.756 E8.9352
G1 X101.775 Y170.178 E9.01086
G1 X99.289 Y170.674 E9.0875
G1 X96.87 Y171.229 E9.16252
G1 X94.398 Y171.871 E9.23973
G1 X92.003 Y172.566 E9.31512
G1 X89.57 Y173.348 E9.39238
G1 X88.084 Y173.86 E9.43989
G1 X86.874 Y174.201 E9.47789
G1 X85.951 Y174.365 E9.50623
G1 X84.799 Y174.459 E9.54117
G1 X84.481 Y174.468 E9.55079
G1 X84.17 Y174.472 E9.56019
G1 X69.973 Y174.471 E9.98937
G1 X69.262 Y174.46 E10.01087
G1 X68.018 Y174.37 E10.04857
G1 X67.694 Y174.328 E10.05845
G1 X66.77 Y174.168 E10.08679
G1 X65.443 Y173.79 E10.12851
G1 X65.078 Y173.661 E10.14021
G1 X64.207 Y173.311 E10.16859
G1 X63.361 Y172.884 E10.19723
G1 X63.156 Y172.769 E10.20434
G1 X62.359 Y172.275 E10.23268
G1 X61.938 Y171.975 E10.24831
G1 X61.754 Y171.837 E10.25527
G1 X61.028 Y171.243 E10.28362
G1 X60.531 Y170.77 E10.30436
G1 X60.359 Y170.596 E10.31176
G1 X59.729 Y169.902 E10.34009
G1 X59.322 Y169.382 E10.36006
G1 X59.141 Y169.136 E10.36929
G1 X58.618 Y168.358 E10.39763
G1 X58.351 Y167.897 E10.41373
G1 X58.293 Y167.791 E10.41739
G1 X57.878 Y166.95 E10.44574
G1 X57.678 Y166.466 E10.46157
G1 X57.589 Y166.235 E10.46905
G1 X57.346 Y165.533 E10.49151
G1 X57.272 Y165.294 E10.49907
G1 X57.033 Y164.388 E10.5274
G1 X56.872 Y163.458 E10.55593
G1 X56.839 Y163.204 E10.56367
G1 X56.753 Y162.136 E10.59606
G1 X56.741 Y161.703 E10.60916
G1 X56.737 Y161.178 E10.62503
G1 X56.74 Y74.694 E13.23945
G1 X56.748 Y74.118 E13.25687
G1 X56.761 Y73.716 E13.26902
G1 X56.766 Y73.617 E13.27202
G1 X56.82 Y72.947 E13.29234
G1 X56.859 Y72.599 E13.30293
G1 X57.004 Y71.672 E13.33129
G1 X57.337 Y70.4 E13.37104
G1 X57.412 Y70.171 E13.37832
G1 X57.776 Y69.214 E13.40928
G1 X57.865 Y69.009 E13.41603
G1 X58.275 Y68.166 E13.44437
G1 X58.537 Y67.707 E13.46035
G1 X58.642 Y67.533 E13.46649
G1 X59.16 Y66.751 E13.49485
G1 X59.607 Y66.177 E13.51684
G1 X59.821 Y65.92 E13.52695
G1 X60.451 Y65.226 E13.55529
M204 S500
G0 F7500 X60.748 Y65.495
M204 S550
G1 F1500 X61.359 Y64.925 E13.58055
G1 X61.517 Y64.789 E13.58685
G1 X62.52 Y64.025 E13.62496
G1 X62.77 Y63.857 E13.63407
G1 X63.555 Y63.377 E13.66188
G1 X64.615 Y62.866 E13.69746
G1 X64.822 Y62.78 E13.70423
G1 X66.078 Y62.349 E13.74438
G1 X66.387 Y62.264 E13.75406
G1 X67.284 Y62.058 E13.78189
G1 X68.185 Y61.933 E13.80938
G1 X68.435 Y61.909 E13.81698
G1 X69.123 Y61.865 E13.83782
G1 X69.585 Y61.853 E13.85179
G1 X69.88 Y61.85 E13.86071
G1 X137.01 Y61.849 E15.89006
G1 X165.046 Y61.852 E16.73759
G1 X165.74 Y61.862 E16.75857
G1 X166.659 Y61.915 E16.7864
G1 X167.161 Y61.978 E16.80169
G1 X167.514 Y62.031 E16.81248
G1 X168.418 Y62.208 E16.84033
G1 X169.404 Y62.496 E16.87138
G1 X169.618 Y62.57 E16.87823
G1 X170.637 Y62.982 E16.91145
G1 X170.847 Y63.08 E16.91846
G1 X171.663 Y63.506 E16.94629
G1 X172.213 Y63.846 E16.96583
G1 X172.346 Y63.934 E16.97065
G1 X173.083 Y64.468 E16.99817
G1 X173.281 Y64.625 E17.00581
G1 X173.977 Y65.228 E17.03365
G1 X174.615 Y65.886 E17.06135
G1 X174.76 Y66.049 E17.06795
G1 X175.287 Y66.69 E17.09303
G1 X175.45 Y66.905 E17.10119
G1 X175.974 Y67.662 E17.12902
G1 X176.43 Y68.462 E17.15686
G1 X176.696 Y69.019 E17.17552
G1 X176.854 Y69.376 E17.18732
G1 X177.18 Y70.205 E17.21425
G1 X177.218 Y70.315 E17.21777
G1 X177.481 Y71.197 E17.24559
G1 X177.652 Y72.017 E17.27091
G1 X177.686 Y72.219 E17.2771
G1 X177.77 Y72.82 E17.29545
G1 X177.78 Y72.911 E17.29822
G1 X177.832 Y73.588 E17.31874
G1 X177.844 Y73.852 E17.32673
G1 X177.854 Y74.178 E17.33659
G1 X177.863 Y74.881 E17.35784
G1 X177.861 Y161.168 E19.96631
G1 X177.851 Y161.915 E19.9889
G1 X177.813 Y162.682 E20.01211
G1 X177.8 Y162.833 E20.01669
G1 X177.683 Y163.734 E20.04416
G1 X177.648 Y163.936 E20.05036
G1 X177.452 Y164.835 E20.07817
G1 X177.26 Y165.478 E20.09846
G1 X177.177 Y165.727 E20.10639
G1 X176.807 Y166.68 E20.1373
G1 X176.783 Y166.734 E20.13908
G1 X176.466 Y167.387 E20.16103
G1 X176.339 Y167.627 E20.16923
G1 X175.874 Y168.421 E20.19705
G1 X175.399 Y169.097 E20.22203
G1 X175.248 Y169.295 E20.22955
G1 X174.823 Y169.817 E20.2499
G1 X173.941 Y170.724 E20.28815
G1 X173.734 Y170.913 E20.29662
G1 X173.028 Y171.504 E20.32446
G1 X172.525 Y171.866 E20.34319
G1 X172.315 Y172.008 E20.35085
G1 X171.53 Y172.49 E20.3787
G1 X171.117 Y172.708 E20.39282
G1 X170.929 Y172.802 E20.39917
G1 X169.773 Y173.297 E20.43719
G1 X169.567 Y173.371 E20.4438
G1 X168.687 Y173.644 E20.47166
G1 X168.147 Y173.772 E20.48843
G1 X167.912 Y173.821 E20.49569
G1 X166.767 Y173.995 E20.5307
G1 X166.56 Y174.015 E20.53699
G1 X165.978 Y174.055 E20.55462
G1 X165.555 Y174.067 E20.56742
G1 X164.967 Y174.073 E20.58519
G1 X152.053 Y174.071 E20.97558
G1 X151.351 Y174.061 E20.99681
G1 X150.432 Y174.008 E21.02464
G1 X149.521 Y173.875 E21.05247
G1 X148.625 Y173.664 E21.08029
G1 X148.113 Y173.506 E21.09649
G1 X146.815 Y173.067 E21.13791
G1 X146.6 Y172.991 E21.14481
G1 X144.18 Y172.211 E21.22167
G1 X141.79 Y171.516 E21.29691
G1 X139.289 Y170.863 E21.37505
G1 X136.834 Y170.295 E21.45123
G1 X134.392 Y169.805 E21.52652
G1 X131.878 Y169.374 E21.60363
G1 X129.412 Y169.021 E21.67894
G1 X126.84 Y168.728 E21.75719
G1 X124.379 Y168.517 E21.83186
G1 X121.826 Y168.371 E21.90917
G1 X119.288 Y168.298 E21.98592
G1 X116.778 Y168.296 E22.0618
G1 X114.224 Y168.367 E22.13904
G1 X111.719 Y168.508 E22.21488
G1 X109.225 Y168.718 E22.29054
G1 X106.68 Y169.006 E22.36797
G1 X104.184 Y169.36 E22.44418
G1 X101.7 Y169.785 E22.52036
G1 X99.193 Y170.286 E22.59765
G1 X96.785 Y170.838 E22.67233
G1 X94.3 Y171.483 E22.74994
G1 X91.875 Y172.187 E22.82628
G1 X89.443 Y172.968 E22.90349
G1 X87.953 Y173.482 E22.95114
G1 X86.787 Y173.811 E22.98777
G1 X85.881 Y173.971 E23.01558
G1 X84.788 Y174.059 E23.04873
G1 X84.47 Y174.068 E23.05834
G1 X84.17 Y174.072 E23.06741
G1 X69.979 Y174.071 E23.49641
G1 X69.268 Y174.06 E23.51791
G1 X68.069 Y173.973 E23.55425
G1 X67.745 Y173.931 E23.56412
G1 X66.838 Y173.773 E23.59196
G1 X65.576 Y173.413 E23.63163
G1 X65.211 Y173.284 E23.64333
G1 X64.357 Y172.94 E23.67116
G1 X63.557 Y172.535 E23.69827
G1 X63.352 Y172.42 E23.70538
G1 X62.569 Y171.935 E23.73322
G1 X62.178 Y171.655 E23.74776
G1 X61.994 Y171.517 E23.75471
G1 X61.282 Y170.933 E23.78255
G1 X60.815 Y170.489 E23.80203
G1 X60.643 Y170.315 E23.80942
G1 X60.025 Y169.633 E23.83725
G1 X59.644 Y169.145 E23.85596
G1 X59.463 Y168.899 E23.86519
G1 X58.95 Y168.134 E23.89304
G1 X58.702 Y167.705 E23.90802
G1 X58.644 Y167.599 E23.91167
G1 X58.238 Y166.773 E23.93949
G1 X58.052 Y166.322 E23.95424
G1 X57.963 Y166.091 E23.96173
G1 X57.728 Y165.415 E23.98336
G1 X57.654 Y165.176 E23.99092
G1 X57.42 Y164.286 E24.01874
G1 X57.268 Y163.407 E24.04571
G1 X57.235 Y163.153 E24.05345
G1 X57.152 Y162.123 E24.08469
G1 X57.141 Y161.699 E24.09751
G1 X57.137 Y161.178 E24.11326
G1 X57.14 Y74.7 E26.72751
G1 X57.148 Y74.124 E26.74492
G1 X57.16 Y73.736 E26.75665
G1 X57.165 Y73.637 E26.75965
G1 X57.218 Y72.991 E26.77925
G1 X57.257 Y72.643 E26.78983
G1 X57.399 Y71.734 E26.81764
G1 X57.717 Y70.525 E26.85544
G1 X57.792 Y70.296 E26.86272
G1 X58.143 Y69.374 E26.89254
G1 X58.232 Y69.169 E26.8993
G1 X58.635 Y68.341 E26.92714
G1 X58.879 Y67.913 E26.94203
G1 X58.984 Y67.739 E26.94817
G1 X59.494 Y66.973 E26.97599
G1 X59.914 Y66.433 E26.99667
G1 X60.128 Y66.176 E27.00678
G1 X60.748 Y65.495 E27.03462
M204 S500
G0 F7500 X61.044 Y65.764
M204 S550
G1 F1500 X61.62 Y65.228 E27.05841
G1 X61.778 Y65.092 E27.06471
G1 X62.743 Y64.357 E27.10138
G1 X62.993 Y64.189 E27.11049
G1 X63.764 Y63.719 E27.13778
G1 X64.769 Y63.236 E27.17149
G1 X64.976 Y63.15 E27.17827
G1 X66.184 Y62.734 E27.21689
G1 X66.493 Y62.649 E27.22658
G1 X67.373 Y62.449 E27.25386
G1 X68.223 Y62.331 E27.2798
G1 X68.473 Y62.307 E27.28739
G1 X69.136 Y62.265 E27.30748
G1 X69.59 Y62.253 E27.32121
G1 X69.88 Y62.25 E27.32997
G1 X137.01 Y62.249 E29.35932
G1 X165.04 Y62.252 E30.20667
G1 X165.734 Y62.262 E30.22766
G1 X166.636 Y62.315 E30.25497
G1 X167.101 Y62.374 E30.26914
G1 X167.454 Y62.427 E30.27993
G1 X168.341 Y62.601 E30.30726
G1 X169.273 Y62.874 E30.33661
G1 X169.487 Y62.948 E30.34346
G1 X170.467 Y63.345 E30.37542
G1 X170.677 Y63.443 E30.38243
G1 X171.478 Y63.861 E30.40974
G1 X171.992 Y64.179 E30.42801
G1 X172.125 Y64.267 E30.43283
G1 X172.834 Y64.782 E30.45933
G1 X173.032 Y64.939 E30.46696
G1 X173.714 Y65.531 E30.49427
G1 X174.316 Y66.152 E30.52041
G1 X174.461 Y66.315 E30.52701
G1 X174.968 Y66.932 E30.55115
G1 X175.131 Y67.147 E30.5593
G1 X175.644 Y67.89 E30.5866
G1 X176.09 Y68.675 E30.61389
G1 X176.33 Y69.181 E30.63082
G1 X176.488 Y69.538 E30.64262
G1 X176.802 Y70.335 E30.66852
G1 X176.84 Y70.445 E30.67204
G1 X177.097 Y71.311 E30.69935
G1 X177.258 Y72.083 E30.72318
G1 X177.292 Y72.285 E30.72938
G1 X177.372 Y72.864 E30.74705
G1 X177.382 Y72.955 E30.74981
G1 X177.432 Y73.606 E30.76955
G1 X177.444 Y73.87 E30.77754
G1 X177.454 Y74.184 E30.78704
G1 X177.463 Y74.881 E30.80811
G1 X177.461 Y161.163 E33.41643
G1 X177.451 Y161.91 E33.43901
G1 X177.414 Y162.648 E33.46135
G1 X177.401 Y162.799 E33.46593
G1 X177.289 Y163.665 E33.49233
G1 X177.254 Y163.867 E33.49853
G1 X177.061 Y164.75 E33.52585
G1 X176.881 Y165.352 E33.54484
G1 X176.798 Y165.601 E33.55278
G1 X176.442 Y166.518 E33.58251
G1 X176.418 Y166.572 E33.5843
G1 X176.113 Y167.2 E33.60541
G1 X175.986 Y167.44 E33.61361
G1 X175.528 Y168.218 E33.64091
G1 X175.081 Y168.854 E33.66441
G1 X174.93 Y169.052 E33.67193
G1 X174.52 Y169.556 E33.69157
G1 X173.672 Y170.429 E33.72837
G1 X173.465 Y170.618 E33.73684
G1 X172.771 Y171.196 E33.76414
G1 X172.301 Y171.535 E33.78166
G1 X172.091 Y171.677 E33.78932
G1 X170.939 Y172.35 E33.82966
G1 X170.751 Y172.444 E33.83601
G1 X169.637 Y172.92 E33.87263
G1 X169.431 Y172.994 E33.87925
G1 X168.569 Y173.262 E33.90654
G1 X168.065 Y173.38 E33.92219
G1 X167.83 Y173.429 E33.92944
G1 X166.729 Y173.597 E33.96311
G1 X166.522 Y173.617 E33.9694
G1 X165.961 Y173.655 E33.9864
G1 X165.551 Y173.667 E33.9988
G1 X164.967 Y173.673 E34.01645
G1 X152.059 Y173.671 E34.40666
G1 X151.357 Y173.661 E34.42789
G1 X150.455 Y173.608 E34.4552
G1 X149.562 Y173.476 E34.48249
G1 X148.684 Y173.265 E34.50979
G1 X148.241 Y173.127 E34.52381
G1 X146.949 Y172.69 E34.56505
G1 X146.719 Y172.609 E34.57242
G1 X144.309 Y171.832 E34.64896
G1 X141.865 Y171.121 E34.72591
G1 X139.442 Y170.488 E34.80162
G1 X136.905 Y169.902 E34.88033
G1 X134.466 Y169.413 E34.95553
G1 X131.925 Y168.976 E35.03347
G1 X129.443 Y168.622 E35.10926
G1 X126.919 Y168.333 E35.18606
G1 X124.368 Y168.115 E35.26346
G1 X121.86 Y167.971 E35.3394
G1 X119.3 Y167.898 E35.41682
G1 X116.767 Y167.896 E35.49339
G1 X114.227 Y167.967 E35.57021
G1 X111.699 Y168.109 E35.64675
G1 X109.145 Y168.324 E35.72423
G1 X106.645 Y168.607 E35.80029
G1 X104.137 Y168.963 E35.87687
G1 X101.626 Y169.392 E35.95387
G1 X99.131 Y169.891 E36.03079
G1 X96.667 Y170.456 E36.10721
G1 X94.184 Y171.1 E36.18476
G1 X91.746 Y171.808 E36.2615
G1 X89.345 Y172.579 E36.33774
G1 X87.823 Y173.104 E36.38641
G1 X86.701 Y173.42 E36.42164
G1 X85.811 Y173.577 E36.44896
G1 X84.777 Y173.659 E36.48032
G1 X84.459 Y173.668 E36.48994
G1 X84.17 Y173.672 E36.49868
G1 X69.985 Y173.671 E36.92749
G1 X69.274 Y173.66 E36.94899
G1 X68.121 Y173.576 E36.98393
G1 X67.797 Y173.534 E36.99381
G1 X66.907 Y173.379 E37.02112
G1 X65.709 Y173.036 E37.05879
G1 X65.344 Y172.907 E37.07049
G1 X64.507 Y172.569 E37.09778
G1 X63.753 Y172.186 E37.12335
G1 X63.548 Y172.071 E37.13045
G1 X62.418 Y171.335 E37.17122
G1 X62.234 Y171.197 E37.17817
G1 X61.536 Y170.624 E37.20547
G1 X61.1 Y170.208 E37.22369
G1 X60.928 Y170.034 E37.23109
G1 X60.322 Y169.364 E37.2584
G1 X59.966 Y168.908 E37.27588
G1 X59.785 Y168.662 E37.28512
G1 X59.283 Y167.912 E37.3124
G1 X59.053 Y167.513 E37.32632
G1 X58.995 Y167.407 E37.32997
G1 X58.597 Y166.596 E37.35728
G1 X58.425 Y166.178 E37.37095
G1 X58.336 Y165.947 E37.37843
G1 X58.11 Y165.297 E37.39924
G1 X58.036 Y165.058 E37.4068
G1 X57.808 Y164.184 E37.4341
G1 X57.665 Y163.355 E37.45954
G1 X57.632 Y163.101 E37.46728
G1 X57.552 Y162.111 E37.4973
G1 X57.541 Y161.695 E37.50988
G1 X57.537 Y161.178 E37.52551
G1 X57.54 Y74.705 E40.1396
G1 X57.548 Y74.129 E40.15702
G1 X57.56 Y73.757 E40.16827
