;FLAVOR:Marlin
;TIME:1256
;Filament used: 0.715234m
;Layer height: 0.2
;MINX:89.843
;MINY:89.843
;MINZ:0.2
;MAXX:145.157
;MAXY:145.157
;MAXZ:8
;POSTPROCESSED
;Generated with Cura_SteamEngine master
M140 S60
M105
M190 S60
M104 S200
M105
M109 S200
M82 ;absolute extrusion mode
; Ender 3 Custom Start G-code
G92 E0 ; Reset Extruder
G28 ; Home all axes
G1 Z2.0 F3000 ; Move Z Axis up little to prevent scratching of Heat Bed
G1 X0.1 Y20 Z0.3 F5000.0 ; Move to start position
G1 X0.1 Y200.0 Z0.3 F1500.0 E15 ; Draw the first line
G1 X0.4 Y200.0 Z0.3 F5000.0 ; Move to side a little
G1 X0.4 Y20 Z0.3 F1500.0 E30 ; Draw the second line
G92 E0 ; Reset Extruder
G1 Z2.0 F3000 ; Move Z Axis up little to prevent scratching of Heat Bed
G1 X5 Y20 Z0.3 F5000.0 ; Move over to prevent blob squish
G92 E0
G92 E0
G1 F2400 E-4
;LAYER_COUNT:40
;LAYER:0
M107
M204 S500
G0 F7500 X97.544 Y97.874 Z0.2
M204 S550
;TYPE:SKIRT
G1 F2400 E0
G1 F1500 X97.907 Y97.512 E0.0155
G1 X98.106 Y97.318 E0.0239
G1 X98.471 Y96.972 E0.0391
G1 X98.979 Y96.52 E0.05966
G1 X99.249 Y96.294 E0.0703
G1 X99.993 Y95.723 E0.09865
G1 X100.495 Y95.391 E0.11685
G1 X100.548 Y95.358 E0.11874
G1 X101.068 Y95.053 E0.13696
G1 X101.958 Y94.564 E0.16766
G1 X104.193 Y93.298 E0.24531
G1 X105.311 Y92.618 E0.28487
G1 X106.248 Y92.06 E0.31783
G1 X106.695 Y91.808 E0.33335
G1 X106.901 Y91.698 E0.34041
G1 X107.911 Y91.223 E0.37415
G1 X107.972 Y91.198 E0.37614
G1 X108.735 Y90.917 E0.40072
G1 X109.002 Y90.83 E0.40921
G1 X109.254 Y90.751 E0.41719
G1 X109.658 Y90.63 E0.42994
G1 X109.965 Y90.543 E0.43959
G1 X110.517 Y90.395 E0.45686
G1 X110.858 Y90.31 E0.46749
G1 X111.332 Y90.199 E0.48221
G1 X111.582 Y90.143 E0.48995
G1 X111.787 Y90.1 E0.49628
G1 X112.666 Y89.953 E0.52322
G1 X112.856 Y89.929 E0.52901
G1 X113.791 Y89.851 E0.55738
G1 X114.386 Y89.843 E0.57536
G1 X115.561 Y89.86 E0.61089
G1 X116.45 Y89.885 E0.63777
G1 X120.181 Y89.862 E0.75056
G1 X120.503 Y89.853 E0.7603
G1 X121.441 Y89.868 E0.78866
G1 X122.149 Y89.932 E0.81015
G1 X122.359 Y89.958 E0.81655
G1 X123.091 Y90.074 E0.83895
G1 X123.591 Y90.18 E0.8544
G1 X124.184 Y90.32 E0.87282
G1 X124.497 Y90.399 E0.88258
G1 X125.032 Y90.542 E0.89932
G1 X125.367 Y90.637 E0.90985
G1 X125.785 Y90.763 E0.92305
G1 X126.173 Y90.887 E0.93536
G1 X126.801 Y91.116 E0.95557
G1 X127.094 Y91.233 E0.96511
G1 X127.95 Y91.618 E0.99348
G1 X128.706 Y92.035 E1.01958
G1 X129.829 Y92.714 E1.05925
G1 X131.998 Y93.981 E1.13519
G1 X133.023 Y94.541 E1.1705
G1 X134.091 Y95.144 E1.20757
G1 X134.887 Y95.64 E1.23593
G1 X135.472 Y96.069 E1.25786
G1 X135.635 Y96.197 E1.26412
G1 X136.173 Y96.648 E1.28534
G1 X136.456 Y96.906 E1.29692
G1 X136.867 Y97.292 E1.31397
G1 X137.137 Y97.553 E1.32532
G1 X137.499 Y97.917 E1.34084
G1 X137.682 Y98.106 E1.34879
G1 X138.028 Y98.471 E1.36399
G1 X138.464 Y98.959 E1.38378
G1 X138.686 Y99.223 E1.3942
G1 X139.258 Y99.966 E1.42255
G1 X139.586 Y100.459 E1.44045
G1 X139.623 Y100.518 E1.44256
G1 X139.947 Y101.068 E1.46185
G1 X140.436 Y101.958 E1.49255
G1 X141.699 Y104.186 E1.56997
G1 X142.376 Y105.3 E1.60938
G1 X142.941 Y106.249 E1.64277
G1 X143.179 Y106.67 E1.65739
G1 X143.287 Y106.871 E1.66429
G1 X143.778 Y107.912 E1.69908
G1 X143.805 Y107.978 E1.70124
G1 X144.083 Y108.735 E1.72561
G1 X144.243 Y109.234 E1.74146
G1 X144.36 Y109.622 E1.75371
G1 X144.454 Y109.954 E1.76414
G1 X144.606 Y110.522 E1.78191
G1 X144.69 Y110.858 E1.79238
G1 X144.801 Y111.332 E1.8071
G1 X144.897 Y111.775 E1.8208
G1 X145.048 Y112.673 E1.84833
G1 X145.072 Y112.864 E1.85415
G1 X145.149 Y113.798 E1.88248
G1 X145.157 Y114.386 E1.90026
G1 X145.14 Y115.56 E1.93575
G1 X145.115 Y116.449 E1.96264
G1 X145.138 Y120.179 E2.0754
G1 X145.147 Y120.501 E2.08513
G1 X145.132 Y121.439 E2.11349
G1 X145.068 Y122.141 E2.1348
G1 X145.042 Y122.352 E2.14123
G1 X144.927 Y123.084 E2.16363
G1 X144.821 Y123.583 E2.17905
G1 X144.68 Y124.181 E2.19762
G1 X144.6 Y124.502 E2.20763
G1 X144.457 Y125.036 E2.22434
G1 X144.365 Y125.359 E2.23449
G1 X144.239 Y125.778 E2.24772
G1 X144.113 Y126.173 E2.26025
G1 X143.884 Y126.801 E2.28046
G1 X143.767 Y127.094 E2.28999
G1 X143.382 Y127.95 E2.31837
G1 X142.965 Y128.706 E2.34447
G1 X142.286 Y129.829 E2.38414
G1 X141.01 Y132.012 E2.46058
G1 X140.405 Y133.119 E2.49872
G1 X139.852 Y134.098 E2.53271
G1 X139.356 Y134.894 E2.56106
G1 X138.73 Y135.723 E2.59246
G1 X138.532 Y135.961 E2.60182
G1 X138.094 Y136.456 E2.6218
G1 X137.708 Y136.867 E2.63885
G1 X137.447 Y137.137 E2.6502
G1 X137.083 Y137.499 E2.66572
G1 X136.894 Y137.682 E2.67367
G1 X136.529 Y138.028 E2.68887
G1 X136.021 Y138.48 E2.70943
G1 X135.751 Y138.706 E2.72007
G1 X135.007 Y139.277 E2.74843
G1 X134.505 Y139.609 E2.76662
G1 X134.452 Y139.642 E2.76851
G1 X133.932 Y139.947 E2.78673
G1 X133.042 Y140.436 E2.81743
G1 X130.823 Y141.694 E2.89454
G1 X129.73 Y142.357 E2.93319
G1 X128.755 Y142.938 E2.9675
G1 X128.305 Y143.192 E2.98312
G1 X128.099 Y143.302 E2.99018
G1 X127.089 Y143.777 E3.02392
G1 X127.028 Y143.802 E3.02591
G1 X126.265 Y144.083 E3.05049
G1 X125.998 Y144.17 E3.05898
G1 X125.746 Y144.249 E3.06696
G1 X125.342 Y144.37 E3.07971
G1 X125.035 Y144.457 E3.08936
G1 X124.483 Y144.605 E3.10664
G1 X124.142 Y144.69 E3.11726
G1 X123.668 Y144.801 E3.13198
G1 X123.418 Y144.857 E3.13972
G1 X123.213 Y144.9 E3.14605
G1 X122.334 Y145.047 E3.17299
G1 X122.144 Y145.071 E3.17878
G1 X121.209 Y145.149 E3.20715
G1 X120.614 Y145.157 E3.22514
G1 X119.439 Y145.14 E3.26066
G1 X118.55 Y145.115 E3.28754
G1 X114.819 Y145.138 E3.40034
G1 X114.497 Y145.147 E3.41007
G1 X113.559 Y145.132 E3.43843
G1 X112.851 Y145.068 E3.45992
G1 X112.641 Y145.042 E3.46632
G1 X111.909 Y144.926 E3.48872
G1 X111.409 Y144.82 E3.50418
G1 X110.816 Y144.68 E3.52259
G1 X110.503 Y144.601 E3.53235
G1 X109.968 Y144.458 E3.54909
G1 X109.633 Y144.363 E3.55962
G1 X109.215 Y144.237 E3.57282
G1 X108.827 Y144.113 E3.58513
G1 X108.199 Y143.884 E3.60534
G1 X107.906 Y143.767 E3.61488
G1 X107.05 Y143.382 E3.64325
G1 X106.294 Y142.965 E3.66935
G1 X105.171 Y142.286 E3.70902
G1 X103.002 Y141.019 E3.78496
G1 X101.977 Y140.459 E3.82027
G1 X100.904 Y139.853 E3.85752
G1 X100.108 Y139.357 E3.88587
G1 X99.268 Y138.721 E3.91772
G1 X99.001 Y138.498 E3.92824
G1 X98.514 Y138.066 E3.94792
G1 X98.108 Y137.684 E3.96477
G1 X97.845 Y137.429 E3.97585
G1 X97.5 Y137.082 E3.99064
G1 X97.318 Y136.894 E3.99855
G1 X96.971 Y136.528 E4.01379
G1 X96.511 Y136.011 E4.03471
G1 X96.283 Y135.738 E4.04547
G1 X95.713 Y134.993 E4.07382
G1 X95.377 Y134.483 E4.09229
G1 X95.05 Y133.927 E4.11179
G1 X94.57 Y133.051 E4.14198
G1 X93.301 Y130.814 E4.21973
G1 X92.624 Y129.7 E4.25914
G1 X92.059 Y128.751 E4.29253
G1 X91.794 Y128.279 E4.30889
G1 X91.681 Y128.066 E4.31618
G1 X91.223 Y127.09 E4.34877
G1 X91.2 Y127.034 E4.3506
G1 X90.92 Y126.276 E4.37503
G1 X90.831 Y126.004 E4.38368
G1 X90.742 Y125.717 E4.39276
G1 X90.624 Y125.32 E4.40528
G1 X90.543 Y125.035 E4.41424
G1 X90.395 Y124.483 E4.43152
G1 X90.31 Y124.142 E4.44214
G1 X90.199 Y123.668 E4.45686
G1 X90.143 Y123.418 E4.4646
G1 X90.1 Y123.213 E4.47093
G1 X89.953 Y122.334 E4.49788
G1 X89.929 Y122.144 E4.50366
G1 X89.851 Y121.209 E4.53203
G1 X89.843 Y120.614 E4.55002
G1 X89.86 Y119.439 E4.58554
G1 X89.885 Y118.55 E4.61243
G1 X89.862 Y114.819 E4.72522
G1 X89.853 Y114.497 E4.73495
G1 X89.868 Y113.559 E4.76331
G1 X89.932 Y112.851 E4.7848
G1 X89.958 Y112.641 E4.7912
G1 X90.074 Y111.909 E4.81361
G1 X90.18 Y111.408 E4.82909
G1 X90.325 Y110.794 E4.84816
G1 X90.41 Y110.459 E4.85861
G1 X90.551 Y109.936 E4.87498
G1 X90.638 Y109.631 E4.88457
G1 X90.761 Y109.222 E4.89748
G1 X90.887 Y108.827 E4.91001
G1 X91.116 Y108.199 E4.93022
G1 X91.233 Y107.906 E4.93976
G1 X91.618 Y107.05 E4.96813
G1 X92.035 Y106.294 E4.99423
G1 X92.714 Y105.171 E5.0339
G1 X93.981 Y103.002 E5.10984
G1 X94.616 Y101.843 E5.14979
G1 X95.125 Y100.941 E5.1811
G1 X95.62 Y100.145 E5.20944
G1 X95.933 Y99.71 E5.22564
G1 X96.076 Y99.521 E5.2328
G1 X96.691 Y98.778 E5.26196
G1 X96.916 Y98.533 E5.27202
G1 X97.303 Y98.122 E5.28908
G1 X97.544 Y97.874 E5.29953
M204 S500
G0 F7500 X97.826 Y98.157
M204 S550
G1 F1500 X98.189 Y97.795 E5.31503
G1 X98.382 Y97.608 E5.32316
G1 X98.747 Y97.262 E5.33836
G1 X99.235 Y96.827 E5.35812
G1 X99.505 Y96.601 E5.36877
G1 X100.236 Y96.041 E5.3966
G1 X100.706 Y95.731 E5.41362
G1 X100.759 Y95.698 E5.41551
G1 X101.261 Y95.404 E5.4331
G1 X102.11 Y94.938 E5.46238
G1 X104.392 Y93.645 E5.54167
G1 X105.515 Y92.962 E5.5814
G1 X106.452 Y92.404 E5.61437
G1 X106.883 Y92.161 E5.62932
G1 X107.089 Y92.051 E5.63638
G1 X108.062 Y91.593 E5.66889
G1 X108.123 Y91.568 E5.67089
G1 X108.859 Y91.298 E5.69459
G1 X109.126 Y91.211 E5.70307
G1 X109.369 Y91.135 E5.71077
G1 X109.773 Y91.014 E5.72352
G1 X110.069 Y90.93 E5.73282
G1 X110.621 Y90.782 E5.7501
G1 X110.949 Y90.699 E5.76033
G1 X111.423 Y90.588 E5.77504
G1 X111.869 Y90.492 E5.78883
G1 X112.717 Y90.35 E5.81483
G1 X112.907 Y90.326 E5.82062
G1 X113.824 Y90.25 E5.84843
G1 X114.381 Y90.243 E5.86527
G1 X115.55 Y90.26 E5.90061
G1 X116.441 Y90.285 E5.92756
G1 X120.194 Y90.262 E6.04102
G1 X120.514 Y90.253 E6.05069
G1 X121.434 Y90.268 E6.07851
G1 X122.099 Y90.329 E6.0987
G1 X122.309 Y90.355 E6.10509
G1 X123.016 Y90.467 E6.12673
G1 X123.5 Y90.57 E6.14169
G1 X124.093 Y90.71 E6.16011
G1 X124.394 Y90.785 E6.16949
G1 X124.929 Y90.928 E6.18623
G1 X125.251 Y91.02 E6.19635
G1 X125.669 Y91.146 E6.20955
G1 X126.047 Y91.267 E6.22155
G1 X126.653 Y91.488 E6.24105
G1 X126.946 Y91.605 E6.25059
G1 X127.785 Y91.983 E6.2784
G1 X128.499 Y92.378 E6.30307
G1 X129.549 Y93.013 E6.34017
G1 X131.81 Y94.335 E6.41934
G1 X132.967 Y94.968 E6.45921
G1 X133.894 Y95.492 E6.4914
G1 X134.675 Y95.98 E6.51924
G1 X135.225 Y96.383 E6.53985
G1 X135.388 Y96.511 E6.54612
G1 X135.906 Y96.946 E6.56657
G1 X136.183 Y97.197 E6.57787
G1 X136.594 Y97.583 E6.59491
G1 X136.853 Y97.835 E6.60584
G1 X137.215 Y98.199 E6.62136
G1 X137.392 Y98.382 E6.62905
G1 X137.738 Y98.747 E6.64426
G1 X138.158 Y99.217 E6.66331
G1 X138.38 Y99.481 E6.67374
G1 X138.941 Y100.211 E6.70157
G1 X139.247 Y100.671 E6.71827
G1 X139.284 Y100.73 E6.72038
G1 X139.596 Y101.261 E6.73899
G1 X140.062 Y102.11 E6.76827
G1 X141.36 Y104.4 E6.84785
G1 X142.032 Y105.504 E6.88692
G1 X142.597 Y106.453 E6.9203
G1 X142.826 Y106.859 E6.9344
G1 X142.934 Y107.06 E6.94129
G1 X143.408 Y108.063 E6.97483
G1 X143.435 Y108.129 E6.97699
G1 X143.702 Y108.859 E7.00048
G1 X143.86 Y109.35 E7.01608
G1 X143.977 Y109.738 E7.02833
G1 X144.068 Y110.058 E7.03838
G1 X144.22 Y110.626 E7.05616
G1 X144.301 Y110.949 E7.06623
G1 X144.412 Y111.423 E7.08094
G1 X144.506 Y111.858 E7.0944
G1 X144.651 Y112.722 E7.12088
G1 X144.675 Y112.913 E7.1267
G1 X144.75 Y113.831 E7.15454
G1 X144.757 Y114.381 E7.17117
G1 X144.74 Y115.549 E7.20648
G1 X144.715 Y116.441 E7.23346
G1 X144.738 Y120.193 E7.34689
G1 X144.747 Y120.512 E7.35653
G1 X144.732 Y121.432 E7.38435
G1 X144.671 Y122.092 E7.40438
G1 X144.645 Y122.303 E7.41081
G1 X144.534 Y123.009 E7.43242
G1 X144.432 Y123.492 E7.44734
G1 X144.291 Y124.09 E7.46591
G1 X144.213 Y124.399 E7.47555
G1 X144.07 Y124.933 E7.49226
G1 X143.982 Y125.244 E7.50203
G1 X143.856 Y125.663 E7.51526
G1 X143.733 Y126.047 E7.52745
G1 X143.512 Y126.653 E7.54694
G1 X143.395 Y126.946 E7.55648
G1 X143.017 Y127.785 E7.5843
G1 X142.622 Y128.499 E7.60897
G1 X141.971 Y129.576 E7.64701
G1 X140.657 Y131.824 E7.72573
G1 X140.131 Y132.788 E7.75892
G1 X139.503 Y133.901 E7.79756
G1 X139.016 Y134.683 E7.82541
G1 X138.423 Y135.467 E7.85512
G1 X138.225 Y135.705 E7.86448
G1 X137.803 Y136.183 E7.88376
G1 X137.417 Y136.594 E7.9008
G1 X137.165 Y136.853 E7.91173
G1 X136.801 Y137.215 E7.92725
G1 X136.618 Y137.392 E7.93494
G1 X136.253 Y137.738 E7.95015
G1 X135.765 Y138.173 E7.96991
G1 X135.495 Y138.399 E7.98055
G1 X134.764 Y138.959 E8.00839
G1 X134.294 Y139.269 E8.02541
G1 X134.241 Y139.302 E8.0273
G1 X133.739 Y139.596 E8.04488
G1 X132.89 Y140.062 E8.07416
G1 X130.609 Y141.355 E8.15342
G1 X129.525 Y142.014 E8.19177
G1 X128.55 Y142.595 E8.22608
G1 X128.117 Y142.839 E8.24111
G1 X127.911 Y142.949 E8.24817
G1 X126.938 Y143.407 E8.28068
G1 X126.877 Y143.432 E8.28267
G1 X126.141 Y143.702 E8.30637
G1 X125.874 Y143.789 E8.31486
G1 X125.631 Y143.865 E8.32256
G1 X125.227 Y143.986 E8.33531
G1 X124.931 Y144.07 E8.34461
G1 X124.379 Y144.218 E8.36188
G1 X124.051 Y144.301 E8.37211
G1 X123.577 Y144.412 E8.38683
G1 X123.131 Y144.508 E8.40062
G1 X122.283 Y144.65 E8.42661
G1 X122.093 Y144.674 E8.4324
G1 X121.176 Y144.75 E8.46022
G1 X120.619 Y144.757 E8.47706
G1 X119.45 Y144.74 E8.5124
G1 X118.559 Y144.715 E8.53935
G1 X114.806 Y144.738 E8.6528
G1 X114.486 Y144.747 E8.66248
G1 X113.566 Y144.732 E8.69029
G1 X112.901 Y144.671 E8.71048
G1 X112.691 Y144.645 E8.71688
G1 X111.984 Y144.533 E8.73852
G1 X111.5 Y144.43 E8.75348
G1 X110.907 Y144.29 E8.7719
G1 X110.606 Y144.215 E8.78127
G1 X110.071 Y144.072 E8.79801
G1 X109.749 Y143.98 E8.80814
G1 X109.331 Y143.854 E8.82134
G1 X108.953 Y143.733 E8.83333
G1 X108.347 Y143.512 E8.85283
G1 X108.054 Y143.395 E8.86237
G1 X107.215 Y143.017 E8.89019
G1 X106.501 Y142.622 E8.91486
G1 X105.424 Y141.971 E8.9529
G1 X103.19 Y140.665 E9.03113
G1 X102.169 Y140.108 E9.06629
G1 X101.101 Y139.504 E9.10338
G1 X100.32 Y139.017 E9.1312
G1 X99.524 Y138.414 E9.16139
G1 X99.257 Y138.191 E9.17191
G1 X98.788 Y137.775 E9.19086
G1 X98.382 Y137.393 E9.20771
G1 X98.129 Y137.147 E9.21838
G1 X97.784 Y136.8 E9.23317
G1 X97.609 Y136.619 E9.24078
G1 X97.262 Y136.253 E9.25603
G1 X96.818 Y135.755 E9.2762
G1 X96.59 Y135.482 E9.28695
G1 X96.031 Y134.75 E9.31479
G1 X95.717 Y134.273 E9.33206
G1 X95.401 Y133.735 E9.35092
G1 X94.918 Y132.854 E9.38129
G1 X93.64 Y130.6 E9.45962
G1 X92.968 Y129.496 E9.49869
G1 X92.403 Y128.547 E9.53208
G1 X92.147 Y128.092 E9.54786
G1 X92.034 Y127.879 E9.55515
G1 X91.593 Y126.938 E9.58656
G1 X91.57 Y126.882 E9.58839
G1 X91.301 Y126.151 E9.61194
G1 X91.212 Y125.879 E9.62059
G1 X91.125 Y125.603 E9.62934
G1 X91.007 Y125.206 E9.64186
G1 X90.93 Y124.931 E9.6505
G1 X90.782 Y124.379 E9.66777
G1 X90.699 Y124.051 E9.678
G1 X90.588 Y123.577 E9.69272
G1 X90.492 Y123.131 E9.70651
G1 X90.35 Y122.283 E9.7325
G1 X90.326 Y122.093 E9.73829
G1 X90.25 Y121.176 E9.76611
G1 X90.243 Y120.619 E9.78294
G1 X90.26 Y119.45 E9.81829
G1 X90.285 Y118.559 E9.84523
G1 X90.262 Y114.806 E9.95869
G1 X90.253 Y114.486 E9.96837
G1 X90.268 Y113.566 E9.99618
G1 X90.329 Y112.901 E10.01637
G1 X90.355 Y112.691 E10.02277
G1 X90.467 Y111.984 E10.04441
G1 X90.57 Y111.5 E10.05936
G1 X90.715 Y110.886 E10.07844
G1 X90.796 Y110.563 E10.0885
G1 X90.937 Y110.04 E10.10488
G1 X91.021 Y109.746 E10.11412
G1 X91.144 Y109.337 E10.12703
G1 X91.267 Y108.953 E10.13922
G1 X91.488 Y108.347 E10.15872
G1 X91.605 Y108.054 E10.16826
G1 X91.983 Y107.215 E10.19608
G1 X92.378 Y106.501 E10.22074
G1 X93.033 Y105.417 E10.25903
G1 X94.335 Y103.19 E10.33702
G1 X94.964 Y102.04 E10.37664
G1 X95.473 Y101.138 E10.40795
G1 X95.96 Y100.356 E10.4358
G1 X96.252 Y99.951 E10.45089
G1 X96.395 Y99.762 E10.45806
G1 X96.988 Y99.046 E10.48616
G1 X97.207 Y98.807 E10.49596
G1 X97.594 Y98.396 E10.51303
G1 X97.826 Y98.157 E10.5231
M204 S500
G0 F7500 X98.108 Y98.441
M204 S550
G1 F1500 X98.471 Y98.079 E10.53859
G1 X98.657 Y97.898 E10.54644
G1 X99.022 Y97.552 E10.56164
G1 X99.492 Y97.133 E10.58068
G1 X99.762 Y96.907 E10.59132
G1 X100.48 Y96.359 E10.61863
G1 X100.918 Y96.07 E10.63449
G1 X100.971 Y96.037 E10.63638
G1 X101.453 Y95.755 E10.65326
G1 X102.293 Y95.294 E10.68222
G1 X104.581 Y93.997 E10.76173
G1 X105.72 Y93.305 E10.80202
G1 X106.657 Y92.747 E10.83499
G1 X107.071 Y92.513 E10.84936
G1 X107.277 Y92.403 E10.85642
G1 X108.214 Y91.963 E10.88772
G1 X108.275 Y91.938 E10.88971
G1 X108.983 Y91.678 E10.91251
G1 X109.25 Y91.591 E10.921
G1 X109.483 Y91.518 E10.92838
G1 X109.887 Y91.397 E10.94113
G1 X110.173 Y91.316 E10.95012
G1 X110.725 Y91.168 E10.96739
G1 X111.04 Y91.089 E10.97721
G1 X111.514 Y90.978 E10.99193
G1 X111.951 Y90.883 E11.00545
G1 X112.767 Y90.746 E11.03046
G1 X112.957 Y90.722 E11.03625
G1 X113.857 Y90.649 E11.06354
G1 X114.375 Y90.643 E11.0792
G1 X115.539 Y90.66 E11.1144
G1 X116.433 Y90.685 E11.14143
G1 X120.206 Y90.661 E11.25549
G1 X120.524 Y90.653 E11.26511
G1 X121.427 Y90.669 E11.29241
G1 X122.05 Y90.726 E11.31132
G1 X122.26 Y90.752 E11.31772
G1 X122.94 Y90.86 E11.33853
G1 X123.408 Y90.959 E11.353
