;FLAVOR:Marlin
;TIME:53394
;Filament used: 48.2996m
;Layer height: 0.2
;MINX:42.001
;MINY:91.544
;MINZ:0.2
;MAXX:189.071
;MAXY:168.944
;MAXZ:160
;Generated with Cura_SteamEngine master
M140 S60
M105
M190 S60
M104 S200
M105
M109 S200
M82 ;absolute extrusion mode
; Ender 3 Custom Start G-code
G92 E0 ; Reset Extruder
G28 ; Home all axes
G1 Z2.0 F3000 ; Move Z Axis up little to prevent scratching of Heat Bed
G1 X0.1 Y20 Z0.3 F5000.0 ; Move to start position
G1 X0.1 Y200.0 Z0.3 F1500.0 E15 ; Draw the first line
G1 X0.4 Y200.0 Z0.3 F5000.0 ; Move to side a little
G1 X0.4 Y20 Z0.3 F1500.0 E30 ; Draw the second line
G92 E0 ; Reset Extruder
G1 Z2.0 F3000 ; Move Z Axis up little to prevent scratching of Heat Bed
G1 X5 Y20 Z0.3 F5000.0 ; Move over to prevent blob squish
G92 E0
G92 E0
G1 F2400 E-4
;LAYER_COUNT:800
;LAYER:0
M107
M204 S500
G0 F7500 X48.24 Y92.641 Z0.2
M204 S550
;TYPE:SKIRT
G1 F2400 E0
G1 F1500 X49.102 Y92.271 E0.02836
G1 X49.992 Y91.975 E0.05671
G1 X50.904 Y91.757 E0.08506
G1 X51.831 Y91.616 E0.1134
G1 X52.702 Y91.557 E0.13979
G1 X53.023 Y91.548 E0.1495
G1 X53.331 Y91.544 E0.15881
G1 X176.492 Y91.544 E3.88199
G1 X177.348 Y91.555 E3.90787
G1 X178.284 Y91.609 E3.93621
G1 X179.212 Y91.741 E3.96455
G1 X180.126 Y91.953 E3.99291
G1 X181.018 Y92.242 E4.02125
G1 X181.883 Y92.605 E4.04961
G1 X182.713 Y93.041 E4.07795
G1 X183.504 Y93.546 E4.10632
G1 X184.248 Y94.117 E4.13468
G1 X184.941 Y94.749 E4.16303
G1 X185.578 Y95.437 E4.19137
G1 X186.153 Y96.178 E4.21973
G1 X186.664 Y96.964 E4.24807
G1 X187.106 Y97.792 E4.27644
G1 X187.475 Y98.654 E4.30479
G1 X187.77 Y99.544 E4.33313
G1 X187.988 Y100.456 E4.36148
G1 X188.128 Y101.384 E4.38985
G1 X188.186 Y102.245 E4.41594
G1 X188.195 Y102.565 E4.42561
G1 X188.199 Y102.874 E4.43496
G1 X188.199 Y121.517 E4.99854
G1 X188.236 Y124.125 E5.07738
G1 X188.343 Y126.646 E5.15366
G1 X188.52 Y129.141 E5.22928
G1 X188.766 Y131.622 E5.30465
G1 X188.865 Y132.401 E5.32838
G1 X188.99 Y133.493 E5.36161
G1 X189.056 Y134.404 E5.38922
G1 X189.066 Y134.727 E5.39899
G1 X189.071 Y135.064 E5.40918
G1 X189.071 Y139.231 E5.53515
G1 X189.062 Y139.886 E5.55495
G1 X188.973 Y141.137 E5.59287
G1 X188.932 Y141.457 E5.60262
G1 X188.634 Y144.078 E5.68236
G1 X188.422 Y146.572 E5.75803
G1 X188.281 Y149.055 E5.83321
G1 X188.208 Y151.643 E5.91148
G1 X188.199 Y152.936 E5.95057
G1 X188.198 Y157.359 E6.08427
G1 X188.188 Y158.086 E6.10625
G1 X188.135 Y159.023 E6.13462
G1 X188.003 Y159.951 E6.16296
G1 X187.792 Y160.865 E6.19132
G1 X187.503 Y161.757 E6.21966
G1 X187.14 Y162.622 E6.24802
G1 X186.705 Y163.453 E6.27637
G1 X186.2 Y164.243 E6.30472
G1 X185.63 Y164.988 E6.33308
G1 X184.999 Y165.682 E6.36143
G1 X184.31 Y166.319 E6.3898
G1 X183.57 Y166.895 E6.41815
G1 X182.784 Y167.406 E6.44649
G1 X181.957 Y167.848 E6.47483
G1 X181.095 Y168.218 E6.50319
G1 X180.205 Y168.513 E6.53154
G1 X179.293 Y168.732 E6.55989
G1 X178.366 Y168.872 E6.58823
G1 X177.498 Y168.931 E6.61453
G1 X177.178 Y168.94 E6.62421
G1 X176.869 Y168.944 E6.63355
G1 X73.349 Y168.943 E9.76297
G1 X72.648 Y168.933 E9.78417
G1 X71.712 Y168.88 E9.81251
G1 X70.783 Y168.747 E9.84088
G1 X69.87 Y168.535 E9.86921
G1 X68.977 Y168.247 E9.89758
G1 X68.113 Y167.883 E9.92592
G1 X67.282 Y167.447 E9.95429
G1 X66.492 Y166.942 E9.98263
G1 X65.748 Y166.372 E10.01097
G1 X65.055 Y165.74 E10.03932
G1 X64.418 Y165.051 E10.06769
G1 X63.842 Y164.311 E10.09603
G1 X63.371 Y163.59 E10.12207
G1 X63.19 Y163.288 E10.13271
G1 X61.777 Y160.995 E10.21413
G1 X60.422 Y158.932 E10.28875
G1 X58.952 Y156.826 E10.36639
G1 X57.472 Y154.826 E10.4416
G1 X55.918 Y152.848 E10.51764
G1 X54.312 Y150.917 E10.59357
G1 X52.639 Y149.02 E10.67003
G1 X50.919 Y147.174 E10.7463
G1 X49.172 Y145.403 E10.82151
G1 X47.324 Y143.635 E10.89882
G1 X45.776 Y142.232 E10.96198
G1 X45.519 Y141.993 E10.97259
G1 X44.86 Y141.326 E11.00093
G1 X44.26 Y140.605 E11.02929
G1 X43.724 Y139.835 E11.05765
G1 X43.256 Y139.023 E11.08598
G1 X42.858 Y138.173 E11.11435
G1 X42.534 Y137.293 E11.1427
G1 X42.286 Y136.389 E11.17104
G1 X42.117 Y135.466 E11.19941
G1 X42.014 Y134.243 E11.23651
G1 X42.005 Y133.919 E11.24631
G1 X42.001 Y133.614 E11.25553
G1 X42.002 Y103.069 E12.17891
G1 X42.011 Y102.404 E12.19901
G1 X42.064 Y101.468 E12.22735
G1 X42.196 Y100.539 E12.25572
G1 X42.407 Y99.625 E12.28408
G1 X42.695 Y98.733 E12.31241
G1 X43.058 Y97.868 E12.34077
G1 X43.493 Y97.037 E12.36913
G1 X43.997 Y96.247 E12.39745
G1 X44.567 Y95.502 E12.42581
G1 X45.199 Y94.808 E12.45419
G1 X45.887 Y94.171 E12.48253
G1 X46.627 Y93.595 E12.51088
G1 X47.413 Y93.083 E12.53924
G1 X48.24 Y92.641 E12.56758
M204 S500
G0 F7500 X48.612 Y92.908
M204 S550
G1 F1500 X49.466 Y92.563 E12.59543
G1 X50.346 Y92.293 E12.62325
G1 X51.246 Y92.101 E12.65107
G1 X52.16 Y91.987 E12.67892
G1 X52.713 Y91.957 E12.69566
G1 X53.034 Y91.948 E12.70537
G1 X53.331 Y91.944 E12.71435
G1 X176.492 Y91.944 E16.43752
G1 X177.342 Y91.955 E16.46322
G1 X178.261 Y92.008 E16.49105
G1 X179.172 Y92.141 E16.51888
G1 X180.068 Y92.352 E16.5467
G1 X180.942 Y92.64 E16.57452
G1 X181.789 Y93.003 E16.60238
G1 X182.6 Y93.438 E16.6302
G1 X183.37 Y93.942 E16.65802
G1 X184.094 Y94.511 E16.68586
G1 X184.766 Y95.141 E16.7137
G1 X185.381 Y95.826 E16.74153
G1 X185.934 Y96.562 E16.76936
G1 X186.421 Y97.343 E16.79719
G1 X186.838 Y98.164 E16.82502
G1 X187.183 Y99.018 E16.85287
G1 X187.452 Y99.898 E16.88068
G1 X187.644 Y100.799 E16.90853
G1 X187.757 Y101.712 E16.93634
G1 X187.786 Y102.256 E16.95281
G1 X187.795 Y102.576 E16.96249
G1 X187.799 Y102.874 E16.9715
G1 X187.799 Y121.523 E17.53526
G1 X187.836 Y124.148 E17.61462
G1 X187.943 Y126.656 E17.69051
G1 X188.121 Y129.176 E17.76688
G1 X188.369 Y131.676 E17.84283
G1 X188.467 Y132.447 E17.86632
G1 X188.592 Y133.539 E17.89955
G1 X188.656 Y134.416 E17.92613
G1 X188.666 Y134.739 E17.9359
G1 X188.671 Y135.064 E17.94572
G1 X188.671 Y139.226 E18.07154
G1 X188.662 Y139.881 E18.09135
G1 X188.577 Y141.086 E18.12786
G1 X188.522 Y141.514 E18.14091
G1 X188.24 Y144 E18.21654
G1 X188.023 Y146.55 E18.29391
G1 X187.881 Y149.057 E18.36982
G1 X187.808 Y151.629 E18.4476
G1 X187.799 Y152.933 E18.48702
G1 X187.798 Y157.354 E18.62067
G1 X187.788 Y158.081 E18.64265
G1 X187.735 Y159 E18.67047
G1 X187.603 Y159.911 E18.6983
G1 X187.392 Y160.807 E18.72613
G1 X187.105 Y161.682 E18.75397
G1 X186.742 Y162.528 E18.7818
G1 X186.308 Y163.34 E18.80963
G1 X185.804 Y164.111 E18.83748
G1 X185.236 Y164.835 E18.86529
G1 X184.607 Y165.507 E18.89312
G1 X183.922 Y166.122 E18.92095
G1 X183.186 Y166.675 E18.94878
G1 X182.405 Y167.163 E18.97662
G1 X181.585 Y167.581 E19.00444
G1 X180.731 Y167.926 E19.03228
G1 X179.851 Y168.195 E19.0601
G1 X178.95 Y168.388 E19.08796
G1 X178.037 Y168.501 E19.11577
G1 X177.487 Y168.531 E19.13242
G1 X177.167 Y168.54 E19.1421
G1 X176.869 Y168.544 E19.15111
G1 X73.355 Y168.543 E22.28035
G1 X72.654 Y168.533 E22.30154
G1 X71.735 Y168.48 E22.32937
G1 X70.824 Y168.347 E22.3572
G1 X69.928 Y168.136 E22.38503
G1 X69.053 Y167.848 E22.41288
G1 X68.207 Y167.485 E22.44071
G1 X67.396 Y167.05 E22.46853
G1 X66.625 Y166.546 E22.49637
G1 X65.901 Y165.977 E22.52421
G1 X65.229 Y165.348 E22.55203
G1 X64.614 Y164.663 E22.57986
G1 X64.061 Y163.927 E22.60769
G1 X63.714 Y163.384 E22.62717
G1 X63.531 Y163.078 E22.63795
G1 X62.125 Y160.796 E22.71898
G1 X60.752 Y158.705 E22.7946
G1 X59.286 Y156.605 E22.87202
G1 X57.792 Y154.586 E22.94795
G1 X56.224 Y152.591 E23.02466
G1 X54.603 Y150.642 E23.10129
G1 X52.931 Y148.746 E23.17771
G1 X51.214 Y146.903 E23.25386
G1 X49.45 Y145.116 E23.32976
G1 X47.624 Y143.367 E23.4062
G1 X46.048 Y141.939 E23.47049
G1 X45.791 Y141.7 E23.4811
G1 X45.145 Y141.045 E23.50891
G1 X44.558 Y140.335 E23.53676
G1 X44.035 Y139.578 E23.56457
G1 X43.579 Y138.778 E23.59241
G1 X43.195 Y137.941 E23.62025
G1 X42.885 Y137.074 E23.64808
G1 X42.651 Y136.184 E23.6759
G1 X42.495 Y135.277 E23.70373
G1 X42.414 Y134.232 E23.73541
G1 X42.405 Y133.908 E23.74521
G1 X42.401 Y133.614 E23.7541
G1 X42.402 Y103.075 E24.6773
G1 X42.411 Y102.41 E24.6974
G1 X42.463 Y101.49 E24.72526
G1 X42.595 Y100.579 E24.75308
G1 X42.806 Y99.683 E24.78091
G1 X43.093 Y98.808 E24.80875
G1 X43.456 Y97.962 E24.83658
G1 X43.89 Y97.15 E24.86441
G1 X44.393 Y96.379 E24.89224
G1 X44.962 Y95.655 E24.92008
G1 X45.59 Y94.983 E24.94788
G1 X46.275 Y94.367 E24.97573
G1 X47.011 Y93.814 E25.00356
G1 X47.792 Y93.326 E25.0314
G1 X48.612 Y92.908 E25.05922
M204 S500
G0 F7500 X48.983 Y93.182
M204 S550
G1 F1500 X49.828 Y92.862 E25.08654
G1 X50.697 Y92.619 E25.11382
G1 X51.585 Y92.453 E25.14113
G1 X52.724 Y92.357 E25.17568
G1 X53.045 Y92.348 E25.18539
G1 X53.331 Y92.344 E25.19403
G1 X176.492 Y92.344 E28.91721
G1 X177.336 Y92.355 E28.94272
G1 X178.238 Y92.408 E28.97004
G1 X179.131 Y92.54 E28.99733
G1 X180.009 Y92.751 E29.02463
G1 X180.865 Y93.039 E29.05193
G1 X181.692 Y93.401 E29.07922
G1 X182.484 Y93.836 E29.10653
G1 X183.235 Y94.338 E29.13384
G1 X183.938 Y94.905 E29.16115
G1 X184.588 Y95.532 E29.18845
G1 X185.18 Y96.214 E29.21575
G1 X185.71 Y96.945 E29.24304
G1 X186.172 Y97.721 E29.27034
G1 X186.565 Y98.534 E29.29764
G1 X186.883 Y99.379 E29.32494
G1 X187.126 Y100.249 E29.35224
G1 X187.291 Y101.137 E29.37955
G1 X187.386 Y102.267 E29.41383
G1 X187.395 Y102.587 E29.4235
G1 X187.399 Y102.874 E29.43218
G1 X187.399 Y121.529 E29.99612
G1 X187.436 Y124.135 E30.07491
G1 X187.545 Y126.7 E30.15252
G1 X187.723 Y129.207 E30.2285
G1 X187.973 Y131.738 E30.30538
G1 X188.07 Y132.492 E30.32837
G1 X188.195 Y133.584 E30.36159
G1 X188.256 Y134.428 E30.38717
G1 X188.266 Y134.751 E30.39694
G1 X188.271 Y135.064 E30.40641
G1 X188.271 Y139.22 E30.53204
G1 X188.262 Y139.875 E30.55185
G1 X188.18 Y141.035 E30.587
G1 X188.133 Y141.398 E30.59806
G1 X187.839 Y143.992 E30.67698
G1 X187.626 Y146.494 E30.75289
G1 X187.481 Y149.057 E30.8305
G1 X187.408 Y151.616 E30.90789
G1 X187.399 Y152.93 E30.94761
G1 X187.398 Y157.348 E31.08117
G1 X187.388 Y158.075 E31.10315
G1 X187.336 Y158.977 E31.13046
G1 X187.204 Y159.87 E31.15775
G1 X186.993 Y160.749 E31.18508
G1 X186.706 Y161.605 E31.21237
G1 X186.344 Y162.432 E31.23966
G1 X185.91 Y163.224 E31.26696
G1 X185.408 Y163.975 E31.29427
G1 X184.842 Y164.678 E31.32155
G1 X184.215 Y165.329 E31.34888
G1 X183.534 Y165.921 E31.37615
G1 X182.803 Y166.451 E31.40345
G1 X182.027 Y166.914 E31.43077
G1 X181.214 Y167.307 E31.45806
G1 X180.369 Y167.627 E31.48538
G1 X179.5 Y167.87 E31.51266
G1 X178.612 Y168.035 E31.53996
G1 X177.476 Y168.131 E31.57442
G1 X177.156 Y168.14 E31.5841
G1 X176.869 Y168.144 E31.59278
G1 X73.361 Y168.143 E34.72184
G1 X72.66 Y168.133 E34.74303
G1 X71.758 Y168.08 E34.77035
G1 X70.865 Y167.948 E34.79764
G1 X69.986 Y167.737 E34.82496
G1 X69.13 Y167.449 E34.85227
G1 X68.303 Y167.087 E34.87956
G1 X67.511 Y166.653 E34.90686
G1 X66.761 Y166.15 E34.93416
G1 X66.058 Y165.583 E34.96146
G1 X65.408 Y164.957 E34.98874
G1 X64.815 Y164.275 E35.01606
G1 X64.057 Y163.179 E35.05634
G1 X63.807 Y162.762 E35.07104
G1 X62.482 Y160.613 E35.14736
G1 X61.07 Y158.462 E35.22515
G1 X59.603 Y156.36 E35.30263
G1 X58.112 Y154.347 E35.37836
G1 X56.531 Y152.333 E35.45576
G1 X54.927 Y150.405 E35.53158
G1 X53.223 Y148.473 E35.60946
G1 X51.492 Y146.615 E35.68622
G1 X49.746 Y144.846 E35.76136
G1 X47.867 Y143.048 E35.83998
G1 X46.321 Y141.646 E35.90307
G1 X46.064 Y141.407 E35.91368
G1 X45.43 Y140.764 E35.94098
G1 X44.856 Y140.066 E35.9683
G1 X44.346 Y139.321 E35.99559
G1 X43.904 Y138.534 E36.02288
G1 X43.533 Y137.71 E36.05019
G1 X43.237 Y136.857 E36.07749
G1 X43.017 Y135.981 E36.10479
G1 X42.875 Y135.089 E36.1321
G1 X42.814 Y134.221 E36.1584
G1 X42.805 Y133.897 E36.1682
G1 X42.801 Y133.614 E36.17676
G1 X42.802 Y103.08 E37.0998
G1 X42.811 Y102.415 E37.11991
G1 X42.863 Y101.513 E37.14722
G1 X42.995 Y100.62 E37.17451
G1 X43.205 Y99.742 E37.2018
G1 X43.492 Y98.885 E37.22912
G1 X43.854 Y98.058 E37.25641
G1 X44.287 Y97.266 E37.2837
G1 X44.789 Y96.515 E37.31101
G1 X45.356 Y95.811 E37.33833
G1 X45.982 Y95.161 E37.36561
G1 X46.663 Y94.568 E37.39291
G1 X47.395 Y94.038 E37.42023
G1 X48.17 Y93.575 E37.44752
G1 X48.983 Y93.182 E37.47482
M204 S500
G1 F2400 E33.47482
;MESH:V4_CASE.stl
G0 F7500 X122.663 Y152.487
G0 X121.208 Y152.609
G0 X122.106 Y154.4
G0 X122.86 Y155.236
G0 X123.415 Y155.541
G0 X124.701 Y156.14
M204 S550
;TYPE:WALL-INNER
G1 F2400 E37.47482
G1 F1500 X125.871 Y156.044 E37.51031
G1 X126.78 Y155.646 E37.54031
G1 X126.943 Y155.588 E37.54554
G1 X127.69 Y154.9 E37.57624
G1 X127.825 Y154.793 E37.58145
G1 X128.309 Y153.897 E37.61223
G1 X128.402 Y153.752 E37.61744
G1 X128.571 Y152.735 E37.6486
G1 X128.599 Y152.588 E37.65313
G1 X128.599 Y107.495 E39.01629
G1 X128.421 Y106.413 E39.04944
G1 X128.201 Y105.911 E39.06601
G1 X128.108 Y105.74 E39.0719
G1 X127.469 Y104.921 E39.1033
G1 X127.05 Y104.594 E39.11937
G1 X126.968 Y104.521 E39.12269
G1 X125.925 Y104.063 E39.15712
G1 X125.383 Y103.971 E39.17374
G1 X125.19 Y103.955 E39.1796
G1 X124.128 Y104.043 E39.21181
G1 X123.218 Y104.444 E39.24187
G1 X123.055 Y104.501 E39.24709
G1 X122.309 Y105.188 E39.27775
G1 X122.174 Y105.295 E39.28296
G1 X121.69 Y106.191 E39.31374
G1 X121.597 Y106.336 E39.31895
G1 X121.428 Y107.346 E39.34991
G1 X121.399 Y107.5 E39.35464
G1 X121.399 Y152.593 E40.71781
G1 X121.581 Y153.692 E40.75149
G1 X121.921 Y154.364 E40.77425
G1 X121.965 Y154.486 E40.77817
G1 X122.658 Y155.237 E40.80907
G1 X122.753 Y155.361 E40.81379
G1 X123.657 Y155.85 E40.84486
G1 X123.776 Y155.928 E40.84916
G1 X124.546 Y156.101 E40.87302
G1 X124.701 Y156.14 E40.87785
M204 S500
G0 F7500 X124.735 Y155.736
M204 S550
;TYPE:WALL-OUTER
G1 F1500 X125.772 Y155.651 E40.9093
G1 X126.636 Y155.272 E40.93782
G1 X126.732 Y155.238 E40.9409
G1 X127.434 Y154.592 E40.96974
G1 X127.513 Y154.53 E40.97278
G1 X127.966 Y153.691 E41.0016
G1 X128.021 Y153.605 E41.00469
G1 X128.177 Y152.669 E41.03337
G1 X128.199 Y152.551 E41.037
G1 X128.199 Y107.528 E42.39805
G1 X128.034 Y106.528 E42.42869
G1 X127.841 Y106.087 E42.44324
G1 X127.772 Y105.96 E42.44761
G1 X127.184 Y105.206 E42.47652
G1 X126.797 Y104.905 E42.49134
G1 X126.749 Y104.862 E42.49329
G1 X125.809 Y104.449 E42.52433
G1 X125.333 Y104.368 E42.53892
G1 X125.19 Y104.356 E42.54326
G1 X124.228 Y104.436 E42.57244
G1 X123.362 Y104.817 E42.60104
G1 X123.266 Y104.851 E42.60412
G1 X122.565 Y105.496 E42.63292
G1 X122.486 Y105.558 E42.63596
G1 X122.033 Y106.397 E42.66478
G1 X121.978 Y106.483 E42.66787
G1 X121.821 Y107.419 E42.69656
G1 X121.799 Y107.537 E42.70018
G1 X121.799 Y152.56 E44.06124
G1 X121.966 Y153.566 E44.09206
G1 X122.288 Y154.202 E44.11361
G1 X122.314 Y154.274 E44.11593
G1 X122.967 Y154.982 E44.14504
G1 X123.019 Y155.05 E44.14763
G1 X123.862 Y155.506 E44.17661
G1 X123.935 Y155.554 E44.17925
G1 X124.644 Y155.713 E44.20121
G1 X124.735 Y155.736 E44.20405
M204 S500
G0 F7500 X124.699 Y156.174
G1 F2400 E40.20405
G0 F7500 X122.626 Y155.509
G0 X122.626 Y157.134
G0 X73.399 Y157.344
M204 S550
;TYPE:WALL-INNER
G1 F2400 E44.20405
G1 F1500 X73.399 Y151.144 E44.39148
G1 X72.527 Y151.144 E44.41784
G1 X72.527 Y147.344 E44.53271
G1 X73.399 Y147.344 E44.55907
G1 X73.399 Y133.344 E44.98229
G1 X53.601 Y133.344 E45.58079
G1 X53.601 Y103.144 E46.49374
G1 X176.599 Y103.144 E50.21199
G1 X176.599 Y135.344 E51.1854
G1 X177.471 Y135.344 E51.21176
G1 X177.472 Y138.945 E51.32062
G1 X177.472 Y139.144 E51.32663
G1 X177.273 Y139.144 E51.33052
G1 X176.599 Y139.144 E51.3509
G1 X176.599 Y157.344 E51.90109
G1 X73.399 Y157.344 E55.02084
M204 S500
G0 F7500 X72.999 Y157.744
M204 S550
;TYPE:WALL-OUTER
G1 F1500 X72.999 Y151.544 E55.20827
G1 X72.127 Y151.544 E55.23463
G1 X72.127 Y146.944 E55.37368
G1 X72.999 Y146.944 E55.40005
G1 X72.999 Y133.744 E55.79908
G1 X53.201 Y133.744 E56.39758
G1 X53.201 Y102.744 E57.33471
G1 X176.999 Y102.744 E61.07714
G1 X176.999 Y134.944 E62.05055
G1 X177.871 Y134.944 E62.07692
G1 X177.872 Y139.544 E62.21597
G1 X176.999 Y139.544 E62.24236
G1 X176.999 Y157.744 E62.79255
G1 X72.999 Y157.744 E65.93649
M204 S500
G0 F7500 X73.269 Y157.474
G0 X73.509 Y156.954
G0 X73.789 Y156.954
M204 S550
;TYPE:SKIN
G1 F1500 X73.789 Y150.754 E66.12391
G1 X72.917 Y150.754 E66.15027
G1 X72.917 Y147.734 E66.24157
G1 X73.789 Y147.734 E66.26793
G1 X73.789 Y132.954 E66.71473
G1 X53.991 Y132.954 E67.31323
G1 X53.991 Y103.534 E68.2026
G1 X176.209 Y103.534 E71.89727
