;FLAVOR:Marlin
;TIME:3604
;Filament used: 1.74643m
;Layer height: 0.2
;MINX:80.014
;MINY:80.014
;MINZ:0.2
;MAXX:139.986
;MAXY:139.986
;MAXZ:13.4
;Generated with Cura_SteamEngine master
M140 S60
M105
M190 S60
M104 S200
M105
M109 S200
M82 ;absolute extrusion mode
; Ender 3 Custom Start G-code
G92 E0 ; Reset Extruder
G28 ; Home all axes
G1 Z2.0 F3000 ; Move Z Axis up little to prevent scratching of Heat Bed
G1 X0.1 Y20 Z0.3 F5000.0 ; Move to start position
G1 X0.1 Y200.0 Z0.3 F1500.0 E15 ; Draw the first line
G1 X0.4 Y200.0 Z0.3 F5000.0 ; Move to side a little
G1 X0.4 Y20 Z0.3 F1500.0 E30 ; Draw the second line
G92 E0 ; Reset Extruder
G1 Z2.0 F3000 ; Move Z Axis up little to prevent scratching of Heat Bed
G1 X5 Y20 Z0.3 F5000.0 ; Move over to prevent blob squish
G92 E0
G92 E0
G1 F1500 E-6.5
;LAYER_COUNT:67
;LAYER:0
M107
G0 F6000 X88.608 Y88.985 Z0.2
;TYPE:SKIRT
G1 F1500 E0
G1 F1200 X89.048 Y88.547 E0.02065
G1 X89.294 Y88.309 E0.03203
G1 X89.773 Y87.861 E0.05385
G1 X90.067 Y87.596 E0.06701
G1 X90.513 Y87.208 E0.08667
G1 X90.795 Y86.971 E0.09893
G1 X91.388 Y86.489 E0.12434
G1 X91.691 Y86.251 E0.13716
G1 X92.13 Y85.919 E0.15546
G1 X92.407 Y85.716 E0.16689
G1 X92.952 Y85.33 E0.1891
G1 X93.28 Y85.107 E0.20229
G1 X93.875 Y84.717 E0.22595
G1 X94.209 Y84.507 E0.23908
G1 X94.66 Y84.234 E0.25661
G1 X94.961 Y84.058 E0.26821
G1 X95.606 Y83.695 E0.29282
G1 X95.934 Y83.517 E0.30524
G1 X96.541 Y83.202 E0.32798
G1 X96.901 Y83.024 E0.34134
G1 X97.334 Y82.819 E0.35727
G1 X97.663 Y82.67 E0.36929
G1 X98.313 Y82.388 E0.39285
G1 X98.517 Y82.298 E0.40027
G1 X98.878 Y82.146 E0.4133
G1 X99.041 Y82.081 E0.41913
G1 X99.427 Y81.936 E0.43285
G1 X100.284 Y81.631 E0.4631
G1 X100.649 Y81.508 E0.47591
G1 X101.277 Y81.309 E0.49782
G1 X101.642 Y81.2 E0.51049
G1 X102.19 Y81.047 E0.52942
G1 X102.551 Y80.953 E0.54182
G1 X103.193 Y80.797 E0.5638
G1 X103.551 Y80.716 E0.57601
G1 X104.08 Y80.606 E0.59398
G1 X104.399 Y80.538 E0.60483
G1 X104.911 Y80.44 E0.62216
G1 X105.044 Y80.418 E0.62665
G1 X105.355 Y80.372 E0.6371
G1 X106.361 Y80.235 E0.67087
G1 X106.725 Y80.191 E0.68307
G1 X107.155 Y80.147 E0.69744
G1 X107.517 Y80.116 E0.70953
G1 X108.313 Y80.061 E0.73607
G1 X108.7 Y80.041 E0.74896
G1 X109.323 Y80.02 E0.76969
G1 X109.694 Y80.014 E0.78203
G1 X110.372 Y80.014 E0.80458
G1 X110.727 Y80.02 E0.81639
G1 X111.192 Y80.035 E0.83186
G1 X111.593 Y80.055 E0.84522
G1 X112.536 Y80.12 E0.87665
G1 X112.852 Y80.146 E0.8872
G1 X113.189 Y80.179 E0.89846
G1 X113.598 Y80.227 E0.91216
G1 X114.481 Y80.347 E0.9418
G1 X114.804 Y80.396 E0.95266
G1 X115.165 Y80.456 E0.96484
G1 X115.549 Y80.527 E0.97782
G1 X115.882 Y80.595 E0.98913
G1 X116.468 Y80.72 E1.00906
G1 X116.843 Y80.805 E1.02185
G1 X117.491 Y80.964 E1.04404
G1 X117.842 Y81.056 E1.05611
G1 X118.323 Y81.191 E1.07272
G1 X118.666 Y81.293 E1.08463
G1 X119.438 Y81.537 E1.11155
G1 X119.829 Y81.669 E1.12528
G1 X120.441 Y81.888 E1.1469
G1 X120.772 Y82.013 E1.15867
G1 X121.137 Y82.157 E1.17172
G1 X121.482 Y82.299 E1.18413
G1 X122.38 Y82.689 E1.21669
G1 X122.72 Y82.844 E1.22912
G1 X123.105 Y83.027 E1.2433
G1 X123.429 Y83.188 E1.25533
G1 X124.076 Y83.522 E1.27955
G1 X124.419 Y83.706 E1.29249
G1 X124.96 Y84.01 E1.31313
G1 X125.307 Y84.214 E1.32652
G1 X125.901 Y84.577 E1.34967
G1 X126.2 Y84.766 E1.36144
G1 X126.712 Y85.102 E1.38181
G1 X127.018 Y85.311 E1.39413
G1 X127.585 Y85.711 E1.41721
G1 X127.889 Y85.933 E1.42973
G1 X128.327 Y86.265 E1.44801
G1 X128.605 Y86.483 E1.45976
G1 X129.173 Y86.943 E1.48407
G1 X129.487 Y87.207 E1.49772
G1 X129.97 Y87.629 E1.51905
G1 X130.242 Y87.875 E1.53125
G1 X130.728 Y88.329 E1.55337
G1 X131.006 Y88.598 E1.56623
G1 X131.436 Y89.029 E1.58648
G1 X131.686 Y89.288 E1.59846
G1 X132.142 Y89.776 E1.62067
G1 X132.403 Y90.065 E1.63362
G1 X132.792 Y90.512 E1.65333
G1 X133.031 Y90.796 E1.66568
G1 X133.512 Y91.388 E1.69105
G1 X133.749 Y91.69 E1.70381
G1 X134.081 Y92.129 E1.72212
G1 X134.291 Y92.417 E1.73398
G1 X134.676 Y92.962 E1.75617
G1 X134.894 Y93.282 E1.76905
G1 X135.285 Y93.879 E1.79278
G1 X135.493 Y94.21 E1.80579
G1 X135.766 Y94.661 E1.82332
G1 X135.936 Y94.951 E1.8345
G1 X136.3 Y95.596 E1.85913
G1 X136.487 Y95.941 E1.87219
G1 X136.801 Y96.547 E1.89489
G1 X136.976 Y96.901 E1.90802
G1 X137.181 Y97.334 E1.92395
G1 X137.333 Y97.669 E1.93619
G1 X137.589 Y98.261 E1.95764
G1 X137.703 Y98.52 E1.96705
G1 X137.84 Y98.844 E1.97875
G1 X137.906 Y99.008 E1.98463
G1 X138.063 Y99.423 E1.99939
G1 X138.368 Y100.279 E2.02962
G1 X138.497 Y100.663 E2.04309
G1 X138.695 Y101.291 E2.06499
G1 X138.795 Y101.628 E2.07668
G1 X138.949 Y102.177 E2.09565
G1 X139.044 Y102.539 E2.10809
G1 X139.201 Y103.182 E2.13011
G1 X139.285 Y103.552 E2.14273
G1 X139.384 Y104.029 E2.15893
G1 X139.466 Y104.414 E2.17202
G1 X139.56 Y104.91 E2.18881
G1 X139.582 Y105.043 E2.1933
G1 X139.628 Y105.35 E2.20362
G1 X139.764 Y106.346 E2.23706
G1 X139.808 Y106.715 E2.24942
G1 X139.853 Y107.155 E2.26413
G1 X139.884 Y107.517 E2.27621
G1 X139.939 Y108.314 E2.30278
G1 X139.959 Y108.7 E2.31564
G1 X139.98 Y109.323 E2.33637
G1 X139.986 Y109.694 E2.34871
G1 X139.986 Y110.371 E2.37123
G1 X139.98 Y110.725 E2.38301
G1 X139.965 Y111.191 E2.39851
G1 X139.945 Y111.593 E2.4119
G1 X139.88 Y112.536 E2.44334
G1 X139.853 Y112.858 E2.45409
G1 X139.82 Y113.193 E2.46528
G1 X139.773 Y113.593 E2.47868
G1 X139.653 Y114.478 E2.50838
G1 X139.604 Y114.804 E2.51935
G1 X139.544 Y115.165 E2.53152
G1 X139.471 Y115.56 E2.54488
G1 X139.405 Y115.881 E2.55578
G1 X139.28 Y116.467 E2.57571
G1 X139.197 Y116.835 E2.58826
G1 X139.038 Y117.485 E2.61051
G1 X138.944 Y117.843 E2.62282
G1 X138.809 Y118.324 E2.63944
G1 X138.704 Y118.675 E2.65162
G1 X138.46 Y119.445 E2.67849
G1 X138.333 Y119.823 E2.69175
G1 X138.114 Y120.436 E2.7134
G1 X137.987 Y120.772 E2.72535
G1 X137.843 Y121.137 E2.7384
G1 X137.703 Y121.476 E2.7506
G1 X137.318 Y122.364 E2.78279
G1 X137.158 Y122.715 E2.79562
G1 X136.97 Y123.11 E2.81017
G1 X136.812 Y123.429 E2.82201
G1 X136.478 Y124.076 E2.84623
G1 X136.294 Y124.419 E2.85917
G1 X135.99 Y124.96 E2.87981
G1 X135.79 Y125.3 E2.89293
G1 X135.427 Y125.895 E2.91612
G1 X135.231 Y126.205 E2.92832
G1 X134.896 Y126.715 E2.94861
G1 X134.688 Y127.02 E2.96089
G1 X134.287 Y127.588 E2.98401
G1 X134.06 Y127.898 E2.99679
G1 X133.728 Y128.335 E3.01505
G1 X133.516 Y128.606 E3.02649
G1 X133.055 Y129.175 E3.05085
G1 X132.793 Y129.486 E3.06437
G1 X132.372 Y129.968 E3.08566
G1 X132.125 Y130.242 E3.09793
G1 X131.67 Y130.729 E3.1201
G1 X131.401 Y131.006 E3.13294
G1 X130.971 Y131.435 E3.15314
G1 X130.713 Y131.685 E3.16509
G1 X130.224 Y132.142 E3.18735
G1 X129.933 Y132.404 E3.20037
G1 X129.487 Y132.792 E3.22004
G1 X129.205 Y133.029 E3.23229
G1 X128.612 Y133.511 E3.2577
G1 X128.309 Y133.749 E3.27052
G1 X127.87 Y134.081 E3.28883
G1 X127.593 Y134.284 E3.30025
G1 X127.048 Y134.67 E3.32246
G1 X126.72 Y134.893 E3.33565
G1 X126.125 Y135.283 E3.35931
G1 X125.791 Y135.493 E3.37244
G1 X125.34 Y135.766 E3.38997
G1 X125.039 Y135.942 E3.40157
G1 X124.394 Y136.305 E3.42619
G1 X124.062 Y136.485 E3.43875
G1 X123.464 Y136.795 E3.46115
G1 X123.122 Y136.965 E3.47385
G1 X122.68 Y137.175 E3.49013
G1 X122.337 Y137.33 E3.50265
G1 X121.747 Y137.586 E3.52404
G1 X121.493 Y137.698 E3.53327
G1 X121.14 Y137.846 E3.546
G1 X120.97 Y137.914 E3.55209
G1 X120.573 Y138.064 E3.56621
G1 X119.716 Y138.369 E3.59646
G1 X119.351 Y138.492 E3.60927
G1 X118.723 Y138.691 E3.63118
G1 X118.358 Y138.8 E3.64385
G1 X117.81 Y138.953 E3.66278
G1 X117.449 Y139.047 E3.67518
G1 X116.807 Y139.203 E3.69716
G1 X116.449 Y139.284 E3.70937
G1 X115.92 Y139.394 E3.72734
G1 X115.601 Y139.462 E3.73819
G1 X115.089 Y139.56 E3.75552
G1 X114.956 Y139.582 E3.76001
G1 X114.645 Y139.628 E3.77046
G1 X113.639 Y139.765 E3.80423
G1 X113.275 Y139.809 E3.81643
G1 X112.845 Y139.853 E3.8308
G1 X112.483 Y139.884 E3.84289
G1 X111.687 Y139.939 E3.86943
G1 X111.3 Y139.959 E3.88232
G1 X110.677 Y139.98 E3.90305
G1 X110.306 Y139.986 E3.91539
G1 X109.628 Y139.986 E3.93794
G1 X109.273 Y139.98 E3.94975
G1 X108.808 Y139.965 E3.96522
G1 X108.407 Y139.945 E3.97858
G1 X107.463 Y139.88 E4.01005
G1 X107.141 Y139.853 E4.0208
G1 X106.806 Y139.82 E4.03199
G1 X106.404 Y139.773 E4.04545
G1 X105.52 Y139.653 E4.07513
G1 X105.192 Y139.603 E4.08616
G1 X104.832 Y139.543 E4.0983
G1 X104.452 Y139.473 E4.11115
G1 X104.119 Y139.405 E4.12246
G1 X103.533 Y139.28 E4.14238
G1 X103.165 Y139.197 E4.15493
G1 X102.515 Y139.038 E4.17719
G1 X102.157 Y138.944 E4.1895
G1 X101.676 Y138.809 E4.20612
G1 X101.325 Y138.704 E4.2183
G1 X100.555 Y138.46 E4.24517
G1 X100.177 Y138.333 E4.25843
G1 X99.564 Y138.114 E4.28008
G1 X99.228 Y137.987 E4.29203
G1 X98.863 Y137.843 E4.30508
G1 X98.522 Y137.702 E4.31735
G1 X97.623 Y137.312 E4.34994
G1 X97.269 Y137.151 E4.36288
G1 X96.885 Y136.968 E4.37703
G1 X96.571 Y136.812 E4.38869
G1 X95.924 Y136.478 E4.41291
G1 X95.575 Y136.29 E4.42609
G1 X95.033 Y135.985 E4.44678
G1 X94.704 Y135.792 E4.45946
G1 X94.11 Y135.43 E4.4826
G1 X93.795 Y135.231 E4.49499
G1 X93.285 Y134.896 E4.51529
G1 X92.98 Y134.688 E4.52756
G1 X92.412 Y134.287 E4.55069
G1 X92.102 Y134.06 E4.56347
G1 X91.665 Y133.728 E4.58172
G1 X91.394 Y133.516 E4.59317
G1 X90.825 Y133.055 E4.61752
G1 X90.513 Y132.792 E4.6311
G1 X90.03 Y132.37 E4.65243
G1 X89.757 Y132.123 E4.66467
G1 X89.269 Y131.667 E4.68689
G1 X88.983 Y131.39 E4.70013
G1 X88.55 Y130.955 E4.72054
G1 X88.31 Y130.707 E4.73202
G1 X87.851 Y130.216 E4.75438
G1 X87.588 Y129.923 E4.76747
G1 X87.207 Y129.485 E4.78678
G1 X86.969 Y129.203 E4.79905
G1 X86.488 Y128.611 E4.82442
G1 X86.251 Y128.309 E4.83719
G1 X85.919 Y127.87 E4.8555
G1 X85.716 Y127.593 E4.86692
G1 X85.33 Y127.048 E4.88913
G1 X85.105 Y126.717 E4.90245
G1 X84.714 Y126.12 E4.92618
G1 X84.508 Y125.792 E4.93906
G1 X84.236 Y125.343 E4.95652
G1 X84.061 Y125.044 E4.96805
G1 X83.697 Y124.398 E4.99271
G1 X83.513 Y124.059 E5.00554
G1 X83.199 Y123.453 E5.02824
G1 X83.029 Y123.11 E5.04097
G1 X82.822 Y122.674 E5.05702
G1 X82.664 Y122.325 E5.06977
G1 X82.384 Y121.678 E5.09321
G1 X82.298 Y121.483 E5.1003
G1 X82.146 Y121.122 E5.11333
G1 X82.081 Y120.959 E5.11917
G1 X81.933 Y120.566 E5.13313
G1 X81.628 Y119.707 E5.16345
G1 X81.511 Y119.358 E5.1757
G1 X81.312 Y118.732 E5.19754
G1 X81.2 Y118.358 E5.21053
G1 X81.047 Y117.81 E5.22945
G1 X80.953 Y117.449 E5.24186
G1 X80.797 Y116.807 E5.26383
G1 X80.716 Y116.449 E5.27604
G1 X80.606 Y115.92 E5.29401
G1 X80.538 Y115.601 E5.30486
G1 X80.435 Y115.057 E5.32328
G1 X80.41 Y114.903 E5.32846
G1 X80.369 Y114.624 E5.33784
G1 X80.233 Y113.625 E5.37138
G1 X80.188 Y113.246 E5.38407
G1 X80.146 Y112.83 E5.39798
G1 X80.116 Y112.483 E5.40956
G1 X80.061 Y111.687 E5.4361
G1 X80.041 Y111.3 E5.44899
G1 X80.02 Y110.678 E5.46969
G1 X80.014 Y110.307 E5.48203
G1 X80.014 Y109.628 E5.50461
G1 X80.02 Y109.273 E5.51642
G1 X80.035 Y108.808 E5.5319
G1 X80.055 Y108.411 E5.54512
G1 X80.12 Y107.462 E5.57676
G1 X80.149 Y107.119 E5.5882
G1 X80.182 Y106.789 E5.59924
G1 X80.227 Y106.404 E5.61213
G1 X80.347 Y105.52 E5.6418
G1 X80.397 Y105.192 E5.65283
G1 X80.457 Y104.832 E5.66497
G1 X80.527 Y104.452 E5.67782
G1 X80.595 Y104.119 E5.68913
G1 X80.72 Y103.533 E5.70906
G1 X80.803 Y103.165 E5.7216
G1 X80.962 Y102.515 E5.74386
G1 X81.056 Y102.157 E5.75617
G1 X81.191 Y101.676 E5.77279
G1 X81.296 Y101.325 E5.78497
G1 X81.54 Y100.555 E5.81184
G1 X81.667 Y100.177 E5.8251
G1 X81.886 Y99.564 E5.84675
G1 X82.013 Y99.228 E5.8587
G1 X82.157 Y98.863 E5.87175
G1 X82.298 Y98.521 E5.88405
G1 X82.692 Y97.613 E5.91698
G1 X82.856 Y97.253 E5.93013
G1 X83.035 Y96.878 E5.94395
G1 X83.193 Y96.561 E5.95573
G1 X83.532 Y95.906 E5.98026
G1 X83.71 Y95.576 E5.99273
G1 X84.011 Y95.04 E6.01318
G1 X84.21 Y94.699 E6.02631
G1 X84.571 Y94.107 E6.04937
G1 X84.769 Y93.795 E6.06167
G1 X85.104 Y93.285 E6.08196
G1 X85.313 Y92.979 E6.09428
G1 X85.724 Y92.397 E6.11798
G1 X85.956 Y92.079 E6.13107
G1 X86.278 Y91.656 E6.14876
G1 X86.484 Y91.394 E6.15984
G1 X86.945 Y90.825 E6.1842
G1 X87.207 Y90.514 E6.19772
G1 X87.628 Y90.032 E6.21901
G1 X87.875 Y89.758 E6.23128
G1 X88.33 Y89.271 E6.25345
G1 X88.608 Y88.985 E6.26671
G0 F6000 X88.89 Y89.269
G1 F1200 X89.33 Y88.831 E6.28736
G1 X89.567 Y88.601 E6.29835
G1 X90.046 Y88.153 E6.32016
G1 X90.33 Y87.898 E6.33285
G1 X90.776 Y87.51 E6.35252
G1 X91.047 Y87.281 E6.36432
G1 X91.64 Y86.799 E6.38973
G1 X91.932 Y86.57 E6.40208
G1 X92.371 Y86.238 E6.42038
G1 X92.638 Y86.043 E6.43138
G1 X93.183 Y85.657 E6.45359
G1 X93.499 Y85.442 E6.4663
G1 X94.094 Y85.052 E6.48997
G1 X94.416 Y84.849 E6.50263
G1 X94.867 Y84.576 E6.52016
G1 X95.157 Y84.406 E6.53134
G1 X95.802 Y84.043 E6.55596
G1 X96.118 Y83.872 E6.56791
G1 X96.725 Y83.557 E6.59065
G1 X97.072 Y83.385 E6.60354
G1 X97.505 Y83.18 E6.61947
G1 X97.822 Y83.037 E6.63104
G1 X98.678 Y82.664 E6.66209
G1 X99.026 Y82.518 E6.67464
G1 X99.189 Y82.453 E6.68048
G1 X99.561 Y82.313 E6.6937
G1 X100.418 Y82.008 E6.72396
G1 X100.77 Y81.889 E6.73631
G1 X101.398 Y81.69 E6.75823
G1 X101.75 Y81.585 E6.77044
G1 X102.298 Y81.432 E6.78937
G1 X102.645 Y81.342 E6.80129
G1 X103.287 Y81.186 E6.82326
G1 X103.632 Y81.108 E6.83503
G1 X104.161 Y80.998 E6.853
G1 X104.483 Y80.929 E6.86395
G1 X104.976 Y80.835 E6.88064
G1 X105.109 Y80.813 E6.88513
G1 X105.409 Y80.768 E6.89522
G1 X106.415 Y80.631 E6.92899
G1 X106.766 Y80.589 E6.94074
G1 X107.196 Y80.545 E6.95512
G1 X107.544 Y80.515 E6.96674
G1 X108.34 Y80.46 E6.99328
G1 X108.714 Y80.441 E7.00573
G1 X109.337 Y80.42 E7.02646
G1 X109.694 Y80.414 E7.03834
G1 X110.372 Y80.414 E7.06089
G1 X110.714 Y80.42 E7.07227
G1 X111.179 Y80.435 E7.08774
G1 X111.566 Y80.454 E7.10063
G1 X112.509 Y80.519 E7.13207
G1 X112.813 Y80.544 E7.14221
G1 X113.15 Y80.577 E7.15347
G1 X113.544 Y80.624 E7.16667
G1 X114.427 Y80.744 E7.19631
G1 X114.738 Y80.79 E7.20677
G1 X115.099 Y80.85 E7.21894
G1 X115.469 Y80.919 E7.23146
G1 X115.798 Y80.986 E7.24262
G1 X116.085 Y81.048 E7.25239
G1 X116.387 Y81.111 E7.26265
G1 X116.748 Y81.193 E7.27496
G1 X117.396 Y81.352 E7.29716
G1 X117.734 Y81.441 E7.30878
G1 X118.215 Y81.576 E7.3254
G1 X118.545 Y81.675 E7.33686
G1 X119.317 Y81.919 E7.36378
G1 X119.694 Y82.046 E7.37702
G1 X120.306 Y82.265 E7.39864
G1 X120.625 Y82.385 E7.40997
G1 X120.99 Y82.529 E7.42302
G1 X121.323 Y82.666 E7.435
G1 X122.221 Y83.056 E7.46756
G1 X122.549 Y83.205 E7.47954
G1 X122.934 Y83.388 E7.49372
G1 X123.245 Y83.543 E7.50528
G1 X123.892 Y83.877 E7.5295
G1 X124.223 Y84.055 E7.542
G1 X124.764 Y84.359 E7.56264
G1 X125.098 Y84.555 E7.57552
G1 X125.692 Y84.918 E7.59867
G1 X125.981 Y85.101 E7.61005
G1 X126.493 Y85.437 E7.63042
G1 X126.787 Y85.637 E7.64224
G1 X127.354 Y86.037 E7.66532
G1 X127.647 Y86.252 E7.67741
G1 X128.085 Y86.584 E7.69569
G1 X128.353 Y86.794 E7.70701
G1 X128.921 Y87.254 E7.73132
G1 X129.224 Y87.509 E7.7445
G1 X129.707 Y87.931 E7.76583
G1 X129.969 Y88.167 E7.77756
G1 X130.455 Y88.621 E7.79968
G1 X130.723 Y88.88 E7.81207
G1 X131.153 Y89.311 E7.83232
G1 X131.394 Y89.561 E7.84387
G1 X131.85 Y90.049 E7.86609
G1 X132.101 Y90.327 E7.87854
G1 X132.49 Y90.774 E7.89825
G1 X132.721 Y91.049 E7.9102
G1 X133.202 Y91.641 E7.93557
G1 X133.43 Y91.931 E7.94784
G1 X133.762 Y92.37 E7.96614
G1 X133.965 Y92.648 E7.97759
G1 X134.35 Y93.193 E7.99979
G1 X134.559 Y93.501 E8.01217
G1 X134.95 Y94.098 E8.0359
G1 X135.151 Y94.417 E8.04844
G1 X135.424 Y94.868 E8.06598
G1 X135.587 Y95.147 E8.07672
G1 X135.951 Y95.792 E8.10136
G1 X136.132 Y96.125 E8.11396
G1 X136.446 Y96.731 E8.13666
G1 X136.615 Y97.072 E8.14932
G1 X136.82 Y97.505 E8.16526
G1 X136.966 Y97.828 E8.17704
G1 X137.223 Y98.422 E8.19857
G1 X137.337 Y98.681 E8.20798
G1 X137.469 Y98.994 E8.21928
G1 X137.535 Y99.158 E8.22516
G1 X137.686 Y99.557 E8.23935
G1 X137.991 Y100.413 E8.26957
G1 X138.115 Y100.784 E8.28259
G1 X138.313 Y101.412 E8.30449
G1 X138.41 Y101.736 E8.31573
G1 X138.564 Y102.285 E8.3347
G1 X138.655 Y102.634 E8.3467
G1 X138.812 Y103.277 E8.36871
G1 X138.893 Y103.633 E8.38085
G1 X139.074 Y104.497 E8.41021
G1 X139.165 Y104.975 E8.4264
G1 X139.187 Y105.108 E8.43088
G1 X139.232 Y105.404 E8.44084
G1 X139.368 Y106.4 E8.47427
G1 X139.41 Y106.756 E8.4862
G1 X139.455 Y107.196 E8.50091
G1 X139.485 Y107.544 E8.51252
G1 X139.54 Y108.341 E8.5391
G1 X139.559 Y108.714 E8.55152
G1 X139.58 Y109.337 E8.57225
G1 X139.586 Y109.694 E8.58413
G1 X139.586 Y110.371 E8.60664
