;FLAVOR:Marlin
;TIME:771
;Filament used: 0.277236m
;Layer height: 0.2
;MINX:94.115
;MINY:94.133
;MINZ:0.2
;MAXX:125.885
;MAXY:125.867
;MAXZ:19
;Generated with Cura_SteamEngine master
M140 S60
M105
M190 S60
M104 S200
M105
M109 S200
M82 ;absolute extrusion mode
; Ender 3 Custom Start G-code
G92 E0 ; Reset Extruder
G28 ; Home all axes
G1 Z2.0 F3000 ; Move Z Axis up little to prevent scratching of Heat Bed
G1 X0.1 Y20 Z0.3 F5000.0 ; Move to start position
G1 X0.1 Y200.0 Z0.3 F1500.0 E15 ; Draw the first line
G1 X0.4 Y200.0 Z0.3 F5000.0 ; Move to side a little
G1 X0.4 Y20 Z0.3 F1500.0 E30 ; Draw the second line
G92 E0 ; Reset Extruder
G1 Z2.0 F3000 ; Move Z Axis up little to prevent scratching of Heat Bed
G1 X5 Y20 Z0.3 F5000.0 ; Move over to prevent blob squish
G92 E0
G92 E0
G1 F1500 E-6.5
;LAYER_COUNT:95
;LAYER:0
M107
G0 F6000 X98.591 Y98.962 Z0.2
;TYPE:SKIRT
G1 F1500 E0
G1 F1200 X99.255 Y98.299 E0.03121
G1 X100.047 Y97.639 E0.0655
G1 X100.649 Y97.183 E0.09062
G1 X100.974 Y96.945 E0.10402
G1 X101.185 Y96.797 E0.11259
G1 X101.975 Y96.292 E0.14377
G1 X102.818 Y95.85 E0.17543
G1 X103.549 Y95.506 E0.2023
G1 X103.917 Y95.341 E0.21572
G1 X104.128 Y95.251 E0.22335
G1 X105.006 Y94.92 E0.25455
G1 X105.948 Y94.656 E0.28709
G1 X106.652 Y94.492 E0.31113
G1 X106.984 Y94.42 E0.32243
G1 X107.273 Y94.362 E0.33224
G1 X108.199 Y94.217 E0.36341
G1 X109.219 Y94.149 E0.39741
G1 X109.976 Y94.134 E0.42259
G1 X110.366 Y94.133 E0.43557
G1 X110.622 Y94.137 E0.44408
G1 X111.558 Y94.192 E0.47527
G1 X112.515 Y94.332 E0.50744
G1 X113.279 Y94.478 E0.53331
G1 X113.687 Y94.564 E0.54717
G1 X113.934 Y94.621 E0.55561
G1 X114.838 Y94.87 E0.58679
G1 X115.737 Y95.204 E0.61869
G1 X116.441 Y95.501 E0.6441
G1 X116.72 Y95.624 E0.65425
G1 X116.942 Y95.725 E0.66236
G1 X117.779 Y96.149 E0.69356
G1 X118.687 Y96.72 E0.72924
G1 X119.344 Y97.179 E0.7559
G1 X119.622 Y97.379 E0.76729
G1 X119.811 Y97.52 E0.77513
G1 X120.538 Y98.113 E0.80633
G1 X121.212 Y98.765 E0.83752
G1 X121.245 Y98.802 E0.83917
G1 X121.75 Y99.339 E0.86369
G1 X122.033 Y99.651 E0.8777
G1 X122.215 Y99.86 E0.88692
G1 X122.8 Y100.593 E0.91811
G1 X123.334 Y101.396 E0.95018
G1 X123.74 Y102.068 E0.9763
G1 X123.923 Y102.381 E0.98836
G1 X124.035 Y102.581 E0.99598
G1 X124.458 Y103.418 E1.02717
G1 X124.83 Y104.352 E1.06061
G1 X125.087 Y105.093 E1.0867
G1 X125.187 Y105.395 E1.09728
G1 X125.26 Y105.627 E1.10537
G1 X125.503 Y106.533 E1.13657
G1 X125.683 Y107.573 E1.17167
G1 X125.778 Y108.338 E1.19731
G1 X125.816 Y108.694 E1.20922
G1 X125.839 Y108.946 E1.21763
G1 X125.885 Y109.883 E1.24884
G1 X125.845 Y110.881 E1.28206
G1 X125.78 Y111.643 E1.30749
G1 X125.742 Y112.013 E1.31986
G1 X125.712 Y112.264 E1.32827
G1 X125.561 Y113.19 E1.35948
G1 X125.315 Y114.156 E1.39263
G1 X125.096 Y114.877 E1.41769
G1 X124.986 Y115.219 E1.42964
G1 X124.898 Y115.478 E1.43874
G1 X124.559 Y116.352 E1.46992
G1 X124.118 Y117.246 E1.50308
G1 X123.76 Y117.896 E1.52776
G1 X123.575 Y118.219 E1.54014
G1 X123.432 Y118.459 E1.54943
G1 X122.918 Y119.244 E1.58064
G1 X122.301 Y120.026 E1.61377
G1 X121.801 Y120.604 E1.63919
G1 X121.58 Y120.852 E1.65024
G1 X121.409 Y121.038 E1.65864
G1 X120.745 Y121.701 E1.68985
G1 X119.953 Y122.361 E1.72414
G1 X119.351 Y122.817 E1.74926
G1 X119.026 Y123.055 E1.76265
G1 X118.815 Y123.203 E1.77123
G1 X118.025 Y123.708 E1.80241
G1 X117.182 Y124.15 E1.83407
G1 X116.451 Y124.494 E1.86094
G1 X116.083 Y124.659 E1.87436
G1 X115.872 Y124.749 E1.88198
G1 X114.994 Y125.08 E1.91319
G1 X114.052 Y125.344 E1.94573
G1 X113.348 Y125.508 E1.96977
G1 X113.016 Y125.58 E1.98107
G1 X112.727 Y125.638 E1.99088
G1 X111.801 Y125.783 E2.02205
G1 X110.781 Y125.851 E2.05605
G1 X110.024 Y125.866 E2.08123
G1 X109.634 Y125.867 E2.09421
G1 X109.378 Y125.863 E2.10272
G1 X108.442 Y125.808 E2.13391
G1 X107.485 Y125.668 E2.16608
G1 X106.721 Y125.522 E2.19195
G1 X106.313 Y125.436 E2.20581
G1 X106.066 Y125.379 E2.21425
G1 X105.162 Y125.13 E2.24543
G1 X104.263 Y124.796 E2.27733
G1 X103.559 Y124.499 E2.30274
G1 X103.28 Y124.376 E2.31289
G1 X103.058 Y124.275 E2.321
G1 X102.221 Y123.851 E2.3522
G1 X101.313 Y123.28 E2.38788
G1 X100.656 Y122.821 E2.41454
G1 X100.378 Y122.621 E2.42593
G1 X100.189 Y122.48 E2.43377
G1 X99.462 Y121.887 E2.46497
G1 X98.788 Y121.235 E2.49616
G1 X98.755 Y121.198 E2.49781
G1 X98.25 Y120.661 E2.52233
G1 X97.967 Y120.349 E2.53634
G1 X97.785 Y120.14 E2.54556
G1 X97.2 Y119.407 E2.57675
G1 X96.666 Y118.604 E2.60882
G1 X96.26 Y117.932 E2.63494
G1 X96.077 Y117.619 E2.647
G1 X95.965 Y117.419 E2.65462
G1 X95.542 Y116.582 E2.68581
G1 X95.17 Y115.648 E2.71925
G1 X94.913 Y114.907 E2.74534
G1 X94.813 Y114.605 E2.75592
G1 X94.74 Y114.373 E2.76401
G1 X94.497 Y113.467 E2.79521
G1 X94.317 Y112.427 E2.83031
G1 X94.222 Y111.662 E2.85595
G1 X94.184 Y111.306 E2.86786
G1 X94.161 Y111.054 E2.87627
G1 X94.115 Y110.117 E2.90748
G1 X94.155 Y109.122 E2.9406
G1 X94.221 Y108.346 E2.9665
G1 X94.262 Y107.948 E2.97981
G1 X94.291 Y107.71 E2.98778
G1 X94.444 Y106.784 E3.019
G1 X94.686 Y105.838 E3.05148
G1 X94.913 Y105.092 E3.07741
G1 X95.033 Y104.722 E3.09035
G1 X95.113 Y104.489 E3.09854
G1 X95.455 Y103.616 E3.12973
G1 X95.88 Y102.757 E3.1616
G1 X96.24 Y102.103 E3.18643
G1 X96.434 Y101.765 E3.19939
G1 X96.575 Y101.529 E3.20854
G1 X97.09 Y100.745 E3.23974
G1 X97.699 Y99.974 E3.27242
G1 X98.199 Y99.396 E3.29783
G1 X98.42 Y99.148 E3.30888
G1 X98.591 Y98.962 E3.31729
G0 F6000 X98.886 Y99.233
G1 F1200 X99.538 Y98.583 E3.34791
G1 X100.289 Y97.957 E3.38043
G1 X100.891 Y97.501 E3.40554
G1 X101.204 Y97.273 E3.41842
G1 X101.415 Y97.125 E3.427
G1 X102.191 Y96.629 E3.45763
G1 X102.989 Y96.212 E3.48757
G1 X103.72 Y95.868 E3.51444
G1 X104.074 Y95.709 E3.52735
G1 X104.285 Y95.619 E3.53498
G1 X105.147 Y95.295 E3.56561
G1 X106.039 Y95.045 E3.59642
G1 X106.743 Y94.881 E3.62046
G1 X107.062 Y94.812 E3.63132
G1 X107.351 Y94.754 E3.64112
G1 X108.261 Y94.612 E3.67176
G1 X109.227 Y94.549 E3.70395
G1 X109.984 Y94.534 E3.72914
G1 X110.36 Y94.533 E3.74164
G1 X110.616 Y94.537 E3.75016
G1 X111.535 Y94.592 E3.78078
G1 X112.44 Y94.724 E3.8112
G1 X113.204 Y94.87 E3.83707
G1 X113.598 Y94.953 E3.85046
G1 X113.845 Y95.01 E3.85889
G1 X114.732 Y95.256 E3.88951
G1 X115.581 Y95.573 E3.91965
G1 X116.285 Y95.87 E3.94506
G1 X116.555 Y95.988 E3.95486
G1 X116.777 Y96.089 E3.96297
G1 X117.597 Y96.506 E3.99357
G1 X118.458 Y97.048 E4.02741
G1 X119.115 Y97.507 E4.05407
G1 X119.382 Y97.7 E4.06502
G1 X119.571 Y97.841 E4.07287
G1 X120.285 Y98.423 E4.1035
G1 X120.945 Y99.065 E4.13413
G1 X120.96 Y99.083 E4.13491
G1 X121.459 Y99.613 E4.15912
G1 X121.731 Y99.914 E4.17261
G1 X121.913 Y100.123 E4.18183
G1 X122.487 Y100.843 E4.21246
G1 X122.992 Y101.603 E4.24281
G1 X123.398 Y102.275 E4.26892
G1 X123.574 Y102.577 E4.28055
G1 X123.686 Y102.777 E4.28817
G1 X124.1 Y103.599 E4.31878
G1 X124.452 Y104.483 E4.35043
G1 X124.709 Y105.224 E4.37651
G1 X124.805 Y105.515 E4.38671
G1 X124.878 Y105.747 E4.3948
G1 X125.116 Y106.637 E4.42544
G1 X125.286 Y107.623 E4.45872
G1 X125.381 Y108.388 E4.48435
G1 X125.418 Y108.731 E4.49583
G1 X125.441 Y108.983 E4.50425
G1 X125.485 Y109.902 E4.53485
G1 X125.447 Y110.847 E4.5663
G1 X125.382 Y111.609 E4.59174
G1 X125.345 Y111.966 E4.60368
G1 X125.315 Y112.217 E4.61208
G1 X125.166 Y113.126 E4.64272
G1 X124.932 Y114.04 E4.6741
G1 X124.713 Y114.761 E4.69916
G1 X124.607 Y115.09 E4.71066
G1 X124.519 Y115.349 E4.71976
G1 X124.186 Y116.207 E4.75037
G1 X123.768 Y117.053 E4.78175
G1 X123.41 Y117.703 E4.80644
G1 X123.231 Y118.015 E4.8184
G1 X123.088 Y118.255 E4.82769
G1 X122.583 Y119.024 E4.85829
G1 X121.999 Y119.764 E4.88964
G1 X121.499 Y120.342 E4.91506
G1 X121.285 Y120.581 E4.92573
G1 X121.114 Y120.767 E4.93414
G1 X120.462 Y121.417 E4.96476
G1 X119.711 Y122.043 E4.99728
G1 X119.109 Y122.499 E5.02239
G1 X118.796 Y122.727 E5.03527
G1 X118.585 Y122.875 E5.04385
G1 X117.809 Y123.371 E5.07448
G1 X117.011 Y123.788 E5.10443
G1 X116.28 Y124.132 E5.1313
G1 X115.926 Y124.291 E5.1442
G1 X115.715 Y124.381 E5.15183
G1 X114.853 Y124.705 E5.18246
G1 X113.961 Y124.955 E5.21327
G1 X113.257 Y125.119 E5.23731
G1 X112.938 Y125.188 E5.24817
G1 X112.649 Y125.246 E5.25797
G1 X111.739 Y125.388 E5.28861
G1 X110.773 Y125.451 E5.3208
G1 X110.016 Y125.466 E5.34599
G1 X109.64 Y125.467 E5.35849
G1 X109.384 Y125.463 E5.36701
G1 X108.465 Y125.408 E5.39763
G1 X107.56 Y125.276 E5.42805
G1 X106.796 Y125.13 E5.45392
G1 X106.402 Y125.047 E5.46731
G1 X106.155 Y124.99 E5.47574
G1 X105.268 Y124.744 E5.50636
G1 X104.419 Y124.427 E5.5365
G1 X103.715 Y124.13 E5.56191
G1 X103.445 Y124.012 E5.57171
G1 X103.223 Y123.911 E5.57983
G1 X102.403 Y123.494 E5.61042
G1 X101.542 Y122.952 E5.64426
G1 X100.885 Y122.493 E5.67092
G1 X100.618 Y122.3 E5.68188
G1 X100.429 Y122.159 E5.68972
G1 X99.715 Y121.577 E5.72036
G1 X99.055 Y120.935 E5.75098
G1 X99.04 Y120.917 E5.75176
G1 X98.541 Y120.387 E5.77597
G1 X98.269 Y120.086 E5.78946
G1 X98.087 Y119.877 E5.79868
G1 X97.513 Y119.157 E5.82931
G1 X97.008 Y118.397 E5.85966
G1 X96.602 Y117.725 E5.88577
G1 X96.426 Y117.423 E5.8974
G1 X96.314 Y117.223 E5.90502
G1 X95.9 Y116.401 E5.93563
G1 X95.548 Y115.517 E5.96728
G1 X95.291 Y114.776 E5.99336
G1 X95.195 Y114.485 E6.00356
G1 X95.122 Y114.253 E6.01165
G1 X94.884 Y113.363 E6.04229
G1 X94.714 Y112.377 E6.07557
G1 X94.619 Y111.612 E6.10121
G1 X94.582 Y111.269 E6.11268
G1 X94.559 Y111.017 E6.1211
G1 X94.515 Y110.098 E6.1517
G1 X94.553 Y109.156 E6.18305
G1 X94.619 Y108.38 E6.20896
G1 X94.659 Y107.996 E6.2218
G1 X94.688 Y107.758 E6.22977
G1 X94.839 Y106.85 E6.26039
G1 X95.069 Y105.954 E6.29115
G1 X95.296 Y105.208 E6.31709
G1 X95.411 Y104.852 E6.32953
G1 X95.491 Y104.619 E6.33773
G1 X95.828 Y103.762 E6.36836
G1 X96.231 Y102.949 E6.39854
G1 X96.591 Y102.295 E6.42337
G1 X96.777 Y101.97 E6.43582
G1 X96.918 Y101.734 E6.44496
G1 X97.424 Y100.965 E6.47558
G1 X98.001 Y100.236 E6.5065
G1 X98.501 Y99.658 E6.53192
G1 X98.715 Y99.419 E6.54259
G1 X98.886 Y99.233 E6.551
G0 F6000 X99.18 Y99.504
G1 F1200 X99.82 Y98.867 E6.58103
G1 X100.53 Y98.276 E6.61175
G1 X101.132 Y97.82 E6.63687
G1 X101.434 Y97.6 E6.6493
G1 X101.645 Y97.452 E6.65787
G1 X102.406 Y96.967 E6.68789
G1 X103.159 Y96.574 E6.71614
G1 X103.89 Y96.23 E6.74301
G1 X104.231 Y96.077 E6.75544
G1 X104.442 Y95.987 E6.76307
G1 X105.288 Y95.67 E6.79312
G1 X106.13 Y95.435 E6.82219
G1 X106.834 Y95.271 E6.84623
G1 X107.141 Y95.204 E6.85669
G1 X107.43 Y95.146 E6.86649
G1 X108.322 Y95.008 E6.89651
G1 X109.235 Y94.949 E6.92694
G1 X109.992 Y94.934 E6.95212
G1 X110.353 Y94.933 E6.96413
G1 X110.609 Y94.937 E6.97265
G1 X111.511 Y94.991 E7.0027
G1 X112.365 Y95.117 E7.03141
G1 X113.129 Y95.263 E7.05728
G1 X113.508 Y95.343 E7.07017
G1 X113.755 Y95.4 E7.0786
G1 X114.625 Y95.642 E7.10863
G1 X115.426 Y95.941 E7.13707
G1 X116.13 Y96.238 E7.16248
G1 X116.389 Y96.352 E7.17189
G1 X116.611 Y96.453 E7.18001
G1 X117.416 Y96.863 E7.21005
G1 X118.229 Y97.375 E7.24201
G1 X118.886 Y97.834 E7.26867
G1 X119.143 Y98.02 E7.27922
G1 X119.332 Y98.161 E7.28706
G1 X120.031 Y98.733 E7.3171
G1 X120.677 Y99.364 E7.34714
G1 X120.696 Y99.386 E7.3481
G1 X121.167 Y99.887 E7.37097
G1 X121.429 Y100.177 E7.38397
G1 X121.611 Y100.386 E7.39319
G1 X122.174 Y101.092 E7.42322
G1 X122.649 Y101.809 E7.45183
G1 X123.055 Y102.481 E7.47794
G1 X123.225 Y102.772 E7.48915
G1 X123.337 Y102.972 E7.49678
G1 X123.743 Y103.779 E7.52682
G1 X124.074 Y104.614 E7.5567
G1 X124.331 Y105.355 E7.58278
G1 X124.424 Y105.635 E7.5926
G1 X124.497 Y105.867 E7.60069
G1 X124.729 Y106.74 E7.63073
G1 X124.889 Y107.672 E7.66218
G1 X124.984 Y108.437 E7.68782
G1 X125.02 Y108.767 E7.69886
G1 X125.043 Y109.019 E7.70728
G1 X125.085 Y109.921 E7.73731
G1 X125.048 Y110.813 E7.76701
G1 X124.983 Y111.575 E7.79244
G1 X124.948 Y111.919 E7.80394
G1 X124.918 Y112.17 E7.81235
G1 X124.771 Y113.061 E7.84239
G1 X124.55 Y113.923 E7.87198
G1 X124.331 Y114.644 E7.89705
G1 X124.229 Y114.961 E7.90812
G1 X124.141 Y115.22 E7.91722
G1 X123.813 Y116.062 E7.94727
G1 X123.417 Y116.86 E7.9769
G1 X123.059 Y117.51 E8.00159
G1 X122.887 Y117.81 E8.01309
G1 X122.744 Y118.05 E8.02238
G1 X122.248 Y118.805 E8.05242
G1 X121.696 Y119.502 E8.082
G1 X121.196 Y120.08 E8.10742
G1 X120.991 Y120.31 E8.11766
G1 X120.82 Y120.496 E8.12607
G1 X120.18 Y121.133 E8.1561
G1 X119.47 Y121.724 E8.18682
G1 X118.868 Y122.18 E8.21194
G1 X118.566 Y122.4 E8.22437
G1 X118.355 Y122.548 E8.23294
G1 X117.594 Y123.033 E8.26296
G1 X116.841 Y123.426 E8.29121
G1 X116.11 Y123.77 E8.31808
G1 X115.769 Y123.923 E8.33051
G1 X115.558 Y124.013 E8.33814
G1 X114.712 Y124.33 E8.36819
G1 X113.87 Y124.565 E8.39726
G1 X113.166 Y124.729 E8.42131
G1 X112.859 Y124.796 E8.43176
G1 X112.57 Y124.854 E8.44156
G1 X111.678 Y124.992 E8.47158
G1 X110.765 Y125.051 E8.50201
G1 X110.008 Y125.066 E8.52719
G1 X109.647 Y125.067 E8.5392
G1 X109.391 Y125.063 E8.54772
G1 X108.489 Y125.009 E8.57777
G1 X107.635 Y124.883 E8.60648
G1 X106.871 Y124.737 E8.63235
G1 X106.492 Y124.657 E8.64524
G1 X106.245 Y124.6 E8.65367
G1 X105.375 Y124.358 E8.6837
G1 X104.574 Y124.059 E8.71214
G1 X103.87 Y123.762 E8.73755
G1 X103.611 Y123.648 E8.74696
G1 X103.389 Y123.547 E8.75508
G1 X102.584 Y123.137 E8.78512
G1 X101.771 Y122.625 E8.81708
G1 X101.114 Y122.166 E8.84374
G1 X100.857 Y121.98 E8.85429
G1 X100.668 Y121.839 E8.86213
G1 X99.969 Y121.267 E8.89217
G1 X99.323 Y120.636 E8.92221
G1 X99.304 Y120.614 E8.92317
G1 X98.833 Y120.113 E8.94604
G1 X98.571 Y119.823 E8.95904
G1 X98.389 Y119.614 E8.96826
G1 X97.826 Y118.908 E8.99829
G1 X97.351 Y118.191 E9.0269
G1 X96.945 Y117.519 E9.05301
G1 X96.775 Y117.228 E9.06422
G1 X96.663 Y117.028 E9.07185
G1 X96.257 Y116.221 E9.10189
G1 X95.926 Y115.386 E9.13177
G1 X95.669 Y114.645 E9.15785
G1 X95.576 Y114.365 E9.16767
G1 X95.503 Y114.133 E9.17576
G1 X95.271 Y113.26 E9.2058
G1 X95.111 Y112.328 E9.23725
G1 X95.016 Y111.563 E9.26289
G1 X94.98 Y111.233 E9.27393
G1 X94.957 Y110.981 E9.28235
G1 X94.915 Y110.079 E9.31238
G1 X94.952 Y109.19 E9.34198
G1 X95.018 Y108.414 E9.36788
G1 X95.056 Y108.044 E9.38025
G1 X95.085 Y107.806 E9.38822
G1 X95.234 Y106.916 E9.41824
G1 X95.452 Y106.071 E9.44726
G1 X95.679 Y105.325 E9.4732
G1 X95.79 Y104.982 E9.48519
G1 X95.87 Y104.749 E9.49338
G1 X96.201 Y103.908 E9.52344
G1 X96.581 Y103.142 E9.55188
G1 X96.941 Y102.488 E9.57671
G1 X97.121 Y102.176 E9.58869
G1 X97.262 Y101.94 E9.59784
G1 X97.759 Y101.186 E9.62787
G1 X98.304 Y100.498 E9.65707
G1 X98.804 Y99.92 E9.68249
G1 X99.009 Y99.69 E9.69273
G1 X99.18 Y99.504 E9.70114
G1 F1500 E3.20114
;MESH:Roller_insert_490.stl
G0 F6000 X106.197 Y105.949
G0 X107.004 Y106.673
G0 X106.231 Y108.325
G0 X105.966 Y109.141
G0 X105.874 Y110
G0 X105.966 Y110.859
G0 X106.231 Y111.675
G0 X106.663 Y112.423
G0 X107.244 Y113.067
G0 X107.937 Y113.572
G0 X108.576 Y113.856
G0 X110.448 Y114.273
;TYPE:WALL-INNER
G1 F1500 E9.70114
G1 F1200 X109.552 Y114.273 E9.73094
G1 X108.671 Y114.086 E9.76089
G1 X107.852 Y113.721 E9.79071
G1 X107.127 Y113.194 E9.82053
G1 X106.524 Y112.525 E9.85048
G1 X106.074 Y111.744 E9.88046
G1 X105.798 Y110.896 E9.91012
G1 X105.703 Y110 E9.94009
G1 X105.798 Y109.104 E9.97006
G1 X106.074 Y108.256 E9.99972
G1 X106.524 Y107.475 E10.0297
G1 X107.127 Y106.806 E10.05965
G1 X107.852 Y106.279 E10.08947
G1 X108.671 Y105.914 E10.11929
G1 X109.552 Y105.727 E10.14924
G1 X110.448 Y105.727 E10.17904
G1 X111.329 Y105.914 E10.209
G1 X112.148 Y106.279 E10.23882
G1 X112.873 Y106.806 E10.26863
G1 X113.476 Y107.475 E10.29859
G1 X113.926 Y108.256 E10.32857
G1 X114.202 Y109.104 E10.35823
G1 X114.297 Y110 E10.3882
G1 X114.202 Y110.896 E10.41817
G1 X113.926 Y111.744 E10.44783
G1 X113.476 Y112.525 E10.47781
G1 X112.873 Y113.194 E10.50776
G1 X112.148 Y113.721 E10.53757
G1 X111.329 Y114.086 E10.5674
G1 X110.448 Y114.273 E10.59735
G0 F6000 X110.489 Y114.673
;TYPE:WALL-OUTER
G1 F1200 X109.511 Y114.673 E10.62988
G1 X108.547 Y114.468 E10.66266
G1 X107.652 Y114.07 E10.69524
G1 X106.856 Y113.491 E10.72798
G1 X106.197 Y112.76 E10.76071
G1 X105.708 Y111.911 E10.7933
G1 X105.404 Y110.978 E10.82593
G1 X105.301 Y110 E10.85864
G1 X105.404 Y109.022 E10.89135
G1 X105.708 Y108.089 E10.92399
G1 X106.197 Y107.24 E10.95657
G1 X106.856 Y106.509 E10.98931
G1 X107.652 Y105.93 E11.02205
G1 X108.547 Y105.532 E11.05463
G1 X109.511 Y105.327 E11.08741
G1 X110.489 Y105.327 E11.11993
