;FLAVOR:Marlin
;TIME:743
;Filament used: 0.270593m
;Layer height: 0.2
;MINX:94.165
;MINY:94.184
;MINZ:0.2
;MAXX:125.835
;MAXY:125.816
;MAXZ:19
;Generated with Cura_SteamEngine master
M140 S60
M105
M190 S60
M104 S200
M105
M109 S200
M82 ;absolute extrusion mode
; Ender 3 Custom Start G-code
G92 E0 ; Reset Extruder
G28 ; Home all axes
G1 Z2.0 F3000 ; Move Z Axis up little to prevent scratching of Heat Bed
G1 X0.1 Y20 Z0.3 F5000.0 ; Move to start position
G1 X0.1 Y200.0 Z0.3 F1500.0 E15 ; Draw the first line
G1 X0.4 Y200.0 Z0.3 F5000.0 ; Move to side a little
G1 X0.4 Y20 Z0.3 F1500.0 E30 ; Draw the second line
G92 E0 ; Reset Extruder
G1 Z2.0 F3000 ; Move Z Axis up little to prevent scratching of Heat Bed
G1 X5 Y20 Z0.3 F5000.0 ; Move over to prevent blob squish
G92 E0
G92 E0
G1 F1500 E-6.5
;LAYER_COUNT:95
;LAYER:0
M107
G0 F6000 X98.618 Y99.006 Z0.2
;TYPE:SKIRT
G1 F1500 E0
G1 F1200 X99.281 Y98.342 E0.03121
G1 X100.094 Y97.664 E0.06642
G1 X100.691 Y97.213 E0.0913
G1 X100.985 Y96.999 E0.1034
G1 X101.195 Y96.851 E0.11194
G1 X101.984 Y96.344 E0.14314
G1 X102.857 Y95.885 E0.17594
G1 X103.547 Y95.561 E0.2013
G1 X103.867 Y95.417 E0.21297
G1 X104.092 Y95.32 E0.22112
G1 X104.969 Y94.985 E0.25234
G1 X105.949 Y94.708 E0.28621
G1 X106.708 Y94.531 E0.31213
G1 X107.075 Y94.452 E0.32462
G1 X107.313 Y94.405 E0.33269
G1 X108.24 Y94.263 E0.36388
G1 X109.238 Y94.199 E0.39714
G1 X109.985 Y94.185 E0.42199
G1 X110.318 Y94.184 E0.43307
G1 X110.577 Y94.187 E0.44168
G1 X111.514 Y94.238 E0.47289
G1 X112.518 Y94.382 E0.50663
G1 X113.26 Y94.524 E0.53176
G1 X113.653 Y94.607 E0.54512
G1 X113.897 Y94.663 E0.55344
G1 X114.801 Y94.911 E0.58462
G1 X115.698 Y95.243 E0.61643
G1 X116.438 Y95.554 E0.64313
G1 X116.754 Y95.693 E0.65461
G1 X116.955 Y95.785 E0.66196
G1 X117.79 Y96.211 E0.69314
G1 X118.687 Y96.777 E0.72842
G1 X119.281 Y97.193 E0.75254
G1 X119.52 Y97.365 E0.76233
G1 X119.744 Y97.531 E0.77161
G1 X120.473 Y98.121 E0.8028
G1 X121.15 Y98.771 E0.83401
G1 X121.215 Y98.846 E0.83731
G1 X121.217 Y98.844 E0.83741
G1 X121.732 Y99.393 E0.86245
G1 X121.993 Y99.682 E0.8754
G1 X122.159 Y99.872 E0.88379
G1 X122.745 Y100.604 E0.91498
G1 X123.284 Y101.411 E0.94725
G1 X123.7 Y102.098 E0.97397
G1 X123.902 Y102.445 E0.98732
G1 X124.005 Y102.63 E0.99436
G1 X124.426 Y103.468 E1.02555
G1 X124.783 Y104.367 E1.05773
G1 X125.03 Y105.077 E1.08273
G1 X125.148 Y105.436 E1.0953
G1 X125.227 Y105.691 E1.10418
G1 X125.466 Y106.598 E1.13537
G1 X125.637 Y107.598 E1.16912
G1 X125.727 Y108.327 E1.19355
G1 X125.763 Y108.661 E1.20472
G1 X125.788 Y108.931 E1.21374
G1 X125.835 Y109.868 E1.24494
G1 X125.796 Y110.868 E1.27823
G1 X125.734 Y111.604 E1.30279
G1 X125.699 Y111.957 E1.31459
G1 X125.667 Y112.231 E1.32377
G1 X125.518 Y113.157 E1.35496
G1 X125.267 Y114.148 E1.38896
G1 X125.051 Y114.86 E1.41371
G1 X124.943 Y115.198 E1.42551
G1 X124.862 Y115.437 E1.43391
G1 X124.523 Y116.311 E1.46509
G1 X124.077 Y117.216 E1.49864
G1 X123.695 Y117.909 E1.52496
G1 X123.507 Y118.237 E1.53754
G1 X123.39 Y118.433 E1.54513
G1 X122.876 Y119.217 E1.57631
G1 X122.262 Y119.994 E1.60925
G1 X121.747 Y120.589 E1.63542
G1 X121.537 Y120.825 E1.64593
G1 X121.382 Y120.994 E1.65355
G1 X120.719 Y121.658 E1.68476
G1 X119.906 Y122.336 E1.71997
G1 X119.309 Y122.787 E1.74486
G1 X119.015 Y123.001 E1.75695
G1 X118.805 Y123.149 E1.7655
G1 X118.016 Y123.656 E1.79669
G1 X117.143 Y124.115 E1.8295
G1 X116.453 Y124.439 E1.85485
G1 X116.133 Y124.583 E1.86652
G1 X115.908 Y124.68 E1.87467
G1 X115.031 Y125.015 E1.9059
G1 X114.051 Y125.292 E1.93977
G1 X113.292 Y125.469 E1.96569
G1 X112.925 Y125.548 E1.97817
G1 X112.687 Y125.595 E1.98624
G1 X111.76 Y125.737 E2.01744
G1 X110.762 Y125.801 E2.0507
G1 X110.015 Y125.815 E2.07555
G1 X109.682 Y125.816 E2.08662
G1 X109.423 Y125.813 E2.09524
G1 X108.486 Y125.762 E2.12645
G1 X107.482 Y125.618 E2.16018
G1 X106.74 Y125.476 E2.18531
G1 X106.347 Y125.393 E2.19867
G1 X106.103 Y125.337 E2.207
G1 X105.199 Y125.089 E2.23817
G1 X104.302 Y124.757 E2.26999
G1 X103.562 Y124.446 E2.29668
G1 X103.246 Y124.307 E2.30817
G1 X103.045 Y124.215 E2.31552
G1 X102.21 Y123.789 E2.3467
G1 X101.314 Y123.224 E2.38193
G1 X100.717 Y122.806 E2.40617
G1 X100.471 Y122.628 E2.41627
G1 X100.25 Y122.464 E2.42542
G1 X99.521 Y121.874 E2.45661
G1 X98.846 Y121.224 E2.48778
G1 X98.785 Y121.154 E2.49087
G1 X98.783 Y121.156 E2.49096
G1 X98.268 Y120.607 E2.516
G1 X98.007 Y120.318 E2.52895
G1 X97.841 Y120.128 E2.53734
G1 X97.255 Y119.396 E2.56853
G1 X96.716 Y118.589 E2.60081
G1 X96.3 Y117.902 E2.62752
G1 X96.098 Y117.555 E2.64087
G1 X95.995 Y117.37 E2.64792
G1 X95.574 Y116.532 E2.67911
G1 X95.217 Y115.633 E2.71128
G1 X94.97 Y114.923 E2.73628
G1 X94.852 Y114.564 E2.74885
G1 X94.773 Y114.309 E2.75773
G1 X94.534 Y113.402 E2.78893
G1 X94.364 Y112.409 E2.82243
G1 X94.273 Y111.676 E2.847
G1 X94.234 Y111.309 E2.85928
G1 X94.21 Y111.043 E2.86816
G1 X94.165 Y110.107 E2.89933
G1 X94.205 Y109.123 E2.93208
G1 X94.27 Y108.359 E2.95758
G1 X94.305 Y108.008 E2.96932
G1 X94.334 Y107.761 E2.97759
G1 X94.483 Y106.835 E3.00878
G1 X94.735 Y105.842 E3.04286
G1 X94.955 Y105.119 E3.06799
G1 X95.062 Y104.787 E3.0796
G1 X95.139 Y104.56 E3.08757
G1 X95.478 Y103.686 E3.11875
G1 X95.918 Y102.792 E3.15189
G1 X96.302 Y102.094 E3.17839
G1 X96.508 Y101.737 E3.19209
G1 X96.622 Y101.547 E3.19946
G1 X97.138 Y100.764 E3.23065
G1 X97.738 Y100.006 E3.26281
G1 X98.254 Y99.41 E3.28903
G1 X98.463 Y99.175 E3.29949
G1 X98.618 Y99.006 E3.30711
G0 F6000 X98.913 Y99.276
G1 F1200 X99.564 Y98.625 E3.33773
G1 X100.336 Y97.983 E3.37113
G1 X100.933 Y97.532 E3.39602
G1 X101.216 Y97.326 E3.40766
G1 X101.426 Y97.178 E3.4162
G1 X102.201 Y96.68 E3.44684
G1 X103.027 Y96.247 E3.47786
G1 X103.717 Y95.923 E3.50321
G1 X104.026 Y95.784 E3.51448
G1 X104.251 Y95.687 E3.52263
G1 X105.111 Y95.36 E3.55324
G1 X106.04 Y95.098 E3.58534
G1 X106.799 Y94.921 E3.61126
G1 X107.152 Y94.845 E3.62327
G1 X107.39 Y94.798 E3.63134
G1 X108.3 Y94.659 E3.66196
G1 X109.245 Y94.599 E3.69345
G1 X109.992 Y94.585 E3.7183
G1 X110.314 Y94.584 E3.72901
G1 X110.573 Y94.587 E3.73763
G1 X111.492 Y94.637 E3.76824
G1 X112.442 Y94.775 E3.80017
G1 X113.184 Y94.917 E3.82529
G1 X113.563 Y94.997 E3.83818
G1 X113.807 Y95.053 E3.8465
G1 X114.695 Y95.297 E3.87713
G1 X115.543 Y95.612 E3.90722
G1 X116.283 Y95.923 E3.93392
G1 X116.588 Y96.057 E3.945
G1 X116.789 Y96.149 E3.95235
G1 X117.608 Y96.568 E3.98295
G1 X118.458 Y97.105 E4.01639
G1 X119.052 Y97.521 E4.04051
G1 X119.282 Y97.687 E4.04994
G1 X119.506 Y97.853 E4.05922
G1 X120.221 Y98.432 E4.08982
G1 X120.884 Y99.072 E4.12047
G1 X120.924 Y99.119 E4.12252
G1 X120.925 Y99.118 E4.12256
G1 X121.44 Y99.667 E4.1476
G1 X121.692 Y99.945 E4.16008
G1 X121.858 Y100.135 E4.16847
G1 X122.433 Y100.854 E4.19909
G1 X122.942 Y101.619 E4.22965
G1 X123.358 Y102.306 E4.25637
G1 X123.552 Y102.64 E4.26921
G1 X123.655 Y102.825 E4.27626
G1 X124.068 Y103.648 E4.30688
G1 X124.405 Y104.498 E4.3373
G1 X124.652 Y105.208 E4.3623
G1 X124.766 Y105.554 E4.37441
G1 X124.845 Y105.809 E4.38329
G1 X125.079 Y106.7 E4.41393
G1 X125.24 Y107.647 E4.44588
G1 X125.33 Y108.376 E4.47031
G1 X125.365 Y108.698 E4.48109
G1 X125.39 Y108.968 E4.4901
G1 X125.435 Y109.887 E4.52071
G1 X125.398 Y110.835 E4.55226
G1 X125.336 Y111.571 E4.57683
G1 X125.301 Y111.911 E4.5882
G1 X125.269 Y112.185 E4.59737
G1 X125.123 Y113.094 E4.62799
G1 X124.884 Y114.032 E4.66019
G1 X124.668 Y114.744 E4.68493
G1 X124.564 Y115.069 E4.69628
G1 X124.483 Y115.308 E4.70468
G1 X124.15 Y116.167 E4.73532
G1 X123.727 Y117.023 E4.76708
G1 X123.345 Y117.716 E4.7934
G1 X123.164 Y118.032 E4.80551
G1 X123.047 Y118.228 E4.8131
G1 X122.541 Y118.997 E4.84372
G1 X121.96 Y119.732 E4.87488
G1 X121.445 Y120.327 E4.90105
G1 X121.242 Y120.555 E4.91121
G1 X121.087 Y120.724 E4.91883
G1 X120.436 Y121.375 E4.94945
G1 X119.664 Y122.017 E4.98285
G1 X119.067 Y122.468 E5.00773
G1 X118.784 Y122.674 E5.01938
G1 X118.574 Y122.822 E5.02792
G1 X117.799 Y123.32 E5.05856
G1 X116.973 Y123.753 E5.08958
G1 X116.283 Y124.077 E5.11493
G1 X115.974 Y124.216 E5.1262
G1 X115.749 Y124.313 E5.13435
G1 X114.889 Y124.64 E5.16495
G1 X113.96 Y124.902 E5.19706
G1 X113.201 Y125.079 E5.22298
G1 X112.848 Y125.155 E5.23499
G1 X112.61 Y125.202 E5.24306
G1 X111.7 Y125.341 E5.27368
G1 X110.755 Y125.401 E5.30517
G1 X110.008 Y125.415 E5.33002
G1 X109.686 Y125.416 E5.34073
G1 X109.427 Y125.413 E5.34934
G1 X108.508 Y125.363 E5.37996
G1 X107.558 Y125.225 E5.41188
G1 X106.816 Y125.083 E5.43701
G1 X106.437 Y125.003 E5.44989
G1 X106.193 Y124.947 E5.45822
G1 X105.305 Y124.703 E5.48885
G1 X104.457 Y124.388 E5.51894
G1 X103.717 Y124.077 E5.54564
G1 X103.412 Y123.943 E5.55672
G1 X103.211 Y123.851 E5.56407
G1 X102.392 Y123.432 E5.59467
G1 X101.543 Y122.896 E5.62806
G1 X100.946 Y122.478 E5.6523
G1 X100.709 Y122.307 E5.66202
G1 X100.488 Y122.143 E5.67117
G1 X99.773 Y121.563 E5.7018
G1 X99.112 Y120.923 E5.7324
G1 X99.076 Y120.881 E5.73424
G1 X99.075 Y120.882 E5.73428
G1 X98.56 Y120.333 E5.75932
G1 X98.308 Y120.055 E5.7718
G1 X98.142 Y119.865 E5.78019
G1 X97.567 Y119.146 E5.81081
G1 X97.058 Y118.381 E5.84137
G1 X96.642 Y117.694 E5.86809
G1 X96.448 Y117.36 E5.88093
G1 X96.345 Y117.175 E5.88798
G1 X95.932 Y116.352 E5.9186
G1 X95.595 Y115.502 E5.94901
G1 X95.348 Y114.792 E5.97402
G1 X95.234 Y114.446 E5.98613
G1 X95.155 Y114.191 E5.99501
G1 X94.921 Y113.3 E6.02565
G1 X94.761 Y112.36 E6.05737
G1 X94.67 Y111.627 E6.08193
G1 X94.632 Y111.274 E6.09374
G1 X94.608 Y111.008 E6.10263
G1 X94.565 Y110.088 E6.13326
G1 X94.603 Y109.156 E6.16428
G1 X94.668 Y108.392 E6.18979
G1 X94.702 Y108.055 E6.20105
G1 X94.731 Y107.808 E6.20932
G1 X94.878 Y106.899 E6.23995
G1 X95.118 Y105.958 E6.27225
G1 X95.338 Y105.235 E6.29738
G1 X95.441 Y104.916 E6.30853
G1 X95.518 Y104.689 E6.31651
G1 X95.851 Y103.831 E6.34712
G1 X96.269 Y102.985 E6.3785
G1 X96.653 Y102.287 E6.405
G1 X96.851 Y101.942 E6.41823
G1 X96.965 Y101.752 E6.4256
G1 X97.472 Y100.984 E6.45621
G1 X98.04 Y100.268 E6.4866
G1 X98.556 Y99.672 E6.51282
G1 X98.758 Y99.445 E6.52293
G1 X98.913 Y99.276 E6.53056
G0 F6000 X99.208 Y99.547
G1 F1200 X99.847 Y98.909 E6.56059
G1 X100.577 Y98.302 E6.59217
G1 X101.174 Y97.851 E6.61705
G1 X101.446 Y97.653 E6.62824
G1 X101.656 Y97.505 E6.63679
G1 X102.417 Y97.017 E6.66686
G1 X103.197 Y96.609 E6.69613
G1 X103.887 Y96.285 E6.72149
G1 X104.184 Y96.151 E6.73233
G1 X104.409 Y96.054 E6.74047
G1 X105.253 Y95.734 E6.7705
G1 X106.13 Y95.488 E6.80079
G1 X106.889 Y95.311 E6.82671
G1 X107.23 Y95.237 E6.83832
G1 X107.468 Y95.19 E6.84639
G1 X108.361 Y95.055 E6.87643
G1 X109.253 Y94.999 E6.90615
G1 X110 Y94.985 E6.931
G1 X110.309 Y94.984 E6.94128
G1 X110.568 Y94.987 E6.94989
G1 X111.47 Y95.037 E6.97994
G1 X112.367 Y95.168 E7.01009
G1 X113.109 Y95.31 E7.03522
G1 X113.474 Y95.386 E7.04762
G1 X113.718 Y95.442 E7.05595
G1 X114.588 Y95.683 E7.08597
G1 X115.388 Y95.981 E7.11437
G1 X116.128 Y96.292 E7.14106
G1 X116.421 Y96.42 E7.1517
G1 X116.622 Y96.512 E7.15905
G1 X117.426 Y96.924 E7.1891
G1 X118.228 Y97.432 E7.22067
G1 X118.822 Y97.848 E7.24479
G1 X119.044 Y98.008 E7.2539
G1 X119.268 Y98.174 E7.26317
G1 X119.969 Y98.743 E7.2932
G1 X120.617 Y99.372 E7.32323
G1 X120.649 Y99.409 E7.32486
G1 X121.148 Y99.941 E7.34912
G1 X121.39 Y100.208 E7.36111
G1 X121.556 Y100.398 E7.3695
G1 X122.12 Y101.104 E7.39955
G1 X122.6 Y101.826 E7.42839
G1 X123.016 Y102.513 E7.4551
G1 X123.203 Y102.834 E7.46746
G1 X123.306 Y103.019 E7.4745
G1 X123.71 Y103.827 E7.50455
G1 X124.028 Y104.63 E7.53327
G1 X124.275 Y105.34 E7.55827
G1 X124.384 Y105.673 E7.56993
G1 X124.463 Y105.928 E7.57881
G1 X124.692 Y106.801 E7.60883
G1 X124.843 Y107.696 E7.63901
G1 X124.933 Y108.425 E7.66345
G1 X124.967 Y108.735 E7.67382
G1 X124.992 Y109.005 E7.68284
G1 X125.035 Y109.907 E7.71287
G1 X124.999 Y110.801 E7.74263
G1 X124.937 Y111.537 E7.7672
G1 X124.904 Y111.864 E7.77813
G1 X124.872 Y112.138 E7.7873
G1 X124.728 Y113.03 E7.81735
G1 X124.502 Y113.916 E7.84777
G1 X124.286 Y114.628 E7.87251
G1 X124.185 Y114.941 E7.88345
G1 X124.104 Y115.18 E7.89185
G1 X123.777 Y116.022 E7.92189
G1 X123.377 Y116.83 E7.95188
G1 X122.995 Y117.523 E7.9782
G1 X122.82 Y117.827 E7.98986
G1 X122.703 Y118.023 E7.99745
G1 X122.206 Y118.777 E8.02749
G1 X121.657 Y119.47 E8.0569
G1 X121.142 Y120.065 E8.08307
G1 X120.947 Y120.284 E8.09282
G1 X120.792 Y120.453 E8.10045
G1 X120.153 Y121.091 E8.13048
G1 X119.423 Y121.698 E8.16206
G1 X118.826 Y122.149 E8.18694
G1 X118.554 Y122.347 E8.19813
G1 X118.344 Y122.495 E8.20668
G1 X117.583 Y122.983 E8.23675
G1 X116.803 Y123.391 E8.26602
G1 X116.113 Y123.715 E8.29138
G1 X115.816 Y123.849 E8.30222
G1 X115.591 Y123.946 E8.31036
G1 X114.747 Y124.266 E8.34039
G1 X113.87 Y124.512 E8.37068
G1 X113.111 Y124.689 E8.3966
G1 X112.77 Y124.763 E8.40821
G1 X112.532 Y124.81 E8.41628
G1 X111.639 Y124.945 E8.44632
G1 X110.747 Y125.001 E8.47604
G1 X110 Y125.015 E8.50089
G1 X109.691 Y125.016 E8.51117
G1 X109.432 Y125.013 E8.51979
G1 X108.53 Y124.963 E8.54983
G1 X107.633 Y124.832 E8.57998
G1 X106.891 Y124.69 E8.60511
G1 X106.526 Y124.614 E8.61751
G1 X106.282 Y124.558 E8.62584
G1 X105.412 Y124.317 E8.65586
G1 X104.612 Y124.019 E8.68426
G1 X103.872 Y123.708 E8.71095
G1 X103.579 Y123.58 E8.72159
G1 X103.378 Y123.488 E8.72894
G1 X102.574 Y123.076 E8.75899
G1 X101.773 Y122.569 E8.79052
G1 X101.176 Y122.151 E8.81476
G1 X100.948 Y121.986 E8.82412
G1 X100.727 Y121.822 E8.83327
G1 X100.026 Y121.252 E8.86332
G1 X99.378 Y120.623 E8.89336
G1 X99.344 Y120.584 E8.89508
G1 X98.852 Y120.059 E8.91901
G1 X98.61 Y119.792 E8.931
G1 X98.444 Y119.602 E8.93939
G1 X97.88 Y118.896 E8.96944
G1 X97.4 Y118.174 E8.99828
G1 X96.984 Y117.487 E9.02499
G1 X96.797 Y117.166 E9.03735
G1 X96.694 Y116.981 E9.04439
G1 X96.29 Y116.173 E9.07444
G1 X95.972 Y115.37 E9.10316
G1 X95.725 Y114.66 E9.12816
G1 X95.616 Y114.327 E9.13982
G1 X95.537 Y114.072 E9.1487
G1 X95.308 Y113.199 E9.17872
G1 X95.158 Y112.311 E9.20867
G1 X95.067 Y111.578 E9.23324
G1 X95.03 Y111.238 E9.24461
G1 X95.006 Y110.972 E9.25349
G1 X94.965 Y110.069 E9.28356
G1 X95.002 Y109.19 E9.31282
G1 X95.067 Y108.426 E9.33832
G1 X95.1 Y108.102 E9.34916
G1 X95.129 Y107.855 E9.35743
G1 X95.273 Y106.963 E9.38748
G1 X95.501 Y106.075 E9.41797
G1 X95.721 Y105.352 E9.44311
G1 X95.82 Y105.044 E9.45387
G1 X95.897 Y104.817 E9.46184
G1 X96.224 Y103.976 E9.49185
G1 X96.619 Y103.177 E9.5215
G1 X97.003 Y102.479 E9.54799
G1 X97.194 Y102.148 E9.5607
G1 X97.308 Y101.958 E9.56807
G1 X97.806 Y101.205 E9.5981
G1 X98.343 Y100.53 E9.62679
G1 X98.859 Y99.934 E9.65301
G1 X99.053 Y99.716 E9.66272
G1 X99.208 Y99.547 E9.67034
G1 F1500 E3.17034
;MESH:Roller_insert_485.stl
G0 F6000 X106.233 Y105.984
G0 X107.038 Y106.71
G0 X106.277 Y108.341
G0 X106.015 Y109.151
G0 X105.924 Y110
G0 X106.015 Y110.849
G0 X106.277 Y111.659
G0 X106.7 Y112.39
G0 X107.273 Y113.025
G0 X107.966 Y113.53
G0 X108.595 Y113.81
G0 X110.444 Y114.223
;TYPE:WALL-INNER
G1 F1500 E9.67034
G1 F1200 X109.556 Y114.223 E9.69988
G1 X108.687 Y114.039 E9.72942
G1 X107.88 Y113.679 E9.75881
G1 X107.158 Y113.154 E9.7885
G1 X106.561 Y112.492 E9.81815
G1 X106.12 Y111.728 E9.84749
G1 X105.847 Y110.886 E9.87693
G1 X105.753 Y110 E9.90657
G1 X105.847 Y109.114 E9.9362
G1 X106.12 Y108.272 E9.96564
G1 X106.561 Y107.508 E9.99498
G1 X107.158 Y106.846 E10.02463
G1 X107.88 Y106.321 E10.05432
G1 X108.687 Y105.961 E10.08371
G1 X109.556 Y105.777 E10.11326
G1 X110.444 Y105.777 E10.14279
G1 X111.313 Y105.961 E10.17234
G1 X112.12 Y106.321 E10.20173
G1 X112.842 Y106.846 E10.23142
G1 X113.439 Y107.508 E10.26107
G1 X113.88 Y108.272 E10.29041
G1 X114.153 Y109.114 E10.31985
G1 X114.247 Y110 E10.34948
G1 X114.153 Y110.886 E10.37911
G1 X113.88 Y111.728 E10.40855
G1 X113.439 Y112.492 E10.43789
G1 X112.842 Y113.154 E10.46754
G1 X112.12 Y113.679 E10.49724
G1 X111.313 Y114.039 E10.52663
G1 X110.444 Y114.223 E10.55617
G0 F6000 X110.485 Y114.623
;TYPE:WALL-OUTER
G1 F1200 X109.515 Y114.623 E10.58843
G1 X108.563 Y114.421 E10.6208
G1 X107.677 Y114.026 E10.65306
G1 X106.89 Y113.454 E10.68542
G1 X106.237 Y112.73 E10.71785
G1 X105.753 Y111.891 E10.75007
G1 X105.453 Y110.967 E10.78238
G1 X105.351 Y110 E10.81472
G1 X105.453 Y109.033 E10.84706
G1 X105.753 Y108.109 E10.87937
G1 X106.237 Y107.27 E10.91159
G1 X106.89 Y106.546 E10.94402
