;FLAVOR:Marlin
;TIME:6278
;Filament used: 2.27163m
;Layer height: 0.12
;MINX:66.958
;MINY:62.049
;MINZ:0.12
;MAXX:153.042
;MAXY:157.951
;MAXZ:4.8
;Generated with Cura_SteamEngine master
M140 S60
M105
M190 S60
M104 S200
M105
M109 S200
M82 ;absolute extrusion mode
; Ender 3 Custom Start G-code
G92 E0 ; Reset Extruder
G28 ; Home all axes
G1 Z2.0 F3000 ; Move Z Axis up little to prevent scratching of Heat Bed
G1 X0.1 Y20 Z0.3 F5000.0 ; Move to start position
G1 X0.1 Y200.0 Z0.3 F1500.0 E15 ; Draw the first line
G1 X0.4 Y200.0 Z0.3 F5000.0 ; Move to side a little
G1 X0.4 Y20 Z0.3 F1500.0 E30 ; Draw the second line
G92 E0 ; Reset Extruder
G1 Z2.0 F3000 ; Move Z Axis up little to prevent scratching of Heat Bed
G1 X5 Y20 Z0.3 F5000.0 ; Move over to prevent blob squish
G92 E0
G92 E0
G1 F1500 E-6.5
;LAYER_COUNT:41
;LAYER:0
M107
G0 F6000 X70.875 Y83.152 Z0.12
;TYPE:SKIRT
G1 F1500 E0
G1 F1200 X71.616 Y82.577 E0.01872
G1 X72.353 Y82.096 E0.03628
G1 X72.98 Y81.722 E0.05085
G1 X88.499 Y72.76 E0.40848
G1 X104.061 Y63.778 E0.76705
G1 X104.649 Y63.449 E0.7805
G1 X105.486 Y63.027 E0.7992
G1 X106.356 Y62.677 E0.81792
G1 X107.253 Y62.403 E0.83664
G1 X108.17 Y62.206 E0.85535
G1 X109.1 Y62.088 E0.87406
G1 X110.038 Y62.049 E0.8928
G1 X110.974 Y62.09 E0.91149
G1 X111.905 Y62.212 E0.93023
G1 X112.821 Y62.412 E0.94894
G1 X113.717 Y62.689 E0.96766
G1 X114.586 Y63.041 E0.98637
G1 X115.068 Y63.276 E0.99707
G1 X115.437 Y63.473 E1.00542
G1 X116.156 Y63.876 E1.02186
G1 X147.087 Y81.712 E1.7344
G1 X147.661 Y82.054 E1.74773
G1 X148.446 Y82.568 E1.76646
G1 X149.184 Y83.147 E1.78517
G1 X149.87 Y83.787 E1.8039
G1 X150.499 Y84.483 E1.82262
G1 X151.066 Y85.229 E1.84132
G1 X151.568 Y86.022 E1.86005
G1 X152 Y86.854 E1.87876
G1 X152.36 Y87.72 E1.89747
G1 X152.644 Y88.614 E1.91619
G1 X152.852 Y89.528 E1.9349
G1 X152.981 Y90.457 E1.95361
G1 X153.03 Y91.339 E1.97124
G1 X153.041 Y92.072 E1.98587
G1 X153.042 Y92.243 E1.98928
G1 X153.021 Y127.902 E2.7009
G1 X153.011 Y128.613 E2.71509
G1 X152.958 Y129.549 E2.7338
G1 X152.825 Y130.477 E2.75251
G1 X152.614 Y131.391 E2.77123
G1 X152.325 Y132.284 E2.78996
G1 X151.962 Y133.148 E2.80866
G1 X151.526 Y133.979 E2.82739
G1 X151.021 Y134.769 E2.8461
G1 X150.451 Y135.514 E2.86482
G1 X149.819 Y136.207 E2.88353
G1 X149.131 Y136.844 E2.90224
G1 X148.391 Y137.42 E2.92096
G1 X147.643 Y137.907 E2.93877
G1 X146.923 Y138.335 E2.95549
G1 X115.924 Y156.23 E3.66978
G1 X115.344 Y156.554 E3.68304
G1 X114.506 Y156.976 E3.70176
G1 X113.636 Y157.325 E3.72047
G1 X112.739 Y157.599 E3.73919
G1 X111.821 Y157.796 E3.75792
G1 X110.891 Y157.913 E3.77663
G1 X109.954 Y157.951 E3.79534
G1 X109.017 Y157.909 E3.81406
G1 X108.087 Y157.787 E3.83278
G1 X107.171 Y157.587 E3.85149
G1 X106.275 Y157.309 E3.87021
G1 X105.406 Y156.956 E3.88893
G1 X104.64 Y156.568 E3.90607
G1 X103.913 Y156.163 E3.92267
G1 X72.917 Y138.29 E4.6367
G1 X72.344 Y137.949 E4.65
G1 X71.559 Y137.435 E4.66873
G1 X70.821 Y136.857 E4.68744
G1 X70.134 Y136.217 E4.70617
G1 X69.505 Y135.522 E4.72488
G1 X68.937 Y134.775 E4.74361
G1 X68.435 Y133.983 E4.76232
G1 X68.003 Y133.151 E4.78103
G1 X67.642 Y132.285 E4.79975
G1 X67.357 Y131.392 E4.81846
G1 X67.149 Y130.477 E4.83718
G1 X67.019 Y129.548 E4.8559
G1 X66.97 Y128.654 E4.87377
G1 X66.959 Y127.886 E4.8891
G1 X66.958 Y127.722 E4.89237
G1 X66.979 Y92.058 E5.60409
G1 X66.989 Y91.381 E5.6176
G1 X67.043 Y90.444 E5.63633
G1 X67.176 Y89.516 E5.65504
G1 X67.388 Y88.602 E5.67376
G1 X67.677 Y87.71 E5.69247
G1 X68.041 Y86.846 E5.71118
G1 X68.478 Y86.015 E5.72992
G1 X68.983 Y85.225 E5.74863
G1 X69.554 Y84.481 E5.76734
G1 X70.186 Y83.789 E5.78605
G1 X70.875 Y83.152 E5.80477
G0 F6000 X71.264 Y83.349
G1 F1200 X72 Y82.796 E5.82314
G1 X72.558 Y82.44 E5.83635
G1 X73.315 Y81.989 E5.85394
G1 X104.133 Y64.198 E6.56407
G1 X104.844 Y63.799 E6.58034
G1 X105.666 Y63.384 E6.59871
G1 X106.521 Y63.043 E6.61708
G1 X107.403 Y62.777 E6.63547
G1 X108.304 Y62.589 E6.65384
G1 X109.218 Y62.479 E6.67221
G1 X110.138 Y62.45 E6.69058
G1 X111.058 Y62.5 E6.70896
G1 X111.969 Y62.63 E6.72733
G1 X112.866 Y62.838 E6.7457
G1 X113.741 Y63.124 E6.76407
G1 X114.837 Y63.607 E6.78797
G1 X115.242 Y63.822 E6.79713
G1 X115.956 Y64.222 E6.81346
G1 X146.752 Y81.979 E7.52287
G1 X147.457 Y82.398 E7.53923
G1 X148.226 Y82.903 E7.55759
G1 X148.949 Y83.473 E7.57597
G1 X149.62 Y84.104 E7.59435
G1 X150.234 Y84.79 E7.61272
G1 X150.785 Y85.527 E7.63108
G1 X151.271 Y86.309 E7.64946
G1 X151.687 Y87.131 E7.66784
G1 X152.03 Y87.985 E7.68621
G1 X152.297 Y88.866 E7.70458
G1 X152.488 Y89.767 E7.72296
G1 X152.599 Y90.681 E7.74133
G1 X152.63 Y91.345 E7.7546
G1 X152.641 Y92.078 E7.76923
G1 X152.642 Y92.243 E7.77252
G1 X152.621 Y127.896 E8.48402
G1 X152.611 Y128.607 E8.49821
G1 X152.558 Y129.526 E8.51658
G1 X152.426 Y130.437 E8.53495
G1 X152.215 Y131.333 E8.55332
G1 X151.927 Y132.208 E8.5717
G1 X151.564 Y133.054 E8.59007
G1 X151.129 Y133.866 E8.60845
G1 X150.625 Y134.636 E8.62682
G1 X150.057 Y135.36 E8.64518
G1 X149.427 Y136.032 E8.66356
G1 X148.742 Y136.647 E8.68194
G1 X148.006 Y137.2 E8.70031
G1 X147.438 Y137.564 E8.71377
G1 X146.723 Y137.989 E8.73037
G1 X115.859 Y155.807 E9.44156
G1 X115.148 Y156.205 E9.45782
G1 X114.326 Y156.619 E9.47619
G1 X113.471 Y156.959 E9.49455
G1 X112.589 Y157.225 E9.51294
G1 X111.688 Y157.412 E9.5313
G1 X110.774 Y157.521 E9.54967
G1 X109.853 Y157.55 E9.56806
G1 X108.934 Y157.499 E9.58643
G1 X108.023 Y157.369 E9.60479
G1 X107.126 Y157.16 E9.62317
G1 X106.251 Y156.874 E9.64154
G1 X105.404 Y156.513 E9.65992
G1 X104.834 Y156.219 E9.67271
G1 X104.263 Y155.902 E9.68575
G1 X104.113 Y155.817 E9.68919
G1 X73.247 Y138.02 E10.40021
G1 X72.548 Y137.605 E10.41643
G1 X71.778 Y137.1 E10.43481
G1 X71.055 Y136.531 E10.45317
G1 X70.384 Y135.9 E10.47155
G1 X69.77 Y135.214 E10.48992
G1 X69.218 Y134.477 E10.5083
G1 X68.732 Y133.696 E10.52665
G1 X68.316 Y132.874 E10.54504
G1 X67.972 Y132.02 E10.56341
G1 X67.704 Y131.139 E10.58179
G1 X67.513 Y130.239 E10.60015
G1 X67.401 Y129.325 E10.61853
G1 X67.37 Y128.648 E10.63205
G1 X67.359 Y127.88 E10.64738
G1 X67.358 Y127.722 E10.65053
G1 X67.379 Y92.063 E11.36215
G1 X67.389 Y91.386 E11.37566
G1 X67.443 Y90.467 E11.39403
G1 X67.576 Y89.556 E11.4124
G1 X67.787 Y88.66 E11.43077
G1 X68.076 Y87.786 E11.44914
G1 X68.439 Y86.94 E11.46751
G1 X68.875 Y86.129 E11.48589
G1 X69.379 Y85.359 E11.50425
G1 X69.948 Y84.635 E11.52263
G1 X70.578 Y83.963 E11.54101
G1 X71.264 Y83.349 E11.55938
G0 F6000 X71.651 Y83.55
G1 F1200 X72.763 Y82.783 E11.58634
G1 X73.39 Y82.409 E11.60091
G1 X88.899 Y73.453 E11.95831
G1 X104.451 Y64.477 E12.31665
G1 X105.039 Y64.148 E12.33009
G1 X105.846 Y63.742 E12.34812
G1 X106.686 Y63.409 E12.36615
G1 X107.552 Y63.152 E12.38418
G1 X108.437 Y62.973 E12.4022
G1 X109.334 Y62.872 E12.42021
G1 X110.237 Y62.851 E12.43824
G1 X111.138 Y62.91 E12.45626
G1 X112.031 Y63.049 E12.47429
G1 X112.907 Y63.266 E12.4923
G1 X113.761 Y63.56 E12.51033
G1 X114.656 Y63.963 E12.52992
G1 X115.047 Y64.171 E12.53875
G1 X115.639 Y64.502 E12.55229
G1 X146.678 Y82.399 E13.2673
G1 X147.252 Y82.741 E13.28063
G1 X148.007 Y83.238 E13.29867
G1 X148.714 Y83.799 E13.31668
G1 X149.37 Y84.42 E13.33471
G1 X149.967 Y85.097 E13.35272
G1 X150.503 Y85.824 E13.37074
G1 X150.972 Y86.596 E13.38877
G1 X151.371 Y87.406 E13.40679
G1 X151.697 Y88.248 E13.42481
G1 X151.947 Y89.116 E13.44283
G1 X152.12 Y90.002 E13.46085
G1 X152.23 Y91.351 E13.48786
G1 X152.241 Y92.084 E13.50249
G1 X152.242 Y92.243 E13.50566
G1 X152.221 Y127.89 E14.21704
G1 X152.211 Y128.601 E14.23123
G1 X152.158 Y129.503 E14.24926
G1 X152.026 Y130.396 E14.26727
G1 X151.815 Y131.275 E14.28531
G1 X151.528 Y132.131 E14.30333
G1 X151.166 Y132.958 E14.32134
G1 X150.732 Y133.75 E14.33937
G1 X150.23 Y134.501 E14.35739
G1 X149.663 Y135.204 E14.37542
G1 X149.036 Y135.854 E14.39344
G1 X148.354 Y136.446 E14.41146
G1 X147.623 Y136.976 E14.42948
G1 X147.234 Y137.22 E14.43865
G1 X146.523 Y137.643 E14.45516
G1 X115.659 Y155.461 E15.16635
G1 X114.953 Y155.856 E15.18249
G1 X114.146 Y156.261 E15.20051
G1 X113.306 Y156.593 E15.21854
G1 X112.441 Y156.85 E15.23655
G1 X111.555 Y157.028 E15.25458
G1 X110.658 Y157.128 E15.27259
G1 X109.755 Y157.149 E15.29062
G1 X108.854 Y157.089 E15.30864
G1 X107.961 Y156.949 E15.32668
G1 X107.085 Y156.732 E15.34469
G1 X106.231 Y156.438 E15.36271
G1 X105.028 Y155.869 E15.38927
G1 X104.457 Y155.552 E15.4023
G1 X73.447 Y137.673 E16.11663
G1 X72.753 Y137.261 E16.13273
G1 X71.998 Y136.766 E16.15075
G1 X71.29 Y136.205 E16.16878
G1 X70.634 Y135.584 E16.1868
G1 X70.036 Y134.907 E16.20483
G1 X69.5 Y134.18 E16.22285
G1 X69.03 Y133.409 E16.24087
G1 X68.631 Y132.599 E16.25889
G1 X68.304 Y131.757 E16.27692
G1 X68.054 Y130.889 E16.29494
G1 X67.881 Y130.003 E16.31296
G1 X67.787 Y129.105 E16.33098
G1 X67.77 Y128.642 E16.34022
G1 X67.758 Y127.722 E16.35858
G1 X67.779 Y92.069 E17.07008
G1 X67.789 Y91.392 E17.08359
G1 X67.842 Y90.491 E17.1016
G1 X67.975 Y89.598 E17.11962
G1 X68.187 Y88.72 E17.13764
G1 X68.475 Y87.864 E17.15567
G1 X68.837 Y87.037 E17.17368
G1 X69.272 Y86.245 E17.19172
G1 X69.775 Y85.495 E17.20974
G1 X70.342 Y84.792 E17.22776
G1 X70.969 Y84.142 E17.24578
G1 X71.651 Y83.55 E17.26381
G1 F1500 E10.76381
;MESH:harbor_water.stl
G0 F6000 X77.856 Y90.841
G0 X78.398 Y91.778
G0 X78.734 Y128.053
G0 X109.979 Y146.27
;TYPE:WALL-INNER
G1 F1500 E17.26381
G1 F1200 X78.558 Y128.154 E17.9876
G1 X78.578 Y91.883 E18.71143
G1 X94.298 Y82.806 E19.07368
G1 X110.021 Y73.73 E19.43597
G1 X141.442 Y91.846 E20.15977
G1 X141.422 Y128.117 E20.88359
G1 X109.979 Y146.27 E21.60814
G0 F6000 X109.978 Y146.732
;TYPE:WALL-OUTER
G1 F1200 X78.158 Y128.386 E22.34112
G1 X78.178 Y91.652 E23.07419
G1 X94.098 Y82.46 E23.44105
G1 X110.021 Y73.269 E23.80794
G1 X110.562 Y73.579 E23.82039
G1 X141.842 Y91.614 E24.54094
G1 X141.822 Y128.348 E25.274
G1 X109.978 Y146.732 E26.00778
G0 F6000 X109.95 Y146.241
G0 X109.979 Y145.819
;TYPE:SKIN
G1 F1200 X78.948 Y127.929 E26.72258
G1 X78.968 Y92.108 E27.43743
G1 X94.493 Y83.144 E27.79518
G1 X110.021 Y74.181 E28.15298
G1 X141.052 Y92.071 E28.86778
G1 X141.032 Y127.892 E29.58262
G1 X109.979 Y145.819 E30.29817
G1 F1500 E23.79817
G0 F6000 X109.839 Y146.061
G0 X78.734 Y128.053
G0 X78.669 Y127.756
G0 X79.108 Y127.757
G1 F1500 E30.29817
G1 F1200 X79.294 Y127.943 E30.30342
G0 F6000 X79.108 Y127.191
G1 F1200 X80.63 Y128.713 E30.34638
G0 F6000 X80.41 Y129.094
G0 X81.746 Y129.864
G0 X81.966 Y129.483
G1 F1200 X79.108 Y126.625 E30.42704
G0 F6000 X79.108 Y126.06
G1 F1200 X83.302 Y130.254 E30.5454
G0 F6000 X83.082 Y130.634
G0 X84.418 Y131.404
G0 X84.637 Y131.024
G1 F1200 X79.108 Y125.495 E30.70144
G0 F6000 X79.109 Y124.93
G1 F1200 X85.973 Y131.794 E30.89516
G0 F6000 X85.753 Y132.174
G0 X87.089 Y132.945
G0 X87.309 Y132.564
G1 F1200 X79.109 Y124.364 E31.12658
G0 F6000 X79.11 Y123.799
G1 F1200 X88.644 Y133.333 E31.39565
G0 F6000 X88.424 Y133.714
G0 X89.76 Y134.484
G0 X89.98 Y134.103
G1 F1200 X79.11 Y123.233 E31.70242
G0 F6000 X79.111 Y122.668
G1 F1200 X91.315 Y134.873 E32.04686
G0 F6000 X91.095 Y135.254
G0 X92.431 Y136.024
G0 X92.651 Y135.643
G1 F1200 X79.111 Y122.103 E32.42899
G0 F6000 X79.111 Y121.537
G1 F1200 X93.987 Y136.413 E32.84882
G0 F6000 X93.767 Y136.794
G0 X95.102 Y137.564
G0 X95.322 Y137.183
G1 F1200 X79.111 Y120.972 E33.30633
G0 F6000 X79.111 Y120.406
G1 F1200 X96.658 Y137.953 E33.80155
G0 F6000 X96.438 Y138.334
G0 X97.774 Y139.104
G0 X97.994 Y138.723
G1 F1200 X79.112 Y119.841 E34.33444
G0 F6000 X79.112 Y119.276
G1 F1200 X99.33 Y139.493 E34.90502
G0 F6000 X99.11 Y139.875
G0 X100.445 Y140.644
G0 X100.665 Y140.263
G1 F1200 X79.113 Y118.711 E35.51326
G0 F6000 X79.113 Y118.145
G1 F1200 X102.001 Y141.033 E36.15921
G0 F6000 X101.781 Y141.415
G0 X103.117 Y142.185
G0 X103.337 Y141.803
G1 F1200 X79.113 Y117.58 E36.84285
G0 F6000 X79.113 Y117.014
G1 F1200 X104.673 Y142.573 E37.56419
G0 F6000 X104.453 Y142.955
G0 X105.788 Y143.725
G0 X106.008 Y143.343
G1 F1200 X79.113 Y116.449 E38.32321
G0 F6000 X79.114 Y115.884
G1 F1200 X107.344 Y144.114 E39.11993
G0 F6000 X107.124 Y144.495
G0 X108.46 Y145.265
G0 X108.68 Y144.884
G1 F1200 X79.114 Y115.318 E39.95434
G0 F6000 X79.115 Y114.753
G1 F1200 X109.988 Y145.626 E40.82565
G0 F6000 X110.347 Y145.42
G1 F1200 X79.115 Y114.187 E41.70709
G0 F6000 X79.116 Y113.622
G1 F1200 X110.706 Y145.212 E42.59863
G0 F6000 X111.064 Y145.005
G1 F1200 X79.116 Y113.057 E43.50027
G0 F6000 X79.116 Y112.492
G1 F1200 X111.423 Y144.798 E44.41203
G0 F6000 X111.781 Y144.591
G1 F1200 X79.116 Y111.926 E45.33391
G0 F6000 X79.116 Y111.36
G1 F1200 X112.14 Y144.384 E46.26592
G0 F6000 X112.499 Y144.177
G1 F1200 X79.117 Y110.795 E47.20803
G0 F6000 X79.117 Y110.23
G1 F1200 X112.857 Y143.97 E48.16025
G0 F6000 X113.216 Y143.763
G1 F1200 X79.118 Y109.665 E49.12257
G0 F6000 X79.118 Y109.099
G1 F1200 X113.574 Y143.556 E50.095
G0 F6000 X113.933 Y143.349
G1 F1200 X79.118 Y108.534 E51.07756
G0 F6000 X79.118 Y107.968
G1 F1200 X114.292 Y143.142 E52.07024
G0 F6000 X114.651 Y142.935
G1 F1200 X79.119 Y107.403 E53.07303
G0 F6000 X79.119 Y106.838
G1 F1200 X115.009 Y142.728 E54.08593
G0 F6000 X115.368 Y142.521
G1 F1200 X79.119 Y106.272 E55.10895
G0 F6000 X79.12 Y105.707
G1 F1200 X115.727 Y142.314 E56.14208
G0 F6000 X116.085 Y142.107
G1 F1200 X79.12 Y105.141 E57.18533
G0 F6000 X79.121 Y104.576
G1 F1200 X116.444 Y141.9 E58.23868
G0 F6000 X116.802 Y141.692
G1 F1200 X79.121 Y104.011 E59.30212
G0 F6000 X79.121 Y103.446
G1 F1200 X117.161 Y141.486 E60.37569
G0 F6000 X117.52 Y141.279
G1 F1200 X79.121 Y102.88 E61.45939
G0 F6000 X79.122 Y102.315
G1 F1200 X117.878 Y141.072 E62.55318
G0 F6000 X118.237 Y140.864
G1 F1200 X79.122 Y101.749 E63.65709
G0 F6000 X79.122 Y101.184
G1 F1200 X118.595 Y140.657 E64.7711
G0 F6000 X118.955 Y140.451
G1 F1200 X79.123 Y100.619 E65.89525
G0 F6000 X79.123 Y100.053
G1 F1200 X119.313 Y140.244 E67.02951
G0 F6000 X119.672 Y140.036
G1 F1200 X79.123 Y99.488 E68.17388
G0 F6000 X79.123 Y98.922
G1 F1200 X120.03 Y139.829 E69.32836
G0 F6000 X120.389 Y139.622
G1 F1200 X79.124 Y98.357 E70.49295
G0 F6000 X79.124 Y97.792
G1 F1200 X120.748 Y139.416 E71.66767
G0 F6000 X121.106 Y139.208
G1 F1200 X79.125 Y97.227 E72.85246
G0 F6000 X79.125 Y96.661
G1 F1200 X121.465 Y139.001 E74.04739
G0 F6000 X121.823 Y138.794
G1 F1200 X79.125 Y96.095 E75.25243
G0 F6000 X79.125 Y95.53
G1 F1200 X122.182 Y138.587 E76.4676
G0 F6000 X122.541 Y138.38
G1 F1200 X79.125 Y94.965 E77.69287
G0 F6000 X79.126 Y94.4
G1 F1200 X122.9 Y138.173 E78.92826
G0 F6000 X123.258 Y137.966
G1 F1200 X79.126 Y93.834 E80.17376
G0 F6000 X79.127 Y93.269
G1 F1200 X123.617 Y137.759 E81.42936
G0 F6000 X123.975 Y137.552
G1 F1200 X79.127 Y92.703 E82.69508
G0 F6000 X79.166 Y92.177
G1 F1200 X124.334 Y137.345 E83.96982
G0 F6000 X124.693 Y137.138
G1 F1200 X79.525 Y91.97 E85.24456
G0 F6000 X79.883 Y91.763
G1 F1200 X125.051 Y136.931 E86.5193
G0 F6000 X125.41 Y136.724
G1 F1200 X80.243 Y91.556 E87.79402
G0 F6000 X80.601 Y91.349
G1 F1200 X125.768 Y136.516 E89.06873
G0 F6000 X126.128 Y136.31
G1 F1200 X80.96 Y91.142 E90.34347
G0 F6000 X81.318 Y90.935
G1 F1200 X126.486 Y136.103 E91.61821
G0 F6000 X126.845 Y135.896
G1 F1200 X81.677 Y90.728 E92.89295
G0 F6000 X82.035 Y90.52
G1 F1200 X127.203 Y135.688 E94.16769
G0 F6000 X127.562 Y135.481
G1 F1200 X82.394 Y90.313 E95.44243
G0 F6000 X82.753 Y90.107
G1 F1200 X127.921 Y135.275 E96.71716
G0 F6000 X128.279 Y135.068
G1 F1200 X83.111 Y89.9 E97.9919
G0 F6000 X83.47 Y89.692
G1 F1200 X128.638 Y134.86 E99.26664
G0 F6000 X128.996 Y134.653
G1 F1200 X83.828 Y89.485 E100.54138
G0 F6000 X84.187 Y89.278
G1 F1200 X129.355 Y134.446 E101.81612
G0 F6000 X129.714 Y134.239
G1 F1200 X84.545 Y89.071 E103.09087
G0 F6000 X84.905 Y88.864
G1 F1200 X130.072 Y134.032 E104.3656
G0 F6000 X130.431 Y133.825
G1 F1200 X85.263 Y88.657 E105.64033
G0 F6000 X85.622 Y88.45
G1 F1200 X130.79 Y133.618 E106.91507
G0 F6000 X131.148 Y133.411
G1 F1200 X85.98 Y88.243 E108.18981
G0 F6000 X86.339 Y88.036
G1 F1200 X131.507 Y133.204 E109.46455
G0 F6000 X131.866 Y132.997
G1 F1200 X86.697 Y87.829 E110.7393
G0 F6000 X87.056 Y87.622
G1 F1200 X132.224 Y132.79 E112.01404
G0 F6000 X132.583 Y132.583
G1 F1200 X87.415 Y87.415 E113.28878
G0 F6000 X87.773 Y87.208
G1 F1200 X132.941 Y132.376 E114.56352
G0 F6000 X133.3 Y132.169
