;FLAVOR:Marlin
;TIME:5922
;Filament used: 3.04164m
;Layer height: 0.2
;MINX:53.3
;MINY:31.606
;MINZ:0.2
;MAXX:181.7
;MAXY:203.394
;MAXZ:1.2
;Generated with Cura_SteamEngine master
M140 S60
M105
M190 S60
M104 S200
M105
M109 S200
M82 ;absolute extrusion mode
; Ender 3 Custom Start G-code
G92 E0 ; Reset Extruder
G28 ; Home all axes
G1 Z2.0 F3000 ; Move Z Axis up little to prevent scratching of Heat Bed
G1 X0.1 Y20 Z0.3 F5000.0 ; Move to start position
G1 X0.1 Y200.0 Z0.3 F1500.0 E15 ; Draw the first line
G1 X0.4 Y200.0 Z0.3 F5000.0 ; Move to side a little
G1 X0.4 Y20 Z0.3 F1500.0 E30 ; Draw the second line
G92 E0 ; Reset Extruder
G1 Z2.0 F3000 ; Move Z Axis up little to prevent scratching of Heat Bed
G1 X5 Y20 Z0.3 F5000.0 ; Move over to prevent blob squish
G92 E0
G92 E0
G1 F1500 E-6.5
;LAYER_COUNT:6
;LAYER:0
M107
G0 F6000 X156.481 Y32.432 Z0.2
;TYPE:SKIRT
G1 F1500 E0
G1 F1200 X157.119 Y32.463 E0.02125
G1 X158.261 Y32.554 E0.05935
G1 X158.982 Y32.638 E0.08349
G1 X159.97 Y32.788 E0.11673
G1 X160.647 Y32.914 E0.13963
G1 X161.639 Y33.134 E0.17343
G1 X162.313 Y33.308 E0.19658
G1 X163.335 Y33.609 E0.23202
G1 X163.997 Y33.828 E0.25521
G1 X164.912 Y34.167 E0.28766
G1 X165.558 Y34.432 E0.31089
G1 X166.499 Y34.856 E0.34521
G1 X167.108 Y35.156 E0.36779
G1 X168.01 Y35.637 E0.40179
G1 X168.634 Y35.998 E0.42577
G1 X169.534 Y36.563 E0.46111
G1 X170.105 Y36.949 E0.48404
G1 X170.898 Y37.525 E0.51664
G1 X171.454 Y37.959 E0.5401
G1 X172.267 Y38.64 E0.57537
G1 X172.78 Y39.1 E0.59829
G1 X173.499 Y39.79 E0.63143
G1 X173.98 Y40.284 E0.65436
G1 X174.657 Y41.028 E0.68782
G1 X175.111 Y41.563 E0.71116
G1 X175.771 Y42.397 E0.74653
G1 X176.179 Y42.95 E0.76939
G1 X176.735 Y43.759 E0.80204
G1 X177.113 Y44.352 E0.82543
G1 X177.643 Y45.25 E0.86011
G1 X177.976 Y45.861 E0.88326
G1 X178.437 Y46.78 E0.91745
G1 X178.725 Y47.404 E0.94031
G1 X179.118 Y48.34 E0.97407
G1 X179.37 Y49.005 E0.99773
G1 X179.707 Y49.996 E1.03254
G1 X179.912 Y50.675 E1.05613
G1 X180.169 Y51.648 E1.0896
G1 X180.305 Y52.231 E1.10951
G1 X180.469 Y53.042 E1.13703
G1 X180.579 Y53.681 E1.1586
G1 X180.629 Y54.034 E1.17046
G1 X180.752 Y55.03 E1.20384
G1 X180.814 Y55.724 E1.22701
G1 X180.863 Y56.622 E1.25692
G1 X180.877 Y57.005 E1.26967
G1 X180.9 Y58.478 E1.31867
G1 X180.9 Y167.414 E4.9419
G1 X180.896 Y176.82 E5.25474
G1 X180.873 Y178.198 E5.30058
G1 X180.842 Y178.841 E5.32199
G1 X180.754 Y179.941 E5.35869
G1 X180.717 Y180.312 E5.37109
G1 X180.643 Y180.909 E5.3911
G1 X180.603 Y181.183 E5.40031
G1 X180.55 Y181.507 E5.41123
G1 X180.47 Y181.954 E5.42633
G1 X180.385 Y182.377 E5.44069
G1 X180.168 Y183.35 E5.47384
G1 X180 Y184.004 E5.4963
G1 X179.701 Y185.022 E5.53159
G1 X179.472 Y185.709 E5.55568
G1 X179.136 Y186.611 E5.58769
G1 X178.883 Y187.229 E5.6099
G1 X178.455 Y188.182 E5.64465
G1 X178.15 Y188.804 E5.66769
G1 X177.671 Y189.702 E5.70154
G1 X177.314 Y190.318 E5.72522
G1 X176.748 Y191.221 E5.76067
G1 X176.356 Y191.8 E5.78392
G1 X175.779 Y192.594 E5.81657
G1 X175.349 Y193.146 E5.83984
G1 X174.675 Y193.951 E5.87476
G1 X174.217 Y194.462 E5.89758
G1 X173.52 Y195.189 E5.93108
G1 X173.022 Y195.674 E5.9542
G1 X172.278 Y196.351 E5.98766
G1 X171.743 Y196.805 E6.011
G1 X170.909 Y197.465 E6.04637
G1 X170.356 Y197.873 E6.06923
G1 X169.547 Y198.429 E6.10188
G1 X168.954 Y198.807 E6.12527
G1 X168.056 Y199.337 E6.15995
G1 X167.446 Y199.67 E6.18306
G1 X166.531 Y200.129 E6.21711
G1 X165.908 Y200.416 E6.23992
G1 X164.968 Y200.811 E6.27384
G1 X164.29 Y201.068 E6.29795
G1 X163.304 Y201.402 E6.33258
G1 X162.642 Y201.601 E6.35557
G1 X161.645 Y201.865 E6.38987
G1 X161.064 Y202.001 E6.40972
G1 X160.276 Y202.161 E6.43646
G1 X159.828 Y202.242 E6.45161
G1 X159.605 Y202.277 E6.45911
G1 X159.261 Y202.325 E6.47067
G1 X158.296 Y202.443 E6.503
G1 X157.633 Y202.502 E6.52514
G1 X156.676 Y202.556 E6.55702
G1 X156.277 Y202.57 E6.5703
G1 X154.826 Y202.594 E6.61857
G1 X85.663 Y202.594 E8.91894
G1 X79.875 Y202.59 E9.11145
G1 X78.47 Y202.566 E9.15818
G1 X77.83 Y202.534 E9.1795
G1 X76.756 Y202.448 E9.21533
G1 X76.264 Y202.397 E9.23178
G1 X75.714 Y202.326 E9.25023
G1 X75.211 Y202.248 E9.26716
G1 X74.717 Y202.159 E9.28385
G1 X74.309 Y202.077 E9.2977
G1 X73.348 Y201.863 E9.33044
G1 X72.682 Y201.691 E9.35332
G1 X71.664 Y201.391 E9.38862
G1 X71.005 Y201.172 E9.41171
G1 X70.084 Y200.831 E9.44438
G1 X69.43 Y200.563 E9.46789
G1 X68.495 Y200.141 E9.50201
G1 X67.881 Y199.839 E9.52476
G1 X66.961 Y199.347 E9.55946
G1 X66.351 Y198.993 E9.58292
G1 X65.479 Y198.446 E9.61716
G1 X64.898 Y198.053 E9.64049
G1 X64.087 Y197.463 E9.67385
G1 X63.54 Y197.036 E9.69693
G1 X62.735 Y196.362 E9.73185
G1 X62.22 Y195.9 E9.75486
G1 X61.501 Y195.21 E9.788
G1 X61.02 Y194.716 E9.81093
G1 X60.343 Y193.972 E9.84439
G1 X59.889 Y193.437 E9.86773
G1 X59.229 Y192.603 E9.9031
G1 X58.821 Y192.05 E9.92596
G1 X58.265 Y191.241 E9.95861
G1 X57.887 Y190.648 E9.982
G1 X57.357 Y189.75 E10.01668
G1 X57.022 Y189.136 E10.03994
G1 X56.561 Y188.216 E10.07417
G1 X56.277 Y187.6 E10.09673
G1 X55.883 Y186.663 E10.13054
G1 X55.627 Y185.987 E10.15458
G1 X55.291 Y184.997 E10.18935
G1 X55.089 Y184.326 E10.21266
G1 X54.832 Y183.354 E10.2461
G1 X54.68 Y182.69 E10.26876
G1 X54.486 Y181.69 E10.30264
G1 X54.376 Y181 E10.32588
G1 X54.248 Y179.966 E10.36053
G1 X54.186 Y179.273 E10.38367
G1 X54.137 Y178.382 E10.41335
G1 X54.123 Y177.995 E10.42623
G1 X54.1 Y176.522 E10.47523
G1 X54.1 Y58.479 E14.40135
G1 X54.102 Y58.303 E14.40721
G1 X54.128 Y56.796 E14.45734
G1 X54.158 Y56.16 E14.47852
G1 X54.245 Y55.07 E14.51488
G1 X54.285 Y54.674 E14.52812
G1 X54.357 Y54.092 E14.54763
G1 X54.397 Y53.816 E14.5569
G1 X54.451 Y53.483 E14.56812
G1 X54.529 Y53.047 E14.58286
G1 X54.615 Y52.623 E14.59724
G1 X54.832 Y51.65 E14.6304
G1 X55 Y50.996 E14.65286
G1 X55.299 Y49.978 E14.68815
G1 X55.527 Y49.292 E14.71219
G1 X55.87 Y48.371 E14.74488
G1 X56.131 Y47.738 E14.76765
G1 X56.554 Y46.8 E14.80188
G1 X56.851 Y46.196 E14.82426
G1 X57.328 Y45.301 E14.858
G1 X57.689 Y44.677 E14.88197
G1 X58.255 Y43.775 E14.91739
G1 X58.644 Y43.2 E14.94048
G1 X59.221 Y42.406 E14.97313
G1 X59.653 Y41.852 E14.99649
G1 X60.334 Y41.039 E15.03177
G1 X60.794 Y40.526 E15.05468
G1 X61.484 Y39.807 E15.08783
G1 X61.978 Y39.326 E15.11076
G1 X62.722 Y38.649 E15.14422
G1 X63.257 Y38.195 E15.16755
G1 X64.091 Y37.535 E15.20293
G1 X64.647 Y37.125 E15.22591
G1 X65.48 Y36.553 E15.25951
G1 X66.081 Y36.17 E15.28322
G1 X66.946 Y35.661 E15.3166
G1 X67.55 Y35.333 E15.33946
G1 X68.494 Y34.86 E15.37458
G1 X69.117 Y34.573 E15.39739
G1 X70.037 Y34.187 E15.43057
G1 X70.71 Y33.932 E15.45451
G1 X71.696 Y33.598 E15.48914
G1 X72.358 Y33.399 E15.51213
G1 X73.355 Y33.135 E15.54643
G1 X74.026 Y32.981 E15.56933
G1 X74.981 Y32.796 E15.60168
G1 X75.656 Y32.689 E15.62441
G1 X76.696 Y32.559 E15.65927
G1 X77.396 Y32.496 E15.68265
G1 X78.334 Y32.444 E15.7139
G1 X78.723 Y32.43 E15.72684
G1 X80.174 Y32.406 E15.77511
G1 X154.826 Y32.406 E18.25805
G1 X154.998 Y32.407 E18.26377
G1 X156.481 Y32.432 E18.3131
G0 F6000 X156.488 Y32.033
G1 F1200 X157.151 Y32.064 E18.33517
G1 X158.293 Y32.155 E18.37328
G1 X159.042 Y32.242 E18.39836
G1 X160.03 Y32.392 E18.43159
G1 X160.734 Y32.523 E18.45541
G1 X161.726 Y32.743 E18.48921
G1 X162.426 Y32.924 E18.51325
G1 X163.448 Y33.225 E18.54869
G1 X164.136 Y33.453 E18.5728
G1 X165.051 Y33.792 E18.60525
G1 X165.723 Y34.068 E18.62941
G1 X166.664 Y34.492 E18.66374
G1 X167.297 Y34.803 E18.6872
G1 X168.199 Y35.284 E18.7212
G1 X168.847 Y35.659 E18.7461
G1 X169.747 Y36.224 E18.78144
G1 X170.34 Y36.626 E18.80527
G1 X171.133 Y37.202 E18.83787
G1 X171.711 Y37.652 E18.86223
G1 X172.524 Y38.333 E18.89751
G1 X173.057 Y38.811 E18.92132
G1 X173.776 Y39.501 E18.95447
G1 X174.276 Y40.015 E18.97832
G1 X174.953 Y40.759 E19.01177
G1 X175.425 Y41.315 E19.03603
G1 X176.085 Y42.149 E19.0714
G1 X176.509 Y42.723 E19.09514
G1 X177.065 Y43.532 E19.12779
G1 X177.458 Y44.148 E19.15209
G1 X177.988 Y45.046 E19.18677
G1 X178.334 Y45.681 E19.21082
G1 X178.795 Y46.6 E19.24502
G1 X179.093 Y47.249 E19.26877
G1 X179.486 Y48.185 E19.30254
G1 X179.749 Y48.876 E19.32713
G1 X180.086 Y49.867 E19.36194
G1 X180.299 Y50.573 E19.38647
G1 X180.556 Y51.546 E19.41994
G1 X180.697 Y52.152 E19.44064
G1 X180.861 Y52.963 E19.46816
G1 X180.974 Y53.619 E19.4903
G1 X181.026 Y53.985 E19.50259
G1 X181.149 Y54.981 E19.53597
G1 X181.213 Y55.702 E19.56005
G1 X181.262 Y56.6 E19.58996
G1 X181.276 Y56.999 E19.60324
G1 X181.3 Y58.478 E19.65243
G1 X181.3 Y167.414 E23.27566
G1 X181.296 Y176.827 E23.58874
G1 X181.273 Y178.205 E23.63458
G1 X181.24 Y178.873 E23.65682
G1 X181.152 Y179.973 E23.69353
G1 X181.114 Y180.359 E23.70643
G1 X181.039 Y180.967 E23.7268
G1 X180.999 Y181.241 E23.73601
G1 X180.944 Y181.577 E23.74734
G1 X180.864 Y182.024 E23.76244
G1 X180.776 Y182.464 E23.77736
G1 X180.559 Y183.437 E23.81052
G1 X180.383 Y184.117 E23.83388
G1 X180.084 Y185.135 E23.86917
G1 X179.847 Y185.848 E23.89416
G1 X179.511 Y186.75 E23.92618
G1 X179.248 Y187.393 E23.94928
G1 X178.82 Y188.346 E23.98403
G1 X178.503 Y188.992 E24.00796
G1 X178.024 Y189.89 E24.04181
G1 X177.653 Y190.531 E24.06645
G1 X177.087 Y191.434 E24.10189
G1 X176.68 Y192.035 E24.12603
G1 X176.103 Y192.829 E24.15868
G1 X175.655 Y193.403 E24.1829
G1 X174.981 Y194.208 E24.21782
G1 X174.506 Y194.739 E24.24151
G1 X173.809 Y195.466 E24.27501
G1 X173.291 Y195.97 E24.29905
G1 X172.547 Y196.647 E24.33251
G1 X171.991 Y197.119 E24.35676
G1 X171.157 Y197.779 E24.39214
G1 X170.583 Y198.203 E24.41587
G1 X169.774 Y198.759 E24.44852
G1 X169.158 Y199.152 E24.47283
G1 X168.26 Y199.682 E24.50751
G1 X167.625 Y200.028 E24.53156
G1 X166.71 Y200.487 E24.56561
G1 X166.063 Y200.784 E24.58928
G1 X165.123 Y201.179 E24.6232
G1 X164.418 Y201.447 E24.64828
G1 X163.432 Y201.781 E24.68291
G1 X162.744 Y201.988 E24.7068
G1 X161.747 Y202.252 E24.74111
G1 X161.143 Y202.393 E24.76174
G1 X160.355 Y202.553 E24.78848
G1 X159.89 Y202.637 E24.8042
G1 X159.667 Y202.672 E24.8117
G1 X159.31 Y202.722 E24.82369
G1 X158.345 Y202.84 E24.85603
G1 X157.655 Y202.901 E24.87907
G1 X156.698 Y202.955 E24.91095
G1 X156.284 Y202.97 E24.92473
G1 X154.826 Y202.994 E24.97323
G1 X85.662 Y202.994 E27.27363
G1 X79.868 Y202.989 E27.46634
G1 X78.463 Y202.965 E27.51308
G1 X77.798 Y202.933 E27.53522
G1 X76.724 Y202.847 E27.57106
G1 X76.213 Y202.794 E27.58814
G1 X75.663 Y202.723 E27.60659
G1 X75.141 Y202.642 E27.62416
G1 X74.647 Y202.553 E27.64085
G1 X74.222 Y202.468 E27.65527
G1 X73.261 Y202.254 E27.68802
G1 X72.569 Y202.075 E27.71179
G1 X71.551 Y201.775 E27.74709
G1 X70.867 Y201.548 E27.77106
G1 X69.946 Y201.207 E27.80372
G1 X69.265 Y200.928 E27.8282
G1 X68.33 Y200.506 E27.86232
G1 X67.692 Y200.191 E27.88598
G1 X66.772 Y199.699 E27.92068
G1 X66.138 Y199.332 E27.94505
G1 X65.266 Y198.785 E27.97929
G1 X64.663 Y198.377 E28.0035
G1 X63.852 Y197.787 E28.03686
G1 X63.283 Y197.342 E28.06088
G1 X62.478 Y196.668 E28.0958
G1 X61.943 Y196.189 E28.11969
G1 X61.224 Y195.499 E28.15283
G1 X60.724 Y194.985 E28.17668
G1 X60.047 Y194.241 E28.21014
G1 X59.575 Y193.685 E28.2344
G1 X58.915 Y192.851 E28.26977
G1 X58.491 Y192.277 E28.29351
G1 X57.935 Y191.468 E28.32616
G1 X57.542 Y190.852 E28.35046
G1 X57.012 Y189.954 E28.38514
G1 X56.664 Y189.315 E28.40934
G1 X56.203 Y188.395 E28.44357
G1 X55.909 Y187.755 E28.46699
G1 X55.515 Y186.818 E28.5008
G1 X55.248 Y186.116 E28.52578
G1 X54.912 Y185.126 E28.56055
G1 X54.702 Y184.429 E28.58476
G1 X54.445 Y183.457 E28.6182
G1 X54.287 Y182.766 E28.64178
G1 X54.093 Y181.766 E28.67566
G1 X53.979 Y181.049 E28.69981
G1 X53.851 Y180.015 E28.73446
G1 X53.787 Y179.295 E28.7585
G1 X53.738 Y178.404 E28.78818
G1 X53.724 Y178.001 E28.80159
G1 X53.7 Y176.522 E28.85079
G1 X53.7 Y58.479 E32.77692
G1 X53.702 Y58.296 E32.783
G1 X53.728 Y56.789 E32.83313
G1 X53.76 Y56.129 E32.85511
G1 X53.847 Y55.039 E32.89148
G1 X53.888 Y54.627 E32.90525
G1 X53.962 Y54.035 E32.9251
G1 X54.002 Y53.759 E32.93437
G1 X54.058 Y53.412 E32.94606
G1 X54.136 Y52.976 E32.96079
G1 X54.224 Y52.536 E32.97572
G1 X54.441 Y51.563 E33.00887
G1 X54.617 Y50.883 E33.03224
G1 X54.916 Y49.865 E33.06753
G1 X55.153 Y49.153 E33.09248
G1 X55.496 Y48.232 E33.12517
G1 X55.766 Y47.573 E33.14886
G1 X56.189 Y46.635 E33.18308
G1 X56.498 Y46.007 E33.20636
G1 X56.975 Y45.112 E33.24009
G1 X57.35 Y44.464 E33.26499
G1 X57.916 Y43.562 E33.30041
G1 X58.32 Y42.965 E33.32439
G1 X58.897 Y42.171 E33.35703
G1 X59.346 Y41.595 E33.38132
G1 X60.027 Y40.782 E33.4166
G1 X60.505 Y40.249 E33.44041
G1 X61.195 Y39.53 E33.47355
G1 X61.709 Y39.03 E33.4974
G1 X62.453 Y38.353 E33.53086
G1 X63.009 Y37.881 E33.55512
G1 X63.843 Y37.221 E33.59049
G1 X64.421 Y36.795 E33.61437
G1 X65.254 Y36.223 E33.64798
G1 X65.878 Y35.825 E33.6726
G1 X66.743 Y35.316 E33.70598
G1 X67.371 Y34.975 E33.72975
G1 X68.315 Y34.502 E33.76487
G1 X68.962 Y34.204 E33.78856
G1 X69.882 Y33.818 E33.82174
G1 X70.582 Y33.553 E33.84664
G1 X71.568 Y33.219 E33.88126
G1 X72.256 Y33.012 E33.90516
G1 X73.253 Y32.748 E33.93946
G1 X73.95 Y32.588 E33.96325
G1 X74.905 Y32.403 E33.9956
G1 X75.606 Y32.292 E34.01921
G1 X76.646 Y32.162 E34.05407
G1 X77.374 Y32.096 E34.07838
G1 X78.312 Y32.044 E34.10963
G1 X78.716 Y32.03 E34.12307
G1 X80.174 Y32.006 E34.17157
G1 X154.826 Y32.006 E36.65451
G1 X155.005 Y32.008 E36.66046
G1 X156.488 Y32.033 E36.70979
G0 F6000 X156.494 Y31.633
G1 F1200 X157.183 Y31.666 E36.73273
G1 X158.325 Y31.757 E36.77084
G1 X159.102 Y31.847 E36.79685
G1 X160.09 Y31.997 E36.83009
G1 X160.821 Y32.133 E36.85482
G1 X161.813 Y32.353 E36.88862
G1 X162.539 Y32.54 E36.91355
G1 X163.561 Y32.841 E36.94899
G1 X164.275 Y33.078 E36.97401
G1 X165.19 Y33.417 E37.00646
G1 X165.887 Y33.703 E37.03152
G1 X166.828 Y34.127 E37.06585
G1 X167.485 Y34.45 E37.0902
G1 X168.387 Y34.931 E37.1242
G1 X169.06 Y35.321 E37.15007
G1 X169.96 Y35.886 E37.18542
G1 X170.576 Y36.302 E37.21014
G1 X171.369 Y36.878 E37.24274
G1 X171.967 Y37.345 E37.26797
G1 X172.78 Y38.026 E37.30325
G1 X173.333 Y38.522 E37.32795
G1 X174.052 Y39.212 E37.3611
G1 X174.572 Y39.746 E37.38589
G1 X175.249 Y40.49 E37.41935
G1 X175.739 Y41.067 E37.44452
G1 X176.399 Y41.901 E37.4799
G1 X176.838 Y42.497 E37.50452
G1 X177.394 Y43.306 E37.53717
G1 X177.802 Y43.945 E37.56238
G1 X178.332 Y44.843 E37.59706
G1 X178.691 Y45.502 E37.62202
G1 X179.152 Y46.421 E37.65622
G1 X179.462 Y47.095 E37.68089
G1 X179.855 Y48.031 E37.71466
G1 X180.127 Y48.748 E37.74016
G1 X180.464 Y49.739 E37.77498
G1 X180.685 Y50.471 E37.80041
G1 X180.942 Y51.444 E37.83388
G1 X181.089 Y52.073 E37.85537
G1 X181.253 Y52.884 E37.88289
G1 X181.369 Y53.556 E37.90557
G1 X181.423 Y53.936 E37.91833
G1 X181.546 Y54.932 E37.95171
G1 X181.613 Y55.681 E37.97672
G1 X181.662 Y56.579 E38.00664
G1 X181.676 Y56.992 E38.02038
G1 X181.7 Y58.478 E38.06981
G1 X181.7 Y167.415 E41.69307
G1 X181.695 Y176.834 E42.00635
G1 X181.672 Y178.212 E42.05219
G1 X181.639 Y178.905 E42.07526
G1 X181.551 Y180.005 E42.11197
G1 X181.512 Y180.405 E42.12533
G1 X181.435 Y181.025 E42.14611
G1 X181.395 Y181.299 E42.15532
G1 X181.338 Y181.648 E42.16708
G1 X181.258 Y182.095 E42.18219
G1 X181.166 Y182.551 E42.19766
G1 X180.949 Y183.524 E42.23082
G1 X180.767 Y184.23 E42.25507
G1 X180.468 Y185.248 E42.29036
G1 X180.222 Y185.988 E42.31629
G1 X179.886 Y186.89 E42.34831
G1 X179.612 Y187.557 E42.37229
G1 X179.184 Y188.51 E42.40704
G1 X178.856 Y189.18 E42.43185
G1 X178.377 Y190.078 E42.4657
G1 X177.991 Y190.743 E42.49127
G1 X177.425 Y191.646 E42.52672
G1 X177.004 Y192.271 E42.55178
G1 X176.427 Y193.065 E42.58443
G1 X175.962 Y193.66 E42.60955
G1 X175.288 Y194.465 E42.64447
G1 X174.794 Y195.016 E42.66908
G1 X174.097 Y195.743 E42.70258
G1 X173.56 Y196.266 E42.72751
G1 X172.816 Y196.943 E42.76096
G1 X172.239 Y197.433 E42.78614
G1 X171.405 Y198.093 E42.82152
G1 X170.809 Y198.532 E42.84614
G1 X170 Y199.088 E42.87879
G1 X169.361 Y199.496 E42.904
G1 X168.463 Y200.026 E42.93868
G1 X167.804 Y200.385 E42.96364
G1 X166.889 Y200.844 E42.99769
G1 X166.218 Y201.153 E43.02226
G1 X165.278 Y201.548 E43.05617
G1 X164.546 Y201.825 E43.0822
G1 X163.56 Y202.159 E43.11683
G1 X162.847 Y202.375 E43.14161
G1 X161.85 Y202.639 E43.17591
G1 X161.223 Y202.785 E43.19732
G1 X160.435 Y202.945 E43.22407
G1 X159.952 Y203.032 E43.24039
G1 X159.729 Y203.067 E43.2479
G1 X159.358 Y203.119 E43.26036
G1 X158.393 Y203.237 E43.29269
