;FLAVOR:Marlin
;TIME:6323
;Filament used: 7.92172m
;Layer height: 0.2
;MINX:53.3
;MINY:31.606
;MINZ:0.2
;MAXX:181.7
;MAXY:203.394
;MAXZ:1.2
;Generated with Cura_SteamEngine master
M140 S60
M105
M190 S60
M104 S200
M105
M109 S200
M82 ;absolute extrusion mode
; Ender 3 Custom Start G-code
G92 E0 ; Reset Extruder
G28 ; Home all axes
G1 Z2.0 F3000 ; Move Z Axis up little to prevent scratching of Heat Bed
G1 X0.1 Y20 Z0.3 F5000.0 ; Move to start position
G1 X0.1 Y200.0 Z0.3 F1500.0 E15 ; Draw the first line
G1 X0.4 Y200.0 Z0.3 F5000.0 ; Move to side a little
G1 X0.4 Y20 Z0.3 F1500.0 E30 ; Draw the second line
G92 E0 ; Reset Extruder
G1 Z2.0 F3000 ; Move Z Axis up little to prevent scratching of Heat Bed
G1 X5 Y20 Z0.3 F5000.0 ; Move over to prevent blob squish
G92 E0
G92 E0
G1 F1500 E-6.5
;LAYER_COUNT:6
;LAYER:0
M107
G0 F9000 X156.481 Y32.432 Z0.2
;TYPE:SKIRT
G1 F1500 E0
G1 F3000 X157.119 Y32.463 E0.02125
G1 X158.261 Y32.554 E0.05935
G1 X158.982 Y32.638 E0.08349
G1 X159.97 Y32.788 E0.11673
G1 X160.647 Y32.914 E0.13963
G1 X161.639 Y33.134 E0.17343
G1 X162.313 Y33.308 E0.19658
G1 X163.335 Y33.609 E0.23202
G1 X163.997 Y33.828 E0.25521
G1 X164.912 Y34.167 E0.28766
G1 X165.558 Y34.432 E0.31089
G1 X166.499 Y34.856 E0.34521
G1 X167.108 Y35.156 E0.36779
G1 X168.01 Y35.637 E0.40179
G1 X168.629 Y35.995 E0.42558
G1 X169.519 Y36.553 E0.46052
G1 X170.108 Y36.951 E0.48416
G1 X170.926 Y37.547 E0.51782
G1 X171.458 Y37.963 E0.54028
G1 X172.235 Y38.612 E0.57396
G1 X172.751 Y39.074 E0.59699
G1 X173.485 Y39.777 E0.6308
G1 X173.971 Y40.275 E0.65394
G1 X174.654 Y41.025 E0.68768
G1 X175.111 Y41.563 E0.71116
G1 X175.771 Y42.397 E0.74653
G1 X176.179 Y42.95 E0.76939
G1 X176.735 Y43.759 E0.80204
G1 X177.113 Y44.352 E0.82543
G1 X177.643 Y45.25 E0.86011
G1 X177.976 Y45.861 E0.88325
G1 X178.437 Y46.78 E0.91745
G1 X178.725 Y47.404 E0.94031
G1 X179.118 Y48.34 E0.97407
G1 X179.37 Y49.005 E0.99772
G1 X179.707 Y49.996 E1.03254
G1 X179.912 Y50.675 E1.05613
G1 X180.169 Y51.648 E1.0896
G1 X180.305 Y52.231 E1.10951
G1 X180.469 Y53.042 E1.13703
G1 X180.578 Y53.669 E1.1582
G1 X180.63 Y54.037 E1.17056
G1 X180.746 Y54.976 E1.20203
G1 X180.806 Y55.641 E1.22424
G1 X180.861 Y56.597 E1.25609
G1 X180.877 Y57.009 E1.2698
G1 X180.9 Y58.476 E1.3186
G1 X180.9 Y176.521 E5.24479
G1 X180.899 Y176.693 E5.25051
G1 X180.874 Y178.176 E5.29984
G1 X180.843 Y178.807 E5.32086
G1 X180.755 Y179.921 E5.35802
G1 X180.718 Y180.301 E5.37072
G1 X180.645 Y180.898 E5.39073
G1 X180.605 Y181.174 E5.4
G1 X180.55 Y181.512 E5.41139
G1 X180.47 Y181.958 E5.42646
G1 X180.385 Y182.377 E5.44068
G1 X180.168 Y183.35 E5.47384
G1 X180 Y184.004 E5.4963
G1 X179.701 Y185.022 E5.53159
G1 X179.472 Y185.709 E5.55567
G1 X179.136 Y186.611 E5.58769
G1 X178.883 Y187.229 E5.6099
G1 X178.455 Y188.182 E5.64464
G1 X178.15 Y188.804 E5.66768
G1 X177.671 Y189.702 E5.70154
G1 X177.314 Y190.318 E5.72522
G1 X176.748 Y191.221 E5.76066
G1 X176.356 Y191.8 E5.78392
G1 X175.779 Y192.594 E5.81656
G1 X175.347 Y193.148 E5.83993
G1 X174.666 Y193.961 E5.8752
G1 X174.212 Y194.468 E5.89784
G1 X173.547 Y195.162 E5.92981
G1 X173.05 Y195.646 E5.95288
G1 X172.244 Y196.38 E5.98914
G1 X171.701 Y196.841 E6.01283
G1 X170.928 Y197.452 E6.0456
G1 X170.374 Y197.861 E6.06851
G1 X169.501 Y198.46 E6.10372
G1 X168.896 Y198.844 E6.12755
G1 X168.038 Y199.348 E6.16065
G1 X167.446 Y199.67 E6.18306
G1 X166.531 Y200.129 E6.21711
G1 X165.908 Y200.416 E6.23993
G1 X164.968 Y200.811 E6.27384
G1 X164.29 Y201.068 E6.29795
G1 X163.304 Y201.402 E6.33258
G1 X162.642 Y201.601 E6.35557
G1 X161.645 Y201.865 E6.38987
G1 X160.974 Y202.019 E6.41277
G1 X160.019 Y202.204 E6.44513
G1 X159.344 Y202.311 E6.46786
G1 X158.304 Y202.441 E6.50272
G1 X157.604 Y202.504 E6.52609
G1 X156.666 Y202.556 E6.55734
G1 X156.277 Y202.57 E6.57028
G1 X154.826 Y202.594 E6.61855
G1 X85.663 Y202.594 E8.91892
G1 X79.875 Y202.59 E9.11143
G1 X78.47 Y202.566 E9.15817
G1 X77.83 Y202.534 E9.17948
G1 X76.756 Y202.448 E9.21532
G1 X76.264 Y202.397 E9.23177
G1 X75.714 Y202.326 E9.25021
G1 X75.211 Y202.248 E9.26714
G1 X74.717 Y202.159 E9.28384
G1 X74.309 Y202.077 E9.29768
G1 X73.348 Y201.863 E9.33043
G1 X72.682 Y201.691 E9.3533
G1 X71.664 Y201.391 E9.3886
G1 X71.005 Y201.172 E9.4117
G1 X70.084 Y200.831 E9.44437
G1 X69.43 Y200.563 E9.46787
G1 X68.495 Y200.141 E9.50199
G1 X67.884 Y199.84 E9.52465
G1 X66.965 Y199.349 E9.5593
G1 X66.639 Y199.167 E9.57172
G1 X66.134 Y198.868 E9.59124
G1 X65.612 Y198.538 E9.61178
G1 X65.267 Y198.309 E9.62555
G1 X64.909 Y198.06 E9.64006
G1 X64.073 Y197.452 E9.67444
G1 X63.531 Y197.03 E9.69728
G1 X62.764 Y196.389 E9.73053
G1 X62.236 Y195.915 E9.75413
G1 X61.485 Y195.193 E9.78878
G1 X61.009 Y194.704 E9.81148
G1 X60.334 Y193.962 E9.84484
G1 X59.876 Y193.422 E9.86839
G1 X59.224 Y192.597 E9.90336
G1 X58.821 Y192.05 E9.92596
G1 X58.265 Y191.241 E9.95861
G1 X57.887 Y190.648 E9.982
G1 X57.357 Y189.75 E10.01668
G1 X57.022 Y189.136 E10.03995
G1 X56.561 Y188.216 E10.07417
G1 X56.277 Y187.6 E10.09673
G1 X55.883 Y186.663 E10.13054
G1 X55.627 Y185.987 E10.15458
G1 X55.291 Y184.997 E10.18936
G1 X55.089 Y184.326 E10.21266
G1 X54.832 Y183.354 E10.2461
G1 X54.68 Y182.69 E10.26876
G1 X54.486 Y181.69 E10.30264
G1 X54.376 Y181 E10.32588
G1 X54.248 Y179.966 E10.36053
G1 X54.186 Y179.273 E10.38367
G1 X54.137 Y178.382 E10.41335
G1 X54.123 Y177.995 E10.42623
G1 X54.1 Y176.522 E10.47523
G1 X54.1 Y58.477 E14.40142
G1 X54.101 Y58.305 E14.40714
G1 X54.126 Y56.823 E14.45644
G1 X54.157 Y56.189 E14.47755
G1 X54.246 Y55.066 E14.51502
G1 X54.285 Y54.673 E14.52816
G1 X54.358 Y54.087 E14.5478
G1 X54.396 Y53.825 E14.5566
G1 X54.45 Y53.488 E14.56796
G1 X54.53 Y53.042 E14.58303
G1 X54.615 Y52.623 E14.59725
G1 X54.832 Y51.65 E14.6304
G1 X55 Y50.996 E14.65286
G1 X55.299 Y49.978 E14.68815
G1 X55.527 Y49.292 E14.71219
G1 X55.87 Y48.371 E14.74488
G1 X56.131 Y47.738 E14.76766
G1 X56.554 Y46.8 E14.80188
G1 X56.851 Y46.196 E14.82427
G1 X57.328 Y45.301 E14.858
G1 X57.689 Y44.677 E14.88197
G1 X58.255 Y43.775 E14.91739
G1 X58.644 Y43.2 E14.94048
G1 X59.221 Y42.406 E14.97313
G1 X59.653 Y41.852 E14.99649
G1 X60.334 Y41.039 E15.03177
G1 X60.794 Y40.526 E15.05468
G1 X61.484 Y39.807 E15.08783
G1 X61.981 Y39.323 E15.1109
G1 X62.741 Y38.632 E15.14507
G1 X63.272 Y38.182 E15.16822
G1 X64.069 Y37.551 E15.20203
G1 X64.637 Y37.132 E15.2255
G1 X65.503 Y36.539 E15.26041
G1 X66.085 Y36.169 E15.28335
G1 X66.938 Y35.666 E15.31629
G1 X67.55 Y35.333 E15.33946
G1 X68.494 Y34.86 E15.37458
G1 X69.117 Y34.573 E15.39739
G1 X70.037 Y34.187 E15.43058
G1 X70.71 Y33.932 E15.45451
G1 X71.696 Y33.598 E15.48914
G1 X72.358 Y33.399 E15.51213
G1 X73.355 Y33.135 E15.54643
G1 X74.026 Y32.981 E15.56933
G1 X74.981 Y32.796 E15.60168
G1 X75.656 Y32.689 E15.62442
G1 X76.696 Y32.559 E15.65927
G1 X77.396 Y32.496 E15.68265
G1 X78.334 Y32.444 E15.7139
G1 X78.723 Y32.43 E15.72684
G1 X80.174 Y32.406 E15.77511
G1 X154.826 Y32.406 E18.25805
G1 X154.998 Y32.407 E18.26377
G1 X156.481 Y32.432 E18.3131
G0 F9000 X156.488 Y32.033
G1 F3000 X157.151 Y32.064 E18.33517
G1 X158.293 Y32.155 E18.37328
G1 X159.042 Y32.242 E18.39836
G1 X160.03 Y32.392 E18.43159
G1 X160.734 Y32.523 E18.45541
G1 X161.726 Y32.743 E18.48921
G1 X162.426 Y32.924 E18.51326
G1 X163.448 Y33.225 E18.54869
G1 X164.136 Y33.453 E18.5728
G1 X165.051 Y33.792 E18.60525
G1 X165.723 Y34.068 E18.62941
G1 X166.664 Y34.492 E18.66374
G1 X167.297 Y34.803 E18.6872
G1 X168.199 Y35.284 E18.7212
G1 X168.842 Y35.656 E18.74591
G1 X169.732 Y36.214 E18.78085
G1 X170.343 Y36.628 E18.80539
G1 X171.161 Y37.224 E18.83906
G1 X171.714 Y37.656 E18.8624
G1 X172.491 Y38.305 E18.89607
G1 X173.028 Y38.785 E18.92002
G1 X173.762 Y39.488 E18.95383
G1 X174.267 Y40.006 E18.97789
G1 X174.95 Y40.756 E19.01163
G1 X175.425 Y41.315 E19.03603
G1 X176.085 Y42.149 E19.0714
G1 X176.509 Y42.723 E19.09514
G1 X177.065 Y43.532 E19.12778
G1 X177.458 Y44.148 E19.15209
G1 X177.988 Y45.046 E19.18677
G1 X178.334 Y45.681 E19.21082
G1 X178.795 Y46.6 E19.24502
G1 X179.093 Y47.249 E19.26877
G1 X179.486 Y48.185 E19.30253
G1 X179.749 Y48.876 E19.32713
G1 X180.086 Y49.867 E19.36194
G1 X180.299 Y50.573 E19.38647
G1 X180.556 Y51.546 E19.41994
G1 X180.697 Y52.152 E19.44063
G1 X180.861 Y52.963 E19.46815
G1 X180.973 Y53.606 E19.48986
G1 X181.027 Y53.988 E19.50269
G1 X181.143 Y54.927 E19.53416
G1 X181.206 Y55.618 E19.55724
G1 X181.261 Y56.574 E19.58909
G1 X181.276 Y57.003 E19.60337
G1 X181.3 Y58.476 E19.65236
G1 X181.3 Y176.521 E23.57856
G1 X181.298 Y176.7 E23.58451
G1 X181.273 Y178.183 E23.63384
G1 X181.242 Y178.839 E23.65569
G1 X181.154 Y179.953 E23.69285
G1 X181.116 Y180.347 E23.70602
G1 X181.079 Y180.664 E23.71663
G1 X181 Y181.231 E23.73567
G1 X180.943 Y181.582 E23.7475
G1 X180.863 Y182.028 E23.76257
G1 X180.776 Y182.464 E23.77736
G1 X180.559 Y183.437 E23.81052
G1 X180.383 Y184.117 E23.83388
G1 X180.084 Y185.135 E23.86917
G1 X179.847 Y185.848 E23.89416
G1 X179.511 Y186.75 E23.92617
G1 X179.248 Y187.393 E23.94928
G1 X178.82 Y188.346 E23.98403
G1 X178.503 Y188.992 E24.00796
G1 X178.024 Y189.89 E24.04181
G1 X177.653 Y190.531 E24.06644
G1 X177.087 Y191.434 E24.10189
G1 X176.68 Y192.035 E24.12603
G1 X176.103 Y192.829 E24.15868
G1 X175.654 Y193.405 E24.18297
G1 X174.973 Y194.218 E24.21824
G1 X174.501 Y194.745 E24.24177
G1 X173.836 Y195.439 E24.27374
G1 X173.319 Y195.942 E24.29773
G1 X172.513 Y196.676 E24.33399
G1 X171.949 Y197.155 E24.3586
G1 X171.176 Y197.766 E24.39137
G1 X170.6 Y198.19 E24.41516
G1 X169.727 Y198.789 E24.45037
G1 X169.099 Y199.189 E24.47514
G1 X168.241 Y199.693 E24.50824
G1 X167.625 Y200.028 E24.53156
G1 X166.71 Y200.487 E24.5656
G1 X166.063 Y200.784 E24.58928
G1 X165.123 Y201.179 E24.6232
G1 X164.418 Y201.447 E24.64828
G1 X163.432 Y201.781 E24.68291
G1 X162.744 Y201.988 E24.7068
G1 X161.747 Y202.252 E24.74111
G1 X161.05 Y202.412 E24.76489
G1 X160.095 Y202.597 E24.79724
G1 X159.394 Y202.708 E24.82085
G1 X158.354 Y202.838 E24.85571
G1 X157.626 Y202.904 E24.88002
G1 X156.688 Y202.956 E24.91127
G1 X156.284 Y202.97 E24.92471
G1 X154.826 Y202.994 E24.97321
G1 X85.662 Y202.994 E27.27362
G1 X79.868 Y202.989 E27.46633
G1 X78.463 Y202.965 E27.51306
G1 X77.798 Y202.933 E27.53521
G1 X76.724 Y202.847 E27.57104
G1 X76.213 Y202.794 E27.58813
G1 X75.663 Y202.723 E27.60658
G1 X75.141 Y202.642 E27.62415
G1 X74.647 Y202.553 E27.64084
G1 X74.222 Y202.468 E27.65526
G1 X73.261 Y202.254 E27.688
G1 X72.569 Y202.075 E27.71178
G1 X71.551 Y201.775 E27.74707
G1 X70.867 Y201.548 E27.77104
G1 X69.946 Y201.207 E27.80371
G1 X69.265 Y200.928 E27.82819
G1 X68.33 Y200.506 E27.86231
G1 X67.696 Y200.193 E27.88582
G1 X66.777 Y199.702 E27.92048
G1 X66.438 Y199.513 E27.93339
G1 X65.923 Y199.208 E27.95329
G1 X65.391 Y198.872 E27.97422
G1 X65.046 Y198.643 E27.98799
G1 X64.673 Y198.384 E28.0031
G1 X63.837 Y197.776 E28.03748
G1 X63.275 Y197.337 E28.0612
G1 X62.508 Y196.696 E28.09444
G1 X61.959 Y196.203 E28.11899
G1 X61.208 Y195.481 E28.15364
G1 X60.713 Y194.973 E28.17723
G1 X60.038 Y194.231 E28.21059
G1 X59.563 Y193.67 E28.23504
G1 X58.911 Y192.845 E28.27001
G1 X58.491 Y192.277 E28.29351
G1 X57.935 Y191.468 E28.32616
G1 X57.542 Y190.852 E28.35046
G1 X57.012 Y189.954 E28.38514
G1 X56.664 Y189.315 E28.40934
G1 X56.203 Y188.395 E28.44357
G1 X55.909 Y187.755 E28.46699
G1 X55.515 Y186.818 E28.5008
G1 X55.248 Y186.116 E28.52578
G1 X54.912 Y185.126 E28.56055
G1 X54.702 Y184.429 E28.58477
G1 X54.445 Y183.457 E28.61821
G1 X54.287 Y182.766 E28.64178
G1 X54.093 Y181.766 E28.67566
G1 X53.979 Y181.049 E28.69981
G1 X53.851 Y180.015 E28.73446
G1 X53.787 Y179.295 E28.7585
G1 X53.738 Y178.404 E28.78818
G1 X53.724 Y178.001 E28.8016
G1 X53.7 Y176.522 E28.85079
G1 X53.7 Y58.477 E32.77699
G1 X53.702 Y58.298 E32.78294
G1 X53.727 Y56.816 E32.83224
G1 X53.758 Y56.158 E32.85415
G1 X53.847 Y55.035 E32.89162
G1 X53.888 Y54.626 E32.90529
G1 X53.962 Y54.03 E32.92526
G1 X54 Y53.768 E32.93407
G1 X54.057 Y53.418 E32.94586
G1 X54.137 Y52.972 E32.96093
G1 X54.224 Y52.536 E32.97572
G1 X54.441 Y51.563 E33.00888
G1 X54.617 Y50.883 E33.03224
G1 X54.916 Y49.865 E33.06753
G1 X55.153 Y49.153 E33.09249
G1 X55.496 Y48.232 E33.12518
G1 X55.766 Y47.573 E33.14886
G1 X56.189 Y46.635 E33.18309
G1 X56.498 Y46.007 E33.20637
G1 X56.975 Y45.112 E33.2401
G1 X57.35 Y44.464 E33.265
G1 X57.916 Y43.562 E33.30042
G1 X58.32 Y42.965 E33.32439
G1 X58.897 Y42.171 E33.35704
G1 X59.346 Y41.595 E33.38133
G1 X60.027 Y40.782 E33.4166
G1 X60.505 Y40.249 E33.44041
G1 X61.195 Y39.53 E33.47356
G1 X61.712 Y39.027 E33.49755
G1 X62.472 Y38.336 E33.53171
G1 X63.023 Y37.868 E33.55576
G1 X63.82 Y37.237 E33.58957
G1 X64.411 Y36.802 E33.61398
G1 X65.277 Y36.209 E33.64888
G1 X65.882 Y35.824 E33.67274
G1 X66.735 Y35.321 E33.70567
G1 X67.371 Y34.975 E33.72975
G1 X68.315 Y34.502 E33.76487
G1 X68.962 Y34.204 E33.78856
G1 X69.882 Y33.818 E33.82175
G1 X70.582 Y33.553 E33.84664
G1 X71.568 Y33.219 E33.88127
G1 X72.256 Y33.012 E33.90516
G1 X73.253 Y32.748 E33.93947
G1 X73.95 Y32.588 E33.96325
G1 X74.905 Y32.403 E33.99561
G1 X75.606 Y32.292 E34.01921
G1 X76.646 Y32.162 E34.05407
G1 X77.374 Y32.096 E34.07838
G1 X78.312 Y32.044 E34.10963
G1 X78.716 Y32.03 E34.12307
G1 X80.174 Y32.006 E34.17157
G1 X154.826 Y32.006 E36.65451
G1 X155.005 Y32.008 E36.66046
G1 X156.488 Y32.033 E36.7098
G0 F9000 X156.494 Y31.633
G1 F3000 X157.183 Y31.666 E36.73274
G1 X158.325 Y31.757 E36.77084
G1 X159.102 Y31.847 E36.79686
G1 X160.09 Y31.997 E36.8301
G1 X160.821 Y32.133 E36.85483
G1 X161.813 Y32.353 E36.88862
G1 X162.539 Y32.54 E36.91356
G1 X163.561 Y32.841 E36.94899
G1 X164.275 Y33.078 E36.97401
G1 X165.19 Y33.417 E37.00647
G1 X165.887 Y33.703 E37.03153
G1 X166.828 Y34.127 E37.06585
G1 X167.485 Y34.45 E37.0902
G1 X168.387 Y34.931 E37.1242
G1 X169.054 Y35.317 E37.14984
G1 X169.944 Y35.875 E37.18477
G1 X170.579 Y36.305 E37.21028
G1 X171.397 Y36.901 E37.24394
G1 X171.971 Y37.349 E37.26816
G1 X172.748 Y37.998 E37.30183
G1 X173.305 Y38.496 E37.32668
G1 X174.039 Y39.199 E37.36049
G1 X174.563 Y39.737 E37.38547
G1 X175.246 Y40.487 E37.41921
G1 X175.739 Y41.067 E37.44452
G1 X176.399 Y41.901 E37.4799
G1 X176.838 Y42.497 E37.50452
G1 X177.394 Y43.306 E37.53717
G1 X177.802 Y43.945 E37.56238
G1 X178.332 Y44.843 E37.59707
G1 X178.691 Y45.502 E37.62202
G1 X179.152 Y46.421 E37.65622
G1 X179.462 Y47.095 E37.6809
G1 X179.855 Y48.031 E37.71466
G1 X180.127 Y48.748 E37.74017
G1 X180.464 Y49.739 E37.77498
G1 X180.685 Y50.471 E37.80041
G1 X180.942 Y51.444 E37.83388
G1 X181.089 Y52.073 E37.85537
G1 X181.253 Y52.884 E37.88289
G1 X181.368 Y53.543 E37.90514
G1 X181.424 Y53.939 E37.91844
G1 X181.54 Y54.878 E37.94991
G1 X181.605 Y55.595 E37.97385
G1 X181.66 Y56.551 E38.0057
G1 X181.676 Y56.996 E38.02051
G1 X181.7 Y58.476 E38.06975
G1 X181.7 Y176.521 E41.99594
G1 X181.698 Y176.706 E42.00209
G1 X181.673 Y178.189 E42.05142
G1 X181.641 Y178.87 E42.0741
G1 X181.553 Y179.984 E42.11127
G1 X181.513 Y180.393 E42.12493
G1 X181.436 Y181.013 E42.14571
G1 X181.396 Y181.289 E42.15499
G1 X181.337 Y181.653 E42.16725
G1 X181.257 Y182.099 E42.18232
G1 X181.166 Y182.551 E42.19766
G1 X180.949 Y183.524 E42.23082
G1 X180.767 Y184.23 E42.25507
G1 X180.468 Y185.248 E42.29036
G1 X180.222 Y185.988 E42.31629
G1 X179.886 Y186.89 E42.34831
G1 X179.612 Y187.557 E42.37229
G1 X179.184 Y188.51 E42.40704
G1 X178.856 Y189.18 E42.43185
G1 X178.377 Y190.078 E42.4657
G1 X177.991 Y190.743 E42.49127
G1 X177.425 Y191.646 E42.52672
G1 X177.004 Y192.271 E42.55178
G1 X176.427 Y193.065 E42.58443
G1 X175.961 Y193.661 E42.60959
G1 X175.28 Y194.474 E42.64487
G1 X174.789 Y195.021 E42.66931
G1 X174.124 Y195.715 E42.70128
G1 X173.588 Y196.238 E42.72619
G1 X172.782 Y196.972 E42.76245
G1 X172.197 Y197.469 E42.78798
G1 X171.424 Y198.08 E42.82075
G1 X170.826 Y198.52 E42.84544
G1 X169.953 Y199.119 E42.88066
G1 X169.301 Y199.534 E42.90636
G1 X168.443 Y200.038 E42.93946
G1 X167.804 Y200.385 E42.96364
G1 X166.889 Y200.844 E42.99769
G1 X166.218 Y201.153 E43.02226
G1 X165.278 Y201.548 E43.05618
G1 X164.546 Y201.825 E43.08221
G1 X163.56 Y202.159 E43.11683
G1 X162.847 Y202.375 E43.14161
G1 X161.85 Y202.639 E43.17591
G1 X161.126 Y202.804 E43.20061
G1 X160.171 Y202.989 E43.23297
G1 X159.443 Y203.105 E43.25748
G1 X158.403 Y203.235 E43.29234
G1 X157.648 Y203.303 E43.31756
