;FLAVOR:Marlin
;TIME:14494
;Filament used: 9.85957m
;Layer height: 0.2
;MINX:45.8
;MINY:24.106
;MINZ:0.2
;MAXX:174.2
;MAXY:195.894
;MAXZ:2.4
;POSTPROCESSED
;Generated with Cura_SteamEngine master
M140 S60
M105
M190 S60
M104 S200
M105
M109 S200
M82 ;absolute extrusion mode
; Ender 3 Custom Start G-code
G92 E0 ; Reset Extruder
G28 ; Home all axes
G1 Z2.0 F3000 ; Move Z Axis up little to prevent scratching of Heat Bed
G1 X0.1 Y20 Z0.3 F5000.0 ; Move to start position
G1 X0.1 Y200.0 Z0.3 F1500.0 E15 ; Draw the first line
G1 X0.4 Y200.0 Z0.3 F5000.0 ; Move to side a little
G1 X0.4 Y20 Z0.3 F1500.0 E30 ; Draw the second line
G92 E0 ; Reset Extruder
G1 Z2.0 F3000 ; Move Z Axis up little to prevent scratching of Heat Bed
G1 X5 Y20 Z0.3 F5000.0 ; Move over to prevent blob squish
G92 E0
G92 E0
G1 F1500 E-6.5
;LAYER_COUNT:12
;LAYER:0
M107
G0 F6000 X50.496 Y35.231 Z0.2
;TYPE:SKIRT
G1 F1500 E0
G1 F1200 X51.075 Y34.434 E0.03277
G1 X51.547 Y33.829 E0.05829
G1 X52.235 Y33.009 E0.09389
G1 X52.741 Y32.446 E0.11907
G1 X53.455 Y31.705 E0.15329
G1 X53.987 Y31.189 E0.17794
G1 X54.705 Y30.538 E0.21018
G1 X55.279 Y30.053 E0.23517
G1 X56.138 Y29.375 E0.27157
G1 X56.747 Y28.927 E0.29671
G1 X57.546 Y28.381 E0.3289
G1 X58.172 Y27.983 E0.35357
G1 X59.069 Y27.455 E0.38819
G1 X59.734 Y27.094 E0.41336
G1 X60.633 Y26.645 E0.44678
G1 X61.286 Y26.345 E0.47068
G1 X62.221 Y25.952 E0.50442
G1 X62.954 Y25.675 E0.53048
G1 X63.94 Y25.341 E0.5651
G1 X64.662 Y25.123 E0.59019
G1 X65.689 Y24.852 E0.62552
G1 X66.427 Y24.684 E0.65069
G1 X67.393 Y24.499 E0.6834
G1 X68.122 Y24.385 E0.70794
G1 X69.173 Y24.256 E0.74316
G1 X69.608 Y24.211 E0.75771
G1 X69.822 Y24.193 E0.76485
G1 X70.308 Y24.16 E0.78105
G1 X70.653 Y24.144 E0.79254
G1 X70.919 Y24.135 E0.80139
G1 X71.307 Y24.126 E0.8143
G1 X71.675 Y24.114 E0.82655
G1 X71.961 Y24.108 E0.83606
G1 X72.224 Y24.106 E0.84481
G1 X147.375 Y24.106 E3.34434
G1 X147.555 Y24.107 E3.35033
G1 X149.084 Y24.132 E3.40119
G1 X149.581 Y24.152 E3.41773
G1 X149.954 Y24.175 E3.43016
G1 X150.258 Y24.198 E3.4403
G1 X150.85 Y24.251 E3.46007
G1 X151.305 Y24.301 E3.4753
G1 X151.7 Y24.353 E3.48855
G1 X152.001 Y24.397 E3.49867
G1 X152.47 Y24.472 E3.51446
G1 X152.724 Y24.516 E3.52304
G1 X152.974 Y24.562 E3.53149
G1 X153.384 Y24.645 E3.5454
G1 X154.332 Y24.857 E3.57771
G1 X155.042 Y25.041 E3.60211
G1 X156.073 Y25.345 E3.63786
G1 X156.789 Y25.583 E3.66295
G1 X157.724 Y25.93 E3.69613
G1 X158.435 Y26.223 E3.7217
G1 X159.347 Y26.636 E3.755
G1 X159.619 Y26.763 E3.76499
G1 X160.058 Y26.986 E3.78136
G1 X160.91 Y27.443 E3.81352
G1 X161.56 Y27.821 E3.83853
G1 X162.46 Y28.386 E3.87387
G1 X163.076 Y28.802 E3.89859
G1 X163.869 Y29.378 E3.93119
G1 X164.47 Y29.848 E3.95657
G1 X165.292 Y30.537 E3.99224
G1 X165.846 Y31.034 E4.017
G1 X166.556 Y31.716 E4.04974
G1 X166.865 Y32.024 E4.06425
G1 X167.117 Y32.293 E4.07651
G1 X167.768 Y33.011 E4.10875
G1 X168.253 Y33.585 E4.13374
G1 X168.931 Y34.444 E4.17014
G1 X169.379 Y35.053 E4.19529
G1 X169.925 Y35.852 E4.22747
G1 X170.323 Y36.478 E4.25214
G1 X170.851 Y37.375 E4.28676
G1 X171.21 Y38.036 E4.31178
G1 X171.659 Y38.934 E4.34518
G1 X171.962 Y39.595 E4.36936
G1 X172.355 Y40.531 E4.40312
G1 X172.628 Y41.251 E4.42874
G1 X172.964 Y42.24 E4.46348
G1 X173.186 Y42.974 E4.48898
G1 X173.453 Y43.987 E4.52382
G1 X173.618 Y44.712 E4.54855
G1 X173.803 Y45.673 E4.5811
G1 X173.917 Y46.396 E4.60545
G1 X174.042 Y47.402 E4.63917
G1 X174.111 Y48.175 E4.66498
G1 X174.166 Y49.211 E4.69948
G1 X174.178 Y49.535 E4.71027
G1 X174.192 Y49.98 E4.72508
G1 X174.198 Y50.266 E4.73459
G1 X174.2 Y50.528 E4.7433
G1 X174.2 Y169.07 E8.68603
G1 X174.199 Y169.25 E8.69201
G1 X174.174 Y170.779 E8.74288
G1 X174.153 Y171.293 E8.75999
G1 X174.132 Y171.625 E8.77105
G1 X174.112 Y171.891 E8.77992
G1 X174.071 Y172.359 E8.79555
G1 X174.036 Y172.696 E8.80682
G1 X174.005 Y172.957 E8.81556
G1 X173.957 Y173.315 E8.82757
G1 X173.81 Y174.281 E8.86007
G1 X173.759 Y174.589 E8.87046
G1 X173.665 Y175.057 E8.88633
G1 X173.454 Y176.009 E8.91876
G1 X173.264 Y176.745 E8.94405
G1 X172.963 Y177.764 E8.97939
G1 X172.719 Y178.495 E9.00502
G1 X172.367 Y179.438 E9.0385
G1 X172.087 Y180.12 E9.06302
G1 X171.675 Y181.032 E9.0963
G1 X171.543 Y181.313 E9.10663
G1 X171.314 Y181.763 E9.12342
G1 X170.851 Y182.624 E9.15594
G1 X170.483 Y183.257 E9.18029
G1 X169.925 Y184.147 E9.21523
G1 X169.504 Y184.769 E9.24021
G1 X168.925 Y185.566 E9.27297
G1 X168.453 Y186.171 E9.2985
G1 X167.765 Y186.991 E9.3341
G1 X167.261 Y187.552 E9.35918
G1 X166.555 Y188.285 E9.39303
G1 X166.025 Y188.799 E9.41758
G1 X165.299 Y189.458 E9.4502
G1 X164.721 Y189.947 E9.47538
G1 X163.862 Y190.625 E9.51177
G1 X163.253 Y191.073 E9.53692
G1 X162.454 Y191.619 E9.56911
G1 X161.828 Y192.017 E9.59378
G1 X160.931 Y192.545 E9.6284
G1 X160.27 Y192.904 E9.65342
G1 X159.376 Y193.351 E9.68666
G1 X158.718 Y193.653 E9.71074
G1 X157.778 Y194.048 E9.74465
G1 X157.046 Y194.325 E9.77069
G1 X156.06 Y194.659 E9.80531
G1 X155.338 Y194.877 E9.8304
G1 X154.311 Y195.148 E9.86572
G1 X153.573 Y195.316 E9.8909
G1 X152.607 Y195.501 E9.92361
G1 X151.878 Y195.615 E9.94815
G1 X150.827 Y195.744 E9.98337
G1 X150.392 Y195.789 E9.99792
G1 X150.178 Y195.807 E10.00506
G1 X149.692 Y195.84 E10.02126
G1 X149.347 Y195.856 E10.03275
G1 X149.081 Y195.865 E10.0416
G1 X148.693 Y195.874 E10.05451
G1 X148.325 Y195.886 E10.06675
G1 X148.039 Y195.892 E10.07627
G1 X147.776 Y195.894 E10.08502
G1 X72.674 Y195.894 E12.58292
G1 X72.488 Y195.892 E12.58911
G1 X71.006 Y195.867 E12.6384
G1 X70.659 Y195.856 E12.64995
G1 X70.494 Y195.848 E12.65545
G1 X70.131 Y195.824 E12.66755
G1 X69.128 Y195.742 E12.70102
G1 X68.59 Y195.685 E12.71901
G1 X68.301 Y195.647 E12.72871
G1 X67.991 Y195.602 E12.73912
G1 X67.524 Y195.527 E12.75486
G1 X67.285 Y195.486 E12.76292
G1 X67.034 Y195.44 E12.77141
G1 X66.616 Y195.355 E12.7856
G1 X65.668 Y195.143 E12.81791
G1 X64.958 Y194.959 E12.8423
G1 X63.927 Y194.655 E12.87805
G1 X63.211 Y194.417 E12.90315
G1 X62.276 Y194.07 E12.93632
G1 X61.565 Y193.777 E12.96189
G1 X60.653 Y193.364 E12.99519
G1 X60.381 Y193.237 E13.00518
G1 X59.942 Y193.014 E13.02155
G1 X59.09 Y192.557 E13.05371
G1 X58.44 Y192.179 E13.07872
G1 X57.54 Y191.614 E13.11406
G1 X56.922 Y191.197 E13.13886
G1 X56.128 Y190.62 E13.17151
G1 X55.529 Y190.151 E13.19681
G1 X54.707 Y189.462 E13.23248
G1 X54.153 Y188.965 E13.25724
G1 X53.444 Y188.284 E13.28993
G1 X53.138 Y187.978 E13.30433
G1 X52.882 Y187.706 E13.31675
G1 X52.231 Y186.988 E13.34899
G1 X51.746 Y186.414 E13.37398
G1 X51.068 Y185.555 E13.41038
G1 X50.618 Y184.944 E13.43562
G1 X50.073 Y184.146 E13.46776
G1 X49.677 Y183.522 E13.49234
G1 X49.149 Y182.625 E13.52696
G1 X48.788 Y181.96 E13.55212
G1 X48.339 Y181.061 E13.58555
G1 X48.04 Y180.41 E13.60937
G1 X47.646 Y179.473 E13.64318
G1 X47.37 Y178.744 E13.66911
G1 X47.034 Y177.754 E13.70388
G1 X46.815 Y177.031 E13.72901
G1 X46.558 Y176.059 E13.76245
G1 X46.439 Y175.56 E13.77951
G1 X46.381 Y175.278 E13.78908
G1 X46.198 Y174.328 E13.82126
G1 X46.082 Y173.596 E13.84591
G1 X45.953 Y172.552 E13.8809
G1 X45.886 Y171.801 E13.90598
G1 X45.838 Y170.92 E13.93532
G1 X45.824 Y170.508 E13.94903
G1 X45.802 Y169.208 E13.99228
G1 X45.8 Y169.022 E13.99846
G1 X45.8 Y50.93 E17.92622
G1 X45.801 Y50.75 E17.93221
G1 X45.826 Y49.221 E17.98307
G1 X45.847 Y48.707 E18.00018
G1 X45.868 Y48.375 E18.01124
G1 X45.888 Y48.109 E18.02012
G1 X45.929 Y47.641 E18.03574
G1 X45.964 Y47.304 E18.04701
G1 X45.995 Y47.043 E18.05575
G1 X46.043 Y46.685 E18.06777
G1 X46.19 Y45.719 E18.10026
G1 X46.241 Y45.411 E18.11065
G1 X46.335 Y44.943 E18.12653
G1 X46.546 Y43.991 E18.15896
G1 X46.736 Y43.255 E18.18424
G1 X47.037 Y42.236 E18.21958
G1 X47.281 Y41.505 E18.24521
G1 X47.633 Y40.562 E18.27869
G1 X47.914 Y39.879 E18.30325
G1 X48.328 Y38.963 E18.33669
G1 X48.451 Y38.701 E18.34631
G1 X48.679 Y38.251 E18.36309
G1 X49.134 Y37.402 E18.39513
G1 X49.511 Y36.751 E18.42015
G1 X50.077 Y35.849 E18.45557
G1 X50.496 Y35.231 E18.4804
G0 F6000 X50.819 Y35.466
G1 F1200 X51.398 Y34.669 E18.51317
G1 X51.854 Y34.086 E18.53778
G1 X52.542 Y33.266 E18.57339
G1 X53.029 Y32.724 E18.59762
G1 X53.743 Y31.983 E18.63185
G1 X54.256 Y31.485 E18.65563
G1 X54.974 Y30.834 E18.68786
G1 X55.527 Y30.366 E18.71196
G1 X56.386 Y29.688 E18.74835
G1 X56.972 Y29.257 E18.77255
G1 X57.771 Y28.711 E18.80474
G1 X58.375 Y28.328 E18.82852
G1 X59.272 Y27.8 E18.86314
G1 X59.913 Y27.452 E18.8874
G1 X60.812 Y27.003 E18.92082
G1 X61.441 Y26.714 E18.94385
G1 X62.376 Y26.321 E18.97758
G1 X63.082 Y26.053 E19.0027
G1 X64.068 Y25.719 E19.03732
G1 X64.764 Y25.51 E19.06149
G1 X65.791 Y25.239 E19.09682
G1 X66.502 Y25.077 E19.12107
G1 X67.468 Y24.892 E19.15379
G1 X68.171 Y24.782 E19.17745
G1 X69.222 Y24.653 E19.21267
G1 X69.641 Y24.61 E19.22668
G1 X69.858 Y24.592 E19.23392
G1 X70.327 Y24.559 E19.24956
G1 X70.672 Y24.543 E19.26105
G1 X70.928 Y24.535 E19.26957
G1 X71.328 Y24.526 E19.28287
G1 X71.688 Y24.514 E19.29486
G1 X71.964 Y24.508 E19.30404
G1 X72.227 Y24.506 E19.31278
G1 X147.375 Y24.506 E21.81222
G1 X147.548 Y24.507 E21.81797
G1 X149.077 Y24.532 E21.86883
G1 X149.556 Y24.551 E21.88478
G1 X149.929 Y24.574 E21.89721
G1 X150.222 Y24.596 E21.90698
G1 X150.814 Y24.649 E21.92675
G1 X151.253 Y24.698 E21.94144
G1 X151.648 Y24.75 E21.95469
G1 X151.938 Y24.792 E21.96444
G1 X152.407 Y24.867 E21.98023
G1 X152.651 Y24.909 E21.98847
G1 X152.901 Y24.955 E21.99692
G1 X153.296 Y25.036 E22.01034
G1 X154.244 Y25.248 E22.04264
G1 X154.929 Y25.425 E22.06618
G1 X155.96 Y25.729 E22.10193
G1 X156.65 Y25.958 E22.12611
G1 X157.585 Y26.305 E22.15928
G1 X158.27 Y26.587 E22.18392
G1 X159.182 Y27 E22.21721
G1 X159.446 Y27.124 E22.22692
G1 X159.869 Y27.339 E22.2427
G1 X160.721 Y27.796 E22.27485
G1 X161.347 Y28.159 E22.29892
G1 X162.247 Y28.724 E22.33427
G1 X162.84 Y29.126 E22.35809
G1 X163.633 Y29.702 E22.39069
G1 X164.213 Y30.154 E22.41515
G1 X165.035 Y30.843 E22.45082
G1 X165.569 Y31.322 E22.47468
G1 X166.279 Y32.004 E22.50743
G1 X166.578 Y32.303 E22.52149
G1 X166.821 Y32.562 E22.5333
G1 X167.472 Y33.28 E22.56554
G1 X167.94 Y33.833 E22.58964
G1 X168.618 Y34.692 E22.62603
G1 X169.049 Y35.278 E22.65023
G1 X169.595 Y36.077 E22.68241
G1 X169.978 Y36.681 E22.7062
G1 X170.506 Y37.578 E22.74082
G1 X170.852 Y38.215 E22.76493
G1 X171.301 Y39.113 E22.79832
G1 X171.593 Y39.749 E22.8216
G1 X171.986 Y40.685 E22.85537
G1 X172.25 Y41.379 E22.88006
G1 X172.586 Y42.368 E22.9148
G1 X172.799 Y43.076 E22.93939
G1 X173.066 Y44.089 E22.97424
G1 X173.225 Y44.787 E22.99805
G1 X173.41 Y45.748 E23.0306
G1 X173.52 Y46.445 E23.05407
G1 X173.645 Y47.451 E23.08778
G1 X173.711 Y48.196 E23.11266
G1 X173.766 Y49.232 E23.14716
G1 X173.778 Y49.545 E23.15758
G1 X173.792 Y49.993 E23.17249
G1 X173.798 Y50.269 E23.18167
G1 X173.8 Y50.531 E23.19039
G1 X173.8 Y169.07 E27.13301
G1 X173.799 Y169.243 E27.13876
G1 X173.774 Y170.772 E27.18963
G1 X173.754 Y171.268 E27.20614
G1 X173.733 Y171.6 E27.2172
G1 X173.714 Y171.856 E27.22574
G1 X173.673 Y172.324 E27.24136
G1 X173.639 Y172.649 E27.25223
G1 X173.608 Y172.91 E27.26097
G1 X173.561 Y173.255 E27.27255
G1 X173.414 Y174.221 E27.30505
G1 X173.365 Y174.519 E27.3151
G1 X173.275 Y174.971 E27.33043
G1 X173.064 Y175.923 E27.36286
G1 X172.881 Y176.632 E27.38721
G1 X172.58 Y177.651 E27.42255
G1 X172.345 Y178.355 E27.44724
G1 X171.993 Y179.298 E27.48072
G1 X171.722 Y179.955 E27.50435
G1 X171.31 Y180.867 E27.53764
G1 X171.182 Y181.14 E27.54767
G1 X170.962 Y181.573 E27.56382
G1 X170.499 Y182.434 E27.59634
G1 X170.144 Y183.045 E27.61984
G1 X169.586 Y183.935 E27.65478
G1 X169.181 Y184.534 E27.67883
G1 X168.602 Y185.331 E27.71159
G1 X168.146 Y185.914 E27.73621
G1 X167.458 Y186.734 E27.77181
G1 X166.973 Y187.274 E27.79595
G1 X166.267 Y188.007 E27.8298
G1 X165.756 Y188.503 E27.85349
G1 X165.03 Y189.162 E27.8861
G1 X164.473 Y189.634 E27.91038
G1 X163.614 Y190.312 E27.94678
G1 X163.028 Y190.743 E27.97097
G1 X162.229 Y191.289 E28.00316
G1 X161.625 Y191.672 E28.02695
G1 X160.728 Y192.2 E28.06157
G1 X160.091 Y192.546 E28.08568
G1 X159.197 Y192.993 E28.11892
G1 X158.563 Y193.284 E28.14212
G1 X157.623 Y193.679 E28.17604
G1 X156.918 Y193.947 E28.20112
G1 X155.932 Y194.281 E28.23575
G1 X155.236 Y194.49 E28.25992
G1 X154.209 Y194.761 E28.29524
G1 X153.498 Y194.923 E28.3195
G1 X152.532 Y195.108 E28.35221
G1 X151.829 Y195.218 E28.37588
G1 X150.778 Y195.347 E28.4111
G1 X150.359 Y195.39 E28.42511
G1 X150.142 Y195.408 E28.43235
G1 X149.673 Y195.441 E28.44799
G1 X149.328 Y195.457 E28.45947
G1 X149.072 Y195.465 E28.46799
G1 X148.672 Y195.474 E28.4813
G1 X148.312 Y195.486 E28.49328
G1 X148.036 Y195.492 E28.50246
G1 X147.773 Y195.494 E28.51121
G1 X72.674 Y195.494 E31.00901
G1 X71.013 Y195.467 E31.06426
G1 X70.679 Y195.457 E31.07538
G1 X70.514 Y195.449 E31.08087
G1 X70.163 Y195.426 E31.09257
G1 X69.16 Y195.344 E31.12604
G1 X68.642 Y195.289 E31.14337
G1 X68.353 Y195.251 E31.15306
G1 X68.054 Y195.207 E31.16312
G1 X67.587 Y195.132 E31.17885
G1 X67.357 Y195.092 E31.18661
G1 X67.106 Y195.046 E31.1951
G1 X66.704 Y194.964 E31.20875
G1 X65.756 Y194.752 E31.24105
G1 X65.071 Y194.575 E31.26459
G1 X64.04 Y194.271 E31.30034
G1 X63.35 Y194.042 E31.32452
G1 X62.415 Y193.695 E31.35769
G1 X61.73 Y193.413 E31.38233
G1 X60.818 Y193 E31.41563
G1 X60.554 Y192.876 E31.42533
G1 X60.131 Y192.661 E31.44111
G1 X59.279 Y192.204 E31.47326
G1 X58.653 Y191.841 E31.49733
G1 X57.753 Y191.276 E31.53268
G1 X57.158 Y190.873 E31.55658
G1 X56.364 Y190.296 E31.58922
G1 X55.786 Y189.845 E31.61361
G1 X54.964 Y189.156 E31.64928
G1 X54.43 Y188.677 E31.67314
G1 X53.721 Y187.996 E31.70584
G1 X53.425 Y187.7 E31.71976
G1 X53.178 Y187.437 E31.73176
G1 X52.527 Y186.719 E31.764
G1 X52.059 Y186.166 E31.78809
G1 X51.381 Y185.307 E31.82449
G1 X50.949 Y184.718 E31.84878
G1 X50.404 Y183.92 E31.88093
G1 X50.022 Y183.319 E31.90461
G1 X49.494 Y182.422 E31.93923
G1 X49.146 Y181.781 E31.96349
G1 X48.697 Y180.882 E31.99691
G1 X48.409 Y180.255 E32.01986
G1 X48.015 Y179.318 E32.05367
G1 X47.748 Y178.616 E32.07865
G1 X47.412 Y177.626 E32.11342
G1 X47.202 Y176.929 E32.13763
G1 X46.945 Y175.957 E32.17107
G1 X46.83 Y175.475 E32.18755
G1 X46.773 Y175.202 E32.19683
G1 X46.59 Y174.252 E32.22901
G1 X46.479 Y173.547 E32.25275
G1 X46.35 Y172.503 E32.28773
G1 X46.286 Y171.78 E32.31187
G1 X46.238 Y170.899 E32.34122
G1 X46.224 Y170.501 E32.35447
G1 X46.2 Y169.022 E32.40366
G1 X46.2 Y50.93 E36.33142
G1 X46.201 Y50.757 E36.33717
G1 X46.226 Y49.228 E36.38804
G1 X46.246 Y48.732 E36.40455
G1 X46.267 Y48.4 E36.41561
G1 X46.286 Y48.144 E36.42415
G1 X46.327 Y47.676 E36.43977
G1 X46.361 Y47.351 E36.45064
G1 X46.392 Y47.09 E36.45938
G1 X46.439 Y46.745 E36.47096
G1 X46.586 Y45.779 E36.50346
G1 X46.635 Y45.481 E36.51351
G1 X46.725 Y45.029 E36.52884
G1 X46.936 Y44.077 E36.56127
G1 X47.119 Y43.368 E36.58562
G1 X47.42 Y42.349 E36.62096
G1 X47.655 Y41.645 E36.64565
G1 X48.007 Y40.702 E36.67913
G1 X48.279 Y40.043 E36.70284
G1 X48.693 Y39.127 E36.73627
G1 X48.811 Y38.874 E36.74556
G1 X49.031 Y38.44 E36.76174
G1 X49.486 Y37.591 E36.79378
G1 X49.85 Y36.964 E36.81789
G1 X50.416 Y36.062 E36.85331
G1 X50.819 Y35.466 E36.87724
G0 F6000 X51.143 Y35.701
G1 F1200 X51.722 Y34.904 E36.91
G1 X52.16 Y34.343 E36.93368
G1 X52.848 Y33.523 E36.96928
G1 X53.317 Y33.002 E36.99259
G1 X54.031 Y32.261 E37.02682
G1 X54.525 Y31.782 E37.0497
G1 X55.243 Y31.131 E37.08194
G1 X55.775 Y30.68 E37.10514
G1 X56.634 Y30.002 E37.14153
G1 X57.198 Y29.588 E37.1648
G1 X57.997 Y29.042 E37.19699
G1 X58.578 Y28.673 E37.21988
G1 X59.475 Y28.145 E37.2545
G1 X60.091 Y27.81 E37.27783
G1 X60.99 Y27.361 E37.31125
G1 X61.596 Y27.083 E37.33342
G1 X62.531 Y26.69 E37.36716
G1 X63.21 Y26.432 E37.39132
G1 X64.196 Y26.098 E37.42594
G1 X64.867 Y25.897 E37.44924
G1 X65.894 Y25.626 E37.48457
G1 X66.577 Y25.47 E37.50787
G1 X67.543 Y25.285 E37.54058
G1 X68.219 Y25.179 E37.56334
G1 X69.27 Y25.05 E37.59856
G1 X69.674 Y25.009 E37.61206
G1 X69.895 Y24.99 E37.61944
G1 X70.345 Y24.959 E37.63444
G1 X70.69 Y24.943 E37.64593
G1 X70.937 Y24.935 E37.65415
G1 X71.351 Y24.926 E37.66792
G1 X71.702 Y24.914 E37.6796
G1 X71.967 Y24.908 E37.68842
G1 X72.23 Y24.906 E37.69717
G1 X147.375 Y24.906 E40.1965
G1 X147.542 Y24.907 E40.20206
G1 X149.071 Y24.932 E40.25292
G1 X149.532 Y24.95 E40.26826
G1 X149.905 Y24.973 E40.28069
