;FLAVOR:Marlin
;TIME:10944
;Filament used: 4.30287m
;Layer height: 0.2
;MINX:62.047
;MINY:67.011
;MINZ:0.2
;MAXX:157.953
;MAXY:153.097
;MAXZ:26.6
;Generated with Cura_SteamEngine master
M140 S60
M105
M190 S60
M104 S200
M105
M109 S200
M82 ;absolute extrusion mode
; Ender 3 Custom Start G-code
G92 E0 ; Reset Extruder
G28 ; Home all axes
G1 Z2.0 F3000 ; Move Z Axis up little to prevent scratching of Heat Bed
G1 X0.1 Y20 Z0.3 F5000.0 ; Move to start position
G1 X0.1 Y200.0 Z0.3 F1500.0 E15 ; Draw the first line
G1 X0.4 Y200.0 Z0.3 F5000.0 ; Move to side a little
G1 X0.4 Y20 Z0.3 F1500.0 E30 ; Draw the second line
G92 E0 ; Reset Extruder
G1 Z2.0 F3000 ; Move Z Axis up little to prevent scratching of Heat Bed
G1 X5 Y20 Z0.3 F5000.0 ; Move over to prevent blob squish
G92 E0
G92 E0
G1 F1500 E-6.5
;LAYER_COUNT:133
;LAYER:0
M107
G0 F6000 X83.137 Y70.881 Z0.2
;TYPE:SKIRT
G1 F1500 E0
G1 F1200 X83.776 Y70.194 E0.03121
G1 X84.471 Y69.564 E0.06241
G1 X85.217 Y68.996 E0.09359
G1 X86.009 Y68.493 E0.1248
G1 X86.84 Y68.06 E0.15596
G1 X87.706 Y67.698 E0.18718
G1 X88.599 Y67.412 E0.21837
G1 X89.513 Y67.204 E0.24955
G1 X90.442 Y67.073 E0.28075
G1 X91.34 Y67.023 E0.31066
G1 X92.076 Y67.012 E0.33515
G1 X92.246 Y67.011 E0.3408
G1 X127.962 Y67.032 E1.52872
G1 X128.638 Y67.043 E1.55121
G1 X129.574 Y67.099 E1.58239
G1 X130.502 Y67.233 E1.61358
G1 X131.416 Y67.447 E1.6448
G1 X132.307 Y67.737 E1.67597
G1 X133.171 Y68.102 E1.70716
G1 X134.001 Y68.54 E1.73838
G1 X134.79 Y69.047 E1.76957
G1 X135.533 Y69.619 E1.80076
G1 X136.225 Y70.252 E1.83195
G1 X136.861 Y70.942 E1.86316
G1 X137.435 Y71.683 E1.89434
G1 X137.904 Y72.403 E1.92292
G1 X138.221 Y72.934 E1.94348
G1 X156.167 Y104.015 E3.13719
G1 X156.554 Y104.705 E3.1635
G1 X156.976 Y105.542 E3.19468
G1 X157.326 Y106.412 E3.22587
G1 X157.6 Y107.309 E3.25706
G1 X157.797 Y108.226 E3.28826
G1 X157.915 Y109.157 E3.31947
G1 X157.953 Y110.076 E3.35006
G1 X157.913 Y111.013 E3.38126
G1 X157.793 Y111.943 E3.41245
G1 X157.595 Y112.86 E3.44365
G1 X157.319 Y113.756 E3.47483
G1 X156.968 Y114.626 E3.50603
G1 X156.557 Y115.438 E3.5363
G1 X156.147 Y116.171 E3.56424
G1 X138.308 Y147.107 E4.75199
G1 X137.954 Y147.703 E4.77504
G1 X137.441 Y148.489 E4.80626
G1 X136.863 Y149.227 E4.83744
G1 X136.224 Y149.914 E4.86864
G1 X135.529 Y150.544 E4.89984
G1 X134.783 Y151.112 E4.93103
G1 X133.991 Y151.615 E4.96223
G1 X133.16 Y152.048 E4.9934
G1 X132.294 Y152.41 E5.02462
G1 X131.401 Y152.696 E5.05581
G1 X130.487 Y152.904 E5.08698
G1 X129.558 Y153.035 E5.11819
G1 X128.661 Y153.085 E5.14807
G1 X127.926 Y153.096 E5.17252
G1 X127.754 Y153.097 E5.17824
G1 X92.092 Y153.075 E6.36436
G1 X91.402 Y153.065 E6.38731
G1 X90.465 Y153.011 E6.41853
G1 X89.537 Y152.878 E6.44971
G1 X88.623 Y152.666 E6.48092
G1 X87.731 Y152.378 E6.51209
G1 X86.866 Y152.014 E6.54331
G1 X86.272 Y151.711 E6.56548
G1 X86.241 Y151.694 E6.56666
G1 X85.438 Y151.208 E6.59788
G1 X84.68 Y150.656 E6.62907
G1 X83.972 Y150.041 E6.66026
G1 X83.319 Y149.369 E6.69142
G1 X82.725 Y148.642 E6.72265
G1 X82.079 Y147.677 E6.76127
G1 X81.661 Y146.973 E6.7885
G1 X63.833 Y116.093 E7.97446
G1 X63.75 Y115.947 E7.98004
G1 X63.438 Y115.387 E8.00136
G1 X63.017 Y114.549 E8.03256
G1 X62.668 Y113.678 E8.06376
G1 X62.396 Y112.781 E8.09494
G1 X62.2 Y111.863 E8.12616
G1 X62.084 Y110.933 E8.15733
G1 X62.047 Y109.995 E8.18855
G1 X62.09 Y109.059 E8.21972
G1 X62.213 Y108.129 E8.25092
G1 X62.415 Y107.213 E8.28212
G1 X62.694 Y106.317 E8.31333
G1 X63.048 Y105.449 E8.34451
G1 X63.439 Y104.677 E8.37329
G1 X63.774 Y104.076 E8.39618
G1 X81.621 Y73.123 E9.58455
G1 X81.692 Y73.001 E9.58924
G1 X82.046 Y72.405 E9.6123
G1 X82.559 Y71.619 E9.64352
G1 X83.137 Y70.881 E9.67469
G0 F6000 X83.463 Y71.115
G1 F1200 X84.093 Y70.443 E9.70533
G1 X84.779 Y69.829 E9.73595
G1 X85.515 Y69.276 E9.76657
G1 X86.297 Y68.789 E9.79721
G1 X87.117 Y68.372 E9.82781
G1 X87.971 Y68.028 E9.85843
G1 X88.852 Y67.759 E9.88907
G1 X89.752 Y67.568 E9.91967
G1 X90.666 Y67.455 E9.9503
G1 X91.346 Y67.423 E9.97294
G1 X92.082 Y67.412 E9.99743
G1 X92.246 Y67.411 E10.00288
G1 X127.955 Y67.432 E11.19057
G1 X128.631 Y67.443 E11.21305
G1 X129.55 Y67.498 E11.24367
G1 X130.461 Y67.633 E11.27431
G1 X131.357 Y67.846 E11.30494
G1 X132.231 Y68.136 E11.33556
G1 X133.076 Y68.5 E11.36617
G1 X133.887 Y68.937 E11.39681
G1 X134.656 Y69.442 E11.42741
G1 X135.379 Y70.012 E11.45803
G1 X136.05 Y70.643 E11.48866
G1 X136.663 Y71.33 E11.51929
G1 X137.215 Y72.067 E11.54991
G1 X137.561 Y72.609 E11.5713
G1 X137.956 Y73.273 E11.597
G1 X155.821 Y104.215 E12.78535
G1 X156.205 Y104.9 E12.81147
G1 X156.619 Y105.722 E12.84208
G1 X156.96 Y106.577 E12.8727
G1 X157.226 Y107.459 E12.90334
G1 X157.414 Y108.36 E12.93395
G1 X157.523 Y109.274 E12.96456
G1 X157.553 Y110.076 E12.99126
G1 X157.513 Y110.996 E13.02189
G1 X157.393 Y111.909 E13.05251
G1 X157.195 Y112.808 E13.08313
G1 X156.919 Y113.686 E13.11374
G1 X156.568 Y114.537 E13.14436
G1 X156.208 Y115.243 E13.17072
G1 X155.801 Y115.971 E13.19846
G1 X137.964 Y146.903 E14.38606
G1 X137.61 Y147.499 E14.40911
G1 X137.106 Y148.27 E14.43975
G1 X136.537 Y148.993 E14.47035
G1 X135.907 Y149.665 E14.50099
G1 X135.221 Y150.279 E14.53161
G1 X134.485 Y150.832 E14.56223
G1 X133.703 Y151.319 E14.59287
G1 X132.883 Y151.736 E14.62347
G1 X132.029 Y152.08 E14.65409
G1 X131.148 Y152.349 E14.68473
G1 X130.248 Y152.54 E14.71533
G1 X129.334 Y152.653 E14.74596
G1 X128.655 Y152.685 E14.76857
G1 X127.92 Y152.696 E14.79302
G1 X127.755 Y152.697 E14.7985
G1 X92.097 Y152.675 E15.98449
G1 X91.407 Y152.665 E16.00745
G1 X90.488 Y152.612 E16.03806
G1 X89.577 Y152.479 E16.06868
G1 X88.681 Y152.267 E16.09931
G1 X87.807 Y151.979 E16.12992
G1 X86.961 Y151.616 E16.16053
G1 X86.433 Y151.343 E16.1803
G1 X85.646 Y150.866 E16.21091
G1 X84.903 Y150.322 E16.24154
G1 X84.21 Y149.716 E16.27216
G1 X83.573 Y149.052 E16.30276
G1 X82.995 Y148.335 E16.33339
G1 X82.422 Y147.472 E16.36785
G1 X82.007 Y146.773 E16.39489
G1 X64.179 Y115.893 E17.58084
G1 X64.099 Y115.752 E17.58623
G1 X63.787 Y115.192 E17.60755
G1 X63.374 Y114.369 E17.63818
G1 X63.035 Y113.513 E17.6688
G1 X62.77 Y112.632 E17.6994
G1 X62.584 Y111.73 E17.73003
G1 X62.476 Y110.816 E17.76064
G1 X62.448 Y109.895 E17.79129
G1 X62.5 Y108.976 E17.8219
G1 X62.631 Y108.065 E17.85252
G1 X62.841 Y107.169 E17.88312
G1 X63.128 Y106.294 E17.91375
G1 X63.49 Y105.447 E17.94439
G1 X63.788 Y104.872 E17.96593
G1 X64.199 Y104.137 E17.99394
G1 X82.036 Y73.205 E19.18154
G1 X82.39 Y72.609 E19.20459
G1 X82.894 Y71.838 E19.23523
G1 X83.463 Y71.115 E19.26583
G0 F6000 X83.789 Y71.349
G1 F1200 X84.41 Y70.693 E19.29588
G1 X85.086 Y70.094 E19.32592
G1 X85.812 Y69.558 E19.35593
G1 X86.583 Y69.087 E19.38598
G1 X87.393 Y68.687 E19.41603
G1 X88.235 Y68.36 E19.44607
G1 X89.102 Y68.109 E19.47609
G1 X89.988 Y67.935 E19.50612
G1 X90.887 Y67.841 E19.53619
G1 X91.352 Y67.823 E19.55166
G1 X92.088 Y67.812 E19.57615
G1 X92.246 Y67.811 E19.5814
G1 X127.949 Y67.832 E20.76889
G1 X128.625 Y67.843 E20.79137
G1 X129.526 Y67.898 E20.8214
G1 X130.419 Y68.032 E20.85143
G1 X131.297 Y68.245 E20.88148
G1 X132.153 Y68.534 E20.91153
G1 X132.979 Y68.898 E20.94155
G1 X133.77 Y69.334 E20.97159
G1 X134.52 Y69.838 E21.00165
G1 X135.222 Y70.406 E21.03168
G1 X135.871 Y71.034 E21.06172
G1 X136.461 Y71.717 E21.09174
G1 X137.217 Y72.814 E21.13605
G1 X137.609 Y73.473 E21.16155
G1 X155.544 Y104.537 E22.35458
G1 X155.856 Y105.095 E22.37585
G1 X156.261 Y105.902 E22.40588
G1 X156.594 Y106.742 E22.43593
G1 X156.851 Y107.608 E22.46598
G1 X157.03 Y108.493 E22.49601
G1 X157.13 Y109.39 E22.52603
G1 X157.153 Y110.076 E22.54886
G1 X157.113 Y110.978 E22.57889
G1 X156.993 Y111.873 E22.60892
G1 X156.795 Y112.754 E22.63895
G1 X156.52 Y113.614 E22.66899
G1 X156.169 Y114.447 E22.69905
G1 X155.859 Y115.048 E22.72154
G1 X155.454 Y115.771 E22.7491
G1 X137.62 Y146.699 E23.93654
G1 X137.266 Y147.295 E23.9596
G1 X136.771 Y148.05 E23.98962
G1 X136.211 Y148.759 E24.01967
G1 X135.59 Y149.415 E24.04972
G1 X134.914 Y150.014 E24.07976
G1 X134.188 Y150.55 E24.10977
G1 X133.417 Y151.021 E24.13982
G1 X132.607 Y151.421 E24.16987
G1 X131.765 Y151.748 E24.19991
G1 X130.898 Y151.999 E24.22993
G1 X130.012 Y152.173 E24.25996
G1 X129.113 Y152.267 E24.29003
G1 X128.649 Y152.285 E24.30547
G1 X127.914 Y152.296 E24.32992
G1 X127.755 Y152.297 E24.33521
G1 X92.103 Y152.275 E25.521
G1 X91.413 Y152.265 E25.54395
G1 X90.512 Y152.212 E25.57397
G1 X89.618 Y152.079 E25.60403
G1 X88.74 Y151.868 E25.63407
G1 X87.884 Y151.58 E25.66411
G1 X86.657 Y151.009 E25.70912
G1 X86.626 Y150.992 E25.71029
G1 X85.854 Y150.524 E25.74032
G1 X85.126 Y149.988 E25.77039
G1 X84.449 Y149.391 E25.80041
G1 X83.827 Y148.736 E25.83045
G1 X83.266 Y148.028 E25.8605
G1 X82.766 Y147.268 E25.89076
G1 X82.353 Y146.573 E25.91765
G1 X64.525 Y115.693 E27.1036
G1 X64.137 Y114.997 E27.1301
G1 X63.732 Y114.19 E27.16013
G1 X63.401 Y113.35 E27.19016
G1 X63.146 Y112.483 E27.22022
G1 X62.968 Y111.598 E27.25024
G1 X62.869 Y110.7 E27.28029
G1 X62.85 Y109.797 E27.31033
G1 X62.911 Y108.896 E27.34037
G1 X63.051 Y108.004 E27.3704
G1 X63.269 Y107.128 E27.40042
G1 X63.565 Y106.274 E27.43049
G1 X64.138 Y105.067 E27.47493
G1 X64.546 Y104.337 E27.50274
G1 X82.38 Y73.409 E28.69018
G1 X82.734 Y72.813 E28.71323
G1 X83.229 Y72.058 E28.74326
G1 X83.789 Y71.349 E28.77331
G1 F1500 E22.27331
;MESH:Desert_3._Castle_-_Mereen_-_Hole.stl
G0 F6000 X90.803 Y77.891
G0 X91.741 Y78.431
G0 X73.932 Y110.034
G0 X91.983 Y141.3
G0 X128.153 Y141.497
;TYPE:WALL-INNER
G1 F1500 E28.77331
G1 F1200 X91.882 Y141.476 E29.97969
G1 X73.729 Y110.034 E31.18723
G1 X91.847 Y78.611 E32.39365
G1 X127.23 Y78.63 E33.57049
G1 X128.118 Y78.632 E33.60003
G1 X146.271 Y110.074 E34.80757
G1 X128.153 Y141.497 E36.01399
G0 F6000 X128.385 Y141.897
;TYPE:WALL-OUTER
G1 F1200 X91.651 Y141.876 E37.23576
G1 X73.267 Y110.033 E38.4587
G1 X91.615 Y78.211 E39.68044
G1 X127.23 Y78.23 E40.86499
G1 X128.349 Y78.232 E40.90221
G1 X146.733 Y110.075 E42.12515
G1 X128.385 Y141.897 E43.34688
G0 F6000 X128.114 Y141.487
G0 X127.928 Y141.107
;TYPE:SKIN
G1 F1200 X92.107 Y141.086 E44.53829
G1 X74.18 Y110.034 E45.73085
G1 X92.072 Y79.001 E46.92227
G1 X127.23 Y79.02 E48.09163
G1 X127.893 Y79.022 E48.11368
G1 X145.82 Y110.074 E49.30624
G1 X127.928 Y141.107 E50.49766
G1 F1500 E43.99766
G0 F6000 X127.927 Y141.386
G0 X92.275 Y141.366
G0 X92.276 Y140.925
G1 F1500 E50.49766
G1 F1200 X92.092 Y140.741 E50.50631
G0 F6000 X92.842 Y140.925
G1 F1200 X91.32 Y139.403 E50.5779
G0 F6000 X90.939 Y139.621
G0 X90.166 Y138.282
G0 X90.547 Y138.064
G1 F1200 X93.408 Y140.925 E50.71248
G0 F6000 X93.974 Y140.926
G1 F1200 X89.774 Y136.726 E50.91003
G0 F6000 X89.393 Y136.944
G0 X88.621 Y135.606
G0 X89.002 Y135.388
G1 F1200 X94.54 Y140.926 E51.17052
G0 F6000 X95.106 Y140.927
G1 F1200 X88.229 Y134.05 E51.494
G0 F6000 X87.849 Y134.268
G0 X87.076 Y132.93
G0 X87.457 Y132.711
G1 F1200 X95.672 Y140.927 E51.88043
G0 F6000 X96.238 Y140.927
G1 F1200 X86.684 Y131.374 E52.3298
G0 F6000 X86.304 Y131.592
G0 X85.531 Y130.254
G0 X85.912 Y130.035
G1 F1200 X96.804 Y140.927 E52.84212
G0 F6000 X97.37 Y140.928
G1 F1200 X85.139 Y128.697 E53.41743
G0 F6000 X84.758 Y128.915
G0 X83.986 Y127.578
G0 X84.367 Y127.359
G1 F1200 X97.936 Y140.928 E54.05567
G0 F6000 X98.502 Y140.929
G1 F1200 X83.594 Y126.02 E54.75692
G0 F6000 X83.213 Y126.239
G0 X82.44 Y124.901
G0 X82.822 Y124.682
G1 F1200 X99.068 Y140.929 E55.52111
G0 F6000 X99.634 Y140.929
G1 F1200 X82.049 Y123.344 E56.34825
G0 F6000 X81.668 Y123.563
G0 X80.895 Y122.224
G0 X81.276 Y122.006
G1 F1200 X100.2 Y140.929 E57.23836
G0 F6000 X100.766 Y140.929
G1 F1200 X80.504 Y120.667 E58.19142
G0 F6000 X80.123 Y120.886
G0 X79.35 Y119.548
G0 X79.731 Y119.329
G1 F1200 X101.332 Y140.93 E59.20747
G0 F6000 X101.898 Y140.93
G1 F1200 X78.959 Y117.991 E60.28645
G0 F6000 X78.578 Y118.21
G0 X77.805 Y116.872
G0 X78.186 Y116.653
G1 F1200 X102.464 Y140.931 E61.42841
G0 F6000 X103.03 Y140.931
G1 F1200 X77.414 Y115.314 E62.63333
G0 F6000 X77.032 Y115.533
G0 X76.26 Y114.196
G0 X76.641 Y113.977
G1 F1200 X103.596 Y140.932 E63.90121
G0 F6000 X104.162 Y140.932
G1 F1200 X75.869 Y112.638 E65.23205
G0 F6000 X75.487 Y112.857
G0 X74.715 Y111.519
G0 X75.096 Y111.3
G1 F1200 X104.728 Y140.932 E66.62585
G0 F6000 X105.294 Y140.932
G1 F1200 X74.375 Y110.013 E68.08018
G0 F6000 X74.582 Y109.654
G1 F1200 X105.86 Y140.933 E69.55143
G0 F6000 X106.426 Y140.933
G1 F1200 X74.789 Y109.296 E71.03954
G0 F6000 X74.996 Y108.937
G1 F1200 X106.993 Y140.934 E72.54458
G0 F6000 X107.558 Y140.934
G1 F1200 X75.202 Y108.578 E74.0665
G0 F6000 X75.41 Y108.219
G1 F1200 X108.124 Y140.934 E75.60529
G0 F6000 X108.69 Y140.934
G1 F1200 X75.616 Y107.86 E77.16099
G0 F6000 X75.823 Y107.502
G1 F1200 X109.256 Y140.934 E78.73355
G0 F6000 X109.822 Y140.935
G1 F1200 X76.03 Y107.142 E80.32305
G0 F6000 X76.237 Y106.784
G1 F1200 X110.388 Y140.935 E81.92941
G0 F6000 X110.954 Y140.936
G1 F1200 X76.443 Y106.425 E83.5527
G0 F6000 X76.651 Y106.066
G1 F1200 X111.52 Y140.936 E85.19285
G0 F6000 X112.087 Y140.936
G1 F1200 X76.858 Y105.708 E86.8499
G0 F6000 X77.064 Y105.349
G1 F1200 X112.652 Y140.936 E88.52382
G0 F6000 X113.219 Y140.937
G1 F1200 X77.271 Y104.99 E90.21468
G0 F6000 X77.478 Y104.631
G1 F1200 X113.784 Y140.937 E91.92241
G0 F6000 X114.351 Y140.938
G1 F1200 X77.685 Y104.272 E93.64706
G0 F6000 X77.892 Y103.913
G1 F1200 X114.916 Y140.938 E95.38858
G0 F6000 X115.482 Y140.938
G1 F1200 X78.099 Y103.555 E97.14696
G0 F6000 X78.305 Y103.195
G1 F1200 X116.048 Y140.939 E98.9223
G0 F6000 X116.614 Y140.939
G1 F1200 X78.512 Y102.837 E100.7145
G0 F6000 X78.72 Y102.478
G1 F1200 X117.181 Y140.939 E102.52359
G0 F6000 X117.746 Y140.939
G1 F1200 X78.926 Y102.119 E104.34956
G0 F6000 X79.133 Y101.761
G1 F1200 X118.313 Y140.94 E106.19245
G0 F6000 X118.878 Y140.94
G1 F1200 X79.34 Y101.401 E108.05222
G0 F6000 X79.547 Y101.043
G1 F1200 X119.445 Y140.941 E109.9289
G0 F6000 X120.01 Y140.941
G1 F1200 X79.753 Y100.684 E111.82246
G0 F6000 X79.961 Y100.325
G1 F1200 X120.577 Y140.941 E113.73291
G0 F6000 X121.142 Y140.941
G1 F1200 X80.167 Y99.966 E115.66025
G0 F6000 X80.374 Y99.608
G1 F1200 X121.709 Y140.942 E117.6045
G0 F6000 X122.275 Y140.942
G1 F1200 X80.581 Y99.249 E119.56564
G0 F6000 X80.788 Y98.89
G1 F1200 X122.84 Y140.942 E121.54363
G0 F6000 X123.407 Y140.943
G1 F1200 X80.995 Y98.531 E123.53856
G0 F6000 X81.202 Y98.172
G1 F1200 X123.972 Y140.943 E125.55036
G0 F6000 X124.539 Y140.944
G1 F1200 X81.409 Y97.814 E127.57906
G0 F6000 X81.615 Y97.454
G1 F1200 X125.104 Y140.944 E129.62467
G0 F6000 X125.671 Y140.944
G1 F1200 X81.822 Y97.096 E131.68717
G0 F6000 X82.03 Y96.737
G1 F1200 X126.236 Y140.944 E133.76651
G0 F6000 X126.803 Y140.945
G1 F1200 X82.236 Y96.378 E135.8628
G0 F6000 X82.443 Y96.02
G1 F1200 X127.369 Y140.945 E137.97596
G0 F6000 X127.873 Y140.883
G1 F1200 X82.65 Y95.66 E140.10311
G0 F6000 X82.857 Y95.302
G1 F1200 X128.079 Y140.524 E142.23022
G0 F6000 X128.286 Y140.166
G1 F1200 X83.063 Y94.943 E144.35737
G0 F6000 X83.271 Y94.584
G1 F1200 X128.493 Y139.807 E146.4845
G0 F6000 X128.7 Y139.448
G1 F1200 X83.477 Y94.225 E148.61165
G0 F6000 X83.684 Y93.867
G1 F1200 X128.906 Y139.089 E150.73875
G0 F6000 X129.114 Y138.73
G1 F1200 X83.891 Y93.508 E152.86588
G0 F6000 X84.098 Y93.149
G1 F1200 X129.321 Y138.372 E154.99303
G0 F6000 X129.527 Y138.013
G1 F1200 X84.305 Y92.79 E157.12016
G0 F6000 X84.511 Y92.431
G1 F1200 X129.735 Y137.654 E159.24733
G0 F6000 X129.941 Y137.295
G1 F1200 X84.719 Y92.073 E161.37444
G0 F6000 X84.925 Y91.713
G1 F1200 X130.148 Y136.936 E163.50159
G0 F6000 X130.355 Y136.577
G1 F1200 X85.132 Y91.355 E165.62872
G0 F6000 X85.339 Y90.996
G1 F1200 X130.562 Y136.219 E167.75587
G0 F6000 X130.768 Y135.859
G1 F1200 X85.546 Y90.637 E169.88297
G0 F6000 X85.753 Y90.279
G1 F1200 X130.975 Y135.501 E172.01008
G0 F6000 X131.182 Y135.142
G1 F1200 X85.96 Y89.919 E174.1372
G0 F6000 X86.167 Y89.561
G1 F1200 X131.389 Y134.783 E176.26431
G0 F6000 X131.596 Y134.425
G1 F1200 X86.373 Y89.202 E178.39146
G0 F6000 X86.58 Y88.843
G1 F1200 X131.803 Y134.066 E180.51861
G0 F6000 X132.01 Y133.707
G1 F1200 X86.787 Y88.484 E182.64576
G0 F6000 X86.994 Y88.126
G1 F1200 X132.216 Y133.348 E184.77287
G0 F6000 X132.424 Y132.989
G1 F1200 X87.201 Y87.766 E186.90002
G0 F6000 X87.408 Y87.408
