;FLAVOR:Marlin
;TIME:5472
;Filament used: 3.20061m
;Layer height: 0.2
;MINX:62.012
;MINY:66.902
;MINZ:0.2
;MAXX:157.989
;MAXY:153.098
;MAXZ:5.4
;Generated with Cura_SteamEngine master
M140 S60
M105
M190 S60
M104 S200
M105
M109 S200
M82 ;absolute extrusion mode
; Ender 3 Custom Start G-code
G92 E0 ; Reset Extruder
G28 ; Home all axes
G1 Z2.0 F3000 ; Move Z Axis up little to prevent scratching of Heat Bed
G1 X0.1 Y20 Z0.3 F5000.0 ; Move to start position
G1 X0.1 Y200.0 Z0.3 F1500.0 E15 ; Draw the first line
G1 X0.4 Y200.0 Z0.3 F5000.0 ; Move to side a little
G1 X0.4 Y20 Z0.3 F1500.0 E30 ; Draw the second line
G92 E0 ; Reset Extruder
G1 Z2.0 F3000 ; Move Z Axis up little to prevent scratching of Heat Bed
G1 X5 Y20 Z0.3 F5000.0 ; Move over to prevent blob squish
G92 E0
G92 E0
G1 F1500 E-6.5
;LAYER_COUNT:27
;LAYER:0
M107
G0 F6000 X83.209 Y70.759 Z0.2
;TYPE:SKIRT
G1 F1500 E0
G1 F1200 X83.849 Y70.074 E0.03118
G1 X84.544 Y69.445 E0.06236
G1 X85.291 Y68.877 E0.09357
G1 X86.083 Y68.376 E0.12474
G1 X86.916 Y67.943 E0.15596
G1 X87.782 Y67.583 E0.18716
G1 X88.675 Y67.299 E0.21832
G1 X89.59 Y67.091 E0.24953
G1 X90.519 Y66.962 E0.28073
G1 X91.406 Y66.913 E0.31028
G1 X92.094 Y66.903 E0.33316
G1 X92.254 Y66.902 E0.33848
G1 X127.921 Y66.904 E1.52477
G1 X128.62 Y66.914 E1.54802
G1 X129.557 Y66.968 E1.57924
G1 X130.485 Y67.1 E1.61042
G1 X131.399 Y67.312 E1.64162
G1 X132.291 Y67.601 E1.67281
G1 X133.156 Y67.964 E1.70401
G1 X133.986 Y68.4 E1.73519
G1 X134.776 Y68.905 E1.76638
G1 X135.521 Y69.476 E1.7976
G1 X136.214 Y70.108 E1.82879
G1 X136.851 Y70.796 E1.85998
G1 X137.426 Y71.537 E1.89117
G1 X137.91 Y72.277 E1.92058
G1 X138.262 Y72.867 E1.94343
G1 X156.255 Y104.03 E3.14028
G1 X156.589 Y104.627 E3.16303
G1 X157.011 Y105.465 E3.19424
G1 X157.361 Y106.335 E3.22543
G1 X157.635 Y107.232 E3.25663
G1 X157.832 Y108.149 E3.28782
G1 X157.951 Y109.079 E3.319
G1 X157.989 Y110.016 E3.3502
G1 X157.947 Y110.953 E3.38139
G1 X157.826 Y111.883 E3.41258
G1 X157.626 Y112.799 E3.44377
G1 X157.349 Y113.695 E3.47496
G1 X156.996 Y114.564 E3.50616
G1 X156.59 Y115.367 E3.53608
G1 X156.25 Y115.975 E3.55925
G1 X138.308 Y147.051 E4.75275
G1 X137.907 Y147.723 E4.77878
G1 X137.9 Y147.719 E4.77904
G1 X137.558 Y148.272 E4.80067
G1 X136.998 Y149.024 E4.83185
G1 X136.377 Y149.726 E4.86303
G1 X135.697 Y150.373 E4.89425
G1 X134.965 Y150.959 E4.92543
G1 X134.186 Y151.481 E4.95662
G1 X133.365 Y151.934 E4.98781
G1 X132.508 Y152.316 E5.01902
G1 X131.622 Y152.624 E5.05022
G1 X130.713 Y152.855 E5.08141
G1 X129.788 Y153.008 E5.11259
G1 X128.621 Y153.087 E5.1515
G1 X127.934 Y153.097 E5.17435
G1 X92.21 Y153.098 E6.36253
G1 X92.053 Y153.097 E6.36776
G1 X91.352 Y153.087 E6.39107
G1 X90.416 Y153.034 E6.42225
G1 X89.487 Y152.901 E6.45347
G1 X88.574 Y152.689 E6.48464
G1 X87.681 Y152.401 E6.51585
G1 X86.817 Y152.037 E6.54703
G1 X85.986 Y151.601 E6.57825
G1 X85.196 Y151.096 E6.60943
G1 X84.452 Y150.526 E6.6406
G1 X83.759 Y149.894 E6.6718
G1 X83.122 Y149.205 E6.70301
G1 X82.546 Y148.465 E6.7342
G1 X82.061 Y147.722 E6.76371
G1 X81.677 Y147.078 E6.78865
G1 X63.823 Y116.154 E7.9763
G1 X63.41 Y115.417 E8.0044
G1 X62.988 Y114.58 E8.03558
G1 X62.638 Y113.71 E8.06677
G1 X62.364 Y112.813 E8.09796
G1 X62.168 Y111.896 E8.12915
G1 X62.05 Y110.965 E8.16036
G1 X62.012 Y110.028 E8.19155
G1 X62.054 Y109.091 E8.22275
G1 X62.176 Y108.161 E8.25395
G1 X62.376 Y107.245 E8.28513
G1 X62.654 Y106.349 E8.31633
G1 X63.007 Y105.48 E8.34753
G1 X63.403 Y104.697 E8.37671
G1 X63.754 Y104.067 E8.4007
G1 X63.837 Y103.921 E8.40629
G1 X81.777 Y72.851 E9.59957
G1 X82.116 Y72.282 E9.6216
G1 X82.63 Y71.497 E9.65281
G1 X83.209 Y70.759 E9.68401
G0 F6000 X83.535 Y70.994
G1 F1200 X84.165 Y70.323 E9.71462
G1 X84.852 Y69.71 E9.74525
G1 X85.589 Y69.158 E9.77587
G1 X86.371 Y68.672 E9.80649
G1 X87.192 Y68.256 E9.83711
G1 X88.047 Y67.913 E9.86775
G1 X88.928 Y67.646 E9.89837
G1 X89.828 Y67.455 E9.92897
G1 X90.742 Y67.344 E9.95959
G1 X91.412 Y67.313 E9.9819
G1 X92.1 Y67.303 E10.00478
G1 X92.254 Y67.302 E10.0099
G1 X127.916 Y67.304 E11.19603
G1 X128.615 Y67.314 E11.21928
G1 X129.534 Y67.367 E11.2499
G1 X130.445 Y67.5 E11.28052
G1 X131.341 Y67.711 E11.31113
G1 X132.215 Y67.999 E11.34174
G1 X133.061 Y68.362 E11.37236
G1 X133.873 Y68.797 E11.403
G1 X134.643 Y69.301 E11.43361
G1 X135.367 Y69.87 E11.46423
G1 X136.039 Y70.499 E11.49485
G1 X136.654 Y71.185 E11.52549
G1 X137.207 Y71.921 E11.55611
G1 X137.566 Y72.482 E11.57826
G1 X137.995 Y73.203 E11.60617
G1 X155.835 Y104.101 E12.79284
G1 X156.24 Y104.823 E12.82037
G1 X156.654 Y105.645 E12.85098
G1 X156.995 Y106.5 E12.8816
G1 X157.261 Y107.381 E12.91221
G1 X157.449 Y108.282 E12.94282
G1 X157.559 Y109.197 E12.97347
G1 X157.588 Y110.117 E13.00409
G1 X157.538 Y111.036 E13.0347
G1 X157.408 Y111.948 E13.06534
G1 X157.2 Y112.844 E13.09593
G1 X156.914 Y113.72 E13.12658
G1 X156.554 Y114.567 E13.15719
G1 X156.241 Y115.172 E13.17985
G1 X155.901 Y115.78 E13.20302
G1 X137.965 Y146.846 E14.39612
G1 X137.564 Y147.518 E14.42215
G1 X137.559 Y147.515 E14.42234
G1 X137.16 Y148.144 E14.44712
G1 X136.602 Y148.876 E14.47773
G1 X135.982 Y149.557 E14.50836
G1 X135.306 Y150.182 E14.53898
G1 X134.578 Y150.745 E14.56959
G1 X133.803 Y151.243 E14.60023
G1 X132.989 Y151.672 E14.63084
G1 X132.14 Y152.029 E14.66147
G1 X131.264 Y152.311 E14.69208
G1 X130.366 Y152.515 E14.72271
G1 X129.454 Y152.641 E14.75333
G1 X128.615 Y152.687 E14.78127
G1 X127.928 Y152.697 E14.80413
G1 X92.21 Y152.698 E15.99211
G1 X91.358 Y152.687 E16.02045
G1 X90.439 Y152.634 E16.05107
G1 X89.528 Y152.501 E16.08169
G1 X88.632 Y152.29 E16.11231
G1 X87.757 Y152.002 E16.14294
G1 X86.911 Y151.639 E16.17356
G1 X86.1 Y151.204 E16.20417
G1 X85.329 Y150.7 E16.23481
G1 X84.605 Y150.131 E16.26544
G1 X83.933 Y149.502 E16.29605
G1 X83.318 Y148.817 E16.32667
G1 X82.765 Y148.081 E16.35729
G1 X82.405 Y147.517 E16.37954
G1 X81.945 Y146.744 E16.40946
G1 X64.169 Y115.954 E17.59196
G1 X63.759 Y115.222 E17.61986
G1 X63.345 Y114.4 E17.65047
G1 X63.004 Y113.545 E17.68109
G1 X62.739 Y112.663 E17.71172
G1 X62.551 Y111.762 E17.74233
G1 X62.442 Y110.848 E17.77295
G1 X62.413 Y109.927 E17.80359
G1 X62.463 Y109.008 E17.83421
G1 X62.594 Y108.097 E17.86482
G1 X62.803 Y107.2 E17.89545
G1 X63.088 Y106.325 E17.92606
G1 X63.449 Y105.478 E17.95668
G1 X63.752 Y104.892 E17.97862
G1 X64.103 Y104.262 E18.00261
G1 X64.183 Y104.121 E18.008
G1 X82.047 Y73.181 E19.19628
G1 X82.46 Y72.487 E19.22314
G1 X82.965 Y71.717 E19.25377
G1 X83.535 Y70.994 E19.28439
G0 F6000 X83.86 Y71.229
G1 F1200 X84.482 Y70.574 E19.31443
G1 X85.159 Y69.976 E19.34448
G1 X85.886 Y69.44 E19.37452
G1 X86.657 Y68.971 E19.40453
G1 X87.467 Y68.572 E19.43457
G1 X88.31 Y68.246 E19.46463
G1 X89.177 Y67.996 E19.49464
G1 X90.064 Y67.823 E19.5247
G1 X90.962 Y67.73 E19.55472
G1 X91.418 Y67.713 E19.5699
G1 X92.254 Y67.702 E19.59771
G1 X127.91 Y67.704 E20.78363
G1 X128.609 Y67.714 E20.80688
G1 X129.51 Y67.767 E20.8369
G1 X130.404 Y67.899 E20.86696
G1 X131.282 Y68.11 E20.89699
G1 X132.138 Y68.398 E20.92703
G1 X132.965 Y68.76 E20.95706
G1 X133.757 Y69.194 E20.9871
G1 X134.508 Y69.697 E21.01716
G1 X135.211 Y70.264 E21.0472
G1 X135.861 Y70.891 E21.07724
G1 X136.453 Y71.573 E21.10727
G1 X136.982 Y72.304 E21.13729
G1 X137.223 Y72.687 E21.15234
G1 X137.575 Y73.277 E21.17519
G1 X155.557 Y104.421 E22.3713
G1 X155.891 Y105.018 E22.39406
G1 X156.296 Y105.825 E22.42409
G1 X156.629 Y106.664 E22.45411
G1 X156.886 Y107.53 E22.48416
G1 X157.065 Y108.415 E22.51419
G1 X157.166 Y109.313 E22.54424
G1 X157.187 Y110.216 E22.57429
G1 X157.127 Y111.117 E22.60432
G1 X156.989 Y112.009 E22.63434
G1 X156.772 Y112.886 E22.66439
G1 X156.478 Y113.74 E22.69443
G1 X156.11 Y114.564 E22.72444
G1 X155.892 Y114.976 E22.73995
G1 X155.552 Y115.584 E22.76312
G1 X137.621 Y146.641 E23.95588
G1 X137.22 Y147.313 E23.98191
G1 X137.218 Y147.312 E23.98198
G1 X136.763 Y148.014 E24.00981
G1 X136.206 Y148.725 E24.03985
G1 X135.588 Y149.385 E24.06992
G1 X134.915 Y149.986 E24.09993
G1 X134.191 Y150.526 E24.12997
G1 X133.422 Y151 E24.16002
G1 X132.615 Y151.404 E24.19003
G1 X131.774 Y151.735 E24.22009
G1 X130.908 Y151.99 E24.25012
G1 X130.023 Y152.168 E24.28014
G1 X129.125 Y152.266 E24.31019
G1 X128.609 Y152.287 E24.32737
G1 X127.774 Y152.298 E24.35514
G1 X92.065 Y152.297 E25.54283
G1 X91.364 Y152.287 E25.56614
G1 X90.462 Y152.234 E25.5962
G1 X89.569 Y152.102 E25.62622
G1 X88.69 Y151.891 E25.65629
G1 X87.834 Y151.603 E25.68633
G1 X87.007 Y151.241 E25.71635
G1 X86.215 Y150.807 E25.74639
G1 X85.465 Y150.304 E25.77642
G1 X84.762 Y149.737 E25.80646
G1 X84.112 Y149.111 E25.83648
G1 X83.519 Y148.429 E25.86654
G1 X82.99 Y147.697 E25.89658
G1 X82.748 Y147.312 E25.9117
G1 X82.291 Y146.544 E25.94143
G1 X64.515 Y115.754 E27.12392
G1 X64.108 Y115.027 E27.15163
G1 X63.703 Y114.22 E27.18166
G1 X63.371 Y113.38 E27.2117
G1 X63.114 Y112.514 E27.24175
G1 X62.935 Y111.629 E27.27178
G1 X62.835 Y110.732 E27.3018
G1 X62.814 Y109.829 E27.33184
G1 X62.874 Y108.928 E27.36188
G1 X63.013 Y108.035 E27.39193
G1 X63.231 Y107.159 E27.42196
G1 X63.525 Y106.305 E27.452
G1 X64.102 Y105.087 E27.49683
G1 X64.53 Y104.321 E27.52601
G1 X82.464 Y73.26 E28.71894
G1 X82.803 Y72.691 E28.74097
G1 X83.299 Y71.937 E28.77099
G1 X83.86 Y71.229 E28.80103
G1 F1500 E22.30103
;MESH:Desert_2._Skeleton.stl
G0 F6000 X90.864 Y77.781
G0 X91.802 Y78.322
G0 X128.022 Y78.679
G0 X146.105 Y109.998
G0 X128.121 Y141.498
;TYPE:WALL-INNER
G1 F1500 E28.80103
G1 F1200 X91.849 Y141.498 E30.00744
G1 X73.692 Y110.05 E31.21523
G1 X91.907 Y78.502 E32.42686
G1 X128.123 Y78.503 E33.6314
G1 X146.308 Y109.998 E34.84101
G1 X128.121 Y141.498 E36.05079
G0 F6000 X128.352 Y141.898
;TYPE:WALL-OUTER
G1 F1200 X91.618 Y141.898 E37.27257
G1 X73.231 Y110.05 E38.4957
G1 X91.676 Y78.102 E39.72267
G1 X128.354 Y78.103 E40.94259
G1 X146.769 Y109.998 E42.16754
G1 X128.352 Y141.898 E43.39267
G0 F6000 X128.081 Y141.487
G0 X127.896 Y141.108
;TYPE:SKIN
G1 F1200 X92.074 Y141.108 E44.58411
G1 X74.143 Y110.05 E45.7769
G1 X92.132 Y78.892 E46.97354
G1 X127.898 Y78.893 E48.16312
G1 X145.857 Y109.998 E49.35773
G1 X127.896 Y141.108 E50.55252
G1 F1500 E44.05252
G0 F6000 X128.137 Y141.249
G0 X128.072 Y141.289
G0 X92.298 Y141.388
G0 X92.298 Y140.947
G1 F1500 E50.55252
G1 F1200 X91.983 Y140.632 E50.56734
G0 F6000 X92.864 Y140.947
G1 F1200 X91.211 Y139.294 E50.64509
G0 F6000 X90.83 Y139.513
G0 X90.057 Y138.174
G0 X90.438 Y137.955
G1 F1200 X93.43 Y140.947 E50.78583
G0 F6000 X93.995 Y140.947
G1 F1200 X89.666 Y136.617 E50.98947
G0 F6000 X89.285 Y136.837
G0 X88.512 Y135.498
G0 X88.893 Y135.279
G1 F1200 X94.561 Y140.947 E51.25608
G0 F6000 X95.127 Y140.947
G1 F1200 X88.12 Y133.94 E51.58566
G0 F6000 X87.739 Y134.159
G0 X86.967 Y132.822
G0 X87.348 Y132.603
G1 F1200 X95.692 Y140.947 E51.97814
G0 F6000 X96.258 Y140.947
G1 F1200 X86.575 Y131.264 E52.4336
G0 F6000 X86.194 Y131.483
G0 X85.421 Y130.144
G0 X85.802 Y129.925
G1 F1200 X96.824 Y140.947 E52.95204
G0 F6000 X97.389 Y140.947
G1 F1200 X85.03 Y128.588 E53.53337
G0 F6000 X84.649 Y128.807
G0 X83.876 Y127.468
G0 X84.257 Y127.249
G1 F1200 X97.955 Y140.947 E54.17768
G0 F6000 X98.521 Y140.947
G1 F1200 X83.484 Y125.91 E54.88498
G0 F6000 X83.103 Y126.129
G0 X82.331 Y124.792
G0 X82.712 Y124.573
G1 F1200 X99.086 Y140.947 E55.65516
G0 F6000 X99.652 Y140.947
G1 F1200 X81.939 Y123.234 E56.48832
G0 F6000 X81.558 Y123.453
G0 X80.786 Y122.115
G0 X81.166 Y121.896
G1 F1200 X100.218 Y140.947 E57.38445
G0 F6000 X100.783 Y140.947
G1 F1200 X80.394 Y120.558 E58.34348
G0 F6000 X80.013 Y120.777
G0 X79.24 Y119.438
G0 X79.621 Y119.219
G1 F1200 X101.349 Y140.947 E59.3655
G0 F6000 X101.915 Y140.947
G1 F1200 X78.848 Y117.881 E60.45048
G0 F6000 X78.468 Y118.1
G0 X77.695 Y116.762
G0 X78.076 Y116.543
G1 F1200 X102.48 Y140.947 E61.59837
G0 F6000 X103.046 Y140.947
G1 F1200 X77.303 Y115.204 E62.80924
G0 F6000 X76.922 Y115.423
G0 X76.15 Y114.085
G0 X76.53 Y113.866
G1 F1200 X103.612 Y140.947 E64.08307
G0 F6000 X104.178 Y140.947
G1 F1200 X75.758 Y112.528 E65.41984
G0 F6000 X75.377 Y112.747
G0 X74.604 Y111.408
G0 X74.985 Y111.189
G1 F1200 X104.743 Y140.947 E66.81956
G0 F6000 X105.309 Y140.947
G1 F1200 X74.357 Y109.996 E68.27543
G0 F6000 X74.565 Y109.637
G1 F1200 X105.875 Y140.947 E69.74815
G0 F6000 X106.44 Y140.947
G1 F1200 X74.771 Y109.278 E71.23777
G0 F6000 X74.978 Y108.919
G1 F1200 X107.006 Y140.947 E72.74427
G0 F6000 X107.572 Y140.947
G1 F1200 X75.185 Y108.561 E74.26763
G0 F6000 X75.393 Y108.202
G1 F1200 X108.137 Y140.947 E75.80783
G0 F6000 X108.703 Y140.947
G1 F1200 X75.6 Y107.844 E77.36489
G0 F6000 X75.806 Y107.485
G1 F1200 X109.269 Y140.947 E78.93886
G0 F6000 X109.834 Y140.947
G1 F1200 X76.013 Y107.126 E80.5297
G0 F6000 X76.221 Y106.768
G1 F1200 X110.4 Y140.947 E82.13738
G0 F6000 X110.966 Y140.947
G1 F1200 X76.428 Y106.409 E83.76194
G0 F6000 X76.635 Y106.051
G1 F1200 X111.531 Y140.947 E85.40334
G0 F6000 X112.097 Y140.947
G1 F1200 X76.842 Y105.692 E87.06163
G0 F6000 X77.049 Y105.333
G1 F1200 X112.663 Y140.947 E88.7368
G0 F6000 X113.229 Y140.947
G1 F1200 X77.256 Y104.974 E90.42886
G0 F6000 X77.463 Y104.616
G1 F1200 X113.794 Y140.947 E92.13776
G0 F6000 X114.36 Y140.947
G1 F1200 X77.67 Y104.257 E93.86354
G0 F6000 X77.877 Y103.899
G1 F1200 X114.926 Y140.947 E95.60619
G0 F6000 X115.491 Y140.947
G1 F1200 X78.084 Y103.54 E97.3657
G0 F6000 X78.291 Y103.181
G1 F1200 X116.057 Y140.947 E99.1421
G0 F6000 X116.623 Y140.947
G1 F1200 X78.498 Y102.823 E100.93536
G0 F6000 X78.705 Y102.464
G1 F1200 X117.188 Y140.947 E102.74548
G0 F6000 X117.754 Y140.947
G1 F1200 X78.913 Y102.106 E104.57244
G0 F6000 X79.12 Y101.747
G1 F1200 X118.32 Y140.947 E106.41629
G0 F6000 X118.885 Y140.947
G1 F1200 X79.326 Y101.388 E108.27702
G0 F6000 X79.533 Y101.03
G1 F1200 X119.451 Y140.947 E110.15462
G0 F6000 X120.017 Y140.947
G1 F1200 X79.741 Y100.671 E112.04908
G0 F6000 X79.948 Y100.312
G1 F1200 X120.582 Y140.947 E113.9604
G0 F6000 X121.148 Y140.947
G1 F1200 X80.155 Y99.954 E115.88859
G0 F6000 X80.361 Y99.595
G1 F1200 X121.714 Y140.947 E117.83368
G0 F6000 X122.279 Y140.947
G1 F1200 X80.569 Y99.236 E119.79562
G0 F6000 X80.776 Y98.878
G1 F1200 X122.845 Y140.947 E121.77441
G0 F6000 X123.411 Y140.947
G1 F1200 X80.983 Y98.519 E123.7701
G0 F6000 X81.19 Y98.161
G1 F1200 X123.977 Y140.947 E125.78264
G0 F6000 X124.542 Y140.947
G1 F1200 X81.397 Y97.802 E127.81205
G0 F6000 X81.604 Y97.443
G1 F1200 X125.108 Y140.947 E129.85835
G0 F6000 X125.674 Y140.947
G1 F1200 X81.811 Y97.085 E131.9215
G0 F6000 X82.018 Y96.726
G1 F1200 X126.239 Y140.947 E134.00152
G0 F6000 X126.805 Y140.947
G1 F1200 X82.225 Y96.368 E136.09841
G0 F6000 X82.433 Y96.009
G1 F1200 X127.371 Y140.947 E138.21215
G0 F6000 X127.852 Y140.863
G1 F1200 X82.639 Y95.65 E140.33883
G0 F6000 X82.846 Y95.291
G1 F1200 X128.059 Y140.504 E142.46551
G0 F6000 X128.267 Y140.146
G1 F1200 X83.053 Y94.933 E144.59222
G0 F6000 X83.261 Y94.574
G1 F1200 X128.474 Y139.787 E146.7189
G0 F6000 X128.681 Y139.429
G1 F1200 X83.468 Y94.216 E148.84558
G0 F6000 X83.675 Y93.857
G1 F1200 X128.887 Y139.07 E150.97224
G0 F6000 X129.095 Y138.711
G1 F1200 X83.881 Y93.498 E153.09894
G0 F6000 X84.089 Y93.14
G1 F1200 X129.302 Y138.353 E155.22562
G0 F6000 X129.509 Y137.994
G1 F1200 X84.296 Y92.781 E157.3523
G0 F6000 X84.503 Y92.423
G1 F1200 X129.716 Y137.636 E159.47898
G0 F6000 X129.923 Y137.277
G1 F1200 X84.71 Y92.064 E161.60567
G0 F6000 X84.917 Y91.705
G1 F1200 X130.13 Y136.918 E163.73235
G0 F6000 X130.337 Y136.559
G1 F1200 X85.124 Y91.346 E165.85903
G0 F6000 X85.331 Y90.988
G1 F1200 X130.544 Y136.201 E167.98571
G0 F6000 X130.751 Y135.842
G1 F1200 X85.538 Y90.629 E170.11239
G0 F6000 X85.745 Y90.271
G1 F1200 X130.958 Y135.483 E172.23905
G0 F6000 X131.165 Y135.125
G1 F1200 X85.953 Y89.912 E174.3657
G0 F6000 X86.159 Y89.553
G1 F1200 X131.372 Y134.766 E176.49238
G0 F6000 X131.579 Y134.408
G1 F1200 X86.366 Y89.195 E178.61907
G0 F6000 X86.573 Y88.836
G1 F1200 X131.787 Y134.049 E180.74577
G0 F6000 X131.993 Y133.69
G1 F1200 X86.781 Y88.478 E182.8724
G0 F6000 X86.988 Y88.119
G1 F1200 X132.2 Y133.332 E184.99906
G0 F6000 X132.407 Y132.973
G1 F1200 X87.194 Y87.76 E187.12574
G0 F6000 X87.401 Y87.401
G1 F1200 X132.615 Y132.615 E189.25247
G0 F6000 X132.822 Y132.256
G1 F1200 X87.609 Y87.043 E191.37915
