;FLAVOR:Marlin
;TIME:7065
;Filament used: 3.48007m
;Layer height: 0.2
;MINX:62.013
;MINY:66.994
;MINZ:0.2
;MAXX:157.988
;MAXY:152.994
;MAXZ:13.4
;Generated with Cura_SteamEngine master
M140 S60
M105
M190 S60
M104 S200
M105
M109 S200
M82 ;absolute extrusion mode
; Ender 3 Custom Start G-code
G92 E0 ; Reset Extruder
G28 ; Home all axes
G1 Z2.0 F3000 ; Move Z Axis up little to prevent scratching of Heat Bed
G1 X0.1 Y20 Z0.3 F5000.0 ; Move to start position
G1 X0.1 Y200.0 Z0.3 F1500.0 E15 ; Draw the first line
G1 X0.4 Y200.0 Z0.3 F5000.0 ; Move to side a little
G1 X0.4 Y20 Z0.3 F1500.0 E30 ; Draw the second line
G92 E0 ; Reset Extruder
G1 Z2.0 F3000 ; Move Z Axis up little to prevent scratching of Heat Bed
G1 X5 Y20 Z0.3 F5000.0 ; Move over to prevent blob squish
G92 E0
G92 E0
G1 F1500 E-6.5
;LAYER_COUNT:67
;LAYER:0
M107
G0 F6000 X83.142 Y70.857 Z0.2
;TYPE:SKIRT
G1 F1500 E0
G1 F1200 X83.781 Y70.17 E0.03121
G1 X84.476 Y69.541 E0.06238
G1 X85.222 Y68.973 E0.09357
G1 X86.014 Y68.47 E0.12477
G1 X86.846 Y68.037 E0.15597
G1 X87.712 Y67.677 E0.18716
G1 X88.605 Y67.391 E0.21835
G1 X89.52 Y67.183 E0.24956
G1 X90.449 Y67.053 E0.28076
G1 X91.042 Y67.012 E0.30053
G1 X91.232 Y67.004 E0.30685
G1 X91.695 Y66.994 E0.32226
G1 X127.95 Y66.994 E1.5281
G1 X128.65 Y67.004 E1.55139
G1 X129.586 Y67.057 E1.58257
G1 X130.515 Y67.19 E1.61378
G1 X131.429 Y67.402 E1.64499
G1 X132.321 Y67.691 E1.67618
G1 X133.185 Y68.054 E1.70735
G1 X134.016 Y68.49 E1.73856
G1 X134.806 Y68.995 E1.76974
G1 X135.551 Y69.566 E1.80096
G1 X136.244 Y70.197 E1.83214
G1 X136.88 Y70.886 E1.86332
G1 X137.456 Y71.626 E1.89451
G1 X137.93 Y72.351 E1.92332
G1 X138.287 Y72.947 E1.94643
G1 X138.373 Y73.093 E1.95207
G1 X156.153 Y103.846 E3.13356
G1 X156.588 Y104.622 E3.16315
G1 X157.011 Y105.459 E3.19434
G1 X157.36 Y106.329 E3.22552
G1 X157.635 Y107.226 E3.25672
G1 X157.832 Y108.143 E3.28792
G1 X157.95 Y109.074 E3.31913
G1 X157.988 Y110.011 E3.35032
G1 X157.946 Y110.948 E3.38152
G1 X157.825 Y111.878 E3.41271
G1 X157.625 Y112.794 E3.4439
G1 X157.348 Y113.69 E3.47509
G1 X156.995 Y114.559 E3.50629
G1 X156.763 Y115.037 E3.52396
G1 X156.573 Y115.394 E3.53741
G1 X156.342 Y115.81 E3.55323
G1 X156.235 Y115.998 E3.56043
G1 X155.931 Y116.521 E3.58055
G1 X138.375 Y146.889 E4.74723
G1 X137.94 Y147.62 E4.77552
G1 X137.426 Y148.404 E4.8067
G1 X136.846 Y149.142 E4.83792
G1 X136.206 Y149.827 E4.8691
G1 X135.51 Y150.456 E4.9003
G1 X134.763 Y151.023 E4.9315
G1 X133.97 Y151.524 E4.96269
G1 X133.138 Y151.956 E4.99387
G1 X132.271 Y152.315 E5.02509
G1 X131.378 Y152.599 E5.05625
G1 X130.463 Y152.806 E5.08746
G1 X129.534 Y152.935 E5.11865
G1 X128.653 Y152.983 E5.148
G1 X127.96 Y152.993 E5.17105
G1 X92.207 Y152.994 E6.3602
G1 X92.05 Y152.993 E6.36542
G1 X91.349 Y152.983 E6.38874
G1 X90.413 Y152.93 E6.41992
G1 X89.484 Y152.797 E6.45113
G1 X88.571 Y152.585 E6.48231
G1 X87.678 Y152.297 E6.51351
G1 X86.814 Y151.933 E6.5447
G1 X85.983 Y151.497 E6.57591
G1 X85.193 Y150.992 E6.60709
G1 X84.449 Y150.422 E6.63827
G1 X83.756 Y149.79 E6.66946
G1 X83.119 Y149.101 E6.70067
G1 X82.543 Y148.361 E6.73186
G1 X82.062 Y147.624 E6.76113
G1 X81.687 Y146.996 E6.78546
G1 X63.749 Y115.968 E7.97751
G1 X63.405 Y115.351 E8.001
G1 X62.984 Y114.513 E8.03219
G1 X62.636 Y113.642 E8.06339
G1 X62.362 Y112.745 E8.09458
G1 X62.167 Y111.828 E8.12577
G1 X62.05 Y110.897 E8.15697
G1 X62.013 Y109.96 E8.18816
G1 X62.056 Y109.023 E8.21936
G1 X62.178 Y108.093 E8.25056
G1 X62.38 Y107.177 E8.28176
G1 X62.658 Y106.282 E8.31293
G1 X63.012 Y105.413 E8.34414
G1 X63.407 Y104.635 E8.37316
G1 X63.871 Y103.805 E8.40478
G1 X81.695 Y72.977 E9.58917
G1 X82.05 Y72.38 E9.61227
G1 X82.564 Y71.595 E9.64348
G1 X83.142 Y70.857 E9.67466
G0 F6000 X83.468 Y71.091
G1 F1200 X84.098 Y70.419 E9.7053
G1 X84.784 Y69.805 E9.73592
G1 X85.52 Y69.253 E9.76652
G1 X86.302 Y68.767 E9.79714
G1 X87.123 Y68.35 E9.82777
G1 X87.977 Y68.006 E9.85839
G1 X88.858 Y67.738 E9.88902
G1 X89.759 Y67.547 E9.91965
G1 X91.059 Y67.411 E9.96312
G1 X91.249 Y67.403 E9.96945
G1 X91.695 Y67.394 E9.98429
G1 X127.793 Y67.393 E11.18491
G1 X128.644 Y67.404 E11.21322
G1 X129.564 Y67.457 E11.24387
G1 X130.475 Y67.59 E11.27449
G1 X131.371 Y67.801 E11.30511
G1 X132.245 Y68.089 E11.33571
G1 X133.091 Y68.452 E11.36633
G1 X133.903 Y68.887 E11.39697
G1 X134.673 Y69.391 E11.42758
G1 X135.397 Y69.96 E11.45821
G1 X136.069 Y70.589 E11.48882
G1 X136.684 Y71.275 E11.51946
G1 X137.237 Y72.011 E11.55008
G1 X137.586 Y72.556 E11.57161
G1 X138.027 Y73.293 E11.60017
G1 X155.807 Y104.046 E12.78167
G1 X156.239 Y104.817 E12.81106
G1 X156.653 Y105.639 E12.84167
G1 X156.994 Y106.495 E12.87232
G1 X157.26 Y107.376 E12.90293
G1 X157.448 Y108.277 E12.93354
G1 X157.558 Y109.191 E12.96416
G1 X157.587 Y110.112 E12.99481
G1 X157.537 Y111.031 E13.02542
G1 X157.407 Y111.942 E13.05603
G1 X157.199 Y112.839 E13.08665
G1 X156.913 Y113.714 E13.11727
G1 X156.407 Y114.854 E13.15876
G1 X156.223 Y115.2 E13.17179
G1 X155.992 Y115.616 E13.18762
G1 X155.889 Y115.797 E13.19454
G1 X155.585 Y116.32 E13.21466
G1 X138.029 Y146.689 E14.38137
G1 X137.597 Y147.415 E14.40947
G1 X137.091 Y148.185 E14.44012
G1 X136.521 Y148.907 E14.47071
G1 X135.89 Y149.578 E14.50135
G1 X135.203 Y150.191 E14.53197
G1 X134.465 Y150.742 E14.5626
G1 X133.683 Y151.227 E14.59321
G1 X132.861 Y151.642 E14.62384
G1 X132.007 Y151.985 E14.65444
G1 X131.126 Y152.252 E14.68506
G1 X130.225 Y152.442 E14.71569
G1 X129.311 Y152.552 E14.74631
G1 X128.647 Y152.583 E14.76842
G1 X127.801 Y152.594 E14.79656
G1 X92.056 Y152.593 E15.98544
G1 X91.355 Y152.583 E16.00876
G1 X90.436 Y152.53 E16.03938
G1 X89.525 Y152.397 E16.07
G1 X88.629 Y152.186 E16.10061
G1 X87.754 Y151.898 E16.13125
G1 X86.908 Y151.535 E16.16187
G1 X86.097 Y151.1 E16.19248
G1 X85.326 Y150.596 E16.22312
G1 X84.602 Y150.027 E16.25374
G1 X83.93 Y149.398 E16.28436
G1 X83.315 Y148.713 E16.31498
G1 X82.762 Y147.977 E16.3456
G1 X82.405 Y147.418 E16.36766
G1 X81.954 Y146.661 E16.39696
G1 X64.18 Y115.916 E17.57813
G1 X63.755 Y115.156 E17.60709
G1 X63.342 Y114.333 E17.63772
G1 X63.002 Y113.477 E17.66835
G1 X62.737 Y112.596 E17.69895
G1 X62.55 Y111.694 E17.72959
G1 X62.442 Y110.78 E17.7602
G1 X62.414 Y109.86 E17.79081
G1 X62.465 Y108.94 E17.82146
G1 X62.597 Y108.029 E17.85208
G1 X62.806 Y107.133 E17.88268
G1 X63.093 Y106.258 E17.91331
G1 X63.455 Y105.411 E17.94394
G1 X63.756 Y104.83 E17.96571
G1 X64.217 Y104.006 E17.99711
G1 X82.039 Y73.181 E19.18138
G1 X82.394 Y72.584 E19.20448
G1 X82.899 Y71.814 E19.23511
G1 X83.468 Y71.091 E19.26571
G0 F6000 X83.794 Y71.325
G1 F1200 X84.415 Y70.67 E19.29573
G1 X85.091 Y70.071 E19.32577
G1 X85.818 Y69.535 E19.35581
G1 X86.589 Y69.065 E19.38584
G1 X87.399 Y68.665 E19.41589
G1 X88.241 Y68.338 E19.44593
G1 X89.108 Y68.088 E19.47594
G1 X89.994 Y67.914 E19.50598
G1 X91.076 Y67.811 E19.54213
G1 X91.266 Y67.803 E19.54845
G1 X91.695 Y67.794 E19.56272
G1 X127.793 Y67.793 E20.76335
G1 X128.639 Y67.804 E20.79149
G1 X129.54 Y67.857 E20.82151
G1 X130.434 Y67.989 E20.85156
G1 X131.312 Y68.2 E20.8816
G1 X132.168 Y68.488 E20.91164
G1 X132.995 Y68.85 E20.94166
G1 X133.787 Y69.284 E20.9717
G1 X134.537 Y69.787 E21.00174
G1 X135.24 Y70.354 E21.03177
G1 X135.891 Y70.98 E21.06181
G1 X136.483 Y71.662 E21.09185
G1 X137.243 Y72.762 E21.13632
G1 X137.6 Y73.358 E21.15943
G1 X137.68 Y73.494 E21.16467
G1 X155.532 Y104.372 E22.35097
G1 X155.89 Y105.012 E22.37536
G1 X156.295 Y105.819 E22.40539
G1 X156.628 Y106.659 E22.43544
G1 X156.885 Y107.525 E22.46549
G1 X157.065 Y108.41 E22.49553
G1 X157.165 Y109.307 E22.52555
G1 X157.186 Y110.21 E22.55559
G1 X157.126 Y111.111 E22.58562
G1 X156.988 Y112.004 E22.61568
G1 X156.77 Y112.88 E22.6457
G1 X156.477 Y113.734 E22.67573
G1 X156.052 Y114.67 E22.70992
G1 X155.873 Y115.006 E22.72258
G1 X155.642 Y115.422 E22.73841
G1 X155.543 Y115.596 E22.74507
G1 X137.683 Y146.489 E23.93193
G1 X137.253 Y147.21 E23.95985
G1 X136.757 Y147.965 E23.98989
G1 X136.195 Y148.672 E24.01993
G1 X135.573 Y149.327 E24.04998
G1 X134.896 Y149.924 E24.08
G1 X134.169 Y150.46 E24.11004
G1 X133.397 Y150.928 E24.14006
G1 X132.586 Y151.327 E24.17013
G1 X131.744 Y151.652 E24.20015
G1 X130.876 Y151.902 E24.23019
G1 X129.989 Y152.074 E24.26024
G1 X128.641 Y152.183 E24.30522
G1 X127.801 Y152.194 E24.33316
G1 X92.062 Y152.193 E25.52185
G1 X91.361 Y152.183 E25.54516
G1 X90.459 Y152.13 E25.57522
G1 X89.566 Y151.998 E25.60524
G1 X88.687 Y151.787 E25.63531
G1 X87.831 Y151.499 E25.66535
G1 X87.004 Y151.137 E25.69537
G1 X86.212 Y150.703 E25.72541
G1 X85.462 Y150.2 E25.75544
G1 X84.759 Y149.633 E25.78548
G1 X84.109 Y149.007 E25.8155
G1 X83.516 Y148.325 E25.84556
G1 X82.749 Y147.213 E25.89049
G1 X82.3 Y146.461 E25.91962
G1 X64.526 Y115.716 E27.10078
G1 X64.104 Y114.961 E27.12955
G1 X63.7 Y114.154 E27.15957
G1 X63.368 Y113.313 E27.18964
G1 X63.112 Y112.447 E27.21968
G1 X62.934 Y111.562 E27.2497
G1 X62.835 Y110.664 E27.27975
G1 X62.816 Y109.761 E27.30979
G1 X62.876 Y108.86 E27.33982
G1 X63.016 Y107.968 E27.36986
G1 X63.235 Y107.092 E27.39989
G1 X63.53 Y106.238 E27.42994
G1 X64.105 Y105.025 E27.47459
G1 X64.486 Y104.342 E27.5006
G1 X82.383 Y73.386 E28.68989
G1 X82.738 Y72.789 E28.71299
G1 X83.233 Y72.034 E28.74302
G1 X83.794 Y71.325 E28.77309
G1 F1500 E22.27309
;MESH:Desert_1._Cactus.stl
G0 F6000 X91.656 Y77.326
G0 X92.076 Y78.413
G0 X128.053 Y78.769
G0 X146.105 Y109.994
G0 X128.154 Y141.394
;TYPE:WALL-INNER
G1 F1500 E28.77309
G1 F1200 X91.845 Y141.394 E29.98073
G1 X73.693 Y109.993 E31.18708
G1 X91.846 Y78.592 E32.39344
G1 X128.155 Y78.593 E33.60108
G1 X146.308 Y109.994 E34.80745
G1 X146.067 Y110.407 E34.82335
G1 X128.154 Y141.394 E36.0138
G0 F6000 X128.384 Y141.794
;TYPE:WALL-OUTER
G1 F1200 X91.615 Y141.794 E37.23674
G1 X73.231 Y109.993 E38.45847
G1 X91.616 Y78.192 E39.68021
G1 X91.66 Y78.191 E39.68168
G1 X92.077 Y78.193 E39.69555
G1 X128.385 Y78.193 E40.90315
G1 X146.769 Y109.993 E42.12485
G1 X146.639 Y110.22 E42.13355
G1 X146.413 Y110.608 E42.14849
G1 X128.384 Y141.794 E43.3466
G0 F6000 X128.115 Y141.383
G0 X127.928 Y141.004
;TYPE:SKIN
G1 F1200 X92.069 Y141.004 E44.53927
G1 X74.143 Y109.993 E45.73063
G1 X92.07 Y78.982 E46.922
G1 X127.931 Y78.983 E48.11474
G1 X145.857 Y109.992 E49.30604
G1 X127.928 Y141.004 E50.49747
G1 F1500 E43.99747
G0 F6000 X127.928 Y141.284
G0 X92.194 Y141.284
G0 X92.194 Y140.843
G1 F1500 E50.49747
G1 F1200 X92.114 Y140.763 E50.50124
G0 F6000 X92.76 Y140.843
G1 F1200 X91.339 Y139.422 E50.56808
G0 F6000 X90.959 Y139.641
G0 X90.184 Y138.3
G0 X90.564 Y138.081
G1 F1200 X93.326 Y140.843 E50.69799
G0 F6000 X93.891 Y140.843
G1 F1200 X89.789 Y136.741 E50.89094
G0 F6000 X89.409 Y136.96
G0 X88.635 Y135.62
G0 X89.014 Y135.401
G1 F1200 X94.457 Y140.843 E51.14694
G0 F6000 X95.023 Y140.843
G1 F1200 X88.239 Y134.06 E51.46601
G0 F6000 X87.859 Y134.279
G0 X87.084 Y132.938
G0 X87.464 Y132.719
G1 F1200 X95.588 Y140.843 E51.84814
G0 F6000 X96.154 Y140.843
G1 F1200 X86.689 Y131.379 E52.29332
G0 F6000 X86.31 Y131.598
G0 X85.535 Y130.258
G0 X85.915 Y130.039
G1 F1200 X96.72 Y140.843 E52.80153
G0 F6000 X97.285 Y140.843
G1 F1200 X85.14 Y128.698 E53.37279
G0 F6000 X84.76 Y128.917
G0 X83.985 Y127.576
G0 X84.365 Y127.357
G1 F1200 X97.851 Y140.843 E54.00713
G0 F6000 X98.417 Y140.843
G1 F1200 X83.59 Y126.017 E54.70453
G0 F6000 X83.21 Y126.236
G0 X82.436 Y124.896
G0 X82.816 Y124.677
G1 F1200 X98.982 Y140.843 E55.46493
G0 F6000 X99.548 Y140.843
G1 F1200 X82.041 Y123.336 E56.2884
G0 F6000 X81.661 Y123.555
G0 X80.886 Y122.214
G0 X81.266 Y121.995
G1 F1200 X100.114 Y140.843 E57.17495
G0 F6000 X100.679 Y140.843
G1 F1200 X80.491 Y120.655 E58.12454
G0 F6000 X80.111 Y120.874
G0 X79.336 Y119.535
G0 X79.717 Y119.315
G1 F1200 X101.245 Y140.843 E59.13715
G0 F6000 X101.811 Y140.843
G1 F1200 X78.942 Y117.974 E60.21283
G0 F6000 X78.561 Y118.194
G0 X77.786 Y116.853
G0 X78.167 Y116.633
G1 F1200 X102.377 Y140.843 E61.3516
G0 F6000 X102.942 Y140.843
G1 F1200 X77.392 Y115.293 E62.55339
G0 F6000 X77.011 Y115.512
G0 X76.236 Y114.172
G0 X76.617 Y113.952
G1 F1200 X103.508 Y140.843 E63.81826
G0 F6000 X104.074 Y140.843
G1 F1200 X75.842 Y112.612 E65.14619
G0 F6000 X75.462 Y112.831
G0 X74.686 Y111.49
G0 X75.067 Y111.271
G1 F1200 X104.639 Y140.843 E66.53716
G0 F6000 X105.205 Y140.843
G1 F1200 X74.337 Y109.975 E67.9891
G0 F6000 X74.544 Y109.617
G1 F1200 X105.771 Y140.843 E69.4579
G0 F6000 X106.336 Y140.843
G1 F1200 X74.751 Y109.258 E70.94356
G0 F6000 X74.958 Y108.9
G1 F1200 X106.902 Y140.843 E72.44608
G0 F6000 X107.468 Y140.843
G1 F1200 X75.166 Y108.541 E73.96547
G0 F6000 X75.373 Y108.183
G1 F1200 X108.033 Y140.843 E75.5017
G0 F6000 X108.599 Y140.843
G1 F1200 X75.58 Y107.824 E77.05481
G0 F6000 X75.787 Y107.466
G1 F1200 X109.165 Y140.843 E78.62478
G0 F6000 X109.73 Y140.843
G1 F1200 X75.994 Y107.107 E80.21162
G0 F6000 X76.202 Y106.749
G1 F1200 X110.296 Y140.843 E81.8153
G0 F6000 X110.862 Y140.843
G1 F1200 X76.409 Y106.39 E83.43586
G0 F6000 X76.616 Y106.032
G1 F1200 X111.428 Y140.843 E85.07329
G0 F6000 X111.993 Y140.843
G1 F1200 X76.823 Y105.673 E86.72758
G0 F6000 X77.03 Y105.315
G1 F1200 X112.559 Y140.843 E88.39873
G0 F6000 X113.125 Y140.843
G1 F1200 X77.237 Y104.956 E90.08677
G0 F6000 X77.445 Y104.598
G1 F1200 X113.69 Y140.843 E91.79162
G0 F6000 X114.256 Y140.843
G1 F1200 X77.653 Y104.24 E93.51331
G0 F6000 X77.86 Y103.881
G1 F1200 X114.822 Y140.843 E95.25189
G0 F6000 X115.387 Y140.843
G1 F1200 X78.067 Y103.523 E97.00731
G0 F6000 X78.274 Y103.164
G1 F1200 X115.953 Y140.843 E98.77962
G0 F6000 X116.519 Y140.843
G1 F1200 X78.481 Y102.806 E100.56878
G0 F6000 X78.688 Y102.447
G1 F1200 X117.084 Y140.843 E102.37481
G0 F6000 X117.65 Y140.843
G1 F1200 X78.896 Y102.089 E104.19768
G0 F6000 X79.103 Y101.73
G1 F1200 X118.216 Y140.843 E106.03744
G0 F6000 X118.781 Y140.843
G1 F1200 X79.31 Y101.372 E107.89403
G0 F6000 X79.517 Y101.013
G1 F1200 X119.347 Y140.843 E109.76751
G0 F6000 X119.913 Y140.843
G1 F1200 X79.724 Y100.655 E111.65786
G0 F6000 X79.932 Y100.296
G1 F1200 X120.478 Y140.843 E113.56504
G0 F6000 X121.044 Y140.843
G1 F1200 X80.139 Y99.938 E115.48909
G0 F6000 X80.346 Y99.579
G1 F1200 X121.61 Y140.843 E117.43002
G0 F6000 X122.176 Y140.843
G1 F1200 X80.553 Y99.221 E119.38781
G0 F6000 X80.76 Y98.862
G1 F1200 X122.741 Y140.843 E121.36247
G0 F6000 X123.307 Y140.843
G1 F1200 X80.967 Y98.504 E123.35399
G0 F6000 X81.175 Y98.145
G1 F1200 X123.873 Y140.843 E125.36237
G0 F6000 X124.438 Y140.843
G1 F1200 X81.382 Y97.787 E127.3876
G0 F6000 X81.589 Y97.428
G1 F1200 X125.004 Y140.843 E129.42971
G0 F6000 X125.57 Y140.843
G1 F1200 X81.797 Y97.07 E131.48865
G0 F6000 X82.004 Y96.712
G1 F1200 X126.135 Y140.843 E133.56444
G0 F6000 X126.701 Y140.843
G1 F1200 X82.211 Y96.353 E135.65711
G0 F6000 X82.418 Y95.995
G1 F1200 X127.267 Y140.843 E137.76665
G0 F6000 X127.832 Y140.843
G1 F1200 X82.626 Y95.636 E139.89302
G0 F6000 X82.833 Y95.278
G1 F1200 X128.042 Y140.487 E142.01952
G0 F6000 X128.249 Y140.128
G1 F1200 X83.04 Y94.919 E144.14601
G0 F6000 X83.247 Y94.561
G1 F1200 X128.456 Y139.77 E146.2725
G0 F6000 X128.663 Y139.411
G1 F1200 X83.454 Y94.202 E148.399
G0 F6000 X83.662 Y93.844
G1 F1200 X128.87 Y139.053 E150.52546
G0 F6000 X129.078 Y138.694
G1 F1200 X83.869 Y93.485 E152.65196
G0 F6000 X84.076 Y93.127
G1 F1200 X129.285 Y138.336 E154.77845
G0 F6000 X129.493 Y137.978
G1 F1200 X84.283 Y92.768 E156.90499
G0 F6000 X84.49 Y92.41
G1 F1200 X129.7 Y137.619 E159.03151
G0 F6000 X129.907 Y137.261
G1 F1200 X84.697 Y92.051 E161.15805
G0 F6000 X84.905 Y91.693
G1 F1200 X130.114 Y136.902 E163.28454
G0 F6000 X130.321 Y136.544
G1 F1200 X85.112 Y91.334 E165.41106
G0 F6000 X85.319 Y90.976
G1 F1200 X130.529 Y136.185 E167.53757
G0 F6000 X130.736 Y135.827
G1 F1200 X85.526 Y90.617 E169.66411
G0 F6000 X85.734 Y90.26
G1 F1200 X130.943 Y135.468 E171.79058
G0 F6000 X131.15 Y135.11
G1 F1200 X85.941 Y89.901 E173.91707
G0 F6000 X86.148 Y89.543
G1 F1200 X131.357 Y134.751 E176.04354
G0 F6000 X131.564 Y134.393
G1 F1200 X86.356 Y89.184 E178.17001
G0 F6000 X86.563 Y88.826
G1 F1200 X131.772 Y134.034 E180.29648
G0 F6000 X131.979 Y133.676
G1 F1200 X86.77 Y88.467 E182.42297
G0 F6000 X86.977 Y88.109
G1 F1200 X132.186 Y133.317 E184.54944
G0 F6000 X132.393 Y132.959
G1 F1200 X87.184 Y87.75 E186.67594
G0 F6000 X87.392 Y87.392
