;FLAVOR:Marlin
;TIME:494
;Filament used: 0.28452m
;Layer height: 0.2
;MINX:80.789
;MINY:81.279
;MINZ:0.2
;MAXX:139.229
;MAXY:138.716
;MAXZ:1
;Generated with Cura_SteamEngine master
M140 S60
M105
M190 S60
M104 S200
M105
M109 S200
M82 ;absolute extrusion mode
; Ender 3 Custom Start G-code
G92 E0 ; Reset Extruder
G28 ; Home all axes
G1 Z2.0 F3000 ; Move Z Axis up little to prevent scratching of Heat Bed
G1 X0.1 Y20 Z0.3 F5000.0 ; Move to start position
G1 X0.1 Y200.0 Z0.3 F1500.0 E15 ; Draw the first line
G1 X0.4 Y200.0 Z0.3 F5000.0 ; Move to side a little
G1 X0.4 Y20 Z0.3 F1500.0 E30 ; Draw the second line
G92 E0 ; Reset Extruder
G1 Z2.0 F3000 ; Move Z Axis up little to prevent scratching of Heat Bed
G1 X5 Y20 Z0.3 F5000.0 ; Move over to prevent blob squish
G92 E0
G92 E0
G1 F1500 E-6.5
;LAYER_COUNT:5
;LAYER:0
M107
G0 F6000 X85.101 Y85.275 Z0.2
;TYPE:SKIRT
G1 F1500 E0
G1 F1200 X85.567 Y84.858 E0.0208
G1 X85.828 Y84.637 E0.03217
G1 X86.843 Y83.874 E0.07441
G1 X87.091 Y83.709 E0.08431
G1 X87.878 Y83.232 E0.11492
G1 X88.016 Y83.156 E0.12016
G1 X88.856 Y82.739 E0.15135
G1 X89.416 Y82.508 E0.1715
G1 X89.674 Y82.41 E0.18068
G1 X90.891 Y82.027 E0.22312
G1 X91.125 Y81.968 E0.23114
G1 X92.399 Y81.725 E0.27428
G1 X92.584 Y81.701 E0.28049
G1 X93 Y81.655 E0.29441
G1 X93.819 Y81.581 E0.32176
G1 X96.508 Y81.359 E0.4115
G1 X96.769 Y81.333 E0.42022
G1 X97.983 Y81.279 E0.46064
G1 X98.374 Y81.283 E0.47364
G1 X98.763 Y81.293 E0.48659
G1 X99.004 Y81.304 E0.49461
G1 X99.773 Y81.367 E0.52027
G1 X100.109 Y81.408 E0.53153
G1 X101.071 Y81.539 E0.56382
G1 X101.618 Y81.619 E0.58221
G1 X104.108 Y81.916 E0.66562
G1 X106.645 Y82.144 E0.75034
G1 X109.145 Y82.299 E0.83365
G1 X111.658 Y82.383 E0.91728
G1 X114.187 Y82.396 E1.00139
G1 X116.701 Y82.338 E1.08503
G1 X119.201 Y82.209 E1.16829
G1 X121.725 Y82.008 E1.25251
G1 X124.229 Y81.737 E1.33627
G1 X126.4 Y81.444 E1.40914
G1 X126.644 Y81.409 E1.41734
G1 X127.577 Y81.315 E1.44852
G1 X128.515 Y81.3 E1.47973
G1 X129.45 Y81.366 E1.5109
G1 X130.377 Y81.511 E1.54211
G1 X131.288 Y81.734 E1.5733
G1 X132.177 Y82.034 E1.60451
G1 X133.036 Y82.409 E1.63568
G1 X133.861 Y82.855 E1.66688
G1 X134.645 Y83.371 E1.69809
G1 X135.382 Y83.951 E1.72929
G1 X136.066 Y84.592 E1.76047
G1 X136.694 Y85.288 E1.79165
G1 X137.26 Y86.036 E1.82284
G1 X137.761 Y86.829 E1.85404
G1 X138.191 Y87.662 E1.88522
G1 X138.55 Y88.529 E1.91643
G1 X138.833 Y89.423 E1.94762
G1 X139.039 Y90.338 E1.97882
G1 X139.167 Y91.267 E2.01001
G1 X139.213 Y92.106 E2.03795
G1 X139.227 Y92.916 E2.0649
G1 X139.229 Y93.106 E2.07122
G1 X139.228 Y100.014 E2.30098
G1 X139.218 Y100.712 E2.3242
G1 X139.191 Y101.344 E2.34524
G1 X139.154 Y101.842 E2.36185
G1 X138.983 Y103.861 E2.42924
G1 X138.843 Y106.332 E2.51156
G1 X138.772 Y108.882 E2.5964
G1 X138.772 Y111.406 E2.68035
G1 X138.844 Y113.903 E2.76344
G1 X138.986 Y116.422 E2.84735
G1 X139.098 Y117.835 E2.89449
G1 X139.178 Y118.765 E2.92554
G1 X139.213 Y119.364 E2.9455
G1 X139.223 Y119.684 E2.95615
G1 X139.228 Y120.026 E2.96752
G1 X139.228 Y127.159 E3.20477
G1 X139.218 Y127.873 E3.22852
G1 X139.165 Y128.809 E3.2597
G1 X139.032 Y129.738 E3.29091
G1 X138.821 Y130.652 E3.32211
G1 X138.533 Y131.544 E3.35329
G1 X138.169 Y132.409 E3.3845
G1 X137.734 Y133.239 E3.41567
G1 X137.229 Y134.03 E3.44688
G1 X136.658 Y134.774 E3.47808
G1 X136.027 Y135.467 E3.50925
G1 X135.338 Y136.104 E3.54046
G1 X134.598 Y136.68 E3.57165
G1 X133.812 Y137.191 E3.60283
G1 X132.984 Y137.633 E3.63405
G1 X132.123 Y138.003 E3.66522
G1 X131.232 Y138.298 E3.69643
G1 X130.32 Y138.516 E3.72762
G1 X129.393 Y138.656 E3.7588
G1 X128.457 Y138.716 E3.79
G1 X127.519 Y138.697 E3.8212
G1 X126.587 Y138.597 E3.85238
G1 X125.666 Y138.419 E3.88358
G1 X124.523 Y138.08 E3.92323
G1 X123.654 Y137.77 E3.95392
G1 X123.459 Y137.698 E3.96083
G1 X88.698 Y124.552 E5.1969
G1 X87.931 Y124.25 E5.22432
G1 X87.074 Y123.869 E5.25551
G1 X86.253 Y123.417 E5.28668
G1 X85.473 Y122.896 E5.31788
G1 X84.74 Y122.31 E5.3491
G1 X84.06 Y121.664 E5.38029
G1 X83.438 Y120.963 E5.41146
G1 X82.877 Y120.211 E5.44267
G1 X82.382 Y119.414 E5.47387
G1 X81.958 Y118.578 E5.50505
G1 X81.606 Y117.709 E5.53623
G1 X81.329 Y116.813 E5.56743
G1 X81.13 Y115.896 E5.59863
G1 X81.009 Y114.966 E5.62983
G1 X80.976 Y114.441 E5.64732
G1 X80.97 Y114.285 E5.65252
G1 X80.963 Y113.972 E5.66293
G1 X80.958 Y113.462 E5.67989
G1 X80.959 Y106.395 E5.91494
G1 X80.986 Y104.581 E5.97528
G1 X81.009 Y103.749 E6.00297
G1 X81.007 Y101.218 E6.08715
G1 X80.935 Y98.71 E6.1706
G1 X80.865 Y97.326 E6.21669
G1 X80.799 Y96.186 E6.25467
G1 X80.789 Y95.136 E6.28959
G1 X80.796 Y94.95 E6.29578
G1 X80.884 Y93.913 E6.3304
G1 X80.95 Y93.417 E6.34704
G1 X81.149 Y92.339 E6.3835
G1 X81.222 Y92.03 E6.39406
G1 X81.468 Y91.151 E6.42442
G1 X81.569 Y90.841 E6.43526
G1 X81.967 Y89.801 E6.4723
G1 X82.051 Y89.611 E6.47921
G1 X82.396 Y88.901 E6.50547
G1 X82.499 Y88.707 E6.51277
G1 X82.972 Y87.902 E6.54383
G1 X83.172 Y87.592 E6.5561
G1 X83.762 Y86.764 E6.58991
G1 X83.824 Y86.685 E6.59325
G1 X84.251 Y86.173 E6.61543
G1 X84.449 Y85.95 E6.62534
G1 X85.101 Y85.275 E6.65656
G0 F6000 X85.389 Y85.554
G1 F1200 X85.825 Y85.163 E6.67604
G1 X86.086 Y84.942 E6.68741
G1 X87.064 Y84.207 E6.7281
G1 X87.312 Y84.042 E6.73801
G1 X88.07 Y83.582 E6.7675
G1 X88.208 Y83.506 E6.77274
G1 X89.033 Y83.097 E6.80337
G1 X89.558 Y82.882 E6.82224
G1 X89.816 Y82.784 E6.83141
G1 X90.988 Y82.415 E6.87228
G1 X91.222 Y82.356 E6.88031
G1 X92.45 Y82.122 E6.92189
G1 X92.635 Y82.098 E6.92809
G1 X93.037 Y82.054 E6.94154
G1 X93.852 Y81.98 E6.96876
G1 X96.525 Y81.76 E7.05797
G1 X96.809 Y81.731 E7.06746
G1 X97.978 Y81.679 E7.10638
G1 X98.369 Y81.683 E7.11939
G1 X98.744 Y81.693 E7.13186
G1 X98.985 Y81.704 E7.13989
G1 X99.726 Y81.764 E7.16461
G1 X100.055 Y81.804 E7.17564
G1 X101.013 Y81.935 E7.2078
G1 X101.549 Y82.014 E7.22582
G1 X104.096 Y82.317 E7.31113
G1 X106.585 Y82.541 E7.39425
G1 X109.142 Y82.7 E7.47946
G1 X111.641 Y82.783 E7.56262
G1 X114.194 Y82.796 E7.64753
G1 X116.697 Y82.739 E7.73081
G1 X119.253 Y82.607 E7.81593
G1 X121.728 Y82.409 E7.89851
G1 X124.29 Y82.132 E7.98422
G1 X126.5 Y81.834 E8.05839
G1 X126.701 Y81.805 E8.06515
G1 X127.617 Y81.713 E8.09577
G1 X128.538 Y81.701 E8.1264
G1 X129.456 Y81.769 E8.15702
G1 X130.365 Y81.916 E8.18764
G1 X131.257 Y82.142 E8.21825
G1 X132.127 Y82.444 E8.24888
G1 X132.967 Y82.821 E8.2795
G1 X133.771 Y83.269 E8.31012
G1 X134.534 Y83.785 E8.34075
G1 X135.248 Y84.365 E8.37135
G1 X135.91 Y85.006 E8.402
G1 X136.513 Y85.701 E8.4326
G1 X137.054 Y86.446 E8.46322
G1 X137.529 Y87.235 E8.49385
G1 X137.933 Y88.062 E8.52447
G1 X138.263 Y88.921 E8.55507
G1 X138.518 Y89.806 E8.5857
G1 X138.696 Y90.709 E8.61632
G1 X138.794 Y91.625 E8.64696
G1 X138.813 Y92.113 E8.6632
G1 X138.829 Y93.106 E8.69623
G1 X138.828 Y100.008 E8.92579
G1 X138.818 Y100.706 E8.94901
G1 X138.792 Y101.315 E8.96928
G1 X138.766 Y101.676 E8.98132
G1 X138.586 Y103.802 E9.05229
G1 X138.443 Y106.334 E9.13664
G1 X138.372 Y108.871 E9.22105
G1 X138.372 Y111.383 E9.3046
G1 X138.445 Y113.935 E9.38951
G1 X138.589 Y116.479 E9.47426
G1 X138.699 Y117.87 E9.52067
G1 X138.779 Y118.8 E9.55172
G1 X138.813 Y119.377 E9.57094
G1 X138.823 Y119.697 E9.58159
G1 X138.828 Y120.026 E9.59254
G1 X138.828 Y127.153 E9.82958
G1 X138.818 Y127.867 E9.85333
G1 X138.765 Y128.787 E9.88398
G1 X138.633 Y129.698 E9.9146
G1 X138.422 Y130.594 E9.94521
G1 X138.134 Y131.468 E9.97582
G1 X137.771 Y132.314 E10.00644
G1 X137.336 Y133.126 E10.03708
G1 X136.833 Y133.897 E10.0677
G1 X136.264 Y134.621 E10.09832
G1 X135.635 Y135.293 E10.12894
G1 X134.95 Y135.908 E10.15956
G1 X134.214 Y136.461 E10.19017
G1 X133.433 Y136.948 E10.22079
G1 X132.612 Y137.366 E10.25143
G1 X131.758 Y137.711 E10.28206
G1 X130.878 Y137.98 E10.31267
G1 X129.978 Y138.172 E10.34328
G1 X129.064 Y138.285 E10.37391
G1 X128.144 Y138.319 E10.40453
G1 X127.225 Y138.272 E10.43513
G1 X126.313 Y138.146 E10.46576
G1 X125.415 Y137.941 E10.49639
G1 X124.657 Y137.703 E10.52282
G1 X123.788 Y137.393 E10.5535
G1 X123.6 Y137.324 E10.56016
G1 X88.839 Y124.178 E11.79624
G1 X88.078 Y123.878 E11.82344
G1 X87.237 Y123.504 E11.85406
G1 X86.432 Y123.057 E11.88468
G1 X85.668 Y122.543 E11.91531
G1 X84.952 Y121.964 E11.94593
G1 X84.289 Y121.325 E11.97656
G1 X83.684 Y120.631 E12.00718
G1 X83.141 Y119.888 E12.03779
G1 X82.665 Y119.1 E12.06841
G1 X82.26 Y118.273 E12.09904
G1 X81.927 Y117.415 E12.12965
G1 X81.67 Y116.531 E12.16027
G1 X81.491 Y115.628 E12.19089
G1 X81.376 Y114.425 E12.23108
G1 X81.37 Y114.269 E12.23627
G1 X81.363 Y113.968 E12.24629
G1 X81.358 Y113.462 E12.26312
G1 X81.359 Y106.401 E12.49797
G1 X81.386 Y104.592 E12.55814
G1 X81.409 Y103.76 E12.58582
G1 X81.407 Y101.242 E12.66957
G1 X81.332 Y98.633 E12.75638
G1 X81.261 Y97.227 E12.80321
G1 X81.199 Y96.163 E12.83866
G1 X81.188 Y95.151 E12.87232
G1 X81.195 Y94.965 E12.87851
G1 X81.281 Y93.966 E12.91186
G1 X81.347 Y93.47 E12.9285
G1 X81.538 Y92.431 E12.96364
G1 X81.611 Y92.122 E12.9742
G1 X81.848 Y91.275 E13.00345
G1 X81.949 Y90.965 E13.01429
G1 X82.333 Y89.963 E13.04999
G1 X82.417 Y89.773 E13.05689
G1 X82.75 Y89.088 E13.08223
G1 X82.853 Y88.894 E13.08953
G1 X83.308 Y88.118 E13.11945
G1 X83.508 Y87.808 E13.13172
G1 X84.076 Y87.011 E13.16427
G1 X84.138 Y86.932 E13.16761
G1 X84.551 Y86.438 E13.18903
G1 X84.749 Y86.215 E13.19895
G1 X85.389 Y85.554 E13.22955
G0 F6000 X85.677 Y85.833
G1 F1200 X86.084 Y85.469 E13.24771
G1 X86.345 Y85.248 E13.25909
G1 X87.286 Y84.54 E13.29825
G1 X87.534 Y84.375 E13.30816
G1 X88.263 Y83.932 E13.33653
G1 X88.401 Y83.856 E13.34177
G1 X89.211 Y83.456 E13.37182
G1 X89.7 Y83.256 E13.38939
G1 X89.958 Y83.158 E13.39857
G1 X91.086 Y82.803 E13.4379
G1 X91.32 Y82.744 E13.44593
G1 X92.502 Y82.519 E13.48595
G1 X92.687 Y82.495 E13.49215
G1 X93.073 Y82.452 E13.50507
G1 X93.885 Y82.379 E13.53219
G1 X96.541 Y82.16 E13.62083
G1 X96.849 Y82.129 E13.63112
G1 X97.974 Y82.079 E13.66858
G1 X98.365 Y82.083 E13.68158
G1 X98.726 Y82.093 E13.69359
G1 X98.967 Y82.104 E13.70162
G1 X99.68 Y82.161 E13.72541
G1 X100.001 Y82.2 E13.73616
G1 X100.955 Y82.33 E13.76819
G1 X101.515 Y82.412 E13.78701
G1 X104.049 Y82.714 E13.87189
G1 X106.596 Y82.943 E13.95694
G1 X109.103 Y83.099 E14.04049
G1 X111.626 Y83.183 E14.12445
G1 X114.202 Y83.196 E14.21013
G1 X116.726 Y83.138 E14.2941
G1 X119.232 Y83.009 E14.37756
G1 X121.805 Y82.803 E14.46341
G1 X124.346 Y82.529 E14.54842
G1 X126.508 Y82.237 E14.62098
G1 X126.758 Y82.201 E14.62938
G1 X127.657 Y82.111 E14.65943
G1 X128.56 Y82.102 E14.68946
G1 X129.46 Y82.172 E14.71949
G1 X130.351 Y82.322 E14.74954
G1 X131.225 Y82.55 E14.77958
G1 X132.075 Y82.855 E14.80962
G1 X132.895 Y83.233 E14.83965
G1 X133.678 Y83.683 E14.86969
G1 X134.419 Y84.2 E14.89974
G1 X135.111 Y84.78 E14.92977
G1 X135.748 Y85.419 E14.95978
G1 X136.327 Y86.113 E14.98984
G1 X136.842 Y86.855 E15.01988
G1 X137.29 Y87.639 E15.04991
G1 X137.666 Y88.46 E15.07995
G1 X137.968 Y89.311 E15.10998
G1 X138.194 Y90.185 E15.14001
G1 X138.342 Y91.076 E15.17005
G1 X138.413 Y92.12 E15.20485
G1 X138.429 Y93.106 E15.23765
G1 X138.428 Y100.002 E15.46701
G1 X138.418 Y100.7 E15.49023
G1 X138.393 Y101.287 E15.50977
G1 X138.357 Y101.775 E15.52605
G1 X138.187 Y103.785 E15.59314
G1 X138.043 Y106.334 E15.67805
G1 X137.972 Y108.86 E15.7621
G1 X137.972 Y111.394 E15.84638
G1 X138.045 Y113.935 E15.93093
G1 X138.192 Y116.534 E16.01751
G1 X138.3 Y117.904 E16.06322
G1 X138.38 Y118.834 E16.09427
G1 X138.413 Y119.389 E16.11276
G1 X138.423 Y119.709 E16.12341
G1 X138.428 Y120.027 E16.13399
G1 X138.428 Y127.148 E16.37083
G1 X138.418 Y127.862 E16.39458
G1 X138.365 Y128.763 E16.4246
G1 X138.233 Y129.657 E16.45466
G1 X138.023 Y130.535 E16.48468
G1 X137.735 Y131.391 E16.51472
G1 X137.373 Y132.218 E16.54475
G1 X136.939 Y133.011 E16.57481
G1 X136.437 Y133.761 E16.60483
G1 X135.87 Y134.464 E16.63487
G1 X135.244 Y135.115 E16.66491
G1 X134.562 Y135.707 E16.69495
G1 X133.83 Y136.237 E16.72501
G1 X133.055 Y136.7 E16.75503
G1 X132.242 Y137.092 E16.78505
G1 X131.397 Y137.411 E16.81509
G1 X130.527 Y137.654 E16.84514
G1 X129.639 Y137.82 E16.87518
G1 X128.74 Y137.906 E16.90522
G1 X127.837 Y137.912 E16.93525
G1 X126.937 Y137.838 E16.96529
G1 X126.047 Y137.685 E16.99533
G1 X124.792 Y137.326 E17.03874
G1 X123.923 Y137.016 E17.06943
G1 X123.742 Y136.95 E17.07584
G1 X88.981 Y123.804 E18.31191
G1 X88.225 Y123.506 E18.33894
G1 X87.4 Y123.138 E18.36898
G1 X86.611 Y122.698 E18.39903
G1 X85.864 Y122.19 E18.42907
G1 X85.166 Y121.618 E18.45909
G1 X84.52 Y120.987 E18.48912
G1 X83.933 Y120.301 E18.51915
G1 X83.408 Y119.565 E18.54922
G1 X82.951 Y118.787 E18.57923
G1 X82.565 Y117.97 E18.60929
G1 X82.252 Y117.123 E18.63932
G1 X82.016 Y116.252 E18.66933
G1 X81.857 Y115.362 E18.6994
G1 X81.776 Y114.41 E18.73118
G1 X81.77 Y114.254 E18.73638
G1 X81.763 Y113.964 E18.74602
G1 X81.758 Y113.462 E18.76272
G1 X81.759 Y106.406 E18.9974
G1 X81.786 Y104.603 E19.05738
G1 X81.809 Y103.771 E19.08506
G1 X81.807 Y101.23 E19.16958
G1 X81.733 Y98.648 E19.25549
G1 X81.66 Y97.207 E19.30348
G1 X81.598 Y96.14 E19.33903
G1 X81.588 Y95.166 E19.37142
G1 X81.595 Y94.98 E19.37761
G1 X81.677 Y94.019 E19.40969
G1 X81.743 Y93.523 E19.42634
G1 X81.927 Y92.523 E19.46015
G1 X82 Y92.214 E19.47071
G1 X82.229 Y91.399 E19.49887
G1 X82.33 Y91.089 E19.50972
G1 X82.699 Y90.125 E19.54405
G1 X82.783 Y89.935 E19.55096
G1 X83.103 Y89.276 E19.57532
G1 X83.206 Y89.082 E19.58263
G1 X83.644 Y88.335 E19.61143
G1 X83.844 Y88.025 E19.6237
G1 X84.391 Y87.258 E19.65503
G1 X84.453 Y87.179 E19.65837
G1 X84.85 Y86.704 E19.67896
G1 X85.048 Y86.481 E19.68888
G1 X85.677 Y85.833 E19.71892
G1 F1500 E13.21892
;MESH:AAA-Label.stl
G0 F6000 X91.675 Y97.654
G0 X92.158 Y98.253
G0 X92.904 Y98.808
G0 X93.685 Y99.133
G0 X94.42 Y99.28
G0 X97.126 Y99.536
G0 X98.646 Y99.465
G0 X99.108 Y99.35
G0 X113.497 Y113.83
G0 X113.018 Y115.182
G0 X114.469 Y115.364
G0 X114.808 Y115.354
;TYPE:WALL-INNER
G1 F1500 E19.71892
G1 F1200 X114.808 Y104.828 E20.06901
G1 X114.808 Y104.826 E20.06908
G1 X114.808 Y104.549 E20.07829
G1 X114.545 Y104.639 E20.08378
G1 X100.298 Y109.532 E20.5848
G1 X100.298 Y110.486 E20.61653
G1 X114.543 Y115.542 E21.11928
G1 X114.808 Y115.636 E21.12863
G1 X114.808 Y115.355 E21.13416
G1 X114.808 Y115.354 E21.13419
G0 F6000 X114.408 Y115.07
;TYPE:WALL-OUTER
G1 F1200 X114.408 Y105.109 E21.4655
G1 X100.698 Y109.818 E21.94764
G1 X100.698 Y110.204 E21.96048
G1 X114.408 Y115.07 E22.44435
G1 F1500 E15.94435
G0 F6000 X114.308 Y115.352
G0 X113.018 Y115.182
G0 X113.497 Y113.83
G0 X112.513 Y122.509
G0 X113.027 Y121.148
G0 X127.629 Y126.873
;TYPE:WALL-INNER
G1 F1500 E22.44435
G1 F1200 X127.36 Y126.772 E22.4539
G1 X92.558 Y113.611 E23.69143
G1 X92.558 Y106.262 E23.93586
G1 X127.361 Y93.248 E25.17169
G1 X127.629 Y93.148 E25.1812
G1 X127.629 Y93.434 E25.18682
G1 X127.629 Y93.435 E25.18685
G1 X127.629 Y100.133 E25.40963
G1 X119.552 Y102.876 E25.69334
G1 X119.552 Y117.295 E26.17292
G1 X127.629 Y120.14 E26.45774
G1 X127.629 Y126.585 E26.6721
G1 X127.629 Y126.586 E26.67213
G1 X127.629 Y126.873 E26.67775
G0 F6000 X128.029 Y127.452
;TYPE:WALL-OUTER
G1 F1200 X92.158 Y113.887 E27.95328
G1 X92.158 Y105.984 E28.21614
G1 X128.029 Y92.571 E29.48989
G1 X128.029 Y100.42 E29.75095
G1 X119.952 Y103.163 E30.03466
G1 X119.952 Y117.012 E30.49528
G1 X128.029 Y119.857 E30.7801
G1 X128.029 Y127.452 E31.03271
G0 F6000 X127.773 Y127.081
G0 X127.14 Y126.57
G0 X127.239 Y126.309
;TYPE:SKIN
G1 F1200 X92.948 Y113.342 E32.25206
G1 X92.948 Y106.532 E32.47856
G1 X127.239 Y93.71 E33.6962
G1 X127.239 Y99.854 E33.90055
G1 X119.162 Y102.597 E34.18427
G1 X119.162 Y117.572 E34.68234
G1 X127.239 Y120.416 E34.96715
G1 X127.239 Y126.309 E35.16315
G1 F1500 E28.66315
G0 F6000 X127.139 Y126.57
G0 X112.928 Y121.11
G0 X112.414 Y122.472
G0 X113.497 Y113.83
G0 X113.018 Y115.182
G0 X114.918 Y115.852
G0 X115.198 Y116.188
G1 F1500 E35.16315
G1 F1200 X115.198 Y104.003 E35.56842
G1 X99.908 Y109.253 E36.10611
G1 X99.908 Y110.761 E36.15627
G1 X115.198 Y116.188 E36.6959
G1 F1500 E30.1959
G0 F6000 X114.918 Y115.852
G0 X113.018 Y115.182
G0 X113.497 Y113.83
G0 X97.723 Y116.916
G0 X98.237 Y115.555
G0 X92.736 Y113.488
G0 X92.668 Y112.907
G0 X93.108 Y112.907
G1 F1500 E36.6959
G1 F1200 X93.628 Y113.427 E36.72036
G0 F6000 X94.538 Y113.772
G1 F1200 X93.108 Y112.341 E36.78765
