;FLAVOR:Marlin
;TIME:16913
;Filament used: 10.6409m
;Layer height: 0.2
;MINX:62.487
;MINY:72.209
;MINZ:0.2
;MAXX:160.687
;MAXY:147.791
;MAXZ:63.4
;Generated with Cura_SteamEngine master
M140 S60
M105
M190 S60
M104 S200
M105
M109 S200
M82 ;absolute extrusion mode
; Ender 3 Custom Start G-code
G92 E0 ; Reset Extruder
G28 ; Home all axes
G1 Z2.0 F3000 ; Move Z Axis up little to prevent scratching of Heat Bed
G1 X0.1 Y20 Z0.3 F5000.0 ; Move to start position
G1 X0.1 Y200.0 Z0.3 F1500.0 E15 ; Draw the first line
G1 X0.4 Y200.0 Z0.3 F5000.0 ; Move to side a little
G1 X0.4 Y20 Z0.3 F1500.0 E30 ; Draw the second line
G92 E0 ; Reset Extruder
G1 Z2.0 F3000 ; Move Z Axis up little to prevent scratching of Heat Bed
G1 X5 Y20 Z0.3 F5000.0 ; Move over to prevent blob squish
G92 E0
G92 E0
G1 F1500 E-6.5
;LAYER_COUNT:317
;LAYER:0
M107
G0 F6000 X66.373 Y74.836 Z0.2
;TYPE:SKIRT
G1 F1500 E0
G1 F1200 X67.113 Y74.26 E0.03119
G1 X67.899 Y73.748 E0.06239
G1 X68.726 Y73.306 E0.09358
G1 X69.588 Y72.936 E0.12478
G1 X70.478 Y72.64 E0.15597
G1 X71.39 Y72.422 E0.18716
G1 X72.317 Y72.281 E0.21835
G1 X73.188 Y72.222 E0.24738
G1 X73.509 Y72.213 E0.25806
G1 X73.817 Y72.209 E0.26831
G1 X148.98 Y72.209 E2.76824
G1 X149.138 Y72.21 E2.7735
G1 X149.836 Y72.22 E2.79671
G1 X150.772 Y72.274 E2.8279
G1 X151.7 Y72.406 E2.85907
G1 X152.614 Y72.618 E2.89028
G1 X153.506 Y72.907 E2.92147
G1 X154.371 Y73.27 E2.95267
G1 X155.201 Y73.706 E2.98385
G1 X155.992 Y74.211 E3.01506
G1 X156.736 Y74.782 E3.04626
G1 X157.429 Y75.414 E3.07745
G1 X158.066 Y76.102 E3.10864
G1 X158.641 Y76.843 E3.13983
G1 X159.152 Y77.629 E3.17101
G1 X159.594 Y78.457 E3.20223
G1 X159.963 Y79.319 E3.23342
G1 X160.258 Y80.209 E3.2646
G1 X160.476 Y81.121 E3.29579
G1 X160.616 Y82.049 E3.32701
G1 X160.674 Y82.91 E3.35571
G1 X160.683 Y83.23 E3.36636
G1 X160.687 Y83.539 E3.37663
G1 X160.686 Y136.191 E5.12785
G1 X160.677 Y136.918 E5.15203
G1 X160.626 Y137.855 E5.18324
G1 X160.494 Y138.783 E5.21441
G1 X160.285 Y139.697 E5.2456
G1 X159.998 Y140.59 E5.2768
G1 X159.636 Y141.456 E5.30802
G1 X159.202 Y142.287 E5.3392
G1 X158.698 Y143.078 E5.37039
G1 X158.129 Y143.823 E5.40157
G1 X157.498 Y144.518 E5.43279
G1 X156.811 Y145.156 E5.46398
G1 X156.072 Y145.733 E5.49516
G1 X155.286 Y146.245 E5.52636
G1 X154.46 Y146.688 E5.55753
G1 X153.598 Y147.06 E5.58876
G1 X152.709 Y147.356 E5.61993
G1 X151.797 Y147.576 E5.65113
G1 X150.87 Y147.717 E5.68232
G1 X149.986 Y147.778 E5.71179
G1 X149.665 Y147.787 E5.72247
G1 X149.357 Y147.791 E5.73271
G1 X74.194 Y147.791 E8.23264
G1 X73.354 Y147.781 E8.26058
G1 X72.418 Y147.729 E8.29176
G1 X71.489 Y147.597 E8.32297
G1 X70.575 Y147.387 E8.35417
G1 X69.682 Y147.1 E8.38536
G1 X68.817 Y146.737 E8.41656
G1 X67.986 Y146.303 E8.44774
G1 X67.195 Y145.799 E8.47894
G1 X66.45 Y145.229 E8.51014
G1 X65.756 Y144.598 E8.54134
G1 X65.119 Y143.911 E8.5725
G1 X64.542 Y143.171 E8.60371
G1 X64.03 Y142.385 E8.63491
G1 X63.587 Y141.558 E8.66611
G1 X63.216 Y140.697 E8.69729
G1 X62.92 Y139.807 E8.72849
G1 X62.701 Y138.895 E8.75969
G1 X62.56 Y137.968 E8.79087
G1 X62.5 Y137.079 E8.82051
G1 X62.491 Y136.746 E8.83159
G1 X62.487 Y136.449 E8.84147
G1 X62.488 Y83.734 E10.59477
G1 X62.497 Y83.069 E10.61689
G1 X62.55 Y82.133 E10.64808
G1 X62.682 Y81.204 E10.67928
G1 X62.893 Y80.29 E10.71048
G1 X63.181 Y79.398 E10.74166
G1 X63.544 Y78.533 E10.77286
G1 X63.979 Y77.702 E10.80406
G1 X64.483 Y76.912 E10.83522
G1 X65.053 Y76.167 E10.86642
G1 X65.685 Y75.473 E10.89764
G1 X66.373 Y74.836 E10.92883
G0 F6000 X66.761 Y75.032
G1 F1200 X67.497 Y74.479 E10.95945
G1 X68.278 Y73.991 E10.99008
G1 X69.098 Y73.573 E11.02069
G1 X69.952 Y73.228 E11.05133
G1 X70.832 Y72.958 E11.08194
G1 X71.732 Y72.766 E11.11255
G1 X72.646 Y72.652 E11.14318
G1 X73.199 Y72.622 E11.1616
G1 X73.52 Y72.613 E11.17228
G1 X73.817 Y72.609 E11.18216
G1 X148.98 Y72.609 E13.6821
G1 X149.83 Y72.62 E13.71037
G1 X150.749 Y72.673 E13.74099
G1 X151.66 Y72.806 E13.77161
G1 X152.556 Y73.017 E13.80222
G1 X153.43 Y73.305 E13.83283
G1 X154.277 Y73.668 E13.86348
G1 X155.088 Y74.103 E13.89409
G1 X155.858 Y74.607 E13.9247
G1 X156.582 Y75.176 E13.95532
G1 X157.254 Y75.806 E13.98596
G1 X157.869 Y76.491 E14.01658
G1 X158.422 Y77.227 E14.0472
G1 X158.909 Y78.008 E14.07781
G1 X159.326 Y78.829 E14.10844
G1 X159.671 Y79.683 E14.13907
G1 X159.94 Y80.563 E14.16968
G1 X160.132 Y81.464 E14.20032
G1 X160.245 Y82.377 E14.23092
G1 X160.274 Y82.921 E14.24904
G1 X160.283 Y83.241 E14.25968
G1 X160.287 Y83.539 E14.2696
G1 X160.286 Y136.186 E16.02064
G1 X160.277 Y136.913 E16.04482
G1 X160.226 Y137.832 E16.07544
G1 X160.095 Y138.744 E16.10608
G1 X159.885 Y139.64 E16.13669
G1 X159.599 Y140.515 E16.16731
G1 X159.238 Y141.362 E16.19793
G1 X158.804 Y142.174 E16.22855
G1 X158.302 Y142.946 E16.25918
G1 X157.734 Y143.671 E16.28982
G1 X157.106 Y144.344 E16.32043
G1 X156.422 Y144.96 E16.35105
G1 X155.687 Y145.514 E16.38166
G1 X154.907 Y146.003 E16.41228
G1 X154.087 Y146.422 E16.44291
G1 X153.234 Y146.768 E16.47352
G1 X152.354 Y147.039 E16.50415
G1 X151.454 Y147.232 E16.53476
G1 X150.54 Y147.347 E16.5654
G1 X149.975 Y147.378 E16.58422
G1 X149.654 Y147.387 E16.5949
G1 X149.357 Y147.391 E16.60478
G1 X74.194 Y147.391 E19.10471
G1 X73.359 Y147.381 E19.13249
G1 X72.44 Y147.329 E19.1631
G1 X71.529 Y147.198 E19.19371
G1 X70.633 Y146.988 E19.22432
G1 X69.758 Y146.701 E19.25495
G1 X68.911 Y146.339 E19.28559
G1 X68.099 Y145.905 E19.31621
G1 X67.328 Y145.403 E19.34681
G1 X66.603 Y144.835 E19.37744
G1 X65.93 Y144.206 E19.40808
G1 X65.315 Y143.522 E19.43868
G1 X64.761 Y142.787 E19.46929
G1 X64.273 Y142.006 E19.49992
G1 X63.854 Y141.186 E19.53055
G1 X63.508 Y140.333 E19.56116
G1 X63.238 Y139.453 E19.59178
G1 X63.045 Y138.552 E19.62242
G1 X62.931 Y137.639 E19.65303
G1 X62.9 Y137.068 E19.67205
G1 X62.891 Y136.735 E19.68313
G1 X62.887 Y136.449 E19.69264
G1 X62.888 Y83.74 E21.44575
G1 X62.897 Y83.075 E21.46787
G1 X62.949 Y82.155 E21.49852
G1 X63.081 Y81.244 E21.52913
G1 X63.292 Y80.348 E21.55975
G1 X63.579 Y79.473 E21.59038
G1 X63.942 Y78.627 E21.621
G1 X64.376 Y77.815 E21.65162
G1 X64.879 Y77.044 E21.68224
G1 X65.448 Y76.32 E21.71286
G1 X66.076 Y75.648 E21.74346
G1 X66.761 Y75.032 E21.7741
G0 F6000 X67.149 Y75.233
G1 F1200 X67.881 Y74.703 E21.80415
G1 X68.656 Y74.24 E21.83418
G1 X69.469 Y73.847 E21.86421
G1 X70.314 Y73.527 E21.89427
G1 X71.183 Y73.284 E21.92428
G1 X72.071 Y73.118 E21.95433
G1 X73.21 Y73.022 E21.99234
G1 X73.531 Y73.013 E22.00302
G1 X73.817 Y73.009 E22.01254
G1 X148.98 Y73.009 E24.51247
G1 X149.824 Y73.02 E24.54054
G1 X150.726 Y73.073 E24.5706
G1 X151.619 Y73.205 E24.60062
G1 X152.497 Y73.416 E24.63065
G1 X153.353 Y73.704 E24.66069
G1 X154.18 Y74.066 E24.69072
G1 X154.972 Y74.501 E24.72077
G1 X155.723 Y75.003 E24.75082
G1 X156.426 Y75.57 E24.78086
G1 X157.076 Y76.197 E24.81089
G1 X157.668 Y76.879 E24.84093
G1 X158.198 Y77.61 E24.87096
G1 X158.66 Y78.386 E24.901
G1 X159.053 Y79.199 E24.93103
G1 X159.371 Y80.044 E24.96106
G1 X159.614 Y80.914 E24.99111
G1 X159.779 Y81.802 E25.02115
G1 X159.874 Y82.932 E25.05886
G1 X159.883 Y83.252 E25.06951
G1 X159.887 Y83.539 E25.07906
G1 X159.886 Y136.181 E26.82994
G1 X159.877 Y136.908 E26.85412
G1 X159.826 Y137.81 E26.88417
G1 X159.695 Y138.704 E26.91422
G1 X159.486 Y139.582 E26.94424
G1 X159.2 Y140.439 E26.97429
G1 X158.839 Y141.267 E27.00433
G1 X158.407 Y142.059 E27.03434
G1 X157.906 Y142.811 E27.06439
G1 X157.34 Y143.515 E27.09444
G1 X156.715 Y144.166 E27.12445
G1 X156.034 Y144.76 E27.15451
G1 X155.303 Y145.291 E27.18456
G1 X154.529 Y145.755 E27.21457
G1 X153.716 Y146.149 E27.24462
G1 X152.872 Y146.469 E27.27464
G1 X152.002 Y146.714 E27.3047
G1 X151.115 Y146.88 E27.33472
G1 X149.964 Y146.978 E27.37314
G1 X149.643 Y146.987 E27.38382
G1 X149.357 Y146.991 E27.39333
G1 X74.194 Y146.991 E29.89326
G1 X73.364 Y146.981 E29.92087
G1 X72.463 Y146.93 E29.95089
G1 X71.569 Y146.798 E29.98095
G1 X70.691 Y146.589 E30.01096
G1 X69.834 Y146.302 E30.04102
G1 X69.007 Y145.941 E30.07104
G1 X68.214 Y145.508 E30.10109
G1 X67.463 Y145.007 E30.13111
G1 X66.759 Y144.441 E30.16116
G1 X66.108 Y143.815 E30.1912
G1 X65.515 Y143.134 E30.22123
G1 X64.985 Y142.403 E30.25126
G1 X64.521 Y141.628 E30.2813
G1 X64.127 Y140.815 E30.31135
G1 X63.807 Y139.971 E30.34137
G1 X63.563 Y139.101 E30.37143
G1 X63.397 Y138.213 E30.40147
G1 X63.3 Y137.058 E30.44003
G1 X63.291 Y136.725 E30.4511
G1 X63.287 Y136.449 E30.46029
G1 X63.288 Y83.745 E32.21323
G1 X63.297 Y83.08 E32.23535
G1 X63.349 Y82.178 E32.2654
G1 X63.481 Y81.285 E32.29542
G1 X63.691 Y80.407 E32.32545
G1 X63.978 Y79.55 E32.35551
G1 X64.34 Y78.723 E32.38553
G1 X64.773 Y77.931 E32.41556
G1 X65.275 Y77.18 E32.4456
G1 X65.842 Y76.476 E32.47567
G1 X66.468 Y75.826 E32.50568
G1 X67.149 Y75.233 E32.53571
G1 F1500 E26.03571
;MESH:AAA-Cover.stl
G0 F6000 X82.965 Y94.121
G0 X83.132 Y92.659
G0 X84.896 Y93.481
;TYPE:WALL-INNER
G1 F1500 E32.53571
G1 F1200 X84.887 Y93.472 E32.53614
G1 X84.879 Y93.464 E32.53651
G1 X84.753 Y93.362 E32.54191
G1 X84.595 Y93.251 E32.54833
G1 X84.382 Y93.132 E32.55644
G1 X84.162 Y93.034 E32.56445
G1 X83.93 Y92.955 E32.57261
G1 X83.689 Y92.899 E32.58083
G1 X83.417 Y92.861 E32.58997
G1 X83.132 Y92.849 E32.59946
G1 X82.843 Y92.862 E32.60908
G1 X82.588 Y92.897 E32.61764
G1 X82.343 Y92.956 E32.62602
G1 X82.131 Y93.027 E32.63346
G1 X81.949 Y93.106 E32.64006
G1 X81.776 Y93.197 E32.64656
G1 X81.539 Y93.35 E32.65594
G1 X81.313 Y93.523 E32.66541
G1 X81.109 Y93.715 E32.67472
G1 X80.968 Y93.869 E32.68167
G1 X80.821 Y94.051 E32.68945
G1 X80.636 Y94.325 E32.70045
G1 X80.478 Y94.615 E32.71143
G1 X80.353 Y94.899 E32.72175
G1 X80.252 Y95.197 E32.73222
G1 X80.154 Y95.588 E32.74562
G1 X80.092 Y95.981 E32.75886
G1 X80.074 Y96.212 E32.76656
G1 X80.069 Y96.44 E32.77415
G1 X80.086 Y96.834 E32.78726
G1 X80.133 Y97.194 E32.79934
G1 X80.211 Y97.534 E32.81094
G1 X80.272 Y97.734 E32.8179
G1 X80.336 Y97.906 E32.824
G1 X80.473 Y98.21 E32.83509
G1 X80.628 Y98.48 E32.84544
G1 X80.801 Y98.727 E32.85547
G1 X80.944 Y98.903 E32.86302
G1 X81.101 Y99.067 E32.87057
G1 X81.325 Y99.27 E32.88062
G1 X81.572 Y99.453 E32.89085
G1 X81.831 Y99.612 E32.90096
G1 X82.037 Y99.717 E32.90865
G1 X82.275 Y99.82 E32.91727
G1 X82.602 Y99.931 E32.92876
G1 X82.969 Y100.021 E32.94132
G1 X83.325 Y100.078 E32.95332
G1 X84.129 Y100.138 E32.98013
G1 X84.342 Y100.153 E32.98723
G1 X84.342 Y99.94 E32.99172
G1 X84.342 Y99.939 E32.99176
G1 X84.342 Y97.656 E33.06769
G1 X86.076 Y97.656 E33.12536
G1 X86.076 Y100.135 E33.20782
G1 X86.076 Y100.136 E33.20785
G1 X86.076 Y100.34 E33.21463
G1 X86.28 Y100.336 E33.219
G1 X86.281 Y100.335 E33.21905
G1 X87.142 Y100.31 E33.2477
G1 X87.535 Y100.261 E33.26087
G1 X87.872 Y100.188 E33.27234
G1 X88.061 Y100.133 E33.27888
G1 X88.27 Y100.059 E33.28626
G1 X88.571 Y99.925 E33.29722
G1 X88.855 Y99.766 E33.30804
G1 X89.096 Y99.599 E33.31779
G1 X89.302 Y99.432 E33.32661
G1 X89.492 Y99.248 E33.33541
G1 X89.684 Y99.029 E33.3451
G1 X89.858 Y98.789 E33.35496
G1 X90.021 Y98.513 E33.36562
G1 X90.141 Y98.267 E33.37472
G1 X90.253 Y97.982 E33.38491
G1 X90.359 Y97.63 E33.39713
G1 X90.441 Y97.233 E33.41062
G1 X90.486 Y96.849 E33.42348
G1 X90.502 Y96.42 E33.43776
G1 X90.483 Y95.983 E33.4523
G1 X90.424 Y95.557 E33.46661
G1 X90.362 Y95.27 E33.47637
G1 X90.281 Y94.991 E33.48604
G1 X90.154 Y94.643 E33.49836
G1 X90.007 Y94.333 E33.50977
G1 X89.839 Y94.048 E33.52077
G1 X89.739 Y93.902 E33.52666
G1 X89.616 Y93.741 E33.5334
G1 X89.412 Y93.51 E33.54365
G1 X89.202 Y93.314 E33.5532
G1 X88.957 Y93.124 E33.56351
G1 X88.738 Y92.98 E33.57223
G1 X88.502 Y92.853 E33.58114
G1 X88.255 Y92.744 E33.59012
G1 X87.993 Y92.655 E33.59933
G1 X87.692 Y92.582 E33.60963
G1 X87.383 Y92.538 E33.62001
G1 X87.162 Y92.522 E33.62738
G1 X86.984 Y92.519 E33.6333
G1 X86.699 Y92.532 E33.64279
G1 X86.415 Y92.572 E33.65233
G1 X86.169 Y92.632 E33.66075
G1 X85.935 Y92.712 E33.66898
G1 X85.712 Y92.814 E33.67713
G1 X85.524 Y92.919 E33.68429
G1 X85.318 Y93.062 E33.69263
G1 X85.129 Y93.224 E33.70091
G1 X84.979 Y93.379 E33.70663
G1 X84.896 Y93.481 E33.70915
G0 F6000 X84.94 Y94.168
;TYPE:WALL-OUTER
G1 F1200 X84.913 Y94.119 E33.71101
G1 X84.823 Y93.991 E33.71621
G1 X84.723 Y93.872 E33.72138
G1 X84.612 Y93.763 E33.72656
G1 X84.511 Y93.681 E33.73089
G1 X84.382 Y93.59 E33.73614
G1 X84.203 Y93.49 E33.74296
G1 X84.016 Y93.407 E33.74976
G1 X83.82 Y93.34 E33.75665
G1 X83.616 Y93.293 E33.76361
G1 X83.38 Y93.26 E33.77154
G1 X83.133 Y93.249 E33.77976
G1 X82.88 Y93.261 E33.78819
G1 X82.662 Y93.291 E33.7955
G1 X82.453 Y93.341 E33.80265
G1 X82.274 Y93.401 E33.80893
G1 X82.122 Y93.467 E33.81444
G1 X81.978 Y93.543 E33.81986
G1 X81.769 Y93.677 E33.82812
G1 X81.573 Y93.828 E33.83635
G1 X81.394 Y93.996 E33.84451
G1 X81.271 Y94.13 E33.85056
G1 X81.143 Y94.289 E33.85735
G1 X80.978 Y94.533 E33.86715
G1 X80.837 Y94.792 E33.87695
G1 X80.726 Y95.044 E33.88611
G1 X80.636 Y95.31 E33.89545
G1 X80.546 Y95.668 E33.90773
G1 X80.49 Y96.027 E33.91982
G1 X80.474 Y96.232 E33.92665
G1 X80.469 Y96.436 E33.93344
G1 X80.485 Y96.799 E33.94553
G1 X80.527 Y97.123 E33.95639
G1 X80.598 Y97.431 E33.96691
G1 X80.651 Y97.606 E33.97299
G1 X80.706 Y97.754 E33.97824
G1 X80.83 Y98.028 E33.98824
G1 X80.966 Y98.266 E33.99736
G1 X81.12 Y98.486 E34.00629
G1 X81.244 Y98.638 E34.01282
G1 X81.38 Y98.78 E34.01935
G1 X81.579 Y98.96 E34.02828
G1 X81.796 Y99.121 E34.03727
G1 X82.027 Y99.263 E34.04629
G1 X82.208 Y99.355 E34.05304
G1 X82.419 Y99.447 E34.06069
G1 X82.714 Y99.547 E34.07105
G1 X83.048 Y99.629 E34.08249
G1 X83.371 Y99.68 E34.09337
G1 X83.942 Y99.722 E34.11241
G1 X83.942 Y97.598 E34.18306
G1 X83.547 Y97.588 E34.1962
G1 X83.351 Y97.565 E34.20276
G1 X83.222 Y97.537 E34.20715
G1 X83.072 Y97.489 E34.21239
G1 X82.951 Y97.436 E34.21678
G1 X82.841 Y97.376 E34.22095
G1 X82.794 Y97.346 E34.22281
G1 X82.653 Y97.233 E34.22882
G1 X82.592 Y97.169 E34.23176
G1 X82.542 Y97.105 E34.23446
G1 X82.489 Y97.02 E34.23779
G1 X82.449 Y96.94 E34.24077
G1 X82.42 Y96.862 E34.24353
G1 X82.39 Y96.754 E34.24726
G1 X82.366 Y96.622 E34.25172
G1 X82.358 Y96.527 E34.25489
G1 X82.355 Y96.43 E34.25812
G1 X82.361 Y96.294 E34.26265
G1 X82.374 Y96.199 E34.26584
G1 X82.402 Y96.078 E34.26997
G1 X82.439 Y95.969 E34.2738
G1 X82.483 Y95.874 E34.27728
G1 X82.535 Y95.784 E34.28074
G1 X82.631 Y95.652 E34.28617
G1 X82.663 Y95.616 E34.28777
G1 X82.783 Y95.514 E34.29301
G1 X82.843 Y95.477 E34.29535
G1 X82.983 Y95.416 E34.30043
G1 X83.061 Y95.394 E34.30313
G1 X83.242 Y95.368 E34.30921
G1 X83.334 Y95.364 E34.31227
G1 X83.445 Y95.369 E34.31597
G1 X83.612 Y95.4 E34.32162
G1 X83.727 Y95.445 E34.32572
G1 X83.801 Y95.49 E34.3286
G1 X83.822 Y95.506 E34.32948
G1 X83.894 Y95.572 E34.33273
G1 X83.951 Y95.633 E34.33551
G1 X84 Y95.695 E34.33814
G1 X84.044 Y95.764 E34.34086
G1 X84.108 Y95.892 E34.34562
G1 X84.163 Y96.039 E34.35084
G1 X84.2 Y96.176 E34.35556
G1 X84.226 Y96.315 E34.36026
G1 X84.242 Y96.457 E34.36501
G1 X84.253 Y96.748 E34.3747
G1 X84.233 Y97.256 E34.39161
G1 X85.906 Y97.256 E34.44725
G1 X85.93 Y96.369 E34.47676
G1 X85.949 Y96.171 E34.48338
G1 X85.979 Y96.015 E34.48866
G1 X86.012 Y95.895 E34.4928
G1 X86.063 Y95.755 E34.49776
G1 X86.098 Y95.679 E34.50054
G1 X86.135 Y95.614 E34.50303
G1 X86.177 Y95.552 E34.50552
G1 X86.238 Y95.479 E34.50868
G1 X86.288 Y95.429 E34.51104
G1 X86.417 Y95.33 E34.51644
G1 X86.538 Y95.271 E34.52092
G1 X86.628 Y95.243 E34.52406
G1 X86.721 Y95.223 E34.52722
G1 X86.875 Y95.205 E34.53238
G1 X87.03 Y95.199 E34.53754
G1 X87.192 Y95.207 E34.54293
G1 X87.309 Y95.223 E34.54686
G1 X87.433 Y95.253 E34.5511
G1 X87.531 Y95.287 E34.55455
G1 X87.62 Y95.329 E34.55783
G1 X87.698 Y95.373 E34.5608
G1 X87.77 Y95.425 E34.56376
G1 X87.837 Y95.482 E34.56668
G1 X87.907 Y95.554 E34.57002
G1 X87.983 Y95.647 E34.57402
G1 X88.037 Y95.727 E34.57723
G1 X88.091 Y95.824 E34.58092
G1 X88.14 Y95.938 E34.58505
G1 X88.177 Y96.047 E34.58888
G1 X88.203 Y96.159 E34.5927
G1 X88.221 Y96.29 E34.5971
G1 X88.229 Y96.447 E34.60233
G1 X88.221 Y96.613 E34.60786
G1 X88.203 Y96.746 E34.61232
G1 X88.176 Y96.862 E34.61628
G1 X88.147 Y96.95 E34.61936
G1 X88.113 Y97.03 E34.62225
G1 X88.047 Y97.151 E34.62684
G1 X87.991 Y97.233 E34.63014
G1 X87.918 Y97.324 E34.63402
G1 X87.856 Y97.388 E34.63698
G1 X87.79 Y97.445 E34.63989
G1 X87.692 Y97.518 E34.64395
