;FLAVOR:Marlin
;TIME:489
;Filament used: 0.285002m
;Layer height: 0.2
;MINX:80.771
;MINY:81.284
;MINZ:0.2
;MAXX:139.216
;MAXY:138.711
;MAXZ:1
;Generated with Cura_SteamEngine master
M140 S60
M105
M190 S60
M104 S200
M105
M109 S200
M82 ;absolute extrusion mode
; Ender 3 Custom Start G-code
G92 E0 ; Reset Extruder
G28 ; Home all axes
G1 Z2.0 F3000 ; Move Z Axis up little to prevent scratching of Heat Bed
G1 X0.1 Y20 Z0.3 F5000.0 ; Move to start position
G1 X0.1 Y200.0 Z0.3 F1500.0 E15 ; Draw the first line
G1 X0.4 Y200.0 Z0.3 F5000.0 ; Move to side a little
G1 X0.4 Y20 Z0.3 F1500.0 E30 ; Draw the second line
G92 E0 ; Reset Extruder
G1 Z2.0 F3000 ; Move Z Axis up little to prevent scratching of Heat Bed
G1 X5 Y20 Z0.3 F5000.0 ; Move over to prevent blob squish
G92 E0
G92 E0
G1 F1500 E-6.5
;LAYER_COUNT:5
;LAYER:0
M107
G0 F6000 X83.977 Y84.529 Z0.2
;TYPE:SKIRT
G1 F1500 E0
G1 F1200 X84.666 Y83.893 E0.03119
G1 X85.407 Y83.317 E0.0624
G1 X86.194 Y82.807 E0.09359
G1 X87.021 Y82.365 E0.12478
G1 X87.883 Y81.996 E0.15597
G1 X88.773 Y81.701 E0.18715
G1 X89.686 Y81.483 E0.21837
G1 X90.613 Y81.344 E0.24955
G1 X91.549 Y81.284 E0.28075
G1 X92.487 Y81.305 E0.31195
G1 X93.015 Y81.351 E0.32958
G1 X93.414 Y81.397 E0.34294
G1 X95.578 Y81.672 E0.41549
G1 X98.08 Y81.917 E0.49911
G1 X100.595 Y82.092 E0.58296
G1 X103.117 Y82.195 E0.66691
G1 X105.609 Y82.228 E0.7498
G1 X108.137 Y82.188 E0.83389
G1 X110.655 Y82.079 E0.91772
G1 X113.171 Y81.898 E1.00162
G1 X115.661 Y81.647 E1.08486
G1 X117.236 Y81.444 E1.13768
G1 X117.93 Y81.364 E1.16091
G1 X118.862 Y81.298 E1.19199
G1 X119.181 Y81.289 E1.2026
G1 X119.491 Y81.285 E1.21291
G1 X120.161 Y81.286 E1.2352
G1 X121.778 Y81.31 E1.28899
G1 X122.945 Y81.343 E1.32782
G1 X124.937 Y81.34 E1.39407
G1 X125.666 Y81.348 E1.41832
G1 X126.201 Y81.367 E1.43612
G1 X126.316 Y81.374 E1.43996
G1 X126.942 Y81.43 E1.46086
G1 X127.229 Y81.464 E1.47047
G1 X128.183 Y81.62 E1.50262
G1 X128.389 Y81.663 E1.50962
G1 X129.388 Y81.921 E1.54394
G1 X129.744 Y82.031 E1.55633
G1 X131.021 Y82.514 E1.60174
G1 X131.103 Y82.551 E1.60473
G1 X131.63 Y82.806 E1.62421
G1 X131.866 Y82.928 E1.63304
G1 X132.673 Y83.39 E1.66397
G1 X132.762 Y83.446 E1.66747
G1 X133.582 Y84.015 E1.70066
G1 X133.959 Y84.303 E1.71644
G1 X134.679 Y84.903 E1.74762
G1 X135.215 Y85.425 E1.7725
G1 X135.408 Y85.626 E1.78177
G1 X136.15 Y86.482 E1.81945
G1 X136.302 Y86.677 E1.82767
G1 X136.822 Y87.403 E1.85737
G1 X136.908 Y87.534 E1.86258
G1 X137.41 Y88.38 E1.8953
G1 X137.638 Y88.806 E1.91137
G1 X138.085 Y89.746 E1.94599
G1 X138.129 Y89.851 E1.94978
G1 X138.482 Y90.817 E1.98399
G1 X138.61 Y91.226 E1.99824
G1 X138.847 Y92.113 E2.02878
G1 X138.891 Y92.31 E2.03549
G1 X139.032 Y93.063 E2.06097
G1 X139.068 Y93.301 E2.06898
G1 X139.138 Y93.856 E2.08758
G1 X139.16 Y94.077 E2.09497
G1 X139.211 Y94.912 E2.12279
G1 X139.216 Y95.128 E2.12998
G1 X139.213 Y95.738 E2.15027
G1 X139.207 Y95.924 E2.15646
G1 X139.193 Y96.24 E2.16698
G1 X139.15 Y96.944 E2.19044
G1 X139.027 Y99.542 E2.27694
G1 X138.979 Y102.029 E2.35968
G1 X139.003 Y104.627 E2.44609
G1 X139.028 Y105.399 E2.47178
G1 X139.033 Y105.623 E2.47923
G1 X139.042 Y106.428 E2.50601
G1 X139.041 Y113.428 E2.73883
G1 X139.031 Y114.157 E2.76308
G1 X138.978 Y115.093 E2.79426
G1 X138.846 Y116.022 E2.82547
G1 X138.635 Y116.936 E2.85667
G1 X138.347 Y117.828 E2.88785
G1 X137.984 Y118.693 E2.91905
G1 X137.548 Y119.524 E2.95026
G1 X137.044 Y120.314 E2.98143
G1 X136.473 Y121.059 E3.01265
G1 X135.842 Y121.752 E3.04382
G1 X135.154 Y122.389 E3.075
G1 X134.414 Y122.966 E3.10621
G1 X133.627 Y123.477 E3.13742
G1 X132.8 Y123.919 E3.16861
G1 X132.303 Y124.143 E3.18674
G1 X132.144 Y124.21 E3.19248
G1 X131.885 Y124.315 E3.20178
G1 X131.45 Y124.485 E3.21731
G1 X96.316 Y137.771 E4.46663
G1 X95.509 Y138.062 E4.49517
G1 X94.614 Y138.342 E4.52636
G1 X93.698 Y138.544 E4.55755
G1 X92.768 Y138.667 E4.58876
G1 X91.832 Y138.711 E4.61992
G1 X90.894 Y138.675 E4.65114
G1 X89.964 Y138.559 E4.68231
G1 X89.046 Y138.364 E4.71353
G1 X88.149 Y138.092 E4.7447
G1 X87.278 Y137.744 E4.7759
G1 X86.44 Y137.323 E4.80709
G1 X85.64 Y136.833 E4.83829
G1 X84.886 Y136.276 E4.86947
G1 X84.181 Y135.657 E4.90068
G1 X83.532 Y134.98 E4.93187
G1 X82.943 Y134.25 E4.96307
G1 X82.418 Y133.473 E4.99426
G1 X81.961 Y132.654 E5.02545
G1 X81.576 Y131.799 E5.05664
G1 X81.265 Y130.914 E5.08784
G1 X81.03 Y130.006 E5.11903
G1 X80.874 Y129.081 E5.15023
G1 X80.79 Y127.915 E5.18912
G1 X80.773 Y126.997 E5.21965
G1 X80.771 Y126.793 E5.22644
G1 X80.772 Y120.252 E5.44399
G1 X80.782 Y119.554 E5.46721
G1 X80.809 Y118.923 E5.48822
G1 X80.843 Y118.468 E5.50339
G1 X81.017 Y116.408 E5.57215
G1 X81.159 Y113.871 E5.65667
G1 X81.23 Y111.346 E5.74068
G1 X81.23 Y108.821 E5.82466
G1 X81.159 Y106.335 E5.90738
G1 X81.016 Y103.825 E5.991
G1 X80.834 Y101.683 E6.0625
G1 X80.806 Y101.3 E6.07527
G1 X80.781 Y100.682 E6.09584
G1 X80.771 Y99.851 E6.12349
G1 X80.772 Y92.809 E6.3577
G1 X80.782 Y92.122 E6.38056
G1 X80.836 Y91.186 E6.41174
G1 X80.969 Y90.257 E6.44295
G1 X81.181 Y89.344 E6.47413
G1 X81.47 Y88.451 E6.50534
G1 X81.833 Y87.587 E6.53651
G1 X82.269 Y86.757 E6.5677
G1 X82.775 Y85.966 E6.59893
G1 X83.345 Y85.222 E6.6301
G1 X83.977 Y84.529 E6.6613
G0 F6000 X84.369 Y84.704
G1 F1200 X85.055 Y84.089 E6.69194
G1 X85.791 Y83.537 E6.72254
G1 X86.572 Y83.05 E6.75315
G1 X87.393 Y82.633 E6.78378
G1 X88.247 Y82.288 E6.81441
G1 X89.127 Y82.02 E6.84501
G1 X90.028 Y81.828 E6.87565
G1 X90.942 Y81.715 E6.90628
G1 X91.862 Y81.682 E6.9369
G1 X92.97 Y81.749 E6.97382
G1 X93.363 Y81.794 E6.98698
G1 X95.556 Y82.072 E7.0605
G1 X98.012 Y82.313 E7.14258
G1 X100.587 Y82.492 E7.22843
G1 X103.095 Y82.595 E7.31192
G1 X105.61 Y82.628 E7.39557
G1 X108.16 Y82.588 E7.4804
G1 X110.668 Y82.479 E7.56389
G1 X113.204 Y82.297 E7.64846
G1 X115.715 Y82.044 E7.7324
G1 X117.287 Y81.841 E7.78511
G1 X117.975 Y81.762 E7.80815
G1 X118.873 Y81.698 E7.83809
G1 X119.192 Y81.689 E7.84871
G1 X119.491 Y81.685 E7.85865
G1 X120.155 Y81.686 E7.88074
G1 X121.766 Y81.71 E7.93432
G1 X122.934 Y81.743 E7.97319
G1 X124.937 Y81.74 E8.03981
G1 X125.661 Y81.748 E8.06389
G1 X126.177 Y81.767 E8.08106
G1 X126.292 Y81.774 E8.0849
G1 X126.895 Y81.828 E8.10503
G1 X127.182 Y81.862 E8.11464
G1 X128.101 Y82.012 E8.14561
G1 X128.307 Y82.055 E8.15261
G1 X129.27 Y82.303 E8.18569
G1 X129.626 Y82.413 E8.19808
G1 X130.857 Y82.879 E8.24186
G1 X130.939 Y82.916 E8.24485
G1 X131.447 Y83.162 E8.26362
G1 X131.683 Y83.284 E8.27246
G1 X132.46 Y83.728 E8.30223
G1 X132.549 Y83.784 E8.30572
G1 X133.339 Y84.333 E8.33772
G1 X133.716 Y84.621 E8.3535
G1 X134.422 Y85.211 E8.3841
G1 X134.927 Y85.702 E8.40753
G1 X135.12 Y85.903 E8.4168
G1 X135.834 Y86.728 E8.45309
G1 X135.986 Y86.923 E8.46131
G1 X136.487 Y87.623 E8.48994
G1 X136.573 Y87.754 E8.49515
G1 X137.058 Y88.569 E8.5267
G1 X137.286 Y88.995 E8.54277
G1 X137.716 Y89.9 E8.57609
G1 X137.76 Y90.005 E8.57988
G1 X138.1 Y90.936 E8.61284
G1 X138.228 Y91.345 E8.6271
G1 X138.457 Y92.2 E8.65654
G1 X138.501 Y92.397 E8.66325
G1 X138.637 Y93.123 E8.68782
G1 X138.673 Y93.361 E8.69582
G1 X138.74 Y93.896 E8.71376
G1 X138.762 Y94.117 E8.72114
G1 X138.811 Y94.922 E8.74797
G1 X138.816 Y95.138 E8.75515
G1 X138.813 Y95.725 E8.77468
G1 X138.807 Y95.911 E8.78087
G1 X138.793 Y96.216 E8.79102
G1 X138.751 Y96.903 E8.81391
G1 X138.627 Y99.515 E8.90089
G1 X138.579 Y102.025 E8.98439
G1 X138.603 Y104.6 E9.07003
G1 X138.629 Y105.412 E9.09706
G1 X138.633 Y105.627 E9.10421
G1 X138.642 Y106.428 E9.13085
G1 X138.641 Y113.422 E9.36347
G1 X138.631 Y114.151 E9.38772
G1 X138.578 Y115.071 E9.41837
G1 X138.446 Y115.982 E9.44899
G1 X138.236 Y116.878 E9.4796
G1 X137.948 Y117.752 E9.5102
G1 X137.585 Y118.599 E9.54085
G1 X137.151 Y119.41 E9.57145
G1 X136.647 Y120.181 E9.60208
G1 X136.079 Y120.906 E9.63272
G1 X135.45 Y121.578 E9.66333
G1 X134.765 Y122.193 E9.69395
G1 X134.029 Y122.746 E9.72457
G1 X133.248 Y123.234 E9.7552
G1 X132.148 Y123.774 E9.79595
G1 X131.989 Y123.841 E9.80169
G1 X131.739 Y123.943 E9.81067
G1 X131.308 Y124.111 E9.82606
G1 X96.174 Y137.397 E11.07538
G1 X96.011 Y137.457 E11.08116
G1 X95.374 Y137.686 E11.10367
G1 X94.495 Y137.96 E11.1343
G1 X93.595 Y138.156 E11.16493
G1 X92.682 Y138.273 E11.19555
G1 X91.762 Y138.311 E11.22617
G1 X90.843 Y138.269 E11.25677
G1 X89.93 Y138.147 E11.28741
G1 X89.032 Y137.946 E11.31801
G1 X88.154 Y137.669 E11.34863
G1 X87.304 Y137.316 E11.37925
G1 X86.487 Y136.89 E11.40989
G1 X85.711 Y136.396 E11.44049
G1 X84.98 Y135.836 E11.47112
G1 X84.301 Y135.214 E11.50174
G1 X83.678 Y134.536 E11.53237
G1 X83.116 Y133.807 E11.56298
G1 X82.62 Y133.031 E11.59361
G1 X82.193 Y132.216 E11.62422
G1 X81.838 Y131.366 E11.65485
G1 X81.558 Y130.489 E11.68547
G1 X81.356 Y129.591 E11.71609
G1 X81.232 Y128.678 E11.74673
G1 X81.19 Y127.907 E11.77241
G1 X81.173 Y126.989 E11.80295
G1 X81.171 Y126.793 E11.80947
G1 X81.172 Y120.258 E12.02683
G1 X81.182 Y119.56 E12.05004
G1 X81.208 Y118.952 E12.07029
G1 X81.241 Y118.502 E12.08529
G1 X81.419 Y116.394 E12.15565
G1 X81.559 Y113.904 E12.2386
G1 X81.63 Y111.357 E12.32335
G1 X81.63 Y108.844 E12.40693
G1 X81.557 Y106.302 E12.49151
G1 X81.413 Y103.769 E12.5759
G1 X81.22 Y101.488 E12.65204
G1 X81.205 Y101.272 E12.65924
G1 X81.181 Y100.677 E12.67904
G1 X81.171 Y99.851 E12.70652
G1 X81.172 Y92.815 E12.94054
G1 X81.182 Y92.128 E12.96339
G1 X81.235 Y91.209 E12.99401
G1 X81.368 Y90.298 E13.02463
G1 X81.58 Y89.402 E13.05525
G1 X81.868 Y88.527 E13.08589
G1 X82.231 Y87.681 E13.11651
G1 X82.667 Y86.87 E13.14713
G1 X83.171 Y86.1 E13.17774
G1 X83.74 Y85.376 E13.20837
G1 X84.369 Y84.704 E13.23898
G0 F6000 X84.76 Y84.883
G1 F1200 X85.443 Y84.291 E13.26904
G1 X86.174 Y83.761 E13.29908
G1 X86.95 Y83.299 E13.32911
G1 X87.763 Y82.907 E13.35913
G1 X88.608 Y82.588 E13.38917
G1 X89.478 Y82.345 E13.41922
G1 X90.366 Y82.181 E13.44925
G1 X91.265 Y82.095 E13.47929
G1 X92.168 Y82.089 E13.50932
G1 X92.925 Y82.146 E13.53457
G1 X93.313 Y82.191 E13.54757
G1 X95.503 Y82.469 E13.62099
G1 X98.016 Y82.715 E13.70497
G1 X100.543 Y82.891 E13.78922
G1 X103.073 Y82.995 E13.87344
G1 X105.61 Y83.028 E13.95783
G1 X108.183 Y82.988 E14.04342
G1 X110.68 Y82.879 E14.12655
G1 X113.237 Y82.695 E14.21182
G1 X115.77 Y82.44 E14.29649
G1 X117.492 Y82.219 E14.35423
G1 X118.02 Y82.159 E14.37191
G1 X118.884 Y82.098 E14.40072
G1 X119.203 Y82.089 E14.41133
G1 X119.491 Y82.085 E14.42091
G1 X120.003 Y82.085 E14.43794
G1 X121.615 Y82.107 E14.49156
G1 X122.923 Y82.143 E14.53508
G1 X124.938 Y82.14 E14.6021
G1 X125.656 Y82.148 E14.62598
G1 X126.153 Y82.166 E14.64252
G1 X126.268 Y82.173 E14.64635
G1 X126.848 Y82.225 E14.66572
G1 X127.135 Y82.259 E14.67534
G1 X128.019 Y82.403 E14.70512
G1 X128.225 Y82.446 E14.71212
G1 X129.152 Y82.686 E14.74397
G1 X129.508 Y82.796 E14.75637
G1 X130.692 Y83.244 E14.79847
G1 X130.774 Y83.281 E14.80146
G1 X131.263 Y83.517 E14.81952
G1 X131.499 Y83.639 E14.82836
G1 X132.247 Y84.067 E14.85702
G1 X132.336 Y84.123 E14.86052
G1 X133.096 Y84.65 E14.89128
G1 X133.473 Y84.938 E14.90706
G1 X134.166 Y85.518 E14.93711
G1 X134.638 Y85.979 E14.95906
G1 X134.831 Y86.18 E14.96833
G1 X135.519 Y86.974 E15.00327
G1 X135.671 Y87.169 E15.01149
G1 X136.153 Y87.842 E15.03903
G1 X136.239 Y87.973 E15.04424
G1 X136.705 Y88.758 E15.0746
G1 X136.933 Y89.184 E15.09067
G1 X137.347 Y90.055 E15.12275
G1 X137.391 Y90.16 E15.12653
G1 X137.718 Y91.056 E15.15826
G1 X137.846 Y91.465 E15.17251
G1 X138.067 Y92.288 E15.20086
G1 X138.111 Y92.485 E15.20757
G1 X138.241 Y93.182 E15.23115
G1 X138.277 Y93.42 E15.23916
G1 X138.342 Y93.936 E15.25645
G1 X138.364 Y94.157 E15.26384
G1 X138.411 Y94.931 E15.28963
G1 X138.416 Y95.147 E15.29682
G1 X138.414 Y95.712 E15.31561
G1 X138.408 Y95.898 E15.3218
G1 X138.394 Y96.191 E15.33156
G1 X138.355 Y96.821 E15.35255
G1 X138.227 Y99.523 E15.44252
G1 X138.179 Y102.021 E15.52562
G1 X138.203 Y104.617 E15.61197
G1 X138.229 Y105.425 E15.63885
G1 X138.233 Y105.632 E15.64574
G1 X138.242 Y106.428 E15.67222
G1 X138.241 Y113.417 E15.90467
G1 X138.231 Y114.146 E15.92892
G1 X138.179 Y115.047 E15.95894
G1 X138.047 Y115.941 E15.989
G1 X137.836 Y116.819 E16.01903
G1 X137.549 Y117.675 E16.04906
G1 X137.187 Y118.503 E16.07911
G1 X136.754 Y119.295 E16.10914
G1 X136.252 Y120.046 E16.13918
G1 X135.685 Y120.749 E16.16922
G1 X135.059 Y121.4 E16.19926
G1 X134.377 Y121.992 E16.2293
G1 X133.646 Y122.522 E16.25933
G1 X132.871 Y122.985 E16.28935
G1 X131.993 Y123.406 E16.32174
G1 X131.834 Y123.473 E16.32748
G1 X131.593 Y123.57 E16.33612
G1 X131.167 Y123.737 E16.35134
G1 X96.033 Y137.023 E17.60066
G1 X95.876 Y137.081 E17.60623
G1 X95.239 Y137.31 E17.62874
G1 X94.376 Y137.577 E17.65879
G1 X93.493 Y137.767 E17.68883
G1 X92.597 Y137.879 E17.71886
G1 X91.695 Y137.911 E17.74888
G1 X90.793 Y137.862 E17.77892
G1 X89.899 Y137.734 E17.80896
G1 X89.019 Y137.528 E17.83902
G1 X88.162 Y137.245 E17.86904
G1 X87.333 Y136.887 E17.89907
G1 X86.539 Y136.457 E17.92911
G1 X85.786 Y135.958 E17.95915
G1 X85.08 Y135.395 E17.98919
G1 X84.426 Y134.771 E18.01925
G1 X83.831 Y134.092 E18.04928
G1 X83.298 Y133.364 E18.07929
G1 X82.831 Y132.59 E18.10935
G1 X82.434 Y131.779 E18.13939
G1 X82.111 Y130.936 E18.16941
G1 X81.864 Y130.067 E18.19946
G1 X81.694 Y129.18 E18.2295
G1 X81.59 Y127.9 E18.27221
G1 X81.573 Y126.982 E18.30275
G1 X81.571 Y126.793 E18.30904
G1 X81.572 Y120.264 E18.52619
G1 X81.582 Y119.566 E18.54941
G1 X81.607 Y118.981 E18.56888
G1 X81.64 Y118.536 E18.58373
G1 X81.816 Y116.45 E18.65335
G1 X81.959 Y113.903 E18.7382
G1 X82.03 Y111.368 E18.82255
G1 X82.03 Y108.833 E18.90686
G1 X81.957 Y106.268 E18.99221
G1 X81.815 Y103.785 E19.07493
G1 X81.631 Y101.616 E19.14733
G1 X81.605 Y101.245 E19.1597
G1 X81.581 Y100.672 E19.17877
G1 X81.571 Y99.851 E19.20608
G1 X81.572 Y92.821 E19.4399
G1 X81.582 Y92.134 E19.46275
G1 X81.635 Y91.232 E19.49281
G1 X81.768 Y90.339 E19.52283
G1 X81.979 Y89.461 E19.55287
G1 X82.267 Y88.605 E19.58291
G1 X82.63 Y87.778 E19.61295
G1 X83.064 Y86.986 E19.64298
G1 X83.566 Y86.235 E19.67303
G1 X84.134 Y85.532 E19.70309
G1 X84.76 Y84.883 E19.73308
G1 F1500 E13.23308
;MESH:AA-Label.stl
G0 F6000 X91.114 Y101.022
G0 X98.837 Y103.634
G0 X106.457 Y113.784
G0 X105.022 Y113.784
G0 X105.192 Y115.342
;TYPE:WALL-INNER
G1 F1500 E19.73308
G1 F1200 X105.192 Y115.343 E19.73311
G1 X105.192 Y115.624 E19.74246
G1 X105.457 Y115.53 E19.74799
G1 X119.702 Y110.474 E20.25074
G1 X119.702 Y109.52 E20.28247
G1 X105.455 Y104.627 E20.7835
G1 X105.192 Y104.537 E20.79274
G1 X105.192 Y104.814 E20.7982
G1 X105.192 Y104.816 E20.79827
G1 X105.192 Y115.342 E21.14837
G0 F6000 X105.592 Y115.058
;TYPE:WALL-OUTER
G1 F1200 X119.302 Y110.192 E21.63223
G1 X119.302 Y109.806 E21.64507
G1 X105.592 Y105.097 E22.12722
G1 X105.592 Y115.058 E22.45852
G1 F1500 E15.95852
G0 F6000 X105.292 Y115.058
G0 X105.022 Y113.784
G0 X106.457 Y113.784
G0 X107.486 Y122.497
G0 X106.964 Y121.119
G0 X92.371 Y126.861
;TYPE:WALL-INNER
G1 F1500 E22.45852
G1 F1200 X92.371 Y126.574 E22.46807
G1 X92.371 Y126.573 E22.4681
G1 X92.371 Y120.128 E22.68246
G1 X100.448 Y117.283 E22.96728
G1 X100.448 Y102.864 E23.44686
G1 X92.371 Y100.121 E23.73057
G1 X92.371 Y93.423 E23.95335
G1 X92.371 Y93.422 E23.95338
G1 X92.371 Y93.136 E23.96289
G1 X92.639 Y93.236 E23.96851
G1 X127.442 Y106.25 E25.20434
G1 X127.442 Y113.599 E25.44877
G1 X92.64 Y126.76 E26.68629
G1 X92.371 Y126.861 E26.69192
G0 F6000 X91.971 Y127.44
;TYPE:WALL-OUTER
G1 F1200 X91.971 Y119.845 E26.94453
G1 X100.048 Y117 E27.22935
G1 X100.048 Y103.151 E27.68997
G1 X91.971 Y100.408 E27.97368
G1 X91.971 Y92.559 E28.23474
G1 X127.842 Y105.972 E29.50849
G1 X127.842 Y113.875 E29.77135
G1 X91.971 Y127.44 E31.04688
G0 F6000 X92.227 Y127.069
G0 X92.481 Y126.297
G0 X92.761 Y126.297
;TYPE:SKIN
G1 F1200 X92.761 Y120.404 E31.24288
G1 X100.838 Y117.56 E31.52769
G1 X100.838 Y102.585 E32.02576
G1 X92.761 Y99.842 E32.30947
G1 X92.761 Y93.698 E32.51382
G1 X127.052 Y106.52 E33.73147
G1 X127.052 Y113.33 E33.95797
G1 X92.761 Y126.297 E35.17731
G1 F1500 E28.67731
G0 F6000 X92.481 Y126.297
G0 X107.028 Y121.095
G0 X107.55 Y122.473
G0 X106.457 Y113.784
G0 X105.022 Y113.784
G0 X105.026 Y115.799
G0 X104.802 Y116.176
G1 F1500 E35.17731
G1 F1200 X120.092 Y110.749 E35.71695
G1 X120.092 Y109.241 E35.7671
G1 X104.802 Y103.991 E36.30479
G1 X104.802 Y116.176 E36.71007
