;FLAVOR:Marlin
;TIME:17177
;Filament used: 10.8435m
;Layer height: 0.2
;MINX:62.487
;MINY:70.305
;MINZ:0.2
;MAXX:160.687
;MAXY:149.695
;MAXZ:63.4
;Generated with Cura_SteamEngine master
M140 S60
M105
M190 S60
M104 S200
M105
M109 S200
M82 ;absolute extrusion mode
; Ender 3 Custom Start G-code
G92 E0 ; Reset Extruder
G28 ; Home all axes
G1 Z2.0 F3000 ; Move Z Axis up little to prevent scratching of Heat Bed
G1 X0.1 Y20 Z0.3 F5000.0 ; Move to start position
G1 X0.1 Y200.0 Z0.3 F1500.0 E15 ; Draw the first line
G1 X0.4 Y200.0 Z0.3 F5000.0 ; Move to side a little
G1 X0.4 Y20 Z0.3 F1500.0 E30 ; Draw the second line
G92 E0 ; Reset Extruder
G1 Z2.0 F3000 ; Move Z Axis up little to prevent scratching of Heat Bed
G1 X5 Y20 Z0.3 F5000.0 ; Move over to prevent blob squish
G92 E0
G92 E0
G1 F1500 E-6.5
;LAYER_COUNT:317
;LAYER:0
M107
G0 F6000 X66.373 Y72.932 Z0.2
;TYPE:SKIRT
G1 F1500 E0
G1 F1200 X67.113 Y72.356 E0.03119
G1 X67.899 Y71.844 E0.06239
G1 X68.726 Y71.402 E0.09358
G1 X69.588 Y71.032 E0.12478
G1 X70.478 Y70.736 E0.15597
G1 X71.39 Y70.518 E0.18716
G1 X72.317 Y70.377 E0.21835
G1 X73.188 Y70.318 E0.24738
G1 X73.509 Y70.309 E0.25806
G1 X73.817 Y70.305 E0.26831
G1 X148.98 Y70.305 E2.76824
G1 X149.138 Y70.306 E2.7735
G1 X149.836 Y70.316 E2.79671
G1 X150.772 Y70.37 E2.8279
G1 X151.7 Y70.502 E2.85907
G1 X152.614 Y70.714 E2.89028
G1 X153.506 Y71.003 E2.92147
G1 X154.371 Y71.366 E2.95267
G1 X155.201 Y71.802 E2.98385
G1 X155.992 Y72.307 E3.01506
G1 X156.736 Y72.878 E3.04626
G1 X157.429 Y73.51 E3.07745
G1 X158.066 Y74.198 E3.10864
G1 X158.641 Y74.939 E3.13983
G1 X159.152 Y75.725 E3.17101
G1 X159.594 Y76.553 E3.20223
G1 X159.963 Y77.415 E3.23342
G1 X160.258 Y78.305 E3.2646
G1 X160.476 Y79.217 E3.29579
G1 X160.616 Y80.145 E3.32701
G1 X160.674 Y81.006 E3.35571
G1 X160.683 Y81.326 E3.36636
G1 X160.687 Y81.635 E3.37663
G1 X160.687 Y137.959 E5.24998
G1 X160.677 Y138.822 E5.27868
G1 X160.626 Y139.759 E5.30989
G1 X160.494 Y140.687 E5.34107
G1 X160.285 Y141.601 E5.37225
G1 X159.998 Y142.494 E5.40345
G1 X159.636 Y143.36 E5.43467
G1 X159.202 Y144.191 E5.46585
G1 X158.698 Y144.982 E5.49705
G1 X158.129 Y145.727 E5.52823
G1 X157.498 Y146.422 E5.55945
G1 X156.811 Y147.06 E5.59063
G1 X156.072 Y147.637 E5.62182
G1 X155.286 Y148.149 E5.65301
G1 X154.46 Y148.592 E5.68419
G1 X153.598 Y148.964 E5.71542
G1 X152.709 Y149.26 E5.74658
G1 X151.797 Y149.48 E5.77778
G1 X150.87 Y149.621 E5.80897
G1 X149.986 Y149.682 E5.83844
G1 X149.665 Y149.691 E5.84912
G1 X149.357 Y149.695 E5.85937
G1 X74.194 Y149.695 E8.3593
G1 X73.354 Y149.685 E8.38724
G1 X72.418 Y149.633 E8.41842
G1 X71.489 Y149.501 E8.44963
G1 X70.575 Y149.291 E8.48082
G1 X69.682 Y149.004 E8.51202
G1 X68.817 Y148.641 E8.54322
G1 X67.986 Y148.207 E8.5744
G1 X67.195 Y147.703 E8.6056
G1 X66.45 Y147.133 E8.63679
G1 X65.756 Y146.502 E8.66799
G1 X65.119 Y145.815 E8.69915
G1 X64.542 Y145.075 E8.73036
G1 X64.03 Y144.289 E8.76156
G1 X63.587 Y143.462 E8.79277
G1 X63.216 Y142.601 E8.82395
G1 X62.92 Y141.711 E8.85514
G1 X62.701 Y140.799 E8.88634
G1 X62.56 Y139.872 E8.91753
G1 X62.5 Y138.983 E8.94716
G1 X62.491 Y138.65 E8.95824
G1 X62.487 Y138.353 E8.96812
G1 X62.487 Y81.979 E10.84313
G1 X62.497 Y81.165 E10.8702
G1 X62.55 Y80.229 E10.90138
G1 X62.682 Y79.3 E10.93259
G1 X62.893 Y78.386 E10.96379
G1 X63.181 Y77.494 E10.99497
G1 X63.544 Y76.629 E11.02617
G1 X63.979 Y75.798 E11.05737
G1 X64.483 Y75.008 E11.08853
G1 X65.053 Y74.263 E11.11973
G1 X65.685 Y73.569 E11.15095
G1 X66.373 Y72.932 E11.18214
G0 F6000 X66.761 Y73.128
G1 F1200 X67.497 Y72.575 E11.21276
G1 X68.278 Y72.087 E11.24339
G1 X69.098 Y71.669 E11.274
G1 X69.952 Y71.324 E11.30463
G1 X70.832 Y71.054 E11.33525
G1 X71.732 Y70.862 E11.36586
G1 X72.646 Y70.748 E11.39649
G1 X73.199 Y70.718 E11.41491
G1 X73.52 Y70.709 E11.42559
G1 X73.817 Y70.705 E11.43547
G1 X148.98 Y70.705 E13.9354
G1 X149.83 Y70.716 E13.96368
G1 X150.749 Y70.769 E13.99429
G1 X151.66 Y70.902 E14.02492
G1 X152.556 Y71.113 E14.05553
G1 X153.43 Y71.401 E14.08614
G1 X154.277 Y71.764 E14.11679
G1 X155.088 Y72.199 E14.1474
G1 X155.858 Y72.703 E14.17801
G1 X156.582 Y73.272 E14.20863
G1 X157.254 Y73.902 E14.23927
G1 X157.869 Y74.587 E14.26989
G1 X158.422 Y75.323 E14.30051
G1 X158.909 Y76.104 E14.33112
G1 X159.326 Y76.925 E14.36175
G1 X159.671 Y77.779 E14.39238
G1 X159.94 Y78.659 E14.42299
G1 X160.132 Y79.56 E14.45363
G1 X160.245 Y80.473 E14.48423
G1 X160.274 Y81.017 E14.50235
G1 X160.283 Y81.337 E14.51299
G1 X160.287 Y81.635 E14.52291
G1 X160.287 Y137.959 E16.39625
G1 X160.277 Y138.817 E16.42479
G1 X160.226 Y139.736 E16.4554
G1 X160.095 Y140.648 E16.48605
G1 X159.885 Y141.544 E16.51665
G1 X159.599 Y142.419 E16.54727
G1 X159.238 Y143.266 E16.5779
G1 X158.804 Y144.078 E16.60852
G1 X158.302 Y144.85 E16.63915
G1 X157.734 Y145.575 E16.66978
G1 X157.106 Y146.248 E16.7004
G1 X156.422 Y146.864 E16.73101
G1 X155.687 Y147.418 E16.76162
G1 X154.907 Y147.907 E16.79224
G1 X154.087 Y148.326 E16.82287
G1 X153.234 Y148.672 E16.85349
G1 X152.354 Y148.943 E16.88411
G1 X151.454 Y149.136 E16.91473
G1 X150.54 Y149.251 E16.94537
G1 X149.975 Y149.282 E16.96419
G1 X149.654 Y149.291 E16.97487
G1 X149.357 Y149.295 E16.98475
G1 X74.194 Y149.295 E19.48468
G1 X73.359 Y149.285 E19.51245
G1 X72.44 Y149.233 E19.54307
G1 X71.529 Y149.102 E19.57368
G1 X70.633 Y148.892 E19.60429
G1 X69.758 Y148.605 E19.63492
G1 X68.911 Y148.243 E19.66555
G1 X68.099 Y147.809 E19.69617
G1 X67.328 Y147.307 E19.72677
G1 X66.603 Y146.739 E19.75741
G1 X65.93 Y146.11 E19.78805
G1 X65.315 Y145.426 E19.81864
G1 X64.761 Y144.691 E19.84925
G1 X64.273 Y143.91 E19.87988
G1 X63.854 Y143.09 E19.91051
G1 X63.508 Y142.237 E19.94113
G1 X63.238 Y141.357 E19.97174
G1 X63.045 Y140.456 E20.00239
G1 X62.931 Y139.543 E20.03299
G1 X62.9 Y138.972 E20.05201
G1 X62.891 Y138.639 E20.06309
G1 X62.887 Y138.353 E20.0726
G1 X62.887 Y81.979 E21.94761
G1 X62.897 Y81.171 E21.97449
G1 X62.949 Y80.251 E22.00513
G1 X63.081 Y79.34 E22.03575
G1 X63.292 Y78.444 E22.06637
G1 X63.579 Y77.569 E22.097
G1 X63.942 Y76.723 E22.12761
G1 X64.376 Y75.911 E22.15824
G1 X64.879 Y75.14 E22.18886
G1 X65.448 Y74.416 E22.21948
G1 X66.076 Y73.744 E22.25007
G1 X66.761 Y73.128 E22.28071
G0 F6000 X67.149 Y73.329
G1 F1200 X67.881 Y72.799 E22.31077
G1 X68.656 Y72.336 E22.3408
G1 X69.469 Y71.943 E22.37083
G1 X70.314 Y71.623 E22.40089
G1 X71.183 Y71.38 E22.4309
G1 X72.071 Y71.214 E22.46094
G1 X73.21 Y71.118 E22.49896
G1 X73.531 Y71.109 E22.50964
G1 X73.817 Y71.105 E22.51916
G1 X148.98 Y71.105 E25.01909
G1 X149.824 Y71.116 E25.04716
G1 X150.726 Y71.169 E25.07721
G1 X151.619 Y71.301 E25.10724
G1 X152.497 Y71.512 E25.13727
G1 X153.353 Y71.8 E25.16731
G1 X154.18 Y72.162 E25.19734
G1 X154.972 Y72.597 E25.22739
G1 X155.723 Y73.099 E25.25744
G1 X156.426 Y73.666 E25.28747
G1 X157.076 Y74.293 E25.31751
G1 X157.668 Y74.975 E25.34755
G1 X158.198 Y75.706 E25.37758
G1 X158.66 Y76.482 E25.40762
G1 X159.053 Y77.295 E25.43765
G1 X159.371 Y78.14 E25.46768
G1 X159.614 Y79.01 E25.49773
G1 X159.779 Y79.898 E25.52777
G1 X159.874 Y81.028 E25.56548
G1 X159.883 Y81.348 E25.57613
G1 X159.887 Y81.635 E25.58568
G1 X159.887 Y137.959 E27.45902
G1 X159.877 Y138.812 E27.48739
G1 X159.826 Y139.714 E27.51744
G1 X159.695 Y140.608 E27.54749
G1 X159.486 Y141.486 E27.57751
G1 X159.2 Y142.343 E27.60756
G1 X158.839 Y143.171 E27.6376
G1 X158.407 Y143.963 E27.66761
G1 X157.906 Y144.715 E27.69766
G1 X157.34 Y145.419 E27.72771
G1 X156.715 Y146.07 E27.75772
G1 X156.034 Y146.664 E27.78778
G1 X155.303 Y147.195 E27.81783
G1 X154.529 Y147.659 E27.84785
G1 X153.716 Y148.053 E27.87789
G1 X152.872 Y148.373 E27.90792
G1 X152.002 Y148.618 E27.93798
G1 X151.115 Y148.784 E27.96799
G1 X149.964 Y148.882 E28.00641
G1 X149.643 Y148.891 E28.01709
G1 X149.357 Y148.895 E28.02661
G1 X74.194 Y148.895 E30.52654
G1 X73.364 Y148.885 E30.55415
G1 X72.463 Y148.834 E30.58416
G1 X71.569 Y148.702 E30.61422
G1 X70.691 Y148.493 E30.64424
G1 X69.834 Y148.206 E30.6743
G1 X69.007 Y147.845 E30.70431
G1 X68.214 Y147.412 E30.73436
G1 X67.463 Y146.911 E30.76439
G1 X66.759 Y146.345 E30.79443
G1 X66.108 Y145.719 E30.82447
G1 X65.515 Y145.038 E30.8545
G1 X64.985 Y144.307 E30.88453
G1 X64.521 Y143.532 E30.91458
G1 X64.127 Y142.719 E30.94463
G1 X63.807 Y141.875 E30.97465
G1 X63.563 Y141.005 E31.0047
G1 X63.397 Y140.117 E31.03475
G1 X63.3 Y138.962 E31.0733
G1 X63.291 Y138.629 E31.08438
G1 X63.287 Y138.353 E31.09356
G1 X63.287 Y81.979 E32.96857
G1 X63.297 Y81.176 E32.99528
G1 X63.349 Y80.274 E33.02533
G1 X63.481 Y79.381 E33.05535
G1 X63.691 Y78.503 E33.08538
G1 X63.978 Y77.646 E33.11544
G1 X64.34 Y76.819 E33.14546
G1 X64.773 Y76.027 E33.17548
G1 X65.275 Y75.276 E33.20553
G1 X65.842 Y74.572 E33.23559
G1 X66.468 Y73.922 E33.26561
G1 X67.149 Y73.329 E33.29564
G1 F1500 E26.79564
;MESH:AA-Cover.stl
G0 F6000 X83.443 Y93.873
G0 X83.768 Y92.427
G0 X85.533 Y93.475
G0 X85.92 Y93.865
G0 X87.587 Y95.87
;TYPE:WALL-INNER
G1 F1500 E33.29564
G1 F1200 X87.538 Y95.805 E33.29835
G1 X87.243 Y95.373 E33.31575
G1 X87.193 Y95.298 E33.31875
G1 X86.634 Y94.457 E33.35233
G1 X86.343 Y94.065 E33.36857
G1 X86.123 Y93.81 E33.37977
G1 X85.874 Y93.557 E33.39158
G1 X85.633 Y93.349 E33.40217
G1 X85.374 Y93.162 E33.41279
G1 X85.119 Y93.009 E33.42268
G1 X84.849 Y92.875 E33.43271
G1 X84.621 Y92.785 E33.44086
G1 X84.352 Y92.707 E33.45018
G1 X84.045 Y92.649 E33.46057
G1 X83.754 Y92.618 E33.4703
G1 X83.447 Y92.608 E33.48052
G1 X83.118 Y92.622 E33.49147
G1 X82.798 Y92.665 E33.50221
G1 X82.511 Y92.73 E33.512
G1 X82.262 Y92.813 E33.52073
G1 X82.024 Y92.913 E33.52931
G1 X81.756 Y93.056 E33.53942
G1 X81.505 Y93.219 E33.54937
G1 X81.273 Y93.403 E33.55922
G1 X81.113 Y93.554 E33.56654
G1 X80.946 Y93.735 E33.57473
G1 X80.752 Y93.986 E33.58528
G1 X80.58 Y94.257 E33.59596
G1 X80.436 Y94.539 E33.60649
G1 X80.359 Y94.717 E33.61294
G1 X80.289 Y94.903 E33.61955
G1 X80.19 Y95.241 E33.63126
G1 X80.12 Y95.59 E33.6431
G1 X80.081 Y95.921 E33.65419
G1 X80.069 Y96.259 E33.66543
G1 X80.089 Y96.714 E33.68058
G1 X80.141 Y97.092 E33.69327
G1 X80.224 Y97.446 E33.70537
G1 X80.297 Y97.672 E33.71327
G1 X80.393 Y97.916 E33.72199
G1 X80.548 Y98.227 E33.73354
G1 X80.715 Y98.494 E33.74402
G1 X80.902 Y98.74 E33.7543
G1 X81.093 Y98.948 E33.76369
G1 X81.319 Y99.155 E33.77388
G1 X81.586 Y99.358 E33.78504
G1 X81.872 Y99.536 E33.79624
G1 X82.196 Y99.699 E33.8083
G1 X82.431 Y99.795 E33.81675
G1 X82.673 Y99.879 E33.82527
G1 X83.069 Y99.982 E33.83888
G1 X83.484 Y100.05 E33.85286
G1 X83.879 Y100.081 E33.86604
G1 X84.663 Y100.084 E33.89212
G1 X84.863 Y100.084 E33.89877
G1 X84.863 Y99.884 E33.90308
G1 X84.863 Y97.182 E33.99295
G1 X84.782 Y97.179 E33.99564
G1 X83.983 Y97.141 E34.02225
G1 X83.827 Y97.123 E34.02747
G1 X83.657 Y97.095 E34.0332
G1 X83.503 Y97.058 E34.03847
G1 X83.357 Y97.009 E34.04359
G1 X83.277 Y96.976 E34.04647
G1 X83.172 Y96.922 E34.0504
G1 X83.12 Y96.89 E34.05243
G1 X83.046 Y96.835 E34.05549
G1 X82.984 Y96.779 E34.05827
G1 X82.941 Y96.731 E34.06042
G1 X82.909 Y96.689 E34.06217
G1 X82.863 Y96.604 E34.06539
G1 X82.852 Y96.575 E34.06642
G1 X82.84 Y96.531 E34.06794
G1 X82.821 Y96.401 E34.07231
G1 X82.819 Y96.339 E34.07437
G1 X82.824 Y96.233 E34.0779
G1 X82.837 Y96.148 E34.08076
G1 X82.855 Y96.072 E34.08336
G1 X82.874 Y96.016 E34.08532
G1 X82.902 Y95.957 E34.08749
G1 X82.934 Y95.901 E34.08964
G1 X82.975 Y95.845 E34.09195
G1 X83.019 Y95.795 E34.09416
G1 X83.037 Y95.778 E34.09499
G1 X83.089 Y95.737 E34.09719
G1 X83.12 Y95.717 E34.09842
G1 X83.173 Y95.689 E34.10041
G1 X83.233 Y95.665 E34.10256
G1 X83.304 Y95.644 E34.10502
G1 X83.383 Y95.627 E34.10771
G1 X83.484 Y95.617 E34.11109
G1 X83.594 Y95.612 E34.11475
G1 X83.694 Y95.617 E34.11808
G1 X83.771 Y95.628 E34.12066
G1 X83.856 Y95.648 E34.12357
G1 X83.917 Y95.668 E34.1257
G1 X83.952 Y95.684 E34.12698
G1 X84.011 Y95.715 E34.1292
G1 X84.148 Y95.802 E34.1346
G1 X84.286 Y95.909 E34.14041
G1 X84.392 Y96.006 E34.14519
G1 X84.44 Y96.056 E34.14749
G1 X84.643 Y96.295 E34.15792
G1 X84.748 Y96.437 E34.16379
G1 X85.082 Y96.939 E34.18385
G1 X85.126 Y97.006 E34.18627
G1 X85.268 Y97.218 E34.19475
G1 X86.058 Y98.327 E34.24004
G1 X86.401 Y98.75 E34.25815
G1 X86.684 Y99.048 E34.27182
G1 X86.982 Y99.32 E34.28524
G1 X87.266 Y99.538 E34.29715
G1 X87.567 Y99.732 E34.30906
G1 X87.862 Y99.888 E34.32016
G1 X88.174 Y100.024 E34.33148
G1 X88.461 Y100.12 E34.34155
G1 X88.792 Y100.2 E34.35287
G1 X89.197 Y100.259 E34.36648
G1 X89.464 Y100.279 E34.37539
G1 X90.133 Y100.296 E34.39765
G1 X90.134 Y100.297 E34.3977
G1 X90.337 Y100.3 E34.40445
G1 X90.337 Y100.097 E34.4088
G1 X90.337 Y100.096 E34.40883
G1 X90.337 Y92.557 E34.65958
G1 X87.587 Y92.557 E34.75104
G1 X87.587 Y95.282 E34.84168
G1 X87.587 Y95.373 E34.84451
G1 X87.587 Y95.805 E34.85118
G1 X87.587 Y95.87 E34.85118
G0 F6000 X87.754 Y96.36
G0 X87.987 Y96.941
;TYPE:WALL-OUTER
G1 F1200 X87.779 Y96.742 E34.86076
G1 X87.643 Y96.594 E34.86744
G1 X87.541 Y96.471 E34.87276
G1 X87.219 Y96.047 E34.89047
G1 X86.913 Y95.599 E34.90851
G1 X86.307 Y94.687 E34.94493
G1 X86.03 Y94.315 E34.96036
G1 X85.829 Y94.081 E34.97062
G1 X85.6 Y93.849 E34.98146
G1 X85.385 Y93.663 E34.99091
G1 X85.154 Y93.496 E35.00039
G1 X84.927 Y93.36 E35.0092
G1 X84.687 Y93.241 E35.01811
G1 X84.491 Y93.164 E35.02511
G1 X84.259 Y93.096 E35.03315
G1 X83.987 Y93.045 E35.04236
G1 X83.726 Y93.017 E35.05109
G1 X83.449 Y93.008 E35.0603
G1 X83.153 Y93.021 E35.07016
G1 X82.869 Y93.059 E35.07969
G1 X82.619 Y93.116 E35.08822
G1 X82.403 Y93.188 E35.09579
G1 X82.196 Y93.275 E35.10326
G1 X81.959 Y93.401 E35.11219
G1 X81.739 Y93.544 E35.12091
G1 X81.535 Y93.706 E35.12958
G1 X81.397 Y93.836 E35.13588
G1 X81.252 Y93.993 E35.14299
G1 X81.08 Y94.216 E35.15236
G1 X80.928 Y94.456 E35.16181
G1 X80.798 Y94.71 E35.1713
G1 X80.73 Y94.867 E35.17699
G1 X80.669 Y95.03 E35.18278
G1 X80.579 Y95.337 E35.19342
G1 X80.515 Y95.653 E35.20414
G1 X80.48 Y95.952 E35.21415
G1 X80.469 Y96.257 E35.2243
G1 X80.488 Y96.678 E35.23832
G1 X80.535 Y97.019 E35.24977
G1 X80.61 Y97.339 E35.2607
G1 X80.674 Y97.537 E35.26762
G1 X80.759 Y97.754 E35.27537
G1 X80.897 Y98.031 E35.28567
G1 X81.044 Y98.266 E35.29489
G1 X81.209 Y98.483 E35.30395
G1 X81.376 Y98.665 E35.31217
G1 X81.576 Y98.848 E35.32118
G1 X81.813 Y99.028 E35.33108
G1 X82.068 Y99.187 E35.34108
G1 X82.362 Y99.335 E35.35203
G1 X82.572 Y99.421 E35.35957
G1 X82.789 Y99.496 E35.36721
G1 X83.152 Y99.59 E35.37968
G1 X83.532 Y99.653 E35.39249
G1 X83.895 Y99.681 E35.4046
G1 X84.463 Y99.683 E35.42349
G1 X84.463 Y97.564 E35.49397
G1 X83.952 Y97.54 E35.51099
G1 X83.771 Y97.52 E35.51704
G1 X83.585 Y97.489 E35.52332
G1 X83.396 Y97.444 E35.52978
G1 X83.214 Y97.383 E35.53616
G1 X83.104 Y97.337 E35.54013
G1 X82.982 Y97.275 E35.54468
G1 X82.885 Y97.215 E35.54847
G1 X82.796 Y97.148 E35.55218
G1 X82.702 Y97.064 E35.55637
G1 X82.636 Y96.991 E35.55964
G1 X82.571 Y96.904 E35.56326
G1 X82.497 Y96.768 E35.56841
G1 X82.469 Y96.694 E35.57104
G1 X82.448 Y96.615 E35.57376
G1 X82.422 Y96.435 E35.5798
G1 X82.418 Y96.345 E35.5828
G1 X82.425 Y96.199 E35.58766
G1 X82.443 Y96.074 E35.59186
G1 X82.471 Y95.957 E35.59586
G1 X82.5 Y95.874 E35.59879
G1 X82.547 Y95.772 E35.60252
G1 X82.598 Y95.683 E35.60594
G1 X82.661 Y95.597 E35.60948
G1 X82.727 Y95.521 E35.61283
G1 X82.779 Y95.472 E35.61521
G1 X82.855 Y95.412 E35.61843
G1 X82.917 Y95.372 E35.62088
G1 X83.006 Y95.324 E35.62424
G1 X83.094 Y95.289 E35.62739
G1 X83.212 Y95.254 E35.63149
G1 X83.324 Y95.231 E35.63529
G1 X83.455 Y95.217 E35.63967
G1 X83.588 Y95.211 E35.6441
G1 X83.735 Y95.219 E35.649
G1 X83.844 Y95.234 E35.65266
G1 X83.971 Y95.264 E35.657
G1 X84.055 Y95.293 E35.65995
G1 X84.134 Y95.327 E35.66281
G1 X84.206 Y95.365 E35.66552
G1 X84.385 Y95.479 E35.67258
G1 X84.539 Y95.599 E35.67907
G1 X84.661 Y95.71 E35.68456
G1 X84.742 Y95.793 E35.68842
G1 X84.96 Y96.05 E35.69962
G1 X85.07 Y96.199 E35.70578
G1 X85.597 Y96.991 E35.73742
G1 X86.377 Y98.085 E35.78211
G1 X86.702 Y98.486 E35.79928
G1 X86.964 Y98.762 E35.81194
G1 X87.239 Y99.013 E35.82432
G1 X87.496 Y99.211 E35.83511
G1 X87.769 Y99.386 E35.8459
G1 X88.036 Y99.527 E35.85594
G1 X88.318 Y99.65 E35.86617
G1 X88.572 Y99.735 E35.87508
G1 X88.868 Y99.807 E35.88521
G1 X89.24 Y99.861 E35.89772
G1 X89.484 Y99.879 E35.90585
G1 X89.937 Y99.89 E35.92092
