;FLAVOR:Marlin
;TIME:18799
;Filament used: 10.8865m
;Layer height: 0.2
;MINX:56.069
;MINY:59.313
;MINZ:0.2
;MAXX:163.945
;MAXY:160.687
;MAXZ:50.8
;Generated with Cura_SteamEngine master
M140 S60
M105
M190 S60
M104 S200
M105
M109 S200
M82 ;absolute extrusion mode
; Ender 3 Custom Start G-code
G92 E0 ; Reset Extruder
G28 ; Home all axes
G1 Z2.0 F3000 ; Move Z Axis up little to prevent scratching of Heat Bed
G1 X0.1 Y20 Z0.3 F5000.0 ; Move to start position
G1 X0.1 Y200.0 Z0.3 F1500.0 E15 ; Draw the first line
G1 X0.4 Y200.0 Z0.3 F5000.0 ; Move to side a little
G1 X0.4 Y20 Z0.3 F1500.0 E30 ; Draw the second line
G92 E0 ; Reset Extruder
G1 Z2.0 F3000 ; Move Z Axis up little to prevent scratching of Heat Bed
G1 X5 Y20 Z0.3 F5000.0 ; Move over to prevent blob squish
G92 E0
G92 E0
G1 F1500 E-6.5
;LAYER_COUNT:254
;LAYER:0
M107
G0 F6000 X63.422 Y66.597 Z0.2
;TYPE:SKIRT
G1 F1500 E0
G1 F1200 X63.787 Y66.261 E0.0165
G1 X64.084 Y65.997 E0.02972
G1 X64.202 Y65.896 E0.03488
G1 X64.899 Y65.347 E0.06439
G1 X65.695 Y64.77 E0.09709
G1 X65.984 Y64.567 E0.10884
G1 X66.145 Y64.458 E0.11531
G1 X66.708 Y64.102 E0.13746
G1 X66.936 Y63.967 E0.14627
G1 X67.145 Y63.846 E0.15431
G1 X67.466 Y63.666 E0.16655
G1 X67.765 Y63.502 E0.17789
G1 X68.347 Y63.191 E0.19984
G1 X68.918 Y62.907 E0.22105
G1 X69.247 Y62.755 E0.2331
G1 X69.541 Y62.625 E0.24379
G1 X70.029 Y62.417 E0.26144
G1 X70.68 Y62.149 E0.28485
G1 X71.268 Y61.927 E0.30576
G1 X71.603 Y61.811 E0.31755
G1 X71.919 Y61.706 E0.32862
G1 X73.291 Y61.277 E0.37643
G1 X74.156 Y61.018 E0.40647
G1 X74.862 Y60.833 E0.43074
G1 X75.134 Y60.772 E0.44001
G1 X75.718 Y60.65 E0.45986
G1 X78.103 Y60.177 E0.54073
G1 X78.68 Y60.071 E0.56024
G1 X79.358 Y59.968 E0.58305
G1 X80.5 Y59.831 E0.6213
G1 X80.721 Y59.807 E0.6287
G1 X83.727 Y59.508 E0.72917
G1 X84.526 Y59.439 E0.75584
G1 X84.847 Y59.416 E0.76655
G1 X85.008 Y59.407 E0.77191
G1 X85.263 Y59.396 E0.7804
G1 X85.864 Y59.377 E0.8004
G1 X88.438 Y59.327 E0.88603
G1 X89.124 Y59.323 E0.90884
G1 X89.733 Y59.337 E0.9291
G1 X91.304 Y59.415 E0.98142
G1 X91.567 Y59.431 E0.99018
G1 X94.083 Y59.517 E1.07392
G1 X96.606 Y59.53 E1.15783
G1 X99.118 Y59.473 E1.2414
G1 X100.993 Y59.385 E1.30383
G1 X101.758 Y59.341 E1.32932
G1 X102.696 Y59.327 E1.36052
G1 X103.86 Y59.422 E1.39937
G1 X106.562 Y59.766 E1.48996
G1 X109.088 Y60.016 E1.57439
G1 X111.605 Y60.192 E1.65831
G1 X114.091 Y60.296 E1.74106
G1 X116.614 Y60.33 E1.82499
G1 X119.137 Y60.292 E1.90891
G1 X121.655 Y60.184 E1.99274
G1 X124.152 Y60.005 E2.076
G1 X126.686 Y59.752 E2.1607
G1 X128.886 Y59.473 E2.23446
G1 X129.138 Y59.438 E2.24292
G1 X130.444 Y59.335 E2.28649
G1 X131.482 Y59.315 E2.32102
G1 X131.694 Y59.313 E2.32808
G1 X139.538 Y59.313 E2.58897
G1 X140.397 Y59.324 E2.61754
G1 X141.334 Y59.377 E2.64876
G1 X142.262 Y59.51 E2.67994
G1 X143.457 Y59.803 E2.72086
G1 X144.795 Y60.213 E2.7674
G1 X144.901 Y60.241 E2.77105
G1 X145.108 Y60.306 E2.77827
G1 X147.545 Y61.005 E2.86259
G1 X149.994 Y61.633 E2.94668
G1 X152.413 Y62.183 E3.02919
G1 X154.64 Y62.625 E3.1047
G1 X154.956 Y62.684 E3.1154
G1 X155.869 Y62.895 E3.14656
G1 X156.762 Y63.184 E3.17778
G1 X157.626 Y63.547 E3.20895
G1 X158.457 Y63.983 E3.24016
G1 X159.247 Y64.488 E3.27135
G1 X159.992 Y65.058 E3.30255
G1 X160.685 Y65.69 E3.33374
G1 X161.322 Y66.378 E3.36493
G1 X161.898 Y67.118 E3.39612
G1 X162.409 Y67.905 E3.42733
G1 X162.851 Y68.732 E3.45852
G1 X163.22 Y69.594 E3.4897
G1 X163.515 Y70.484 E3.52089
G1 X163.734 Y71.397 E3.55212
G1 X163.873 Y72.324 E3.58329
G1 X163.932 Y73.189 E3.61213
G1 X163.941 Y73.51 E3.62281
G1 X163.945 Y73.818 E3.63305
G1 X163.945 Y148.951 E6.13199
G1 X163.935 Y149.814 E6.16069
G1 X163.884 Y150.751 E6.1919
G1 X163.752 Y151.679 E6.22308
G1 X163.543 Y152.593 E6.25427
G1 X163.256 Y153.486 E6.28546
G1 X162.894 Y154.352 E6.31668
G1 X162.46 Y155.183 E6.34786
G1 X161.956 Y155.974 E6.37906
G1 X161.387 Y156.719 E6.41024
G1 X160.756 Y157.414 E6.44146
G1 X160.069 Y158.052 E6.47264
G1 X159.33 Y158.629 E6.50383
G1 X158.544 Y159.141 E6.53503
G1 X157.718 Y159.584 E6.5662
G1 X156.856 Y159.956 E6.59743
G1 X155.967 Y160.252 E6.62859
G1 X155.055 Y160.472 E6.65979
G1 X154.128 Y160.613 E6.69098
G1 X153.244 Y160.674 E6.72045
G1 X152.923 Y160.683 E6.73113
G1 X152.615 Y160.687 E6.74138
G1 X143.97 Y160.686 E7.02891
G1 X143.268 Y160.676 E7.05226
G1 X142.332 Y160.623 E7.08344
G1 X141.404 Y160.49 E7.11463
G1 X140.49 Y160.278 E7.14583
G1 X139.597 Y159.99 E7.17704
G1 X138.733 Y159.626 E7.20822
G1 X137.902 Y159.19 E7.23944
G1 X137.112 Y158.685 E7.27062
G1 X136.368 Y158.115 E7.30179
G1 X135.928 Y157.727 E7.32131
G1 X135.797 Y157.605 E7.32726
G1 X135.605 Y157.421 E7.3361
G1 X135.251 Y157.074 E7.35259
G1 X132.956 Y154.78 E7.46052
G1 X132.357 Y154.164 E7.4891
G1 X131.733 Y153.464 E7.52029
G1 X131.171 Y152.712 E7.55151
G1 X130.676 Y151.916 E7.58269
G1 X130.25 Y151.081 E7.61386
G1 X130.02 Y150.539 E7.63345
G1 X129.894 Y150.218 E7.64492
G1 X128.878 Y147.741 E7.73396
G1 X127.853 Y145.432 E7.81799
G1 X126.772 Y143.171 E7.90134
G1 X125.638 Y140.963 E7.9839
G1 X124.403 Y138.714 E8.06924
G1 X123.152 Y136.585 E8.15137
G1 X121.79 Y134.406 E8.23684
G1 X120.405 Y132.325 E8.31998
G1 X118.958 Y130.281 E8.40327
G1 X117.432 Y128.247 E8.48785
G1 X115.884 Y126.303 E8.5705
G1 X114.245 Y124.357 E8.65512
G1 X112.584 Y122.497 E8.73806
G1 X110.842 Y120.653 E8.82243
G1 X109.07 Y118.882 E8.90576
G1 X107.232 Y117.144 E8.98989
G1 X105.37 Y115.482 E9.07291
G1 X103.445 Y113.859 E9.15665
G1 X101.458 Y112.277 E9.24113
G1 X99.463 Y110.779 E9.32411
G1 X97.39 Y109.313 E9.40855
G1 X95.302 Y107.922 E9.492
G1 X93.193 Y106.603 E9.57473
G1 X90.97 Y105.298 E9.66047
G1 X88.795 Y104.102 E9.74303
G1 X86.557 Y102.953 E9.8267
G1 X84.296 Y101.871 E9.91007
G1 X81.956 Y100.834 E9.9952
G1 X79.654 Y99.888 E10.07797
G1 X77.309 Y99.002 E10.16135
G1 X74.926 Y98.178 E10.24521
G1 X72.521 Y97.421 E10.32907
G1 X70.097 Y96.734 E10.41287
G1 X67.684 Y96.123 E10.49566
G1 X65.762 Y95.686 E10.56122
G1 X64.927 Y95.507 E10.58962
G1 X64.019 Y95.271 E10.62083
G1 X63.135 Y94.958 E10.65202
G1 X62.281 Y94.572 E10.68319
G1 X61.462 Y94.114 E10.7144
G1 X60.686 Y93.588 E10.74558
G1 X59.957 Y92.997 E10.77679
G1 X59.281 Y92.347 E10.80798
G1 X58.663 Y91.642 E10.83916
G1 X58.107 Y90.886 E10.87038
G1 X57.618 Y90.086 E10.90156
G1 X57.198 Y89.247 E10.93277
G1 X56.852 Y88.376 E10.96394
G1 X56.57 Y87.435 E10.99661
G1 X56.528 Y87.268 E11.00234
G1 X56.386 Y86.619 E11.02444
G1 X56.332 Y86.332 E11.03415
G1 X56.253 Y85.854 E11.05026
G1 X56.244 Y85.791 E11.05238
G1 X56.185 Y85.302 E11.06876
G1 X56.142 Y84.861 E11.0835
G1 X56.116 Y84.552 E11.09381
G1 X56.099 Y84.306 E11.10202
G1 X56.073 Y83.608 E11.12525
G1 X56.069 Y82.877 E11.14956
G1 X56.073 Y82.528 E11.16117
G1 X56.08 Y82.262 E11.17002
G1 X56.119 Y81.582 E11.19267
G1 X56.152 Y81.209 E11.20513
G1 X56.199 Y80.777 E11.21958
G1 X56.265 Y80.263 E11.23682
G1 X56.369 Y79.608 E11.25888
G1 X56.525 Y78.788 E11.28664
G1 X56.608 Y78.391 E11.30013
G1 X56.643 Y78.238 E11.30535
G1 X56.804 Y77.618 E11.32665
G1 X57.028 Y76.848 E11.35333
G1 X57.135 Y76.503 E11.36534
G1 X57.203 Y76.295 E11.37262
G1 X57.442 Y75.636 E11.39593
G1 X57.802 Y74.734 E11.42824
G1 X57.952 Y74.374 E11.44121
G1 X58.112 Y74.011 E11.4544
G1 X58.38 Y73.448 E11.47514
G1 X58.504 Y73.205 E11.48421
G1 X58.647 Y72.935 E11.49438
G1 X58.894 Y72.485 E11.51145
G1 X59.273 Y71.82 E11.53691
G1 X59.585 Y71.306 E11.55691
G1 X59.723 Y71.092 E11.56538
G1 X59.904 Y70.821 E11.57621
G1 X60.221 Y70.361 E11.59479
G1 X60.663 Y69.739 E11.62017
G1 X61.03 Y69.253 E11.64043
G1 X61.215 Y69.021 E11.6503
G1 X61.424 Y68.766 E11.66126
G1 X61.797 Y68.326 E11.68045
G1 X61.92 Y68.183 E11.68672
G1 X62.386 Y67.652 E11.71022
G1 X62.876 Y67.13 E11.73403
G1 X63.094 Y66.912 E11.74429
G1 X63.422 Y66.597 E11.75941
G0 F6000 X63.693 Y66.891
G1 F1200 X64.058 Y66.555 E11.77591
G1 X64.344 Y66.301 E11.78864
G1 X64.462 Y66.2 E11.7938
G1 X65.134 Y65.671 E11.82225
G1 X65.93 Y65.094 E11.85495
G1 X66.208 Y64.898 E11.86626
G1 X66.369 Y64.789 E11.87273
G1 X66.911 Y64.446 E11.89406
G1 X67.139 Y64.311 E11.90287
G1 X67.341 Y64.194 E11.91064
G1 X67.837 Y63.918 E11.92952
G1 X68.535 Y63.544 E11.95585
G1 X69.085 Y63.27 E11.97629
G1 X69.414 Y63.118 E11.98835
G1 X69.698 Y62.992 E11.99868
G1 X70.181 Y62.787 E12.01613
G1 X70.832 Y62.519 E12.03955
G1 X71.399 Y62.305 E12.0597
G1 X71.734 Y62.189 E12.0715
G1 X72.039 Y62.088 E12.08218
G1 X73.541 Y61.619 E12.13452
G1 X74.271 Y61.401 E12.15986
G1 X74.95 Y61.223 E12.1832
G1 X75.217 Y61.163 E12.1923
G1 X75.796 Y61.042 E12.21198
G1 X78.176 Y60.57 E12.29268
G1 X78.753 Y60.464 E12.31219
G1 X79.405 Y60.365 E12.33413
G1 X80.547 Y60.228 E12.37238
G1 X80.761 Y60.205 E12.37954
G1 X83.915 Y59.892 E12.48496
G1 X84.56 Y59.837 E12.50649
G1 X84.869 Y59.816 E12.51679
G1 X85.03 Y59.807 E12.52215
G1 X85.277 Y59.796 E12.53038
G1 X85.872 Y59.777 E12.55018
G1 X88.44 Y59.727 E12.6356
G1 X89.126 Y59.723 E12.65842
G1 X89.714 Y59.736 E12.67798
G1 X91.144 Y59.807 E12.7256
G1 X91.528 Y59.831 E12.7384
G1 X94.068 Y59.917 E12.82293
G1 X96.613 Y59.93 E12.90758
G1 X99.144 Y59.873 E12.99178
G1 X101.039 Y59.784 E13.05488
G1 X101.781 Y59.741 E13.0796
G1 X102.702 Y59.728 E13.11023
G1 X103.807 Y59.818 E13.14711
G1 X103.938 Y59.836 E13.15151
G1 X106.509 Y60.163 E13.23771
G1 X109.057 Y60.414 E13.32286
G1 X111.56 Y60.59 E13.40632
G1 X114.104 Y60.696 E13.49101
G1 X116.614 Y60.73 E13.5745
G1 X119.159 Y60.692 E13.65915
G1 X121.667 Y60.584 E13.74265
G1 X124.185 Y60.404 E13.82661
G1 X126.74 Y60.148 E13.91201
G1 X128.902 Y59.875 E13.98449
G1 X129.193 Y59.834 E13.99427
G1 X130.452 Y59.735 E14.03627
G1 X131.49 Y59.715 E14.0708
G1 X131.694 Y59.713 E14.07759
G1 X139.538 Y59.713 E14.33848
G1 X140.392 Y59.724 E14.36689
G1 X141.311 Y59.777 E14.3975
G1 X142.222 Y59.91 E14.42813
G1 X143.34 Y60.186 E14.46643
G1 X144.656 Y60.588 E14.51219
G1 X144.78 Y60.623 E14.51648
G1 X144.991 Y60.69 E14.52384
G1 X147.44 Y61.392 E14.60858
G1 X149.878 Y62.017 E14.69229
G1 X152.318 Y62.571 E14.77551
G1 X154.588 Y63.022 E14.85248
G1 X154.882 Y63.077 E14.86243
G1 X155.779 Y63.285 E14.89306
G1 X156.654 Y63.571 E14.92368
G1 X157.502 Y63.931 E14.95432
G1 X158.315 Y64.363 E14.98494
G1 X159.087 Y64.864 E15.01555
G1 X159.813 Y65.43 E15.04616
G1 X160.487 Y66.058 E15.0768
G1 X161.104 Y66.741 E15.10742
G1 X161.659 Y67.475 E15.13802
G1 X162.149 Y68.255 E15.16866
G1 X162.569 Y69.074 E15.19927
G1 X162.917 Y69.926 E15.22989
G1 X163.189 Y70.806 E15.26052
G1 X163.384 Y71.706 E15.29115
G1 X163.5 Y72.619 E15.32176
G1 X163.532 Y73.2 E15.34111
G1 X163.541 Y73.521 E15.35179
G1 X163.545 Y73.818 E15.36167
G1 X163.545 Y148.951 E17.86061
G1 X163.535 Y149.809 E17.88915
G1 X163.484 Y150.728 E17.91976
G1 X163.353 Y151.64 E17.9504
G1 X163.143 Y152.536 E17.98101
G1 X162.857 Y153.411 E18.01163
G1 X162.496 Y154.258 E18.04225
G1 X162.062 Y155.07 E18.07288
G1 X161.56 Y155.842 E18.1035
G1 X160.992 Y156.567 E18.13414
G1 X160.364 Y157.24 E18.16475
G1 X159.68 Y157.856 E18.19537
G1 X158.945 Y158.41 E18.22598
G1 X158.165 Y158.899 E18.2566
G1 X157.345 Y159.318 E18.28723
G1 X156.492 Y159.664 E18.31784
G1 X155.612 Y159.935 E18.34847
G1 X154.712 Y160.128 E18.37908
G1 X153.798 Y160.243 E18.40972
G1 X153.233 Y160.274 E18.42854
G1 X152.912 Y160.283 E18.43922
G1 X152.615 Y160.287 E18.4491
G1 X143.976 Y160.286 E18.73644
G1 X143.274 Y160.276 E18.75979
G1 X142.355 Y160.223 E18.79041
G1 X141.444 Y160.09 E18.82103
G1 X140.548 Y159.879 E18.85164
G1 X139.673 Y159.591 E18.88228
G1 X138.827 Y159.228 E18.9129
G1 X138.016 Y158.793 E18.94351
G1 X137.245 Y158.289 E18.97415
G1 X136.201 Y157.434 E19.01903
G1 X136.07 Y157.312 E19.02498
G1 X135.884 Y157.135 E19.03352
G1 X135.533 Y156.791 E19.04987
G1 X133.238 Y154.497 E19.15779
G1 X132.644 Y153.886 E19.18614
G1 X132.032 Y153.197 E19.21679
G1 X131.483 Y152.459 E19.24738
G1 X130.999 Y151.675 E19.27803
G1 X130.586 Y150.853 E19.30862
G1 X130.392 Y150.392 E19.32526
G1 X130.264 Y150.066 E19.33691
G1 X129.243 Y147.576 E19.42642
G1 X128.222 Y145.276 E19.51011
G1 X127.145 Y143.023 E19.59317
G1 X125.971 Y140.739 E19.67858
G1 X124.756 Y138.525 E19.76258
G1 X123.478 Y136.35 E19.84649
G1 X122.146 Y134.219 E19.93007
G1 X120.737 Y132.102 E20.01465
G1 X119.272 Y130.032 E20.099
G1 X117.749 Y128.003 E20.18338
G1 X116.202 Y126.059 E20.26601
G1 X114.55 Y124.099 E20.35127
G1 X112.872 Y122.22 E20.43506
G1 X111.116 Y120.361 E20.52011
G1 X109.362 Y118.608 E20.60259
G1 X107.509 Y116.856 E20.68741
G1 X105.611 Y115.161 E20.77204
G1 X103.689 Y113.541 E20.85565
G1 X101.719 Y111.972 E20.93941
G1 X99.688 Y110.448 E21.02387
G1 X97.621 Y108.986 E21.10807
G1 X95.53 Y107.593 E21.19164
G1 X93.386 Y106.252 E21.27575
G1 X91.186 Y104.961 E21.36059
G1 X88.978 Y103.746 E21.44441
G1 X86.733 Y102.594 E21.52834
G1 X84.452 Y101.503 E21.61244
G1 X82.122 Y100.47 E21.69721
G1 X79.81 Y99.52 E21.78034
G1 X77.433 Y98.622 E21.86486
G1 X75.04 Y97.794 E21.94908
G1 X72.644 Y97.04 E22.03262
G1 X70.199 Y96.347 E22.11715
G1 X67.784 Y95.735 E22.20001
G1 X65.774 Y95.279 E22.26856
G1 X65.011 Y95.115 E22.29452
G1 X64.12 Y94.883 E22.32514
G1 X63.253 Y94.574 E22.35575
G1 X62.416 Y94.192 E22.38636
G1 X61.615 Y93.738 E22.41698
G1 X60.856 Y93.216 E22.44762
G1 X60.146 Y92.63 E22.47824
G1 X59.489 Y91.985 E22.50886
G1 X58.891 Y91.285 E22.53948
G1 X58.355 Y90.536 E22.57011
G1 X57.887 Y89.744 E22.60071
G1 X57.489 Y88.913 E22.63136
G1 X57.165 Y88.052 E22.66195
G1 X56.958 Y87.337 E22.68671
G1 X56.916 Y87.17 E22.69244
G1 X56.779 Y86.545 E22.71372
G1 X56.725 Y86.258 E22.72343
G1 X56.649 Y85.797 E22.73897
G1 X56.64 Y85.734 E22.74109
G1 X56.583 Y85.264 E22.75684
G1 X56.54 Y84.823 E22.77157
G1 X56.515 Y84.525 E22.78152
G1 X56.498 Y84.279 E22.78972
G1 X56.473 Y83.606 E22.81212
G1 X56.469 Y82.875 E22.83643
G1 X56.473 Y82.538 E22.84764
G1 X56.48 Y82.272 E22.85649
G1 X56.517 Y81.617 E22.87831
G1 X56.55 Y81.244 E22.89077
G1 X56.595 Y80.828 E22.90469
G1 X56.661 Y80.314 E22.92192
G1 X56.762 Y79.683 E22.94318
G1 X56.918 Y78.863 E22.97094
G1 X56.998 Y78.48 E22.98395
G1 X57.033 Y78.327 E22.98917
G1 X57.188 Y77.73 E23.00969
G1 X57.412 Y76.96 E23.03636
G1 X57.515 Y76.627 E23.04795
G1 X57.583 Y76.419 E23.05523
G1 X57.813 Y75.784 E23.07769
G1 X58.173 Y74.882 E23.11
G1 X58.318 Y74.536 E23.12247
G1 X58.478 Y74.173 E23.13567
G1 X58.736 Y73.63 E23.15566
G1 X58.86 Y73.387 E23.16474
G1 X58.998 Y73.127 E23.17453
G1 X59.242 Y72.683 E23.19138
G1 X59.621 Y72.018 E23.21684
G1 X59.922 Y71.522 E23.23613
G1 X60.06 Y71.308 E23.2446
G1 X60.233 Y71.048 E23.25499
G1 X60.547 Y70.593 E23.27338
G1 X60.989 Y69.971 E23.29875
G1 X61.342 Y69.502 E23.31828
G1 X61.527 Y69.27 E23.32815
G1 X61.729 Y69.025 E23.33871
G1 X62.102 Y68.585 E23.35789
G1 X62.221 Y68.447 E23.36396
G1 X62.687 Y67.916 E23.38745
G1 X63.159 Y67.413 E23.4104
G1 X63.377 Y67.195 E23.42065
G1 X63.693 Y66.891 E23.43523
G0 F6000 X63.964 Y67.186
G1 F1200 X64.329 Y66.85 E23.45173
G1 X64.604 Y66.605 E23.46398
G1 X64.722 Y66.504 E23.46915
G1 X65.369 Y65.994 E23.49655
G1 X66.165 Y65.417 E23.52925
G1 X66.433 Y65.23 E23.54012
G1 X66.594 Y65.121 E23.54659
G1 X67.115 Y64.79 E23.56712
G1 X67.343 Y64.655 E23.57593
G1 X67.538 Y64.543 E23.58341
G1 X68.03 Y64.269 E23.60214
G1 X68.724 Y63.897 E23.62833
G1 X69.253 Y63.633 E23.64799
G1 X69.582 Y63.481 E23.66005
G1 X69.855 Y63.36 E23.66998
G1 X70.333 Y63.157 E23.68725
G1 X70.984 Y62.889 E23.71067
G1 X71.529 Y62.682 E23.73006
G1 X71.864 Y62.566 E23.74185
G1 X72.158 Y62.47 E23.75213
G1 X73.655 Y62.002 E23.8043
G1 X74.385 Y61.784 E23.82964
G1 X75.039 Y61.613 E23.85212
G1 X75.299 Y61.555 E23.86098
G1 X75.873 Y61.434 E23.88049
G1 X78.104 Y60.991 E23.95615
G1 X78.825 Y60.858 E23.98053
G1 X79.453 Y60.763 E24.00166
G1 X80.595 Y60.626 E24.03991
G1 X80.8 Y60.603 E24.04677
G1 X83.806 Y60.304 E24.14725
G1 X84.594 Y60.236 E24.17355
G1 X84.892 Y60.215 E24.18349
G1 X85.29 Y60.195 E24.19674
G1 X85.88 Y60.177 E24.21638
G1 X88.443 Y60.127 E24.30164
G1 X89.129 Y60.123 E24.32445
G1 X89.694 Y60.136 E24.34325
G1 X91.254 Y60.214 E24.3952
G1 X91.525 Y60.231 E24.40423
G1 X94.052 Y60.317 E24.48833
G1 X96.619 Y60.33 E24.57371
G1 X99.132 Y60.273 E24.65731
G1 X101.079 Y60.182 E24.72214
G1 X101.804 Y60.14 E24.7463
G1 X102.707 Y60.128 E24.77633
G1 X103.753 Y60.214 E24.81124
G1 X103.894 Y60.234 E24.81598
