;FLAVOR:Marlin
;TIME:17715
;Filament used: 10.0085m
;Layer height: 0.2
;MINX:56.064
;MINY:59.313
;MINZ:0.2
;MAXX:163.945
;MAXY:160.687
;MAXZ:46.8
;Generated with Cura_SteamEngine master
M140 S60
M105
M190 S60
M104 S200
M105
M109 S200
M82 ;absolute extrusion mode
; Ender 3 Custom Start G-code
G92 E0 ; Reset Extruder
G28 ; Home all axes
G1 Z2.0 F3000 ; Move Z Axis up little to prevent scratching of Heat Bed
G1 X0.1 Y20 Z0.3 F5000.0 ; Move to start position
G1 X0.1 Y200.0 Z0.3 F1500.0 E15 ; Draw the first line
G1 X0.4 Y200.0 Z0.3 F5000.0 ; Move to side a little
G1 X0.4 Y20 Z0.3 F1500.0 E30 ; Draw the second line
G92 E0 ; Reset Extruder
G1 Z2.0 F3000 ; Move Z Axis up little to prevent scratching of Heat Bed
G1 X5 Y20 Z0.3 F5000.0 ; Move over to prevent blob squish
G92 E0
G92 E0
G1 F1500 E-6.5
;LAYER_COUNT:234
;LAYER:0
M107
G0 F6000 X62.734 Y125.209 Z0.2
;TYPE:SKIRT
G1 F1500 E0
G1 F1200 X63.606 Y124.863 E0.0312
G1 X64.792 Y124.522 E0.07225
G1 X65.329 Y124.4 E0.09056
G1 X66.907 Y124.062 E0.14424
G1 X69.374 Y123.458 E0.22871
G1 X71.736 Y122.811 E0.31017
G1 X74.186 Y122.063 E0.39537
G1 X76.6 Y121.251 E0.48008
G1 X78.928 Y120.395 E0.56258
G1 X81.288 Y119.449 E0.64714
G1 X83.588 Y118.451 E0.73053
G1 X85.875 Y117.381 E0.81451
G1 X88.117 Y116.254 E0.89797
G1 X90.351 Y115.051 E0.98236
G1 X92.502 Y113.812 E1.06493
G1 X94.684 Y112.472 E1.15009
G1 X96.746 Y111.125 E1.23201
G1 X98.839 Y109.669 E1.31681
G1 X100.866 Y108.174 E1.40058
G1 X102.845 Y106.627 E1.48413
G1 X104.786 Y105.017 E1.56801
G1 X106.677 Y103.357 E1.6517
G1 X108.538 Y101.628 E1.73618
G1 X110.299 Y99.898 E1.81829
G1 X112.058 Y98.067 E1.90274
G1 X113.741 Y96.213 E1.98602
G1 X115.387 Y94.293 E2.07014
G1 X116.99 Y92.316 E2.15479
G1 X118.495 Y90.345 E2.23727
G1 X119.975 Y88.289 E2.32153
G1 X121.369 Y86.233 E2.40415
G1 X122.748 Y84.071 E2.48944
G1 X124.034 Y81.92 E2.57279
G1 X125.254 Y79.744 E2.65576
G1 X126.441 Y77.481 E2.74076
G1 X127.526 Y75.259 E2.823
G1 X128.571 Y72.955 E2.90715
G1 X129.709 Y70.238 E3.00512
G1 X130.041 Y69.408 E3.03485
G1 X130.426 Y68.553 E3.06604
G1 X130.882 Y67.733 E3.09725
G1 X131.407 Y66.956 E3.12844
G1 X132.161 Y66.043 E3.16782
G1 X132.242 Y65.955 E3.1718
G1 X132.462 Y65.723 E3.18243
G1 X132.88 Y65.296 E3.20231
G1 X135.302 Y62.876 E3.31618
G1 X135.759 Y62.432 E3.33738
G1 X136.459 Y61.808 E3.36857
G1 X137.209 Y61.246 E3.39974
G1 X138.005 Y60.749 E3.43095
G1 X138.84 Y60.323 E3.46213
G1 X139.709 Y59.968 E3.49335
G1 X140.604 Y59.69 E3.52452
G1 X141.52 Y59.488 E3.55572
G1 X142.45 Y59.365 E3.58692
G1 X143.089 Y59.327 E3.60821
G1 X143.457 Y59.318 E3.62045
G1 X143.925 Y59.313 E3.63602
G1 X152.394 Y59.314 E3.9177
G1 X153.093 Y59.324 E3.94095
G1 X154.03 Y59.378 E3.97217
G1 X154.958 Y59.51 E4.00334
G1 X155.872 Y59.722 E4.03455
G1 X156.764 Y60.011 E4.06574
G1 X157.629 Y60.374 E4.09694
G1 X158.459 Y60.81 E4.12812
G1 X159.249 Y61.315 E4.15931
G1 X159.994 Y61.886 E4.19053
G1 X160.687 Y62.518 E4.22172
G1 X161.324 Y63.206 E4.25291
G1 X161.899 Y63.947 E4.2841
G1 X162.41 Y64.733 E4.31528
G1 X162.852 Y65.561 E4.3465
G1 X163.221 Y66.422 E4.37766
G1 X163.516 Y67.313 E4.40887
G1 X163.734 Y68.225 E4.44006
G1 X163.874 Y69.152 E4.47124
G1 X163.932 Y70.014 E4.49998
G1 X163.941 Y70.334 E4.51063
G1 X163.945 Y70.643 E4.5209
G1 X163.945 Y145.776 E7.01984
G1 X163.934 Y146.654 E7.04904
G1 X163.881 Y147.591 E7.08026
G1 X163.749 Y148.519 E7.11143
G1 X163.538 Y149.433 E7.14263
G1 X163.249 Y150.325 E7.17382
G1 X162.886 Y151.19 E7.20502
G1 X162.451 Y152.021 E7.23622
G1 X161.946 Y152.811 E7.2674
G1 X161.376 Y153.556 E7.2986
G1 X160.745 Y154.25 E7.3298
G1 X160.056 Y154.887 E7.36101
G1 X159.316 Y155.463 E7.3922
G1 X158.53 Y155.974 E7.42338
G1 X157.703 Y156.416 E7.45457
G1 X156.841 Y156.786 E7.48577
G1 X155.951 Y157.081 E7.51695
G1 X155.12 Y157.284 E7.5454
G1 X154.069 Y157.496 E7.58106
G1 X153.117 Y157.674 E7.61328
G1 X150.652 Y158.21 E7.69718
G1 X148.248 Y158.803 E7.77953
G1 X145.812 Y159.479 E7.86362
G1 X144.571 Y159.865 E7.90684
G1 X143.404 Y160.214 E7.94736
G1 X142.495 Y160.444 E7.97854
G1 X141.569 Y160.596 E8.00975
G1 X140.733 Y160.664 E8.03765
G1 X140.573 Y160.671 E8.04298
G1 X140.226 Y160.681 E8.05452
G1 X139.683 Y160.687 E8.07258
G1 X131.263 Y160.686 E8.35263
G1 X130.545 Y160.675 E8.37652
G1 X129.318 Y160.587 E8.41743
G1 X127.942 Y160.411 E8.46357
G1 X127.766 Y160.387 E8.46948
G1 X125.286 Y160.106 E8.55249
G1 X122.78 Y159.895 E8.63614
G1 X120.261 Y159.754 E8.72005
G1 X117.731 Y159.683 E8.80423
G1 X115.207 Y159.685 E8.88818
G1 X112.728 Y159.756 E8.97067
G1 X110.193 Y159.901 E9.05512
G1 X107.689 Y160.116 E9.13871
G1 X105.153 Y160.405 E9.2236
G1 X104.102 Y160.55 E9.25889
G1 X103.886 Y160.578 E9.26613
G1 X103.682 Y160.602 E9.27297
G1 X102.747 Y160.671 E9.30415
G1 X101.817 Y160.662 E9.33508
G1 X100.368 Y160.585 E9.38334
G1 X97.846 Y160.491 E9.46728
G1 X95.286 Y160.467 E9.55243
G1 X92.791 Y160.515 E9.63543
G1 X90.487 Y160.62 E9.71214
G1 X89.92 Y160.653 E9.73103
G1 X89.247 Y160.672 E9.75343
G1 X88.264 Y160.669 E9.78612
G1 X88.082 Y160.667 E9.79218
G1 X85.947 Y160.625 E9.8632
G1 X85.119 Y160.597 E9.89076
G1 X84.796 Y160.581 E9.90151
G1 X84.625 Y160.57 E9.90721
G1 X84.375 Y160.551 E9.91555
G1 X83.875 Y160.507 E9.93224
G1 X80.436 Y160.165 E10.04719
G1 X79.744 Y160.087 E10.07035
G1 X79.06 Y159.987 E10.09334
G1 X77.887 Y159.778 E10.13297
G1 X77.677 Y159.739 E10.14008
G1 X75.872 Y159.381 E10.20128
G1 X75.001 Y159.197 E10.23089
G1 X74.311 Y159.028 E10.25452
G1 X74.179 Y158.991 E10.25908
G1 X73.959 Y158.926 E10.26671
G1 X73.462 Y158.776 E10.28397
G1 X72.239 Y158.394 E10.32659
G1 X71.439 Y158.132 E10.35459
G1 X70.852 Y157.92 E10.37535
G1 X70.6 Y157.821 E10.38435
G1 X70.399 Y157.74 E10.39156
G1 X70.072 Y157.603 E10.40335
G1 X69.736 Y157.457 E10.41553
G1 X69.059 Y157.156 E10.44018
G1 X68.463 Y156.869 E10.46218
G1 X68.143 Y156.703 E10.47417
G1 X67.891 Y156.569 E10.48366
G1 X67.464 Y156.332 E10.4999
G1 X66.853 Y155.983 E10.52331
G1 X66.3 Y155.645 E10.54486
G1 X66.07 Y155.495 E10.554
G1 X65.671 Y155.222 E10.57008
G1 X65.438 Y155.055 E10.57961
G1 X65.123 Y154.82 E10.59268
G1 X64.504 Y154.342 E10.6187
G1 X63.78 Y153.732 E10.65018
G1 X63.493 Y153.468 E10.66315
G1 X63.227 Y153.215 E10.67536
G1 X62.924 Y152.917 E10.6895
G1 X62.538 Y152.518 E10.70796
G1 X62.413 Y152.382 E10.71411
G1 X62.197 Y152.14 E10.7249
G1 X61.893 Y151.787 E10.74039
G1 X61.561 Y151.393 E10.75753
G1 X61.117 Y150.854 E10.78075
G1 X60.75 Y150.384 E10.80059
G1 X60.585 Y150.16 E10.80984
G1 X60.387 Y149.882 E10.82119
G1 X60.129 Y149.508 E10.8363
G1 X59.663 Y148.813 E10.86413
G1 X59.301 Y148.236 E10.88679
G1 X59.147 Y147.972 E10.89696
G1 X59.029 Y147.764 E10.90491
G1 X58.902 Y147.535 E10.91362
G1 X58.803 Y147.352 E10.92054
G1 X58.451 Y146.688 E10.94553
G1 X58.177 Y146.133 E10.96612
G1 X58.062 Y145.883 E10.97527
G1 X57.956 Y145.646 E10.98391
G1 X57.877 Y145.463 E10.99054
G1 X57.79 Y145.255 E10.99804
G1 X57.598 Y144.784 E11.01495
G1 X57.35 Y144.114 E11.03872
G1 X57.044 Y143.197 E11.07087
G1 X56.916 Y142.789 E11.08509
G1 X56.861 Y142.6 E11.09164
G1 X56.707 Y142.011 E11.11189
G1 X56.54 Y141.291 E11.13647
G1 X56.462 Y140.924 E11.14895
G1 X56.431 Y140.766 E11.1543
G1 X56.319 Y140.086 E11.17723
G1 X56.199 Y139.176 E11.20775
G1 X56.153 Y138.764 E11.22154
G1 X56.122 Y138.433 E11.2326
G1 X56.083 Y137.854 E11.2519
G1 X56.073 Y137.608 E11.26009
G1 X56.064 Y137.138 E11.27573
G1 X56.065 Y136.669 E11.29132
G1 X56.088 Y135.982 E11.31419
G1 X56.134 Y135.271 E11.33788
G1 X56.162 Y134.918 E11.34966
G1 X56.182 Y134.712 E11.35655
G1 X56.261 Y134.09 E11.3774
G1 X56.292 Y133.89 E11.38413
G1 X56.343 Y133.588 E11.39432
G1 X56.361 Y133.49 E11.39763
G1 X56.426 Y133.166 E11.40862
G1 X56.475 Y132.938 E11.41638
G1 X56.711 Y132.03 E11.44758
G1 X57.023 Y131.146 E11.47876
G1 X57.41 Y130.291 E11.50998
G1 X57.868 Y129.473 E11.54116
G1 X58.394 Y128.696 E11.57237
G1 X58.984 Y127.968 E11.60353
G1 X59.634 Y127.292 E11.63473
G1 X60.34 Y126.674 E11.66593
G1 X61.095 Y126.118 E11.69712
G1 X61.895 Y125.629 E11.7283
G1 X62.734 Y125.209 E11.75951
G0 F6000 X63.068 Y125.5
G1 F1200 X63.93 Y125.176 E11.79014
G1 X64.881 Y124.912 E11.82296
G1 X65.546 Y124.762 E11.84564
G1 X67.021 Y124.446 E11.89581
G1 X69.47 Y123.847 E11.97967
G1 X71.821 Y123.203 E12.06074
G1 X74.347 Y122.431 E12.14859
G1 X76.697 Y121.641 E12.23105
G1 X79.109 Y120.754 E12.31653
G1 X81.43 Y119.824 E12.39969
G1 X83.768 Y118.809 E12.48446
G1 X86.046 Y117.743 E12.56812
G1 X88.28 Y116.62 E12.65128
G1 X90.546 Y115.4 E12.73688
G1 X92.705 Y114.157 E12.81974
G1 X94.882 Y112.82 E12.90471
G1 X96.995 Y111.439 E12.98867
G1 X99.076 Y109.992 E13.07297
G1 X101.105 Y108.496 E13.15681
G1 X103.084 Y106.948 E13.24038
G1 X105.06 Y105.31 E13.32575
G1 X106.93 Y103.668 E13.40852
G1 X108.807 Y101.924 E13.49373
G1 X110.585 Y100.177 E13.57664
G1 X112.36 Y98.33 E13.66184
G1 X114.043 Y96.477 E13.7451
G1 X115.701 Y94.542 E13.82985
G1 X117.29 Y92.582 E13.91377
G1 X118.835 Y90.559 E13.99844
G1 X120.287 Y88.542 E14.0811
G1 X121.721 Y86.425 E14.16614
G1 X123.086 Y84.286 E14.25054
G1 X124.378 Y82.127 E14.33422
G1 X125.615 Y79.919 E14.4184
G1 X126.776 Y77.705 E14.50155
G1 X127.898 Y75.408 E14.58657
G1 X128.935 Y73.122 E14.67006
G1 X130.069 Y70.413 E14.76774
G1 X130.412 Y69.556 E14.79844
G1 X130.791 Y68.717 E14.82906
G1 X131.241 Y67.914 E14.85968
G1 X131.759 Y67.153 E14.8903
G1 X132.455 Y66.314 E14.92655
G1 X132.536 Y66.226 E14.93053
G1 X132.748 Y66.002 E14.94079
G1 X133.162 Y65.579 E14.96048
G1 X135.473 Y63.269 E15.06916
G1 X136.038 Y62.719 E15.09538
G1 X136.725 Y62.107 E15.12598
G1 X137.463 Y61.557 E15.1566
G1 X138.246 Y61.073 E15.18721
G1 X139.068 Y60.658 E15.21784
G1 X139.923 Y60.317 E15.24845
G1 X140.805 Y60.051 E15.27909
G1 X141.706 Y59.862 E15.30971
G1 X142.62 Y59.753 E15.34033
G1 X143.101 Y59.727 E15.35635
G1 X143.462 Y59.718 E15.36836
G1 X143.925 Y59.713 E15.38376
G1 X152.237 Y59.713 E15.66022
G1 X153.088 Y59.724 E15.68853
G1 X154.007 Y59.777 E15.71914
G1 X154.918 Y59.91 E15.74976
G1 X155.814 Y60.121 E15.78038
G1 X156.688 Y60.409 E15.81099
G1 X157.534 Y60.772 E15.84161
G1 X158.346 Y61.207 E15.87225
G1 X159.116 Y61.711 E15.90285
G1 X159.84 Y62.28 E15.93348
G1 X160.512 Y62.909 E15.9641
G1 X161.127 Y63.595 E15.99474
G1 X161.68 Y64.331 E16.02536
G1 X162.167 Y65.112 E16.05597
G1 X162.584 Y65.933 E16.0866
G1 X162.929 Y66.787 E16.11723
G1 X163.198 Y67.667 E16.14784
G1 X163.39 Y68.567 E16.17844
G1 X163.503 Y69.481 E16.20908
G1 X163.532 Y70.025 E16.2272
G1 X163.541 Y70.345 E16.23784
G1 X163.545 Y70.643 E16.24776
G1 X163.545 Y145.776 E18.74669
G1 X163.534 Y146.649 E18.77573
G1 X163.481 Y147.568 E18.80634
G1 X163.349 Y148.479 E18.83696
G1 X163.138 Y149.375 E18.86758
G1 X162.851 Y150.25 E18.89821
G1 X162.488 Y151.096 E18.92882
G1 X162.054 Y151.908 E18.95945
G1 X161.55 Y152.679 E18.99008
G1 X160.982 Y153.403 E19.02069
G1 X160.353 Y154.075 E19.0513
G1 X159.668 Y154.69 E19.08192
G1 X158.932 Y155.243 E19.11254
G1 X158.151 Y155.731 E19.14317
G1 X157.331 Y156.149 E19.17378
G1 X156.477 Y156.494 E19.20442
G1 X155.597 Y156.763 E19.23502
G1 X155.041 Y156.892 E19.25401
G1 X153.995 Y157.103 E19.2895
G1 X153.03 Y157.284 E19.32215
G1 X150.577 Y157.817 E19.40565
G1 X148.146 Y158.417 E19.48893
G1 X145.712 Y159.092 E19.57294
G1 X144.456 Y159.482 E19.61668
G1 X143.289 Y159.831 E19.65719
G1 X142.396 Y160.056 E19.68782
G1 X141.488 Y160.203 E19.71842
G1 X140.715 Y160.265 E19.74421
G1 X140.555 Y160.272 E19.74954
G1 X140.222 Y160.281 E19.76062
G1 X139.683 Y160.287 E19.77854
G1 X131.27 Y160.286 E20.05836
G1 X130.552 Y160.275 E20.08224
G1 X129.369 Y160.19 E20.12169
G1 X127.836 Y159.993 E20.1731
G1 X125.297 Y159.705 E20.25809
G1 X122.798 Y159.494 E20.3415
G1 X120.296 Y159.354 E20.42485
G1 X117.742 Y159.283 E20.50983
G1 X115.231 Y159.285 E20.59334
G1 X112.693 Y159.358 E20.67779
G1 X110.137 Y159.504 E20.76294
G1 X107.681 Y159.714 E20.84493
G1 X105.098 Y160.009 E20.9314
G1 X104.048 Y160.154 E20.96665
G1 X103.636 Y160.204 E20.98046
G1 X102.717 Y160.272 E21.01111
G1 X101.838 Y160.262 E21.04034
G1 X100.468 Y160.19 E21.08597
G1 X97.829 Y160.091 E21.17381
G1 X95.282 Y160.067 E21.25853
G1 X92.766 Y160.115 E21.34222
G1 X90.523 Y160.218 E21.41691
G1 X89.896 Y160.254 E21.43779
G1 X89.249 Y160.272 E21.45932
G1 X88.266 Y160.269 E21.49202
G1 X88.09 Y160.267 E21.49787
G1 X85.794 Y160.221 E21.57425
G1 X85.133 Y160.198 E21.59625
G1 X84.822 Y160.182 E21.60661
G1 X84.651 Y160.171 E21.61231
G1 X84.41 Y160.153 E21.62034
G1 X83.915 Y160.109 E21.63687
G1 X80.324 Y159.751 E21.7569
G1 X79.789 Y159.69 E21.77481
G1 X79.131 Y159.594 E21.79693
G1 X77.958 Y159.385 E21.83656
G1 X77.755 Y159.346 E21.84343
G1 X75.816 Y158.961 E21.90918
G1 X75.084 Y158.806 E21.93407
G1 X74.419 Y158.643 E21.95684
G1 X74.075 Y158.544 E21.96875
G1 X73.582 Y158.394 E21.98589
G1 X72.209 Y157.964 E22.03374
G1 X71.564 Y157.752 E22.05632
G1 X70.998 Y157.548 E22.07633
G1 X70.552 Y157.371 E22.09229
G1 X70.231 Y157.236 E22.10387
G1 X69.899 Y157.092 E22.11591
G1 X69.222 Y156.791 E22.14055
G1 X68.647 Y156.514 E22.16178
G1 X68.327 Y156.348 E22.17377
G1 X68.085 Y156.219 E22.18289
G1 X67.797 Y156.06 E22.19383
G1 X67.052 Y155.635 E22.22236
G1 X66.519 Y155.31 E22.24312
G1 X66.289 Y155.16 E22.25226
G1 X65.904 Y154.897 E22.26777
G1 X65.671 Y154.73 E22.2773
G1 X65.367 Y154.504 E22.2899
G1 X64.748 Y154.026 E22.31591
G1 X64.051 Y153.437 E22.34626
G1 X63.764 Y153.173 E22.35923
G1 X63.507 Y152.929 E22.37102
G1 X63.204 Y152.631 E22.38515
G1 X62.833 Y152.247 E22.40291
G1 X62.708 Y152.111 E22.40906
G1 X62.5 Y151.878 E22.41945
G1 X62.198 Y151.528 E22.43482
G1 X61.869 Y151.139 E22.45177
G1 X61.425 Y150.6 E22.47499
G1 X61.072 Y150.147 E22.49409
G1 X60.907 Y149.923 E22.50335
G1 X60.717 Y149.655 E22.51427
G1 X60.376 Y149.16 E22.53427
G1 X59.995 Y148.591 E22.55704
G1 X59.647 Y148.034 E22.57889
G1 X59.493 Y147.77 E22.58905
G1 X59.379 Y147.57 E22.59671
G1 X59.252 Y147.341 E22.60542
G1 X59.157 Y147.165 E22.61207
G1 X58.805 Y146.501 E22.63707
G1 X58.54 Y145.966 E22.65692
G1 X58.425 Y145.716 E22.66608
G1 X58.323 Y145.487 E22.67441
G1 X58.244 Y145.304 E22.68104
G1 X58.16 Y145.104 E22.68826
G1 X57.968 Y144.633 E22.70518
G1 X57.729 Y143.987 E22.72808
G1 X57.423 Y143.07 E22.76024
G1 X57.3 Y142.677 E22.77393
G1 X57.245 Y142.488 E22.78048
G1 X57.097 Y141.921 E22.79997
G1 X56.93 Y141.201 E22.82455
G1 X56.854 Y140.847 E22.8366
G1 X56.823 Y140.689 E22.84195
G1 X56.716 Y140.034 E22.86403
G1 X56.596 Y139.124 E22.89455
G1 X56.551 Y138.726 E22.90788
G1 X56.52 Y138.395 E22.91893
G1 X56.483 Y137.838 E22.9375
G1 X56.473 Y137.592 E22.94569
G1 X56.464 Y137.138 E22.96079
G1 X56.465 Y136.669 E22.97639
G1 X56.487 Y136.008 E22.99839
G1 X56.533 Y135.297 E23.02209
G1 X56.561 Y134.957 E23.03343
G1 X56.581 Y134.751 E23.04032
G1 X56.656 Y134.151 E23.06043
G1 X56.687 Y133.951 E23.06716
G1 X56.736 Y133.66 E23.07697
G1 X56.754 Y133.562 E23.08029
G1 X56.817 Y133.25 E23.09087
G1 X56.866 Y133.022 E23.09863
G1 X57.098 Y132.131 E23.12925
G1 X57.407 Y131.264 E23.15987
G1 X57.79 Y130.426 E23.19051
G1 X58.244 Y129.625 E23.22114
G1 X58.766 Y128.867 E23.25175
G1 X59.351 Y128.157 E23.28234
G1 X59.996 Y127.5 E23.31297
G1 X60.696 Y126.901 E23.34361
G1 X61.445 Y126.366 E23.37422
G1 X62.238 Y125.898 E23.40485
G1 X63.068 Y125.5 E23.43547
G0 F6000 X63.4 Y125.795
G1 F1200 X64.251 Y125.493 E23.4655
G1 X64.969 Y125.302 E23.49021
G1 X65.63 Y125.153 E23.51275
G1 X67.095 Y124.839 E23.56258
G1 X69.565 Y124.235 E23.64715
G1 X71.971 Y123.576 E23.73012
G1 X74.454 Y122.817 E23.81648
G1 X76.847 Y122.013 E23.90045
G1 X79.228 Y121.137 E23.98483
G1 X81.59 Y120.19 E24.06947
G1 X83.917 Y119.18 E24.15384
G1 X86.216 Y118.105 E24.23825
G1 X88.513 Y116.95 E24.32376
G1 X90.703 Y115.771 E24.40649
G1 X92.934 Y114.486 E24.49212
G1 X95.072 Y113.173 E24.57557
G1 X97.228 Y111.764 E24.66123
G1 X99.302 Y110.322 E24.74525
G1 X101.343 Y108.817 E24.82959
G1 X103.34 Y107.255 E24.91392
G1 X105.313 Y105.62 E24.99914
G1 X107.202 Y103.96 E25.08278
G1 X109.077 Y102.219 E25.16789
G1 X110.888 Y100.44 E25.25232
G1 X112.645 Y98.611 E25.33667
G1 X114.359 Y96.723 E25.42149
G1 X116 Y94.81 E25.50532
G1 X117.603 Y92.831 E25.59002
G1 X119.132 Y90.829 E25.67381
G1 X120.626 Y88.753 E25.75888
G1 X122.057 Y86.643 E25.84367
G1 X123.423 Y84.5 E25.9282
