;FLAVOR:Marlin
;TIME:19761
;Filament used: 11.3442m
;Layer height: 0.2
;MINX:59.313
;MINY:52.064
;MINZ:0.2
;MAXX:160.687
;MAXY:167.946
;MAXZ:50.8
;Generated with Cura_SteamEngine master
M140 S60
M105
M190 S60
M104 S200
M105
M109 S200
M82 ;absolute extrusion mode
; Ender 3 Custom Start G-code
G92 E0 ; Reset Extruder
G28 ; Home all axes
G1 Z2.0 F3000 ; Move Z Axis up little to prevent scratching of Heat Bed
G1 X0.1 Y20 Z0.3 F5000.0 ; Move to start position
G1 X0.1 Y200.0 Z0.3 F1500.0 E15 ; Draw the first line
G1 X0.4 Y200.0 Z0.3 F5000.0 ; Move to side a little
G1 X0.4 Y20 Z0.3 F1500.0 E30 ; Draw the second line
G92 E0 ; Reset Extruder
G1 Z2.0 F3000 ; Move Z Axis up little to prevent scratching of Heat Bed
G1 X5 Y20 Z0.3 F5000.0 ; Move over to prevent blob squish
G92 E0
G92 E0
G1 F1500 E-6.5
;LAYER_COUNT:254
;LAYER:0
M107
G0 F6000 X66.341 Y59.696 Z0.2
;TYPE:SKIRT
G1 F1500 E0
G1 F1200 X66.485 Y59.54 E0.00706
G1 X66.717 Y59.297 E0.01824
G1 X67.084 Y58.923 E0.03566
G1 X67.45 Y58.566 E0.05267
G1 X67.52 Y58.501 E0.05585
G1 X67.793 Y58.256 E0.06805
G1 X68.249 Y57.861 E0.08811
G1 X68.492 Y57.655 E0.09871
G1 X69.127 Y57.131 E0.12609
G1 X69.622 Y56.746 E0.14695
G1 X69.865 Y56.568 E0.15697
G1 X70.104 Y56.398 E0.16672
G1 X70.633 Y56.033 E0.1881
G1 X71.214 Y55.645 E0.21133
G1 X71.762 Y55.302 E0.23284
G1 X72.168 Y55.066 E0.24846
G1 X72.609 Y54.823 E0.2652
G1 X73.302 Y54.456 E0.29128
G1 X73.855 Y54.184 E0.31178
G1 X74.226 Y54.014 E0.32536
G1 X74.522 Y53.883 E0.33612
G1 X74.763 Y53.782 E0.34481
G1 X75.232 Y53.591 E0.36166
G1 X75.899 Y53.345 E0.3853
G1 X76.798 Y53.045 E0.41682
G1 X77.14 Y52.937 E0.42875
G1 X77.328 Y52.881 E0.43528
G1 X77.996 Y52.704 E0.45826
G1 X78.72 Y52.537 E0.48297
G1 X79.087 Y52.459 E0.49545
G1 X79.246 Y52.428 E0.50084
G1 X79.914 Y52.319 E0.52335
G1 X80.855 Y52.195 E0.55492
G1 X81.265 Y52.149 E0.56864
G1 X81.361 Y52.14 E0.57185
G1 X82.025 Y52.098 E0.59398
G1 X82.872 Y52.07 E0.62216
G1 X83.268 Y52.064 E0.63534
G1 X83.976 Y52.087 E0.6589
G1 X84.782 Y52.139 E0.68576
G1 X85.206 Y52.174 E0.69991
G1 X85.409 Y52.195 E0.7067
G1 X86.189 Y52.304 E0.73289
G1 X86.427 Y52.346 E0.74093
G1 X86.804 Y52.42 E0.75371
G1 X87.039 Y52.47 E0.7617
G1 X87.947 Y52.704 E0.79289
G1 X88.832 Y53.015 E0.82409
G1 X89.688 Y53.399 E0.85529
G1 X90.507 Y53.856 E0.88649
G1 X91.284 Y54.38 E0.91766
G1 X92.014 Y54.969 E0.94885
G1 X92.692 Y55.618 E0.98007
G1 X93.311 Y56.322 E1.01125
G1 X93.868 Y57.076 E1.04243
G1 X94.359 Y57.875 E1.07362
G1 X94.78 Y58.714 E1.10484
G1 X95.129 Y59.584 E1.13602
G1 X95.401 Y60.482 E1.16723
G1 X95.641 Y61.685 E1.20803
G1 X95.716 Y62.221 E1.22603
G1 X95.951 Y64.065 E1.28786
G1 X96.333 Y66.514 E1.3703
G1 X96.793 Y69.006 E1.45458
G1 X97.324 Y71.477 E1.53864
G1 X97.915 Y73.899 E1.62156
G1 X98.582 Y76.328 E1.70534
G1 X99.322 Y78.756 E1.78976
G1 X100.125 Y81.142 E1.8735
G1 X101.003 Y83.526 E1.958
G1 X101.915 Y85.805 E2.03964
G1 X102.933 Y88.15 E2.12467
G1 X103.994 Y90.417 E2.20792
G1 X105.139 Y92.695 E2.29272
G1 X106.324 Y94.894 E2.3758
G1 X107.572 Y97.063 E2.45903
G1 X108.901 Y99.226 E2.54347
G1 X110.261 Y101.308 E2.62618
G1 X111.719 Y103.404 E2.7111
G1 X113.203 Y105.416 E2.79425
G1 X114.748 Y107.392 E2.87768
G1 X116.362 Y109.34 E2.96182
G1 X118.024 Y111.232 E3.04558
G1 X119.734 Y113.073 E3.12915
G1 X121.509 Y114.877 E3.21332
G1 X123.313 Y116.611 E3.29655
G1 X125.177 Y118.304 E3.3803
G1 X127.064 Y119.923 E3.463
G1 X129.034 Y121.519 E3.54732
G1 X131.046 Y123.055 E3.63151
G1 X133.103 Y124.537 E3.71584
G1 X135.17 Y125.938 E3.79889
G1 X137.281 Y127.283 E3.88214
G1 X139.465 Y128.59 E3.9668
G1 X141.641 Y129.811 E4.04979
G1 X143.9 Y130.995 E4.13462
G1 X146.147 Y132.092 E4.21778
G1 X148.395 Y133.112 E4.29989
G1 X150.327 Y133.921 E4.36955
G1 X150.881 Y134.161 E4.38963
G1 X151.725 Y134.571 E4.42084
G1 X152.531 Y135.05 E4.45203
G1 X153.293 Y135.597 E4.48322
G1 X154.004 Y136.204 E4.51432
G1 X154.091 Y136.285 E4.51827
G1 X154.277 Y136.463 E4.52683
G1 X154.706 Y136.882 E4.54678
G1 X157.002 Y139.18 E4.65482
G1 X157.564 Y139.757 E4.68161
G1 X158.189 Y140.457 E4.71282
G1 X158.752 Y141.207 E4.74402
G1 X159.248 Y142.003 E4.77521
G1 X159.675 Y142.838 E4.8064
G1 X160.03 Y143.706 E4.83759
G1 X160.309 Y144.601 E4.86877
G1 X160.511 Y145.517 E4.89997
G1 X160.634 Y146.447 E4.93117
G1 X160.673 Y147.089 E4.95257
G1 X160.678 Y147.252 E4.95799
G1 X160.686 Y147.795 E4.97605
G1 X160.687 Y156.21 E5.25594
G1 X160.677 Y157.073 E5.28464
G1 X160.626 Y158.01 E5.31585
G1 X160.494 Y158.938 E5.34703
G1 X160.285 Y159.852 E5.37821
G1 X159.998 Y160.745 E5.40941
G1 X159.636 Y161.611 E5.44063
G1 X159.202 Y162.442 E5.47181
G1 X158.698 Y163.233 E5.50301
G1 X158.129 Y163.978 E5.53419
G1 X157.498 Y164.673 E5.56541
G1 X156.811 Y165.311 E5.59659
G1 X156.072 Y165.888 E5.62778
G1 X155.286 Y166.4 E5.65897
G1 X154.46 Y166.843 E5.69015
G1 X153.598 Y167.215 E5.72138
G1 X152.709 Y167.511 E5.75254
G1 X151.797 Y167.731 E5.78374
G1 X150.87 Y167.872 E5.81493
G1 X149.986 Y167.933 E5.8444
G1 X149.665 Y167.942 E5.85508
G1 X149.357 Y167.946 E5.86533
G1 X74.195 Y167.946 E8.36523
G1 X74.037 Y167.945 E8.37048
G1 X73.339 Y167.935 E8.3937
G1 X72.403 Y167.881 E8.42488
G1 X71.475 Y167.749 E8.45606
G1 X70.561 Y167.537 E8.48726
G1 X69.669 Y167.248 E8.51845
G1 X68.804 Y166.885 E8.54965
G1 X67.974 Y166.449 E8.58083
G1 X67.183 Y165.944 E8.61205
G1 X66.439 Y165.373 E8.64324
G1 X65.746 Y164.741 E8.67444
G1 X65.109 Y164.053 E8.70562
G1 X64.534 Y163.312 E8.73682
G1 X64.023 Y162.526 E8.768
G1 X63.581 Y161.698 E8.79922
G1 X63.212 Y160.836 E8.8304
G1 X62.917 Y159.946 E8.86159
G1 X62.715 Y159.116 E8.89
G1 X62.498 Y158.038 E8.92657
G1 X62.326 Y157.118 E8.9577
G1 X61.79 Y154.653 E9.0416
G1 X61.196 Y152.244 E9.12413
G1 X60.521 Y149.813 E9.20804
G1 X60.135 Y148.572 E9.25127
G1 X59.786 Y147.405 E9.29178
G1 X59.556 Y146.496 E9.32297
G1 X59.404 Y145.57 E9.35418
G1 X59.336 Y144.734 E9.38208
G1 X59.329 Y144.574 E9.3874
G1 X59.319 Y144.218 E9.39925
G1 X59.313 Y143.652 E9.41808
G1 X59.314 Y135.263 E9.69709
G1 X59.325 Y134.545 E9.72098
G1 X59.413 Y133.319 E9.76186
G1 X59.566 Y132.122 E9.802
G1 X59.599 Y131.883 E9.81002
G1 X59.88 Y129.43 E9.89214
G1 X60.095 Y126.935 E9.97543
G1 X60.242 Y124.38 E10.06055
G1 X60.314 Y121.901 E10.14304
G1 X60.317 Y119.371 E10.22719
G1 X60.248 Y116.848 E10.31113
G1 X60.109 Y114.351 E10.39431
G1 X59.898 Y111.828 E10.47852
G1 X59.614 Y109.308 E10.56287
G1 X59.452 Y108.125 E10.60258
G1 X59.426 Y107.92 E10.60946
G1 X59.398 Y107.682 E10.61743
G1 X59.329 Y106.747 E10.64861
G1 X59.338 Y105.816 E10.67958
G1 X59.415 Y104.365 E10.7279
G1 X59.509 Y101.847 E10.81171
G1 X59.533 Y99.286 E10.89689
G1 X59.485 Y96.792 E10.97986
G1 X59.38 Y94.488 E11.05657
G1 X59.341 Y93.816 E11.07896
G1 X59.326 Y93.46 E11.09081
G1 X59.318 Y93.084 E11.10332
G1 X59.316 Y92.596 E11.11955
G1 X59.383 Y82.126 E11.46779
G1 X59.397 Y81.372 E11.49287
G1 X59.431 Y80.697 E11.51535
G1 X59.512 Y79.702 E11.54856
G1 X59.53 Y79.508 E11.55504
G1 X59.835 Y76.438 E11.65765
G1 X59.913 Y75.744 E11.68087
G1 X60.013 Y75.06 E11.70387
G1 X60.222 Y73.887 E11.7435
G1 X60.261 Y73.677 E11.7506
G1 X60.619 Y71.872 E11.8118
G1 X60.803 Y71.001 E11.84141
G1 X60.99 Y70.247 E11.86725
G1 X61.066 Y69.986 E11.87629
G1 X61.231 Y69.44 E11.89526
G1 X61.599 Y68.264 E11.93625
G1 X61.872 Y67.431 E11.9654
G1 X62.076 Y66.863 E11.98548
G1 X62.171 Y66.62 E11.99415
G1 X62.285 Y66.34 E12.00421
G1 X62.458 Y65.931 E12.01898
G1 X62.544 Y65.732 E12.02619
G1 X62.856 Y65.033 E12.05165
G1 X63.118 Y64.487 E12.07179
G1 X63.263 Y64.205 E12.08234
G1 X63.411 Y63.928 E12.09278
G1 X63.606 Y63.574 E12.10623
G1 X64.031 Y62.831 E12.1347
G1 X64.343 Y62.318 E12.15467
G1 X64.489 Y62.093 E12.16359
G1 X64.77 Y61.682 E12.18015
G1 X65.129 Y61.18 E12.20067
G1 X65.351 Y60.88 E12.21309
G1 X65.437 Y60.768 E12.21778
G1 X65.705 Y60.433 E12.23205
G1 X65.888 Y60.213 E12.24157
G1 X66.078 Y59.99 E12.25131
G1 X66.157 Y59.9 E12.2553
G1 X66.341 Y59.696 E12.26443
G0 F6000 X66.635 Y59.967
G1 F1200 X66.779 Y59.811 E12.2715
G1 X67.002 Y59.577 E12.28225
G1 X67.369 Y59.203 E12.29967
G1 X67.722 Y58.859 E12.31607
G1 X67.792 Y58.794 E12.31925
G1 X68.055 Y58.558 E12.331
G1 X68.508 Y58.166 E12.35092
G1 X68.864 Y57.865 E12.36643
G1 X69.381 Y57.439 E12.38871
G1 X69.858 Y57.069 E12.40879
G1 X70.101 Y56.891 E12.41881
G1 X70.331 Y56.727 E12.4282
G1 X70.708 Y56.466 E12.44345
G1 X70.855 Y56.366 E12.44937
G1 X71.436 Y55.978 E12.4726
G1 X71.964 Y55.647 E12.49333
G1 X72.191 Y55.514 E12.50208
G1 X72.487 Y55.346 E12.5134
G1 X72.801 Y55.174 E12.52531
G1 X73.489 Y54.81 E12.5512
G1 X74.021 Y54.548 E12.57092
G1 X74.392 Y54.378 E12.58449
G1 X74.678 Y54.252 E12.59489
G1 X74.914 Y54.153 E12.6034
G1 X75.383 Y53.962 E12.62024
G1 X76.026 Y53.724 E12.64305
G1 X76.925 Y53.424 E12.67457
G1 X77.254 Y53.32 E12.68605
G1 X77.442 Y53.264 E12.69257
G1 X78.086 Y53.094 E12.71472
G1 X78.81 Y52.927 E12.73944
G1 X79.164 Y52.852 E12.75147
G1 X79.323 Y52.821 E12.75686
G1 X79.966 Y52.716 E12.77853
G1 X80.907 Y52.592 E12.8101
G1 X81.303 Y52.547 E12.82335
G1 X81.399 Y52.538 E12.82656
G1 X82.038 Y52.498 E12.84785
G1 X82.885 Y52.47 E12.87604
G1 X83.268 Y52.464 E12.88878
G1 X83.95 Y52.486 E12.91148
G1 X84.756 Y52.538 E12.93834
G1 X85.165 Y52.572 E12.95199
G1 X85.368 Y52.593 E12.95878
G1 X86.119 Y52.698 E12.984
G1 X86.357 Y52.74 E12.99204
G1 X86.721 Y52.811 E13.00437
G1 X86.956 Y52.861 E13.01236
G1 X87.847 Y53.092 E13.04298
G1 X88.715 Y53.399 E13.0736
G1 X89.553 Y53.78 E13.10422
G1 X90.355 Y54.232 E13.13484
G1 X91.115 Y54.752 E13.16547
G1 X91.826 Y55.337 E13.19609
G1 X92.484 Y55.98 E13.22669
G1 X93.084 Y56.679 E13.25733
G1 X93.621 Y57.427 E13.28795
G1 X94.091 Y58.218 E13.31856
G1 X94.491 Y59.048 E13.3492
G1 X94.817 Y59.909 E13.37982
G1 X95.067 Y60.795 E13.41044
G1 X95.245 Y61.742 E13.44249
G1 X95.319 Y62.272 E13.46029
G1 X95.552 Y64.106 E13.52178
G1 X95.942 Y66.606 E13.60593
G1 X96.397 Y69.064 E13.68908
G1 X96.938 Y71.585 E13.77483
G1 X97.526 Y73.994 E13.85731
G1 X98.199 Y76.446 E13.94188
G1 X98.937 Y78.863 E14.02593
G1 X99.754 Y81.292 E14.11117
G1 X100.615 Y83.633 E14.19413
G1 X101.553 Y85.976 E14.27807
G1 X102.581 Y88.343 E14.3639
G1 X103.631 Y90.588 E14.44634
G1 X104.772 Y92.858 E14.53084
G1 X105.974 Y95.089 E14.61513
G1 X107.227 Y97.265 E14.69864
G1 X108.568 Y99.449 E14.78388
G1 X109.93 Y101.534 E14.86671
G1 X111.384 Y103.623 E14.95137
G1 X112.882 Y105.654 E15.03531
G1 X114.431 Y107.636 E15.11897
G1 X116.07 Y109.613 E15.20438
G1 X117.713 Y111.485 E15.28723
G1 X119.456 Y113.36 E15.37237
G1 X121.211 Y115.146 E15.45566
G1 X123.05 Y116.912 E15.54046
G1 X124.912 Y118.603 E15.62411
G1 X126.814 Y120.236 E15.70749
G1 X128.785 Y121.832 E15.79185
G1 X130.814 Y123.382 E15.87677
G1 X132.851 Y124.849 E15.96026
G1 X134.952 Y126.273 E16.04468
G1 X137.081 Y127.63 E16.12865
G1 X139.269 Y128.939 E16.21345
G1 X141.466 Y130.171 E16.29723
G1 X143.676 Y131.33 E16.38023
G1 X145.985 Y132.458 E16.4657
G1 X148.253 Y133.486 E16.54852
G1 X150.168 Y134.288 E16.61758
G1 X150.722 Y134.528 E16.63766
G1 X151.55 Y134.931 E16.66829
G1 X152.34 Y135.403 E16.69889
G1 X153.086 Y135.943 E16.72952
G1 X153.731 Y136.497 E16.7578
G1 X153.998 Y136.749 E16.77001
G1 X154.423 Y137.165 E16.78979
G1 X156.719 Y139.463 E16.89784
G1 X157.277 Y140.036 E16.92444
G1 X157.89 Y140.724 E16.95509
G1 X158.441 Y141.461 E16.98569
G1 X158.925 Y142.244 E17.01631
G1 X159.34 Y143.066 E17.04694
G1 X159.682 Y143.921 E17.07757
G1 X159.948 Y144.802 E17.10817
G1 X160.137 Y145.703 E17.13879
G1 X160.247 Y146.617 E17.16941
G1 X160.273 Y147.101 E17.18553
G1 X160.282 Y147.463 E17.19758
G1 X160.287 Y147.926 E17.21298
G1 X160.286 Y156.341 E17.49286
G1 X160.277 Y157.068 E17.51704
G1 X160.226 Y157.987 E17.54766
G1 X160.095 Y158.899 E17.5783
G1 X159.885 Y159.795 E17.60891
G1 X159.599 Y160.67 E17.63953
G1 X159.238 Y161.517 E17.67015
G1 X158.804 Y162.329 E17.70077
G1 X158.302 Y163.101 E17.7314
G1 X157.734 Y163.826 E17.76204
G1 X157.106 Y164.499 E17.79265
G1 X156.422 Y165.115 E17.82327
G1 X155.687 Y165.669 E17.85388
G1 X154.907 Y166.158 E17.8845
G1 X154.087 Y166.577 E17.91513
G1 X153.234 Y166.923 E17.94574
G1 X152.354 Y167.194 E17.97637
G1 X151.454 Y167.387 E18.00698
G1 X150.54 Y167.502 E18.03762
G1 X149.975 Y167.533 E18.05644
G1 X149.654 Y167.542 E18.06712
G1 X149.357 Y167.546 E18.077
G1 X74.195 Y167.546 E20.5769
G1 X73.345 Y167.535 E20.60517
G1 X72.426 Y167.482 E20.63579
G1 X71.515 Y167.349 E20.66641
G1 X70.619 Y167.138 E20.69703
G1 X69.745 Y166.85 E20.72764
G1 X68.898 Y166.487 E20.75828
G1 X68.087 Y166.052 E20.78889
G1 X67.317 Y165.548 E20.8195
G1 X66.593 Y164.979 E20.85013
G1 X65.921 Y164.349 E20.88077
G1 X65.306 Y163.664 E20.91139
G1 X64.753 Y162.928 E20.942
G1 X64.266 Y162.147 E20.97262
G1 X63.849 Y161.326 E21.00324
G1 X63.504 Y160.472 E21.03388
G1 X63.235 Y159.592 E21.06448
G1 X63.107 Y159.036 E21.08346
G1 X62.891 Y157.964 E21.11983
G1 X62.716 Y157.031 E21.1514
G1 X62.183 Y154.578 E21.2349
G1 X61.583 Y152.147 E21.31818
G1 X60.908 Y149.713 E21.40219
G1 X60.518 Y148.457 E21.44593
G1 X60.169 Y147.29 E21.48644
G1 X59.944 Y146.397 E21.51707
G1 X59.797 Y145.489 E21.54767
G1 X59.735 Y144.716 E21.57346
G1 X59.728 Y144.556 E21.57879
G1 X59.719 Y144.213 E21.5902
G1 X59.713 Y143.652 E21.60886
G1 X59.714 Y135.27 E21.88764
G1 X59.725 Y134.552 E21.91153
G1 X59.81 Y133.37 E21.95094
G1 X59.992 Y131.956 E21.99836
G1 X60.277 Y129.47 E22.08159
G1 X60.497 Y126.924 E22.16658
G1 X60.64 Y124.449 E22.24904
G1 X60.714 Y121.878 E22.33459
G1 X60.717 Y119.36 E22.41834
G1 X60.649 Y116.851 E22.50182
G1 X60.506 Y114.294 E22.58699
G1 X60.296 Y111.786 E22.6707
G1 X60.011 Y109.254 E22.75545
G1 X59.849 Y108.071 E22.79516
G1 X59.796 Y107.636 E22.80974
G1 X59.728 Y106.717 E22.84039
G1 X59.738 Y105.837 E22.86966
G1 X59.811 Y104.466 E22.91532
G1 X59.909 Y101.83 E23.00306
G1 X59.933 Y99.282 E23.08781
G1 X59.885 Y96.767 E23.17147
G1 X59.782 Y94.524 E23.24615
G1 X59.74 Y93.793 E23.27051
G1 X59.725 Y93.45 E23.28193
G1 X59.721 Y93.294 E23.28712
G1 X59.718 Y93.082 E23.29417
G1 X59.716 Y92.598 E23.31027
G1 X59.783 Y82.128 E23.65851
G1 X59.797 Y81.38 E23.68339
G1 X59.83 Y80.73 E23.70504
G1 X59.911 Y79.735 E23.73824
G1 X59.928 Y79.547 E23.74452
G1 X60.249 Y76.324 E23.85225
G1 X60.31 Y75.789 E23.87016
G1 X60.406 Y75.131 E23.89227
G1 X60.615 Y73.958 E23.9319
G1 X60.654 Y73.755 E23.93878
G1 X61.039 Y71.816 E24.00453
G1 X61.194 Y71.084 E24.02941
G1 X61.375 Y70.358 E24.0543
G1 X61.449 Y70.101 E24.06319
G1 X61.613 Y69.559 E24.08203
G1 X61.981 Y68.383 E24.12301
G1 X62.252 Y67.556 E24.15196
G1 X62.449 Y67.008 E24.17133
G1 X62.544 Y66.765 E24.18
G1 X62.653 Y66.496 E24.18966
G1 X62.826 Y66.087 E24.20443
G1 X62.909 Y65.896 E24.21135
G1 X63.221 Y65.197 E24.23681
G1 X63.474 Y64.67 E24.25626
G1 X63.619 Y64.388 E24.2668
G1 X63.761 Y64.121 E24.27686
G1 X63.956 Y63.767 E24.2903
G1 X64.047 Y63.605 E24.29648
G1 X64.377 Y63.03 E24.31854
G1 X64.679 Y62.536 E24.33779
G1 X64.825 Y62.311 E24.34671
G1 X65.095 Y61.915 E24.36265
G1 X65.454 Y61.413 E24.38318
G1 X65.669 Y61.123 E24.39519
G1 X65.755 Y61.011 E24.39989
G1 X66.013 Y60.688 E24.41363
G1 X66.196 Y60.468 E24.42315
G1 X66.379 Y60.254 E24.43252
G1 X66.635 Y59.967 E24.44531
G0 F6000 X66.929 Y60.239
G1 F1200 X67.073 Y60.083 E24.45237
G1 X67.288 Y59.857 E24.46275
G1 X67.655 Y59.483 E24.48017
G1 X67.994 Y59.153 E24.49591
G1 X68.064 Y59.088 E24.49909
G1 X68.317 Y58.86 E24.51041
G1 X68.674 Y58.55 E24.52614
G1 X69.119 Y58.174 E24.54552
G1 X69.636 Y57.748 E24.5678
G1 X70.094 Y57.391 E24.58711
G1 X70.337 Y57.213 E24.59713
G1 X70.559 Y57.056 E24.60617
G1 X71.077 Y56.699 E24.6271
G1 X71.658 Y56.311 E24.65033
G1 X72.167 Y55.992 E24.67031
G1 X72.394 Y55.859 E24.67906
G1 X72.683 Y55.695 E24.69012
G1 X73.119 Y55.457 E24.70664
G1 X73.676 Y55.163 E24.72759
G1 X74.188 Y54.911 E24.74657
G1 X74.559 Y54.741 E24.76014
G1 X74.834 Y54.62 E24.77013
G1 X75.065 Y54.523 E24.77846
G1 X75.534 Y54.332 E24.79531
G1 X76.152 Y54.104 E24.81722
G1 X77.051 Y53.804 E24.84874
G1 X77.368 Y53.703 E24.8598
G1 X77.556 Y53.647 E24.86633
G1 X78.175 Y53.484 E24.88762
G1 X78.899 Y53.317 E24.91233
G1 X79.24 Y53.245 E24.92392
G1 X79.399 Y53.214 E24.92931
G1 X80.018 Y53.112 E24.95018
G1 X80.959 Y52.988 E24.98174
G1 X81.34 Y52.946 E24.99449
G1 X81.436 Y52.937 E24.9977
