;FLAVOR:Marlin
;TIME:402
;Filament used: 0.243531m
;Layer height: 0.2
;MINX:81.083
;MINY:83.055
;MINZ:0.2
;MAXX:138.918
;MAXY:136.95
;MAXZ:1
;Generated with Cura_SteamEngine master
M140 S60
M105
M190 S60
M104 S200
M105
M109 S200
M82 ;absolute extrusion mode
; Ender 3 Custom Start G-code
G92 E0 ; Reset Extruder
G28 ; Home all axes
G1 Z2.0 F3000 ; Move Z Axis up little to prevent scratching of Heat Bed
G1 X0.1 Y20 Z0.3 F5000.0 ; Move to start position
G1 X0.1 Y200.0 Z0.3 F1500.0 E15 ; Draw the first line
G1 X0.4 Y200.0 Z0.3 F5000.0 ; Move to side a little
G1 X0.4 Y20 Z0.3 F1500.0 E30 ; Draw the second line
G92 E0 ; Reset Extruder
G1 Z2.0 F3000 ; Move Z Axis up little to prevent scratching of Heat Bed
G1 X5 Y20 Z0.3 F5000.0 ; Move over to prevent blob squish
G92 E0
G92 E0
G1 F1500 E-6.5
;LAYER_COUNT:5
;LAYER:0
M107
G0 F6000 X88.557 Y90.406 Z0.2
;TYPE:SKIRT
G1 F1500 E0
G1 F1200 X89.015 Y89.967 E0.0211
G1 X89.498 Y89.531 E0.04274
G1 X90.035 Y89.074 E0.0662
G1 X90.301 Y88.854 E0.07768
G1 X90.658 Y88.569 E0.09287
G1 X91.162 Y88.19 E0.11384
G1 X91.817 Y87.726 E0.14054
G1 X92.105 Y87.529 E0.15215
G1 X92.581 Y87.214 E0.17113
G1 X92.849 Y87.042 E0.18172
G1 X93.039 Y86.924 E0.18916
G1 X93.315 Y86.758 E0.19987
G1 X93.575 Y86.608 E0.20986
G1 X94.01 Y86.366 E0.22641
G1 X94.289 Y86.217 E0.23693
G1 X94.809 Y85.947 E0.25642
G1 X95.104 Y85.799 E0.2674
G1 X95.461 Y85.627 E0.28058
G1 X95.771 Y85.483 E0.29195
G1 X96.003 Y85.38 E0.30039
G1 X96.266 Y85.268 E0.3099
G1 X96.658 Y85.106 E0.32401
G1 X96.832 Y85.036 E0.33024
G1 X97.409 Y84.809 E0.35087
G1 X98.046 Y84.581 E0.37337
G1 X98.938 Y84.292 E0.40456
G1 X99.258 Y84.193 E0.4157
G1 X99.898 Y84.007 E0.43786
G1 X100.511 Y83.848 E0.45893
G1 X101.244 Y83.68 E0.48394
G1 X101.555 Y83.613 E0.49452
G1 X102.274 Y83.47 E0.5189
G1 X102.688 Y83.396 E0.53289
G1 X102.969 Y83.352 E0.54235
G1 X103.566 Y83.268 E0.5624
G1 X103.944 Y83.219 E0.57508
G1 X104.782 Y83.122 E0.60314
G1 X105.717 Y83.055 E0.63432
G1 X106.653 Y83.067 E0.66545
G1 X107.418 Y83.111 E0.69094
G1 X108.869 Y83.211 E0.73931
G1 X111.405 Y83.315 E0.82373
G1 X113.898 Y83.347 E0.90665
G1 X114.351 Y83.34 E0.92172
G1 X115.559 Y83.338 E0.9619
G1 X116.496 Y83.377 E0.99309
G1 X117.132 Y83.45 E1.01439
G1 X117.968 Y83.57 E1.04248
G1 X118.263 Y83.616 E1.05241
G1 X118.829 Y83.713 E1.07151
G1 X119.529 Y83.857 E1.09528
G1 X120.424 Y84.071 E1.12588
G1 X120.765 Y84.158 E1.13759
G1 X121.186 Y84.273 E1.1521
G1 X121.823 Y84.468 E1.17426
G1 X122.642 Y84.746 E1.20303
G1 X122.966 Y84.861 E1.21446
G1 X123.377 Y85.015 E1.22906
G1 X123.626 Y85.112 E1.23795
G1 X123.847 Y85.201 E1.24587
G1 X124.393 Y85.438 E1.26567
G1 X124.742 Y85.601 E1.27848
G1 X125.021 Y85.737 E1.2888
G1 X125.553 Y86.004 E1.3086
G1 X125.876 Y86.173 E1.32073
G1 X126.148 Y86.321 E1.33103
G1 X126.33 Y86.422 E1.33795
G1 X126.497 Y86.517 E1.34434
G1 X126.821 Y86.708 E1.35685
G1 X127.073 Y86.863 E1.36669
G1 X127.78 Y87.316 E1.39462
G1 X128.326 Y87.69 E1.41663
G1 X129.03 Y88.205 E1.44564
G1 X129.298 Y88.407 E1.4568
G1 X129.62 Y88.658 E1.47038
G1 X130.149 Y89.098 E1.49327
G1 X130.655 Y89.546 E1.51574
G1 X130.884 Y89.755 E1.52606
G1 X131.28 Y90.126 E1.5441
G1 X131.571 Y90.409 E1.5576
G1 X131.686 Y90.525 E1.56304
G1 X131.959 Y90.81 E1.57616
G1 X132.209 Y91.081 E1.58843
G1 X132.443 Y91.343 E1.60011
G1 X132.86 Y91.825 E1.62131
G1 X133.114 Y92.13 E1.63451
G1 X133.278 Y92.334 E1.64322
G1 X133.42 Y92.515 E1.65087
G1 X133.564 Y92.702 E1.65872
G1 X133.762 Y92.966 E1.66969
G1 X133.992 Y93.284 E1.68275
G1 X134.124 Y93.471 E1.69036
G1 X134.468 Y93.968 E1.71046
G1 X134.849 Y94.558 E1.73382
G1 X135.323 Y95.346 E1.76441
G1 X135.497 Y95.646 E1.77594
G1 X135.723 Y96.05 E1.79134
G1 X136.022 Y96.622 E1.81281
G1 X136.338 Y97.274 E1.83691
G1 X136.48 Y97.58 E1.84813
G1 X136.705 Y98.083 E1.86645
G1 X136.834 Y98.382 E1.87728
G1 X136.967 Y98.714 E1.88918
G1 X137.159 Y99.216 E1.90706
G1 X137.261 Y99.493 E1.91687
G1 X137.474 Y100.098 E1.93821
G1 X137.664 Y100.693 E1.95898
G1 X137.875 Y101.422 E1.98422
G1 X137.961 Y101.735 E1.99502
G1 X138.129 Y102.387 E2.01741
G1 X138.269 Y103.005 E2.03849
G1 X138.444 Y103.893 E2.06859
G1 X138.507 Y104.242 E2.08039
G1 X138.612 Y104.883 E2.10199
G1 X138.652 Y105.143 E2.11074
G1 X138.68 Y105.344 E2.11749
G1 X138.722 Y105.685 E2.12892
G1 X138.76 Y106.038 E2.14073
G1 X138.783 Y106.28 E2.14881
G1 X138.816 Y106.667 E2.16173
G1 X138.842 Y107.043 E2.17427
G1 X138.896 Y108.104 E2.2096
G1 X138.908 Y108.467 E2.22168
G1 X138.916 Y108.916 E2.23662
G1 X138.918 Y109.214 E2.24653
G1 X138.916 Y109.429 E2.25368
G1 X138.91 Y109.68 E2.26203
G1 X138.897 Y110.084 E2.27547
G1 X138.87 Y110.706 E2.29618
G1 X138.821 Y111.555 E2.32447
G1 X138.765 Y112.191 E2.3457
G1 X138.655 Y113.127 E2.37705
G1 X138.611 Y113.459 E2.38819
G1 X138.518 Y114.085 E2.40924
G1 X138.404 Y114.721 E2.43073
G1 X138.202 Y115.687 E2.46355
G1 X138.124 Y116.032 E2.47531
G1 X137.969 Y116.67 E2.49715
G1 X137.889 Y116.982 E2.50786
G1 X137.791 Y117.326 E2.51976
G1 X137.654 Y117.78 E2.53553
G1 X137.559 Y118.081 E2.54603
G1 X137.372 Y118.642 E2.5657
G1 X137.277 Y118.913 E2.57525
G1 X137.178 Y119.186 E2.58491
G1 X137.07 Y119.473 E2.59511
G1 X137.027 Y119.582 E2.59901
G1 X136.645 Y120.5 E2.63208
G1 X136.403 Y121.039 E2.65173
G1 X136.127 Y121.609 E2.67279
G1 X135.971 Y121.922 E2.68442
G1 X135.689 Y122.471 E2.70495
G1 X135.361 Y123.063 E2.72746
G1 X134.903 Y123.834 E2.75729
G1 X134.732 Y124.113 E2.76817
G1 X134.431 Y124.587 E2.78685
G1 X134.051 Y125.146 E2.80933
G1 X133.553 Y125.833 E2.83755
G1 X133.338 Y126.12 E2.84948
G1 X132.978 Y126.584 E2.86901
G1 X132.581 Y127.066 E2.88978
G1 X132.243 Y127.454 E2.9069
G1 X132.067 Y127.651 E2.91568
G1 X131.651 Y128.106 E2.93619
G1 X131.357 Y128.417 E2.95042
G1 X131.142 Y128.631 E2.96051
G1 X130.86 Y128.907 E2.97363
G1 X130.654 Y129.104 E2.98311
G1 X130.173 Y129.551 E3.00495
G1 X129.704 Y129.963 E3.02572
G1 X129.161 Y130.413 E3.04917
G1 X128.93 Y130.599 E3.05904
G1 X128.383 Y131.028 E3.08216
G1 X127.861 Y131.413 E3.10373
G1 X127.203 Y131.869 E3.13036
G1 X126.94 Y132.046 E3.1409
G1 X126.444 Y132.369 E3.16059
G1 X125.876 Y132.715 E3.18271
G1 X125.063 Y133.177 E3.21381
G1 X124.778 Y133.333 E3.22462
G1 X124.157 Y133.662 E3.24799
G1 X123.879 Y133.804 E3.25838
G1 X123.628 Y133.928 E3.26769
G1 X123.404 Y134.036 E3.27596
G1 X123.256 Y134.105 E3.28139
G1 X122.986 Y134.226 E3.29123
G1 X122.442 Y134.462 E3.31095
G1 X122.149 Y134.584 E3.32151
G1 X121.514 Y134.838 E3.34426
G1 X121.213 Y134.954 E3.35498
G1 X120.719 Y135.135 E3.37248
G1 X120.381 Y135.252 E3.38438
G1 X120 Y135.376 E3.39771
G1 X119.654 Y135.483 E3.40975
G1 X119.06 Y135.661 E3.43038
G1 X118.878 Y135.714 E3.43668
G1 X118.273 Y135.884 E3.45758
G1 X117.66 Y136.037 E3.4786
G1 X116.696 Y136.249 E3.51143
G1 X116.297 Y136.331 E3.52497
G1 X116.132 Y136.363 E3.53056
G1 X115.401 Y136.499 E3.55529
G1 X114.784 Y136.596 E3.57607
G1 X113.891 Y136.709 E3.60601
G1 X113.479 Y136.755 E3.61979
G1 X112.706 Y136.832 E3.64563
G1 X112.4 Y136.858 E3.65585
G1 X112.218 Y136.871 E3.66192
G1 X111.939 Y136.887 E3.67121
G1 X111.582 Y136.903 E3.6831
G1 X110.748 Y136.933 E3.71085
G1 X110.08 Y136.948 E3.73308
G1 X109.72 Y136.95 E3.74505
G1 X109.37 Y136.944 E3.75669
G1 X108.747 Y136.923 E3.77743
G1 X108.034 Y136.892 E3.80116
G1 X107.202 Y136.845 E3.82888
G1 X106.547 Y136.788 E3.85075
G1 X105.701 Y136.689 E3.87908
G1 X105.516 Y136.666 E3.88528
G1 X104.995 Y136.595 E3.90277
G1 X104.33 Y136.496 E3.92513
G1 X104.07 Y136.454 E3.93389
G1 X103.669 Y136.38 E3.94745
G1 X103.103 Y136.264 E3.96667
G1 X102.614 Y136.156 E3.98332
G1 X101.893 Y135.987 E4.00795
G1 X101.311 Y135.834 E4.02797
G1 X100.693 Y135.653 E4.04939
G1 X100.205 Y135.502 E4.06638
G1 X99.477 Y135.267 E4.09182
G1 X98.881 Y135.055 E4.11286
G1 X98.187 Y134.786 E4.13762
G1 X97.853 Y134.652 E4.14959
G1 X97.136 Y134.35 E4.17546
G1 X96.556 Y134.084 E4.19668
G1 X95.676 Y133.65 E4.22932
G1 X95.365 Y133.491 E4.24094
G1 X94.84 Y133.211 E4.26073
G1 X94.258 Y132.878 E4.28303
G1 X93.506 Y132.416 E4.31238
G1 X93.234 Y132.243 E4.32311
G1 X92.7 Y131.893 E4.34434
G1 X92.414 Y131.699 E4.35584
G1 X92.173 Y131.53 E4.36563
G1 X91.811 Y131.265 E4.38055
G1 X91.383 Y130.938 E4.39846
G1 X91.13 Y130.727 E4.40942
G1 X91.125 Y130.733 E4.40968
G1 X90.629 Y130.33 E4.43093
G1 X90.358 Y130.102 E4.44271
G1 X90.011 Y129.801 E4.45799
G1 X89.817 Y129.629 E4.46662
G1 X89.651 Y129.478 E4.47408
G1 X89.427 Y129.269 E4.48427
G1 X89.243 Y129.092 E4.49276
G1 X89.048 Y128.899 E4.50189
G1 X88.507 Y128.352 E4.52747
G1 X88.067 Y127.88 E4.54894
G1 X87.572 Y127.317 E4.57387
G1 X87.375 Y127.087 E4.58394
G1 X87.059 Y126.707 E4.60038
G1 X86.626 Y126.151 E4.62382
G1 X86.1 Y125.429 E4.65353
G1 X85.907 Y125.155 E4.66468
G1 X85.554 Y124.638 E4.6855
G1 X85.217 Y124.113 E4.70625
G1 X84.909 Y123.602 E4.72609
G1 X84.752 Y123.334 E4.73642
G1 X84.456 Y122.81 E4.75644
G1 X84.302 Y122.526 E4.76719
G1 X84.233 Y122.395 E4.77211
G1 X84.103 Y122.141 E4.7816
G1 X83.896 Y121.722 E4.79714
G1 X83.788 Y121.498 E4.80541
G1 X83.478 Y120.833 E4.82982
G1 X83.23 Y120.259 E4.85062
G1 X82.984 Y119.642 E4.87271
G1 X82.867 Y119.334 E4.88367
G1 X82.652 Y118.744 E4.90455
G1 X82.445 Y118.119 E4.92645
G1 X82.167 Y117.186 E4.95883
G1 X82.072 Y116.848 E4.97051
G1 X81.936 Y116.332 E4.98826
G1 X81.786 Y115.684 E5.01038
G1 X81.587 Y114.688 E5.04416
G1 X81.522 Y114.334 E5.05613
G1 X81.406 Y113.635 E5.0797
G1 X81.354 Y113.288 E5.09137
G1 X81.34 Y113.183 E5.09489
G1 X81.311 Y112.939 E5.10306
G1 X81.249 Y112.379 E5.1218
G1 X81.221 Y112.096 E5.13126
G1 X81.188 Y111.706 E5.14428
G1 X81.163 Y111.336 E5.15661
G1 X81.106 Y110.211 E5.19408
G1 X81.094 Y109.844 E5.20629
G1 X81.084 Y109.266 E5.22552
G1 X81.083 Y108.954 E5.2359
G1 X81.085 Y108.773 E5.24192
G1 X81.091 Y108.5 E5.251
G1 X81.104 Y108.132 E5.26325
G1 X81.123 Y107.675 E5.27846
G1 X81.132 Y107.496 E5.28442
G1 X81.172 Y106.805 E5.30744
G1 X81.228 Y106.167 E5.32874
G1 X81.334 Y105.258 E5.35918
G1 X81.38 Y104.909 E5.37089
G1 X81.485 Y104.205 E5.39456
G1 X81.591 Y103.611 E5.41463
G1 X81.713 Y103.018 E5.43477
G1 X81.784 Y102.694 E5.4458
G1 X81.93 Y102.079 E5.46682
G1 X82.083 Y101.506 E5.48655
G1 X82.284 Y100.825 E5.51017
G1 X82.379 Y100.518 E5.52086
G1 X82.557 Y99.974 E5.53989
G1 X82.785 Y99.343 E5.56221
G1 X83.098 Y98.553 E5.59047
G1 X83.235 Y98.225 E5.60229
G1 X83.426 Y97.785 E5.61825
G1 X83.703 Y97.194 E5.63996
G1 X84.087 Y96.436 E5.66822
G1 X84.255 Y96.118 E5.68018
G1 X84.476 Y95.715 E5.69547
G1 X84.804 Y95.156 E5.71702
G1 X85.207 Y94.514 E5.74223
G1 X85.408 Y94.206 E5.75447
G1 X85.693 Y93.784 E5.7714
G1 X85.875 Y93.522 E5.78201
G1 X86 Y93.348 E5.78914
G1 X86.295 Y92.957 E5.80543
G1 X86.548 Y92.636 E5.81903
G1 X86.768 Y92.366 E5.83061
G1 X87.196 Y91.857 E5.85273
G1 X87.42 Y91.598 E5.86412
G1 X87.634 Y91.359 E5.87479
G1 X87.903 Y91.069 E5.88794
G1 X88.105 Y90.858 E5.89766
G1 X88.342 Y90.618 E5.90888
G1 X88.557 Y90.406 E5.91892
G0 F6000 X88.834 Y90.695
G1 F1200 X89.292 Y90.256 E5.94002
G1 X89.757 Y89.836 E5.96086
G1 X90.294 Y89.379 E5.98431
G1 X90.551 Y89.167 E5.9954
G1 X90.908 Y88.882 E6.01059
G1 X91.394 Y88.516 E6.03082
G1 X92.049 Y88.052 E6.05752
G1 X92.326 Y87.862 E6.06869
G1 X92.802 Y87.547 E6.08768
G1 X93.06 Y87.382 E6.09786
G1 X93.25 Y87.264 E6.1053
G1 X93.519 Y87.102 E6.11575
G1 X93.77 Y86.958 E6.12537
G1 X94.205 Y86.716 E6.14193
G1 X94.473 Y86.572 E6.15205
G1 X94.993 Y86.302 E6.17154
G1 X95.277 Y86.16 E6.1821
G1 X95.634 Y85.988 E6.19528
G1 X95.934 Y85.849 E6.20627
G1 X96.166 Y85.746 E6.21472
G1 X96.418 Y85.638 E6.22383
G1 X96.978 Y85.408 E6.24397
G1 X97.555 Y85.181 E6.26459
G1 X98.169 Y84.961 E6.28629
G1 X99.061 Y84.672 E6.31747
G1 X99.37 Y84.577 E6.32822
G1 X100.01 Y84.391 E6.35039
G1 X100.6 Y84.238 E6.37066
G1 X101.333 Y84.07 E6.39568
G1 X101.633 Y84.006 E6.40588
G1 X102.352 Y83.863 E6.43026
G1 X102.66 Y83.806 E6.44068
G1 X103.025 Y83.748 E6.45297
G1 X103.617 Y83.665 E6.47285
G1 X104.148 Y83.597 E6.49066
G1 X104.827 Y83.519 E6.51339
G1 X105.746 Y83.454 E6.54403
G1 X106.631 Y83.467 E6.57347
G1 X107.39 Y83.51 E6.59876
G1 X108.859 Y83.611 E6.64773
G1 X111.384 Y83.715 E6.73178
G1 X113.899 Y83.747 E6.81544
G1 X114.508 Y83.739 E6.8357
G1 X115.559 Y83.738 E6.87065
G1 X116.479 Y83.777 E6.90128
G1 X117.075 Y83.846 E6.92124
G1 X117.911 Y83.966 E6.94933
G1 X118.196 Y84.01 E6.95892
G1 X118.762 Y84.107 E6.97802
G1 X119.436 Y84.246 E7.00091
G1 X120.331 Y84.46 E7.03151
G1 X120.659 Y84.544 E7.04278
G1 X121.08 Y84.659 E7.05729
G1 X121.694 Y84.846 E7.07864
G1 X122.513 Y85.124 E7.10741
G1 X122.825 Y85.236 E7.11843
G1 X123.236 Y85.39 E7.13303
G1 X123.477 Y85.483 E7.14162
G1 X123.698 Y85.572 E7.14955
G1 X124.224 Y85.801 E7.16863
G1 X124.573 Y85.964 E7.18144
G1 X124.842 Y86.094 E7.19137
G1 X125.374 Y86.361 E7.21117
G1 X125.685 Y86.524 E7.22285
G1 X126.132 Y86.769 E7.2398
G1 X126.299 Y86.864 E7.2462
G1 X126.611 Y87.049 E7.25826
G1 X126.863 Y87.204 E7.2681
G1 X127.043 Y87.317 E7.27517
G1 X127.564 Y87.652 E7.29577
G1 X128.089 Y88.013 E7.31696
G1 X128.793 Y88.528 E7.34597
G1 X129.052 Y88.723 E7.35676
G1 X129.374 Y88.974 E7.37033
G1 X129.884 Y89.398 E7.39239
G1 X130.39 Y89.846 E7.41487
G1 X130.61 Y90.046 E7.42476
G1 X131.006 Y90.417 E7.44281
G1 X131.287 Y90.69 E7.45584
G1 X131.402 Y90.806 E7.46127
G1 X131.665 Y91.082 E7.47395
G1 X131.915 Y91.353 E7.48622
G1 X132.14 Y91.605 E7.49745
G1 X132.557 Y92.087 E7.51865
G1 X132.802 Y92.38 E7.53135
G1 X132.966 Y92.584 E7.54006
G1 X133.247 Y92.946 E7.5553
G1 X133.438 Y93.201 E7.5659
G1 X133.668 Y93.519 E7.57895
G1 X133.795 Y93.698 E7.58625
G1 X134.139 Y94.195 E7.60635
G1 X134.506 Y94.764 E7.62887
G1 X134.98 Y95.552 E7.65946
G1 X135.148 Y95.841 E7.67058
G1 X135.374 Y96.245 E7.68597
G1 X135.662 Y96.797 E7.70668
G1 X135.978 Y97.449 E7.73078
G1 X136.115 Y97.744 E7.7416
G1 X136.34 Y98.247 E7.75993
G1 X136.465 Y98.537 E7.77043
G1 X136.594 Y98.857 E7.78191
G1 X136.786 Y99.359 E7.79978
G1 X136.883 Y99.626 E7.80923
G1 X137.096 Y100.231 E7.83056
G1 X137.28 Y100.804 E7.85058
G1 X137.491 Y101.533 E7.87582
G1 X137.574 Y101.835 E7.88624
G1 X137.742 Y102.487 E7.90863
G1 X137.877 Y103.082 E7.92893
G1 X138.052 Y103.97 E7.95903
G1 X138.113 Y104.306 E7.97039
G1 X138.218 Y104.947 E7.99199
G1 X138.256 Y105.199 E8.00047
G1 X138.284 Y105.4 E8.00722
G1 X138.324 Y105.727 E8.01817
G1 X138.362 Y106.08 E8.02998
G1 X138.385 Y106.314 E8.0378
G1 X138.418 Y106.701 E8.05072
G1 X138.442 Y107.063 E8.06279
G1 X138.496 Y108.124 E8.09812
G1 X138.508 Y108.474 E8.10977
G1 X138.516 Y108.923 E8.12471
G1 X138.518 Y109.211 E8.13429
G1 X138.516 Y109.426 E8.14144
G1 X138.511 Y109.668 E8.14949
G1 X138.497 Y110.067 E8.16277
G1 X138.462 Y110.853 E8.18893
G1 X138.422 Y111.531 E8.21152
G1 X138.368 Y112.144 E8.23199
G1 X138.258 Y113.08 E8.26334
G1 X138.215 Y113.401 E8.27411
G1 X138.122 Y114.027 E8.29516
G1 X138.013 Y114.639 E8.31583
G1 X137.811 Y115.605 E8.34866
G1 X137.735 Y115.937 E8.35999
G1 X137.58 Y116.575 E8.38182
G1 X137.502 Y116.879 E8.39226
G1 X137.408 Y117.21 E8.40371
G1 X137.271 Y117.664 E8.41948
G1 X137.179 Y117.954 E8.4296
G1 X136.992 Y118.515 E8.44927
G1 X136.901 Y118.777 E8.45849
G1 X136.802 Y119.05 E8.46815
G1 X136.697 Y119.326 E8.47797
G1 X136.575 Y119.63 E8.48887
G1 X136.276 Y120.346 E8.51467
G1 X136.043 Y120.865 E8.5336
G1 X135.769 Y121.431 E8.55451
G1 X135.615 Y121.739 E8.56596
G1 X135.333 Y122.288 E8.58649
G1 X135.017 Y122.859 E8.6082
G1 X134.559 Y123.63 E8.63803
G1 X134.394 Y123.898 E8.64849
G1 X134.093 Y124.372 E8.66717
G1 X133.727 Y124.911 E8.68884
G1 X133.229 Y125.598 E8.71706
G1 X133.022 Y125.875 E8.72856
G1 X132.662 Y126.339 E8.74809
G1 X132.28 Y126.804 E8.76811
G1 X131.942 Y127.192 E8.78522
G1 X131.772 Y127.382 E8.7937
G1 X131.356 Y127.837 E8.81421
G1 X131.072 Y128.135 E8.8279
G1 X130.862 Y128.345 E8.83778
G1 X130.58 Y128.621 E8.8509
G1 X130.382 Y128.811 E8.86003
G1 X129.901 Y129.258 E8.88187
G1 X129.449 Y129.655 E8.90188
G1 X128.906 Y130.105 E8.92533
G1 X128.683 Y130.284 E8.93485
G1 X128.136 Y130.713 E8.95797
G1 X127.633 Y131.084 E8.97875
G1 X126.975 Y131.54 E9.00538
G1 X126.721 Y131.711 E9.01557
G1 X126.225 Y132.034 E9.03525
G1 X125.678 Y132.367 E9.05655
G1 X124.865 Y132.829 E9.08765
G1 X124.59 Y132.98 E9.09809
G1 X123.969 Y133.309 E9.12146
G1 X123.702 Y133.446 E9.13144
