;FLAVOR:Marlin
;TIME:16747
;Filament used: 10.4986m
;Layer height: 0.2
;MINX:62.488
;MINY:70.305
;MINZ:0.2
;MAXX:160.687
;MAXY:149.695
;MAXZ:63.4
;Generated with Cura_SteamEngine master
M140 S60
M105
M190 S60
M104 S200
M105
M109 S200
M82 ;absolute extrusion mode
; Ender 3 Custom Start G-code
G92 E0 ; Reset Extruder
G28 ; Home all axes
G1 Z2.0 F3000 ; Move Z Axis up little to prevent scratching of Heat Bed
G1 X0.1 Y20 Z0.3 F5000.0 ; Move to start position
G1 X0.1 Y200.0 Z0.3 F1500.0 E15 ; Draw the first line
G1 X0.4 Y200.0 Z0.3 F5000.0 ; Move to side a little
G1 X0.4 Y20 Z0.3 F1500.0 E30 ; Draw the second line
G92 E0 ; Reset Extruder
G1 Z2.0 F3000 ; Move Z Axis up little to prevent scratching of Heat Bed
G1 X5 Y20 Z0.3 F5000.0 ; Move over to prevent blob squish
G92 E0
G92 E0
G1 F1500 E-6.5
;LAYER_COUNT:317
;LAYER:0
M107
G0 F6000 X66.374 Y72.932 Z0.2
;TYPE:SKIRT
G1 F1500 E0
G1 F1200 X67.114 Y72.356 E0.03119
G1 X67.9 Y71.844 E0.06239
G1 X68.727 Y71.402 E0.09358
G1 X69.589 Y71.032 E0.12478
G1 X70.479 Y70.736 E0.15597
G1 X71.391 Y70.518 E0.18716
G1 X72.318 Y70.377 E0.21835
G1 X73.189 Y70.318 E0.24738
G1 X73.51 Y70.309 E0.25806
G1 X73.818 Y70.305 E0.26831
G1 X148.98 Y70.305 E2.76821
G1 X149.138 Y70.306 E2.77346
G1 X149.836 Y70.316 E2.79668
G1 X150.772 Y70.37 E2.82786
G1 X151.7 Y70.502 E2.85904
G1 X152.614 Y70.714 E2.89025
G1 X153.506 Y71.003 E2.92143
G1 X154.371 Y71.366 E2.95263
G1 X155.201 Y71.802 E2.98382
G1 X155.992 Y72.307 E3.01503
G1 X156.736 Y72.878 E3.04622
G1 X157.429 Y73.51 E3.07742
G1 X158.066 Y74.198 E3.1086
G1 X158.641 Y74.939 E3.1398
G1 X159.152 Y75.725 E3.17098
G1 X159.594 Y76.553 E3.2022
G1 X159.963 Y77.415 E3.23338
G1 X160.258 Y78.305 E3.26457
G1 X160.476 Y79.217 E3.29576
G1 X160.616 Y80.145 E3.32697
G1 X160.674 Y81.006 E3.35567
G1 X160.683 Y81.326 E3.36632
G1 X160.687 Y81.635 E3.3766
G1 X160.687 Y137.959 E5.24994
G1 X160.677 Y138.822 E5.27865
G1 X160.626 Y139.759 E5.30986
G1 X160.494 Y140.687 E5.34104
G1 X160.285 Y141.601 E5.37222
G1 X159.998 Y142.494 E5.40342
G1 X159.636 Y143.36 E5.43464
G1 X159.202 Y144.191 E5.46582
G1 X158.698 Y144.982 E5.49701
G1 X158.129 Y145.727 E5.52819
G1 X157.498 Y146.422 E5.55941
G1 X156.811 Y147.06 E5.5906
G1 X156.072 Y147.637 E5.62178
G1 X155.286 Y148.149 E5.65298
G1 X154.46 Y148.592 E5.68416
G1 X153.598 Y148.964 E5.71538
G1 X152.709 Y149.26 E5.74655
G1 X151.797 Y149.48 E5.77775
G1 X150.87 Y149.621 E5.80894
G1 X149.986 Y149.682 E5.83841
G1 X149.665 Y149.691 E5.84909
G1 X149.357 Y149.695 E5.85933
G1 X74.195 Y149.695 E8.35923
G1 X73.355 Y149.685 E8.38717
G1 X72.419 Y149.633 E8.41835
G1 X71.49 Y149.501 E8.44956
G1 X70.576 Y149.291 E8.48075
G1 X69.683 Y149.004 E8.51195
G1 X68.818 Y148.641 E8.54315
G1 X67.987 Y148.207 E8.57433
G1 X67.196 Y147.703 E8.60553
G1 X66.451 Y147.133 E8.63673
G1 X65.757 Y146.502 E8.66793
G1 X65.12 Y145.815 E8.69909
G1 X64.543 Y145.075 E8.7303
G1 X64.031 Y144.289 E8.7615
G1 X63.588 Y143.462 E8.7927
G1 X63.217 Y142.601 E8.82388
G1 X62.921 Y141.711 E8.85508
G1 X62.702 Y140.799 E8.88627
G1 X62.561 Y139.872 E8.91746
G1 X62.501 Y138.983 E8.9471
G1 X62.492 Y138.65 E8.95818
G1 X62.488 Y138.353 E8.96805
G1 X62.488 Y81.979 E10.84306
G1 X62.498 Y81.165 E10.87014
G1 X62.551 Y80.229 E10.90132
G1 X62.683 Y79.3 E10.93253
G1 X62.894 Y78.386 E10.96373
G1 X63.182 Y77.494 E10.9949
G1 X63.545 Y76.629 E11.0261
G1 X63.98 Y75.798 E11.0573
G1 X64.484 Y75.008 E11.08847
G1 X65.054 Y74.263 E11.11967
G1 X65.686 Y73.569 E11.15089
G1 X66.374 Y72.932 E11.18207
G0 F6000 X66.762 Y73.128
G1 F1200 X67.498 Y72.575 E11.21269
G1 X68.279 Y72.087 E11.24332
G1 X69.099 Y71.669 E11.27393
G1 X69.953 Y71.324 E11.30457
G1 X70.833 Y71.054 E11.33518
G1 X71.733 Y70.862 E11.36579
G1 X72.647 Y70.748 E11.39643
G1 X73.2 Y70.718 E11.41485
G1 X73.521 Y70.709 E11.42553
G1 X73.818 Y70.705 E11.43541
G1 X148.98 Y70.705 E13.9353
G1 X149.83 Y70.716 E13.96358
G1 X150.749 Y70.769 E13.99419
G1 X151.66 Y70.902 E14.02482
G1 X152.556 Y71.113 E14.05543
G1 X153.43 Y71.401 E14.08604
G1 X154.277 Y71.764 E14.11669
G1 X155.088 Y72.199 E14.1473
G1 X155.858 Y72.703 E14.17791
G1 X156.582 Y73.272 E14.20853
G1 X157.254 Y73.902 E14.23917
G1 X157.869 Y74.587 E14.26979
G1 X158.422 Y75.323 E14.30041
G1 X158.909 Y76.104 E14.33102
G1 X159.326 Y76.925 E14.36165
G1 X159.671 Y77.779 E14.39228
G1 X159.94 Y78.659 E14.42289
G1 X160.132 Y79.56 E14.45353
G1 X160.245 Y80.473 E14.48413
G1 X160.274 Y81.017 E14.50225
G1 X160.283 Y81.337 E14.51289
G1 X160.287 Y81.635 E14.52281
G1 X160.287 Y137.959 E16.39615
G1 X160.277 Y138.817 E16.42469
G1 X160.226 Y139.736 E16.4553
G1 X160.095 Y140.648 E16.48595
G1 X159.885 Y141.544 E16.51655
G1 X159.599 Y142.419 E16.54717
G1 X159.238 Y143.266 E16.5778
G1 X158.804 Y144.078 E16.60842
G1 X158.302 Y144.85 E16.63905
G1 X157.734 Y145.575 E16.66968
G1 X157.106 Y146.248 E16.7003
G1 X156.422 Y146.864 E16.73091
G1 X155.687 Y147.418 E16.76152
G1 X154.907 Y147.907 E16.79214
G1 X154.087 Y148.326 E16.82277
G1 X153.234 Y148.672 E16.85339
G1 X152.354 Y148.943 E16.88401
G1 X151.454 Y149.136 E16.91463
G1 X150.54 Y149.251 E16.94527
G1 X149.975 Y149.282 E16.96409
G1 X149.654 Y149.291 E16.97477
G1 X149.357 Y149.295 E16.98465
G1 X74.195 Y149.295 E19.48454
G1 X73.36 Y149.285 E19.51232
G1 X72.441 Y149.233 E19.54293
G1 X71.53 Y149.102 E19.57355
G1 X70.634 Y148.892 E19.60415
G1 X69.759 Y148.605 E19.63478
G1 X68.912 Y148.243 E19.66542
G1 X68.1 Y147.809 E19.69604
G1 X67.329 Y147.307 E19.72664
G1 X66.604 Y146.739 E19.75727
G1 X65.931 Y146.11 E19.78791
G1 X65.316 Y145.426 E19.81851
G1 X64.762 Y144.691 E19.84912
G1 X64.274 Y143.91 E19.87975
G1 X63.855 Y143.09 E19.91038
G1 X63.509 Y142.237 E19.94099
G1 X63.239 Y141.357 E19.97161
G1 X63.046 Y140.456 E20.00226
G1 X62.932 Y139.543 E20.03286
G1 X62.901 Y138.972 E20.05188
G1 X62.892 Y138.639 E20.06296
G1 X62.888 Y138.353 E20.07247
G1 X62.888 Y81.979 E21.94748
G1 X62.898 Y81.171 E21.97435
G1 X62.95 Y80.251 E22.005
G1 X63.082 Y79.34 E22.03562
G1 X63.293 Y78.444 E22.06623
G1 X63.58 Y77.569 E22.09686
G1 X63.943 Y76.723 E22.12748
G1 X64.377 Y75.911 E22.1581
G1 X64.88 Y75.14 E22.18872
G1 X65.449 Y74.416 E22.21935
G1 X66.077 Y73.744 E22.24994
G1 X66.762 Y73.128 E22.28058
G0 F6000 X67.15 Y73.329
G1 F1200 X67.882 Y72.799 E22.31064
G1 X68.657 Y72.336 E22.34067
G1 X69.47 Y71.943 E22.3707
G1 X70.315 Y71.623 E22.40075
G1 X71.184 Y71.38 E22.43076
G1 X72.072 Y71.214 E22.46081
G1 X73.211 Y71.118 E22.49883
G1 X73.532 Y71.109 E22.50951
G1 X73.818 Y71.105 E22.51902
G1 X148.98 Y71.105 E25.01892
G1 X149.824 Y71.116 E25.047
G1 X150.726 Y71.169 E25.07705
G1 X151.619 Y71.301 E25.10707
G1 X152.497 Y71.512 E25.13711
G1 X153.353 Y71.8 E25.16714
G1 X154.18 Y72.162 E25.19717
G1 X154.972 Y72.597 E25.22722
G1 X155.723 Y73.099 E25.25727
G1 X156.426 Y73.666 E25.28731
G1 X157.076 Y74.293 E25.31735
G1 X157.668 Y74.975 E25.34738
G1 X158.198 Y75.706 E25.37741
G1 X158.66 Y76.482 E25.40745
G1 X159.053 Y77.295 E25.43749
G1 X159.371 Y78.14 E25.46752
G1 X159.614 Y79.01 E25.49756
G1 X159.779 Y79.898 E25.5276
G1 X159.874 Y81.028 E25.56532
G1 X159.883 Y81.348 E25.57596
G1 X159.887 Y81.635 E25.58551
G1 X159.887 Y137.959 E27.45885
G1 X159.877 Y138.812 E27.48723
G1 X159.826 Y139.714 E27.51728
G1 X159.695 Y140.608 E27.54733
G1 X159.486 Y141.486 E27.57735
G1 X159.2 Y142.343 E27.6074
G1 X158.839 Y143.171 E27.63744
G1 X158.407 Y143.963 E27.66744
G1 X157.906 Y144.715 E27.6975
G1 X157.34 Y145.419 E27.72754
G1 X156.715 Y146.07 E27.75756
G1 X156.034 Y146.664 E27.78761
G1 X155.303 Y147.195 E27.81766
G1 X154.529 Y147.659 E27.84768
G1 X153.716 Y148.053 E27.87773
G1 X152.872 Y148.373 E27.90775
G1 X152.002 Y148.618 E27.93781
G1 X151.115 Y148.784 E27.96783
G1 X149.964 Y148.882 E28.00625
G1 X149.643 Y148.891 E28.01693
G1 X149.357 Y148.895 E28.02644
G1 X74.195 Y148.895 E30.52634
G1 X73.365 Y148.885 E30.55395
G1 X72.464 Y148.834 E30.58396
G1 X71.57 Y148.702 E30.61402
G1 X70.692 Y148.493 E30.64404
G1 X69.835 Y148.206 E30.6741
G1 X69.008 Y147.845 E30.70411
G1 X68.215 Y147.412 E30.73416
G1 X67.464 Y146.911 E30.76419
G1 X66.76 Y146.345 E30.79423
G1 X66.109 Y145.719 E30.82427
G1 X65.516 Y145.038 E30.8543
G1 X64.986 Y144.307 E30.88434
G1 X64.522 Y143.532 E30.91438
G1 X64.128 Y142.719 E30.94443
G1 X63.808 Y141.875 E30.97445
G1 X63.564 Y141.005 E31.0045
G1 X63.398 Y140.117 E31.03455
G1 X63.301 Y138.962 E31.0731
G1 X63.292 Y138.629 E31.08418
G1 X63.288 Y138.353 E31.09336
G1 X63.288 Y81.979 E32.96837
G1 X63.298 Y81.176 E32.99508
G1 X63.35 Y80.274 E33.02513
G1 X63.482 Y79.381 E33.05515
G1 X63.692 Y78.503 E33.08518
G1 X63.979 Y77.646 E33.11524
G1 X64.341 Y76.819 E33.14526
G1 X64.774 Y76.027 E33.17528
G1 X65.276 Y75.276 E33.20533
G1 X65.843 Y74.572 E33.23539
G1 X66.469 Y73.922 E33.26541
G1 X67.15 Y73.329 E33.29544
G1 F1500 E26.79544
;MESH:C-Cover.stl
G0 F6000 X83.416 Y98.04
G0 X82.587 Y96.844
G0 X79.888 Y99.852
G0 X79.104 Y100.955
G0 X78.423 Y102.133
G0 X77.888 Y103.284
G0 X77.439 Y104.498
G0 X77.037 Y105.972
G0 X76.766 Y107.494
G0 X76.644 Y108.725
G0 X76.603 Y109.986
G0 X76.687 Y111.867
G0 X76.905 Y113.515
G0 X77.263 Y115.087
G0 X77.613 Y116.185
G0 X78.033 Y117.244
G0 X78.715 Y118.613
G0 X79.502 Y119.889
G0 X80.31 Y120.965
G0 X81.112 Y121.864
G0 X81.985 Y122.698
G0 X83.132 Y123.624
G0 X84.364 Y124.45
G0 X85.798 Y125.233
G0 X87.871 Y126.095
G0 X89.653 Y126.628
G0 X91.512 Y127.002
G0 X92.956 Y127.165
G0 X97.25 Y127.34
;TYPE:WALL-INNER
G1 F1500 E33.29544
G1 F1200 X99.14 Y127.087 E33.35887
G1 X100.692 Y126.748 E33.4117
G1 X102.324 Y126.246 E33.46849
G1 X103.881 Y125.615 E33.52437
G1 X105.339 Y124.863 E33.57893
G1 X106.588 Y124.069 E33.62816
G1 X107.347 Y123.505 E33.65961
G1 X108.168 Y122.812 E33.69534
G1 X109.122 Y121.874 E33.73984
G1 X109.992 Y120.851 E33.78451
G1 X110.848 Y119.636 E33.83394
G1 X111.473 Y118.565 E33.87518
G1 X112.083 Y117.302 E33.92183
G1 X112.594 Y115.963 E33.9695
G1 X113.024 Y114.418 E34.02284
G1 X113.316 Y112.799 E34.07756
G1 X113.454 Y111.415 E34.12382
G1 X113.499 Y109.981 E34.17154
G1 X113.422 Y108.199 E34.23086
G1 X113.21 Y106.612 E34.28412
G1 X112.925 Y105.32 E34.32812
G1 X112.503 Y103.971 E34.37513
G1 X111.972 Y102.692 E34.42119
G1 X111.336 Y101.491 E34.46639
G1 X110.662 Y100.463 E34.50728
G1 X110.182 Y99.836 E34.53354
G1 X109.593 Y99.157 E34.56344
G1 X108.718 Y98.294 E34.60432
G1 X107.763 Y97.505 E34.64552
G1 X106.639 Y96.738 E34.69078
G1 X105.833 Y96.275 E34.72169
G1 X104.987 Y95.853 E34.75314
G1 X103.66 Y95.311 E34.80081
G1 X102.141 Y94.846 E34.85365
G1 X100.664 Y94.532 E34.90387
G1 X98.556 Y94.258 E34.97457
G1 X98.331 Y94.229 E34.98212
G1 X98.331 Y94.455 E34.98681
G1 X98.331 Y94.456 E34.98684
G1 X98.331 Y102.715 E35.26154
G1 X99.999 Y102.998 E35.31781
G1 X100.947 Y103.251 E35.35044
G1 X101.817 Y103.571 E35.38127
G1 X102.52 Y103.91 E35.40723
G1 X103.177 Y104.304 E35.43271
G1 X103.591 Y104.604 E35.44972
G1 X104.092 Y105.026 E35.4715
G1 X104.465 Y105.401 E35.4891
G1 X104.775 Y105.776 E35.50528
G1 X105.068 Y106.206 E35.52259
G1 X105.31 Y106.643 E35.5392
G1 X105.522 Y107.122 E35.55662
G1 X105.728 Y107.741 E35.57832
G1 X105.881 Y108.411 E35.60118
G1 X105.97 Y109.08 E35.62363
G1 X106.01 Y109.981 E35.65362
G1 X105.964 Y111.025 E35.68838
G1 X105.848 Y111.876 E35.71695
G1 X105.681 Y112.588 E35.74127
G1 X105.478 Y113.201 E35.76275
G1 X105.305 Y113.613 E35.77761
G1 X105.105 Y114.008 E35.79234
G1 X104.711 Y114.65 E35.81739
G1 X104.275 Y115.235 E35.84166
G1 X103.784 Y115.774 E35.86591
G1 X103.255 Y116.254 E35.88966
G1 X102.677 Y116.686 E35.91366
G1 X101.918 Y117.152 E35.94329
G1 X101.033 Y117.589 E35.97612
G1 X100.18 Y117.922 E36.00657
G1 X99.192 Y118.21 E36.0408
G1 X97.765 Y118.496 E36.08921
G1 X96.469 Y118.645 E36.1326
G1 X95.144 Y118.695 E36.1767
G1 X93.4 Y118.617 E36.23476
G1 X92.148 Y118.456 E36.27674
G1 X90.918 Y118.209 E36.31847
G1 X89.815 Y117.894 E36.35662
G1 X88.857 Y117.52 E36.39083
G1 X88.113 Y117.154 E36.41841
G1 X87.342 Y116.689 E36.44835
G1 X86.745 Y116.249 E36.47302
G1 X86.26 Y115.817 E36.49462
G1 X85.813 Y115.344 E36.51627
G1 X85.362 Y114.768 E36.5406
G1 X85.121 Y114.407 E36.55504
G1 X84.884 Y114.006 E36.57053
G1 X84.63 Y113.488 E36.58972
G1 X84.403 Y112.895 E36.61084
G1 X84.213 Y112.212 E36.63442
G1 X84.073 Y111.437 E36.66061
G1 X84.005 Y110.746 E36.6837
G1 X83.98 Y109.987 E36.70896
G1 X84.014 Y109.26 E36.73317
G1 X84.103 Y108.623 E36.75456
G1 X84.222 Y108.097 E36.7725
G1 X84.4 Y107.524 E36.79245
G1 X84.661 Y106.888 E36.81532
G1 X84.955 Y106.321 E36.83656
G1 X85.23 Y105.881 E36.85382
G1 X85.572 Y105.422 E36.87286
G1 X86.021 Y104.916 E36.89536
G1 X86.494 Y104.474 E36.91689
G1 X86.889 Y104.161 E36.93365
G1 X87.318 Y103.873 E36.95084
G1 X87.768 Y103.62 E36.96801
G1 X88.212 Y103.422 E36.98418
G1 X88.69 Y103.259 E37.00097
G1 X89.058 Y103.166 E37.0136
G1 X89.979 Y102.994 E37.04476
G1 X89.979 Y94.73 E37.31962
G1 X89.979 Y94.729 E37.31966
G1 X89.979 Y94.497 E37.32737
G1 X89.749 Y94.533 E37.33217
G1 X87.754 Y94.852 E37.39937
G1 X86.394 Y95.202 E37.44608
G1 X85.217 Y95.625 E37.48767
G1 X84.497 Y95.948 E37.51392
G1 X83.801 Y96.31 E37.54001
G1 X82.695 Y97 E37.58337
G1 X81.674 Y97.776 E37.62602
G1 X80.817 Y98.56 E37.66466
G1 X80.306 Y99.102 E37.68943
G1 X79.76 Y99.753 E37.71769
G1 X78.968 Y100.868 E37.76318
G1 X78.281 Y102.058 E37.80888
G1 X77.739 Y103.222 E37.85159
G1 X77.287 Y104.449 E37.89508
G1 X76.88 Y105.936 E37.94636
G1 X76.606 Y107.471 E37.99822
G1 X76.484 Y108.714 E38.03976
G1 X76.443 Y109.987 E38.08212
G1 X76.526 Y111.881 E38.14518
G1 X76.747 Y113.544 E38.20097
G1 X77.108 Y115.129 E38.25504
G1 X77.461 Y116.24 E38.29381
G1 X77.886 Y117.309 E38.33208
G1 X78.574 Y118.692 E38.38345
G1 X79.369 Y119.98 E38.43379
G1 X80.185 Y121.067 E38.479
G1 X80.996 Y121.976 E38.51952
G1 X81.879 Y122.819 E38.56012
G1 X83.037 Y123.753 E38.6096
G1 X84.28 Y124.587 E38.65939
G1 X85.725 Y125.377 E38.71416
G1 X86.75 Y125.84 E38.75157
G1 X87.818 Y126.248 E38.7896
G1 X89.613 Y126.785 E38.85191
G1 X91.487 Y127.161 E38.91549
G1 X93.283 Y127.365 E38.97561
G1 X95.142 Y127.432 E39.03748
G1 X97.25 Y127.34 E39.10766
G0 F6000 X97.215 Y126.941
;TYPE:WALL-OUTER
G1 F1200 X99.071 Y126.693 E39.16994
G1 X100.59 Y126.361 E39.22165
G1 X102.19 Y125.869 E39.27733
G1 X103.714 Y125.251 E39.33202
G1 X105.14 Y124.516 E39.38538
G1 X106.361 Y123.739 E39.43352
G1 X107.098 Y123.191 E39.46406
G1 X107.898 Y122.516 E39.49888
G1 X108.829 Y121.601 E39.54229
G1 X109.676 Y120.606 E39.58576
G1 X110.511 Y119.42 E39.634
G1 X111.12 Y118.377 E39.67417
G1 X111.715 Y117.143 E39.71973
G1 X112.214 Y115.838 E39.7662
G1 X112.634 Y114.329 E39.8183
G1 X112.92 Y112.744 E39.87187
G1 X113.055 Y111.389 E39.91716
G1 X113.099 Y109.983 E39.96395
G1 X113.023 Y108.234 E40.02217
G1 X112.816 Y106.682 E40.07425
G1 X112.538 Y105.423 E40.11713
G1 X112.127 Y104.108 E40.16296
G1 X111.61 Y102.863 E40.20779
G1 X110.991 Y101.695 E40.25176
G1 X110.335 Y100.694 E40.29157
G1 X109.872 Y100.089 E40.3169
G1 X109.301 Y99.431 E40.34588
G1 X108.45 Y98.591 E40.38565
G1 X107.522 Y97.825 E40.42567
G1 X106.426 Y97.077 E40.46981
G1 X105.644 Y96.628 E40.4998
G1 X104.822 Y96.218 E40.53035
G1 X103.526 Y95.688 E40.57692
G1 X102.041 Y95.234 E40.62857
G1 X100.596 Y94.927 E40.6777
G1 X98.731 Y94.684 E40.74026
G1 X98.731 Y102.377 E40.99613
G1 X100.093 Y102.609 E41.04208
G1 X101.059 Y102.866 E41.07533
G1 X101.976 Y103.204 E41.10783
G1 X102.713 Y103.559 E41.13504
G1 X103.393 Y103.967 E41.16142
G1 X103.844 Y104.293 E41.17993
G1 X104.363 Y104.731 E41.20251
G1 X104.759 Y105.129 E41.22119
G1 X105.098 Y105.539 E41.23888
G1 X105.406 Y105.991 E41.25707
G1 X105.671 Y106.471 E41.27531
G1 X105.896 Y106.978 E41.29376
G1 X106.113 Y107.63 E41.31661
G1 X106.274 Y108.335 E41.34067
G1 X106.37 Y109.055 E41.36482
G1 X106.411 Y109.983 E41.39572
G1 X106.364 Y111.053 E41.43134
G1 X106.242 Y111.947 E41.46135
G1 X106.064 Y112.706 E41.48728
G1 X105.854 Y113.341 E41.50953
G1 X105.668 Y113.782 E41.52545
G1 X105.456 Y114.2 E41.54104
G1 X105.041 Y114.877 E41.56745
G1 X104.585 Y115.488 E41.5928
G1 X104.067 Y116.057 E41.6184
G1 X103.514 Y116.559 E41.64324
G1 X102.897 Y117.02 E41.66885
G1 X102.109 Y117.504 E41.69961
G1 X101.195 Y117.955 E41.73351
G1 X100.311 Y118.3 E41.76507
G1 X99.289 Y118.598 E41.80048
G1 X97.83 Y118.891 E41.84998
G1 X96.491 Y119.045 E41.8948
