;FLAVOR:Marlin
;TIME:25809
;Filament used: 23.4717m
;Layer height: 0.2
;MINX:3.369
;MINY:78.129
;MINZ:0.2
;MAXX:231.631
;MAXY:156.871
;MAXZ:23.2
;Generated with Cura_SteamEngine master
M140 S60
M105
M190 S60
M104 S200
M105
M109 S200
M82 ;absolute extrusion mode
; Ender 3 Custom Start G-code
G92 E0 ; Reset Extruder
G28 ; Home all axes
G1 Z2.0 F3000 ; Move Z Axis up little to prevent scratching of Heat Bed
G1 X0.1 Y20 Z0.3 F5000.0 ; Move to start position
G1 X0.1 Y200.0 Z0.3 F1500.0 E15 ; Draw the first line
G1 X0.4 Y200.0 Z0.3 F5000.0 ; Move to side a little
G1 X0.4 Y20 Z0.3 F1500.0 E30 ; Draw the second line
G92 E0 ; Reset Extruder
G1 Z2.0 F3000 ; Move Z Axis up little to prevent scratching of Heat Bed
G1 X5 Y20 Z0.3 F5000.0 ; Move over to prevent blob squish
G92 E0
G92 E0
G1 F1500 E-6.5
;LAYER_COUNT:116
;LAYER:0
M107
G0 F6000 X12.245 Y78.347 Z0.2
;TYPE:SKIRT
G1 F1500 E0
G1 F1200 X13.172 Y78.205 E0.03119
G1 X13.948 Y78.147 E0.05707
G1 X14.404 Y78.133 E0.07225
G1 X14.826 Y78.129 E0.08628
G1 X219.924 Y78.129 E6.90787
G1 X220.78 Y78.14 E6.93634
G1 X221.716 Y78.194 E6.96753
G1 X222.644 Y78.326 E6.9987
G1 X223.558 Y78.538 E7.02991
G1 X224.45 Y78.827 E7.0611
G1 X225.315 Y79.19 E7.0923
G1 X226.145 Y79.626 E7.12348
G1 X226.936 Y80.131 E7.15469
G1 X227.68 Y80.702 E7.18589
G1 X228.373 Y81.334 E7.21708
G1 X229.01 Y82.022 E7.24827
G1 X229.585 Y82.763 E7.27946
G1 X230.096 Y83.549 E7.31064
G1 X230.538 Y84.377 E7.34186
G1 X230.907 Y85.239 E7.37305
G1 X231.202 Y86.129 E7.40423
G1 X231.42 Y87.041 E7.43542
G1 X231.56 Y87.969 E7.46664
G1 X231.618 Y88.83 E7.49534
G1 X231.627 Y89.15 E7.50599
G1 X231.631 Y89.459 E7.51626
G1 X231.63 Y145.271 E9.37258
G1 X231.621 Y145.998 E9.39676
G1 X231.57 Y146.935 E9.42797
G1 X231.438 Y147.863 E9.45915
G1 X231.229 Y148.777 E9.49033
G1 X230.942 Y149.67 E9.52153
G1 X230.58 Y150.536 E9.55275
G1 X230.146 Y151.367 E9.58393
G1 X229.642 Y152.158 E9.61512
G1 X229.073 Y152.903 E9.6463
G1 X228.442 Y153.598 E9.67753
G1 X227.755 Y154.236 E9.70871
G1 X227.016 Y154.813 E9.73989
G1 X226.23 Y155.325 E9.77109
G1 X225.404 Y155.768 E9.80227
G1 X224.542 Y156.14 E9.83349
G1 X223.653 Y156.436 E9.86466
G1 X222.741 Y156.656 E9.89586
G1 X221.814 Y156.797 E9.92705
G1 X220.93 Y156.858 E9.95652
G1 X220.609 Y156.867 E9.9672
G1 X220.301 Y156.871 E9.97744
G1 X14.934 Y156.87 E16.80798
G1 X14.236 Y156.861 E16.8312
G1 X13.3 Y156.809 E16.86238
G1 X12.371 Y156.677 E16.89358
G1 X11.457 Y156.467 E16.92478
G1 X10.564 Y156.18 E16.95597
G1 X9.699 Y155.817 E16.98718
G1 X8.868 Y155.383 E17.01836
G1 X8.077 Y154.879 E17.04955
G1 X7.332 Y154.309 E17.08075
G1 X6.638 Y153.678 E17.11195
G1 X6.001 Y152.991 E17.14311
G1 X5.424 Y152.251 E17.17432
G1 X4.912 Y151.465 E17.20552
G1 X4.469 Y150.638 E17.23672
G1 X4.098 Y149.777 E17.26791
G1 X3.802 Y148.887 E17.2991
G1 X3.583 Y147.975 E17.3303
G1 X3.442 Y147.048 E17.36148
G1 X3.381 Y146.139 E17.39178
G1 X3.372 Y145.782 E17.40366
G1 X3.369 Y145.505 E17.41288
G1 X3.371 Y90.035 E19.25782
G1 X3.382 Y89.019 E19.29161
G1 X3.432 Y88.082 E19.32282
G1 X3.561 Y87.154 E19.35398
G1 X3.77 Y86.239 E19.3852
G1 X4.055 Y85.346 E19.41638
G1 X4.416 Y84.48 E19.44758
G1 X4.849 Y83.648 E19.47878
G1 X5.351 Y82.856 E19.50996
G1 X5.919 Y82.11 E19.54115
G1 X6.549 Y81.414 E19.57237
G1 X7.235 Y80.775 E19.60356
G1 X7.973 Y80.197 E19.63473
G1 X8.758 Y79.684 E19.66592
G1 X9.584 Y79.239 E19.69713
G1 X10.445 Y78.866 E19.72834
G1 X11.334 Y78.568 E19.75952
G1 X12.245 Y78.347 E19.7907
G0 F6000 X12.589 Y78.691
G1 F1200 X13.502 Y78.574 E19.82132
G1 X13.964 Y78.546 E19.83671
G1 X14.408 Y78.533 E19.85149
G1 X14.83 Y78.529 E19.86552
G1 X219.924 Y78.529 E26.68698
G1 X220.774 Y78.54 E26.71525
G1 X221.693 Y78.593 E26.74587
G1 X222.604 Y78.726 E26.77649
G1 X223.5 Y78.937 E26.8071
G1 X224.374 Y79.225 E26.83771
G1 X225.221 Y79.588 E26.86836
G1 X226.032 Y80.023 E26.89897
G1 X226.802 Y80.527 E26.92958
G1 X227.526 Y81.096 E26.96021
G1 X228.198 Y81.726 E26.99084
G1 X228.813 Y82.411 E27.02146
G1 X229.366 Y83.147 E27.05208
G1 X229.853 Y83.928 E27.08269
G1 X230.27 Y84.749 E27.11332
G1 X230.615 Y85.603 E27.14395
G1 X230.884 Y86.483 E27.17456
G1 X231.076 Y87.384 E27.2052
G1 X231.189 Y88.297 E27.2358
G1 X231.218 Y88.841 E27.25392
G1 X231.227 Y89.161 E27.26457
G1 X231.231 Y89.459 E27.27448
G1 X231.23 Y145.266 E29.13063
G1 X231.221 Y145.993 E29.15481
G1 X231.17 Y146.912 E29.18542
G1 X231.039 Y147.824 E29.21607
G1 X230.829 Y148.72 E29.24667
G1 X230.543 Y149.595 E29.27729
G1 X230.182 Y150.442 E29.30792
G1 X229.748 Y151.254 E29.33854
G1 X229.246 Y152.026 E29.36917
G1 X228.678 Y152.751 E29.3998
G1 X228.05 Y153.424 E29.43041
G1 X227.366 Y154.04 E29.46103
G1 X226.631 Y154.594 E29.49164
G1 X225.851 Y155.083 E29.52226
G1 X225.031 Y155.502 E29.55289
G1 X224.178 Y155.848 E29.58351
G1 X223.298 Y156.119 E29.61413
G1 X222.398 Y156.312 E29.64475
G1 X221.484 Y156.427 E29.67539
G1 X220.919 Y156.458 E29.69421
G1 X220.598 Y156.467 E29.70489
G1 X220.301 Y156.471 E29.71477
G1 X14.939 Y156.47 E36.54513
G1 X14.241 Y156.461 E36.56835
G1 X13.322 Y156.409 E36.59897
G1 X12.411 Y156.278 E36.62958
G1 X11.515 Y156.068 E36.66019
G1 X10.64 Y155.781 E36.69081
G1 X9.793 Y155.419 E36.72145
G1 X8.981 Y154.985 E36.75207
G1 X8.21 Y154.483 E36.78267
G1 X7.485 Y153.915 E36.81331
G1 X6.812 Y153.286 E36.84395
G1 X6.197 Y152.602 E36.87454
G1 X5.643 Y151.867 E36.90515
G1 X5.155 Y151.086 E36.93578
G1 X4.736 Y150.266 E36.96641
G1 X4.39 Y149.413 E36.99703
G1 X4.12 Y148.533 E37.02764
G1 X3.927 Y147.632 E37.05829
G1 X3.813 Y146.719 E37.08889
G1 X3.781 Y146.129 E37.10854
G1 X3.772 Y145.772 E37.12042
G1 X3.769 Y145.505 E37.1293
G1 X3.771 Y90.039 E38.97411
G1 X3.782 Y89.023 E39.0079
G1 X3.832 Y88.104 E39.03851
G1 X3.961 Y87.192 E39.06915
G1 X4.169 Y86.296 E39.09974
G1 X4.454 Y85.42 E39.13038
G1 X4.814 Y84.573 E39.16099
G1 X5.247 Y83.76 E39.19163
G1 X5.748 Y82.988 E39.22224
G1 X6.314 Y82.262 E39.25286
G1 X6.941 Y81.588 E39.28347
G1 X7.624 Y80.971 E39.31409
G1 X8.358 Y80.415 E39.34471
G1 X9.138 Y79.925 E39.37535
G1 X9.957 Y79.505 E39.40596
G1 X10.81 Y79.158 E39.43659
G1 X11.689 Y78.885 E39.46721
G1 X12.589 Y78.691 E39.49783
G0 F6000 X12.041 Y79.21
G1 F1200 X12.929 Y79.042 E39.52789
G1 X13.98 Y78.946 E39.56299
G1 X14.411 Y78.933 E39.57733
G1 X14.833 Y78.929 E39.59137
G1 X219.924 Y78.929 E46.41272
G1 X220.768 Y78.94 E46.44079
G1 X221.67 Y78.993 E46.47085
G1 X222.563 Y79.125 E46.50087
G1 X223.441 Y79.336 E46.5309
G1 X224.297 Y79.624 E46.56094
G1 X225.124 Y79.986 E46.59097
G1 X225.916 Y80.421 E46.62102
G1 X226.667 Y80.923 E46.65107
G1 X227.37 Y81.49 E46.68111
G1 X228.02 Y82.117 E46.71114
G1 X228.612 Y82.799 E46.74118
G1 X229.142 Y83.53 E46.77121
G1 X229.604 Y84.306 E46.80125
G1 X229.997 Y85.119 E46.83129
G1 X230.315 Y85.964 E46.86131
G1 X230.558 Y86.834 E46.89136
G1 X230.723 Y87.722 E46.9214
G1 X230.818 Y88.852 E46.95912
G1 X230.827 Y89.172 E46.96976
G1 X230.831 Y89.459 E46.97931
G1 X230.83 Y145.261 E48.83529
G1 X230.821 Y145.988 E48.85947
G1 X230.77 Y146.89 E48.88952
G1 X230.639 Y147.784 E48.91957
G1 X230.43 Y148.662 E48.94959
G1 X230.144 Y149.519 E48.97964
G1 X229.783 Y150.347 E49.00968
G1 X229.351 Y151.139 E49.03969
G1 X228.85 Y151.891 E49.06974
G1 X228.284 Y152.595 E49.09979
G1 X227.659 Y153.246 E49.1298
G1 X226.978 Y153.84 E49.15986
G1 X226.247 Y154.371 E49.18991
G1 X225.473 Y154.835 E49.21993
G1 X224.66 Y155.229 E49.24997
G1 X223.816 Y155.549 E49.28
G1 X222.946 Y155.794 E49.31006
G1 X222.059 Y155.96 E49.34007
G1 X220.908 Y156.058 E49.37849
G1 X220.587 Y156.067 E49.38917
G1 X220.301 Y156.071 E49.39869
G1 X14.944 Y156.07 E56.22889
G1 X14.246 Y156.061 E56.25211
G1 X13.345 Y156.01 E56.28212
G1 X12.451 Y155.878 E56.31218
G1 X11.573 Y155.669 E56.3422
G1 X10.716 Y155.382 E56.37226
G1 X9.889 Y155.021 E56.40227
G1 X9.096 Y154.588 E56.43232
G1 X8.345 Y154.087 E56.46235
G1 X7.641 Y153.521 E56.49239
G1 X6.99 Y152.895 E56.52243
G1 X6.397 Y152.214 E56.55246
G1 X5.867 Y151.483 E56.58249
G1 X5.403 Y150.708 E56.61254
G1 X5.009 Y149.895 E56.64259
G1 X4.689 Y149.051 E56.67261
G1 X4.445 Y148.181 E56.70266
G1 X4.279 Y147.293 E56.73271
G1 X4.181 Y146.119 E56.77189
G1 X4.172 Y145.762 E56.78377
G1 X4.169 Y145.505 E56.79232
G1 X4.171 Y90.044 E58.63696
G1 X4.182 Y89.028 E58.67075
G1 X4.231 Y88.126 E58.7008
G1 X4.361 Y87.232 E58.73084
G1 X4.569 Y86.353 E58.76089
G1 X4.853 Y85.496 E58.79091
G1 X5.213 Y84.668 E58.82094
G1 X5.644 Y83.874 E58.85099
G1 X6.144 Y83.122 E58.88103
G1 X6.708 Y82.417 E58.91106
G1 X7.333 Y81.765 E58.9411
G1 X8.013 Y81.17 E58.97115
G1 X8.742 Y80.638 E59.00117
G1 X9.516 Y80.173 E59.0312
G1 X10.329 Y79.778 E59.06126
G1 X11.172 Y79.456 E59.09128
G1 X12.041 Y79.21 E59.12131
G1 F1500 E52.62131
;MESH:tree_base.stl
G0 F6000 X14.79 Y88.464
G0 X14.79 Y89.549
G0 X14.969 Y145.271
;TYPE:WALL-INNER
G1 F1500 E59.12131
G1 F1200 X14.969 Y145.072 E59.12793
G1 X14.97 Y89.729 E60.96865
G1 X220.031 Y89.729 E67.789
G1 X220.031 Y145.271 E69.63634
G1 X15.168 Y145.271 E76.45011
G1 X14.969 Y145.271 E76.45439
G0 F6000 X14.569 Y145.671
;TYPE:WALL-OUTER
G1 F1200 X14.57 Y89.329 E78.32834
G1 X220.431 Y89.329 E85.1753
G1 X220.431 Y145.671 E87.04924
G1 X14.569 Y145.671 E93.89624
G0 F6000 X14.839 Y145.401
G0 X15.08 Y144.88
G0 X15.359 Y144.881
;TYPE:SKIN
G1 F1200 X15.36 Y90.119 E95.71763
G1 X219.641 Y90.119 E102.51205
G1 X219.641 Y144.881 E104.33344
G1 X15.359 Y144.881 E111.12788
G0 F6000 X15.743 Y144.72
G1 F1200 X15.518 Y144.495 E111.13847
G0 F6000 X15.518 Y143.929
G1 F1200 X16.309 Y144.72 E111.17567
G0 F6000 X16.875 Y144.72
G1 F1200 X15.518 Y143.363 E111.2395
G0 F6000 X15.518 Y142.798
G1 F1200 X17.44 Y144.72 E111.32991
G0 F6000 X18.006 Y144.72
G1 F1200 X15.518 Y142.232 E111.44694
G0 F6000 X15.518 Y141.666
G1 F1200 X18.572 Y144.72 E111.59059
G0 F6000 X19.137 Y144.72
G1 F1200 X15.518 Y141.101 E111.76081
G0 F6000 X15.518 Y140.535
G1 F1200 X19.703 Y144.72 E111.95766
G0 F6000 X20.269 Y144.72
G1 F1200 X15.518 Y139.969 E112.18113
G0 F6000 X15.518 Y139.403
G1 F1200 X20.834 Y144.72 E112.43121
G0 F6000 X21.4 Y144.72
G1 F1200 X15.518 Y138.838 E112.70788
G0 F6000 X15.518 Y138.272
G1 F1200 X21.966 Y144.72 E113.01117
G0 F6000 X22.531 Y144.72
G1 F1200 X15.518 Y137.706 E113.34107
G0 F6000 X15.518 Y137.141
G1 F1200 X23.097 Y144.72 E113.69756
G0 F6000 X23.663 Y144.72
G1 F1200 X15.518 Y136.575 E114.08067
G0 F6000 X15.518 Y136.009
G1 F1200 X24.229 Y144.72 E114.49041
G0 F6000 X24.794 Y144.72
G1 F1200 X15.518 Y135.444 E114.92673
G0 F6000 X15.518 Y134.878
G1 F1200 X25.36 Y144.72 E115.38967
G0 F6000 X25.926 Y144.72
G1 F1200 X15.518 Y134.312 E115.87923
G0 F6000 X15.518 Y133.747
G1 F1200 X26.491 Y144.72 E116.39536
G0 F6000 X27.057 Y144.72
G1 F1200 X15.518 Y133.181 E116.93812
G0 F6000 X15.518 Y132.615
G1 F1200 X27.623 Y144.72 E117.5075
G0 F6000 X28.188 Y144.72
G1 F1200 X15.518 Y132.05 E118.10346
G0 F6000 X15.518 Y131.484
G1 F1200 X28.754 Y144.72 E118.72604
G0 F6000 X29.32 Y144.72
G1 F1200 X15.518 Y130.918 E119.37525
G0 F6000 X15.518 Y130.353
G1 F1200 X29.885 Y144.72 E120.05103
G0 F6000 X30.451 Y144.72
G1 F1200 X15.518 Y129.787 E120.75343
G0 F6000 X15.518 Y129.221
G1 F1200 X31.017 Y144.72 E121.48245
G0 F6000 X31.582 Y144.72
G1 F1200 X15.518 Y128.655 E122.23808
G0 F6000 X15.518 Y128.09
G1 F1200 X32.148 Y144.72 E123.0203
G0 F6000 X32.714 Y144.72
G1 F1200 X15.518 Y127.524 E123.82915
G0 F6000 X15.518 Y126.958
G1 F1200 X33.279 Y144.72 E124.6646
G0 F6000 X33.845 Y144.72
G1 F1200 X15.518 Y126.393 E125.52664
G0 F6000 X15.518 Y125.827
G1 F1200 X34.411 Y144.72 E126.41531
G0 F6000 X34.977 Y144.72
G1 F1200 X15.518 Y125.261 E127.3306
G0 F6000 X15.518 Y124.696
G1 F1200 X35.542 Y144.72 E128.27247
G0 F6000 X36.108 Y144.72
G1 F1200 X15.518 Y124.13 E129.24096
G0 F6000 X15.518 Y123.564
G1 F1200 X36.674 Y144.72 E130.23607
G0 F6000 X37.239 Y144.72
G1 F1200 X15.518 Y122.999 E131.25776
G0 F6000 X15.518 Y122.433
G1 F1200 X37.805 Y144.72 E132.30608
G0 F6000 X38.371 Y144.72
G1 F1200 X15.518 Y121.867 E133.38101
G0 F6000 X15.518 Y121.302
G1 F1200 X38.936 Y144.72 E134.48252
G0 F6000 X39.502 Y144.72
G1 F1200 X15.518 Y120.736 E135.61066
G0 F6000 X15.518 Y120.17
G1 F1200 X40.068 Y144.72 E136.76541
G0 F6000 X40.633 Y144.72
G1 F1200 X15.518 Y119.604 E137.94677
G0 F6000 X15.518 Y119.039
G1 F1200 X41.199 Y144.72 E139.15472
G0 F6000 X41.765 Y144.72
G1 F1200 X15.518 Y118.473 E140.3893
G0 F6000 X15.518 Y117.907
G1 F1200 X42.33 Y144.72 E141.65048
G0 F6000 X42.896 Y144.72
G1 F1200 X15.519 Y117.342 E142.93823
G0 F6000 X15.519 Y116.777
G1 F1200 X43.462 Y144.72 E144.25259
G0 F6000 X44.028 Y144.72
G1 F1200 X15.519 Y116.211 E145.59356
G0 F6000 X15.519 Y115.645
G1 F1200 X44.593 Y144.72 E146.96114
G0 F6000 X45.159 Y144.72
G1 F1200 X15.519 Y115.08 E148.35531
G0 F6000 X15.519 Y114.514
G1 F1200 X45.725 Y144.72 E149.77611
G0 F6000 X46.29 Y144.72
G1 F1200 X15.519 Y113.948 E151.22351
G0 F6000 X15.519 Y113.383
G1 F1200 X46.856 Y144.72 E152.6975
G0 F6000 X47.422 Y144.72
G1 F1200 X15.519 Y112.817 E154.19812
G0 F6000 X15.519 Y112.251
G1 F1200 X47.987 Y144.72 E155.72534
G0 F6000 X48.553 Y144.72
G1 F1200 X15.519 Y111.686 E157.27916
G0 F6000 X15.519 Y111.12
G1 F1200 X49.119 Y144.72 E158.8596
G0 F6000 X49.684 Y144.72
G1 F1200 X15.519 Y110.554 E160.46664
G0 F6000 X15.519 Y109.989
G1 F1200 X50.25 Y144.72 E162.10028
G0 F6000 X50.816 Y144.72
G1 F1200 X15.519 Y109.423 E163.76054
G0 F6000 X15.519 Y108.857
G1 F1200 X51.381 Y144.72 E165.44741
G0 F6000 X51.947 Y144.72
G1 F1200 X15.519 Y108.291 E167.16089
G0 F6000 X15.519 Y107.726
G1 F1200 X52.513 Y144.72 E168.90097
G0 F6000 X53.078 Y144.72
G1 F1200 X15.519 Y107.16 E170.66766
G0 F6000 X15.519 Y106.594
G1 F1200 X53.644 Y144.72 E172.46096
G0 F6000 X54.21 Y144.72
G1 F1200 X15.519 Y106.029 E174.28087
G0 F6000 X15.519 Y105.463
G1 F1200 X54.776 Y144.72 E176.1274
G0 F6000 X55.341 Y144.72
G1 F1200 X15.519 Y104.897 E178.00053
G0 F6000 X15.519 Y104.332
G1 F1200 X55.907 Y144.72 E179.90026
G0 F6000 X56.473 Y144.72
G1 F1200 X15.519 Y103.766 E181.82661
G0 F6000 X15.519 Y103.2
G1 F1200 X57.038 Y144.72 E183.77956
G0 F6000 X57.604 Y144.72
G1 F1200 X15.519 Y102.635 E185.75911
G0 F6000 X15.519 Y102.069
G1 F1200 X58.17 Y144.72 E187.76528
G0 F6000 X58.735 Y144.72
G1 F1200 X15.519 Y101.503 E189.79805
G0 F6000 X15.519 Y100.938
G1 F1200 X59.301 Y144.72 E191.85742
G0 F6000 X59.867 Y144.72
G1 F1200 X15.519 Y100.372 E193.94341
G0 F6000 X15.519 Y99.806
G1 F1200 X60.432 Y144.72 E196.05601
G0 F6000 X60.998 Y144.72
G1 F1200 X15.519 Y99.241 E198.1952
G0 F6000 X15.519 Y98.675
G1 F1200 X61.564 Y144.72 E200.36102
G0 F6000 X62.129 Y144.72
G1 F1200 X15.519 Y98.109 E202.55343
G0 F6000 X15.519 Y97.543
G1 F1200 X62.695 Y144.72 E204.77247
G0 F6000 X63.261 Y144.72
G1 F1200 X15.519 Y96.978 E207.01811
G0 F6000 X15.519 Y96.412
G1 F1200 X63.826 Y144.72 E209.29034
G0 F6000 X64.392 Y144.72
G1 F1200 X15.519 Y95.846 E211.5892
G0 F6000 X15.519 Y95.281
G1 F1200 X64.958 Y144.72 E213.91466
G0 F6000 X65.524 Y144.72
G1 F1200 X15.519 Y94.715 E216.26674
G0 F6000 X15.519 Y94.149
G1 F1200 X66.089 Y144.72 E218.64543
G0 F6000 X66.655 Y144.72
G1 F1200 X15.519 Y93.584 E221.05071
G0 F6000 X15.519 Y93.018
G1 F1200 X67.221 Y144.72 E223.48261
G0 F6000 X67.786 Y144.72
G1 F1200 X15.519 Y92.452 E225.94111
G0 F6000 X15.519 Y91.887
G1 F1200 X68.352 Y144.72 E228.42621
G0 F6000 X68.918 Y144.72
G1 F1200 X15.519 Y91.321 E230.93794
G0 F6000 X15.519 Y90.755
G1 F1200 X69.483 Y144.72 E233.47626
G0 F6000 X70.049 Y144.72
G1 F1200 X15.608 Y90.279 E236.037
G0 F6000 X16.174 Y90.279
G1 F1200 X70.615 Y144.72 E238.59774
G0 F6000 X71.18 Y144.72
G1 F1200 X16.74 Y90.279 E241.15845
G0 F6000 X17.305 Y90.279
G1 F1200 X71.746 Y144.72 E243.71919
G0 F6000 X72.312 Y144.72
G1 F1200 X17.871 Y90.279 E246.27993
G0 F6000 X18.437 Y90.279
G1 F1200 X72.877 Y144.72 E248.84064
G0 F6000 X73.443 Y144.72
G1 F1200 X19.002 Y90.279 E251.40138
G0 F6000 X19.568 Y90.279
G1 F1200 X74.009 Y144.72 E253.96212
G0 F6000 X74.575 Y144.72
G1 F1200 X20.134 Y90.279 E256.52286
G0 F6000 X20.699 Y90.279
G1 F1200 X75.14 Y144.72 E259.08359
G0 F6000 X75.706 Y144.72
G1 F1200 X21.265 Y90.279 E261.64433
G0 F6000 X21.831 Y90.279
G1 F1200 X76.272 Y144.72 E264.20507
G0 F6000 X76.837 Y144.72
G1 F1200 X22.396 Y90.279 E266.76581
G0 F6000 X22.962 Y90.279
G1 F1200 X77.403 Y144.72 E269.32655
G0 F6000 X77.969 Y144.72
