;FLAVOR:Marlin
;TIME:13347
;Filament used: 4.78217m
;Layer height: 0.2
;MINX:69.513
;MINY:74.471
;MINZ:0.2
;MAXX:165.484
;MAXY:160.529
;MAXZ:17.8
;Generated with Cura_SteamEngine master
M140 S60
M105
M190 S60
M104 S200
M105
M109 S200
M82 ;absolute extrusion mode
; Ender 3 Custom Start G-code
G92 E0 ; Reset Extruder
G28 ; Home all axes
G1 Z2.0 F3000 ; Move Z Axis up little to prevent scratching of Heat Bed
G1 X0.1 Y20 Z0.3 F5000.0 ; Move to start position
G1 X0.1 Y200.0 Z0.3 F1500.0 E15 ; Draw the first line
G1 X0.4 Y200.0 Z0.3 F5000.0 ; Move to side a little
G1 X0.4 Y20 Z0.3 F1500.0 E30 ; Draw the second line
G92 E0 ; Reset Extruder
G1 Z2.0 F3000 ; Move Z Axis up little to prevent scratching of Heat Bed
G1 X5 Y20 Z0.3 F5000.0 ; Move over to prevent blob squish
G92 E0
G92 E0
G1 F1500 E-6.5
;LAYER_COUNT:89
;LAYER:0
M107
G0 F6000 X136.139 Y75.282 Z0.2
;TYPE:SKIRT
G1 F1500 E0
G1 F1200 X137.04 Y75.335 E0.03002
G1 X137.934 Y75.467 E0.06008
G1 X138.812 Y75.678 E0.09011
G1 X139.668 Y75.966 E0.12015
G1 X140.495 Y76.328 E0.15017
G1 X141.287 Y76.762 E0.18021
G1 X142.037 Y77.265 E0.21025
G1 X142.74 Y77.832 E0.24029
G1 X143.391 Y78.458 E0.27033
G1 X143.983 Y79.14 E0.30036
G1 X144.749 Y80.249 E0.34519
G1 X145.202 Y81.01 E0.37465
G1 X163.053 Y111.915 E1.5617
G1 X163.383 Y112.504 E1.58416
G1 X163.789 Y113.311 E1.6142
G1 X164.122 Y114.15 E1.64423
G1 X164.379 Y115.016 E1.67427
G1 X164.559 Y115.901 E1.70431
G1 X164.661 Y116.798 E1.73434
G1 X164.682 Y117.701 E1.76438
G1 X164.623 Y118.602 E1.79441
G1 X164.485 Y119.495 E1.82446
G1 X164.268 Y120.372 E1.85451
G1 X163.975 Y121.226 E1.88454
G1 X163.443 Y122.366 E1.92638
G1 X162.966 Y123.237 E1.95941
G1 X145.145 Y154.089 E3.14444
G1 X144.762 Y154.733 E3.16936
G1 X144.266 Y155.488 E3.19941
G1 X143.706 Y156.196 E3.22943
G1 X143.085 Y156.852 E3.25948
G1 X142.409 Y157.45 E3.2895
G1 X141.682 Y157.987 E3.31956
G1 X140.911 Y158.456 E3.34957
G1 X140.101 Y158.856 E3.37962
G1 X139.259 Y159.183 E3.40966
G1 X138.391 Y159.434 E3.43972
G1 X137.505 Y159.607 E3.46974
G1 X136.607 Y159.701 E3.49977
G1 X136.137 Y159.718 E3.51541
G1 X135.276 Y159.729 E3.54405
G1 X99.562 Y159.728 E4.73191
G1 X98.861 Y159.718 E4.75522
G1 X97.959 Y159.665 E4.78528
G1 X97.066 Y159.533 E4.8153
G1 X96.187 Y159.322 E4.84537
G1 X95.331 Y159.034 E4.8754
G1 X94.504 Y158.672 E4.90543
G1 X93.712 Y158.238 E4.93547
G1 X92.962 Y157.735 E4.9655
G1 X92.259 Y157.168 E4.99554
G1 X91.609 Y156.542 E5.02556
G1 X91.016 Y155.86 E5.05562
G1 X90.248 Y154.748 E5.10057
G1 X89.815 Y154.021 E5.12871
G1 X89.393 Y153.291 E5.15676
G1 X71.938 Y123.069 E6.31755
G1 X71.605 Y122.472 E6.34029
G1 X71.2 Y121.664 E6.37035
G1 X70.869 Y120.824 E6.40038
G1 X70.613 Y119.958 E6.43041
G1 X70.435 Y119.073 E6.46044
G1 X70.335 Y118.175 E6.49049
G1 X70.316 Y117.272 E6.52053
G1 X70.376 Y116.371 E6.55056
G1 X70.516 Y115.479 E6.5806
G1 X70.734 Y114.603 E6.61062
G1 X71.029 Y113.749 E6.64067
G1 X71.398 Y112.925 E6.6707
G1 X71.611 Y112.524 E6.6858
G1 X72.104 Y111.643 E6.71938
G1 X89.92 Y80.8 E7.90407
G1 X90.24 Y80.265 E7.9248
G1 X90.738 Y79.511 E7.95486
G1 X91.3 Y78.805 E7.98487
G1 X91.922 Y78.15 E8.01491
G1 X92.6 Y77.554 E8.04494
G1 X93.328 Y77.019 E8.07499
G1 X94.101 Y76.551 E8.10504
G1 X94.912 Y76.154 E8.13507
G1 X95.754 Y75.829 E8.16509
G1 X96.623 Y75.58 E8.19516
G1 X97.509 Y75.41 E8.22516
G1 X98.574 Y75.31 E8.26074
G1 X99.302 Y75.28 E8.28498
G1 X99.722 Y75.271 E8.29895
G1 X135.439 Y75.272 E9.4869
G1 X136.139 Y75.282 E9.51018
G0 F6000 X136.144 Y74.882
G1 F1200 X137.064 Y74.935 E9.54083
G1 X137.975 Y75.068 E9.57146
G1 X138.871 Y75.279 E9.60207
G1 X139.745 Y75.567 E9.63268
G1 X140.591 Y75.93 E9.6633
G1 X141.403 Y76.365 E9.69394
G1 X142.173 Y76.869 E9.72455
G1 X142.897 Y77.438 E9.75517
G1 X143.569 Y78.067 E9.78579
G1 X144.184 Y78.753 E9.81643
G1 X144.737 Y79.489 E9.84705
G1 X145.093 Y80.044 E9.86898
G1 X145.549 Y80.81 E9.89863
G1 X163.401 Y111.72 E11.08584
G1 X163.731 Y112.309 E11.1083
G1 X164.146 Y113.131 E11.13893
G1 X164.488 Y113.986 E11.16955
G1 X164.754 Y114.867 E11.20016
G1 X164.943 Y115.768 E11.23078
G1 X165.053 Y116.682 E11.2614
G1 X165.083 Y117.602 E11.29202
G1 X165.034 Y118.522 E11.32266
G1 X164.904 Y119.433 E11.35327
G1 X164.696 Y120.33 E11.38389
G1 X164.412 Y121.205 E11.41449
G1 X164.052 Y122.053 E11.44513
G1 X163.795 Y122.557 E11.46395
G1 X163.312 Y123.437 E11.49734
G1 X145.489 Y154.293 E12.68251
G1 X145.106 Y154.937 E12.70743
G1 X144.601 Y155.707 E12.73806
G1 X144.032 Y156.431 E12.76869
G1 X143.402 Y157.102 E12.7993
G1 X142.716 Y157.716 E12.82992
G1 X141.979 Y158.268 E12.86055
G1 X141.197 Y158.755 E12.89119
G1 X140.376 Y159.171 E12.9218
G1 X139.522 Y159.515 E12.95242
G1 X138.641 Y159.783 E12.98305
G1 X137.741 Y159.974 E13.01365
G1 X136.827 Y160.086 E13.04428
G1 X136.142 Y160.118 E13.06709
G1 X135.276 Y160.129 E13.09589
G1 X99.556 Y160.128 E14.28394
G1 X98.855 Y160.118 E14.30726
G1 X97.936 Y160.065 E14.33788
G1 X97.025 Y159.932 E14.3685
G1 X96.129 Y159.721 E14.39912
G1 X95.254 Y159.433 E14.42976
G1 X94.408 Y159.07 E14.46037
G1 X93.597 Y158.635 E14.49098
G1 X92.826 Y158.131 E14.52162
G1 X92.102 Y157.562 E14.55225
G1 X91.43 Y156.933 E14.58286
G1 X90.815 Y156.248 E14.61348
G1 X90.262 Y155.512 E14.6441
G1 X89.905 Y154.953 E14.66616
G1 X89.469 Y154.221 E14.6945
G1 X89.047 Y153.491 E14.72254
G1 X71.589 Y123.264 E15.88353
G1 X71.256 Y122.667 E15.90627
G1 X70.843 Y121.844 E15.93689
G1 X70.502 Y120.988 E15.96754
G1 X70.238 Y120.107 E15.99813
G1 X70.051 Y119.205 E16.02877
G1 X69.942 Y118.291 E16.05938
G1 X69.914 Y117.371 E16.09
G1 X69.965 Y116.451 E16.12064
G1 X70.096 Y115.54 E16.15126
G1 X70.306 Y114.644 E16.18186
G1 X70.593 Y113.769 E16.21249
G1 X70.954 Y112.922 E16.24312
G1 X71.262 Y112.328 E16.26537
G1 X71.758 Y111.443 E16.29911
G1 X89.577 Y80.595 E17.48399
G1 X89.897 Y80.06 E17.50473
G1 X90.404 Y79.291 E17.53536
G1 X90.975 Y78.569 E17.56598
G1 X91.607 Y77.899 E17.59661
G1 X92.294 Y77.287 E17.62722
G1 X93.032 Y76.737 E17.65783
G1 X93.815 Y76.252 E17.68846
G1 X94.637 Y75.838 E17.71907
G1 X95.492 Y75.496 E17.7497
G1 X96.373 Y75.23 E17.78031
G1 X97.274 Y75.041 E17.81093
G1 X98.558 Y74.91 E17.85386
G1 X99.286 Y74.88 E17.87809
G1 X99.722 Y74.871 E17.8926
G1 X135.444 Y74.872 E19.08071
G1 X136.144 Y74.882 E19.104
G0 F6000 X136.15 Y74.482
G1 F1200 X137.086 Y74.535 E19.13518
G1 X138.015 Y74.668 E19.16639
G1 X138.929 Y74.88 E19.1976
G1 X139.821 Y75.169 E19.22879
G1 X140.685 Y75.532 E19.25996
G1 X141.516 Y75.968 E19.29117
G1 X142.306 Y76.473 E19.32236
G1 X143.051 Y77.044 E19.35357
G1 X143.744 Y77.675 E19.38475
G1 X144.38 Y78.364 E19.41593
G1 X144.956 Y79.104 E19.44712
G1 X145.436 Y79.839 E19.47632
G1 X145.895 Y80.61 E19.50617
G1 X163.75 Y111.524 E20.69355
G1 X164.08 Y112.113 E20.716
G1 X164.504 Y112.95 E20.74721
G1 X164.854 Y113.82 E20.7784
G1 X165.129 Y114.717 E20.8096
G1 X165.326 Y115.634 E20.8408
G1 X165.445 Y116.564 E20.87198
G1 X165.484 Y117.501 E20.90317
G1 X165.443 Y118.438 E20.93437
G1 X165.322 Y119.368 E20.96556
G1 X165.123 Y120.285 E20.99677
G1 X164.846 Y121.181 E21.02796
G1 X164.494 Y122.05 E21.05915
G1 X164.146 Y122.748 E21.08509
G1 X163.658 Y123.637 E21.11882
G1 X145.832 Y154.498 E22.30419
G1 X145.449 Y155.142 E22.32911
G1 X144.936 Y155.927 E22.3603
G1 X144.358 Y156.665 E22.39148
G1 X143.719 Y157.351 E22.42266
G1 X143.023 Y157.981 E22.45389
G1 X142.277 Y158.549 E22.48507
G1 X141.485 Y159.051 E22.51626
G1 X140.653 Y159.484 E22.54746
G1 X139.787 Y159.845 E22.57866
G1 X138.894 Y160.13 E22.60984
G1 X137.979 Y160.339 E22.64105
G1 X137.051 Y160.468 E22.67222
G1 X136.148 Y160.518 E22.7023
G1 X135.276 Y160.529 E22.7313
G1 X99.55 Y160.528 E23.91955
G1 X98.849 Y160.518 E23.94287
G1 X97.913 Y160.465 E23.97405
G1 X96.984 Y160.332 E24.00527
G1 X96.071 Y160.12 E24.03644
G1 X95.178 Y159.832 E24.06765
G1 X94.314 Y159.468 E24.09883
G1 X93.483 Y159.032 E24.13004
G1 X92.693 Y158.527 E24.16123
G1 X91.949 Y157.957 E24.1924
G1 X91.256 Y157.325 E24.2236
G1 X90.619 Y156.636 E24.25481
G1 X90.043 Y155.896 E24.286
G1 X89.561 Y155.158 E24.31531
G1 X89.123 Y154.421 E24.34383
G1 X88.701 Y153.691 E24.37187
G1 X71.239 Y123.458 E25.5331
G1 X70.906 Y122.861 E25.55584
G1 X70.485 Y122.024 E25.587
G1 X70.136 Y121.153 E25.61821
G1 X69.863 Y120.256 E25.6494
G1 X69.667 Y119.339 E25.68058
G1 X69.55 Y118.408 E25.71179
G1 X69.513 Y117.471 E25.74298
G1 X69.556 Y116.534 E25.77418
G1 X69.678 Y115.604 E25.80538
G1 X69.879 Y114.688 E25.83657
G1 X70.158 Y113.793 E25.86775
G1 X70.511 Y112.924 E25.89894
G1 X70.913 Y112.133 E25.92846
G1 X71.412 Y111.243 E25.96239
G1 X89.234 Y80.39 E27.14747
G1 X89.554 Y79.855 E27.1682
G1 X90.069 Y79.071 E27.1994
G1 X90.649 Y78.334 E27.23059
G1 X91.29 Y77.649 E27.2618
G1 X91.987 Y77.022 E27.29298
G1 X92.735 Y76.455 E27.3242
G1 X93.528 Y75.955 E27.35538
G1 X94.361 Y75.524 E27.38657
G1 X95.228 Y75.166 E27.41777
G1 X96.122 Y74.883 E27.44896
G1 X97.037 Y74.677 E27.48015
G1 X97.966 Y74.549 E27.51134
G1 X98.541 Y74.51 E27.53051
G1 X99.269 Y74.48 E27.55475
G1 X99.722 Y74.471 E27.56982
G1 X135.45 Y74.472 E28.75813
G1 X136.15 Y74.482 E28.78142
G1 F1500 E22.28142
;MESH:Sheep_6._T2_Pasture_SFW.stl
G0 F6000 X135.759 Y84.806
G0 X135.759 Y85.891
G0 X153.604 Y117.5
G0 X135.655 Y148.929
;TYPE:WALL-INNER
G1 F1500 E28.78142
G1 F1200 X99.345 Y148.929 E29.98909
G1 X81.193 Y117.501 E31.19622
G1 X99.346 Y86.071 E32.40342
G1 X135.655 Y86.071 E33.61106
G1 X153.807 Y117.5 E34.81821
G1 X135.655 Y148.929 E36.02537
G0 F6000 X135.885 Y149.329
;TYPE:WALL-OUTER
G1 F1200 X99.115 Y149.329 E37.24834
G1 X80.731 Y117.5 E38.47088
G1 X80.851 Y117.293 E38.47883
G1 X99.115 Y85.671 E39.69341
G1 X135.885 Y85.671 E40.91639
G1 X154.269 Y117.5 E42.13892
G1 X135.885 Y149.329 E43.36145
G0 F6000 X135.614 Y148.919
G0 X135.43 Y148.539
;TYPE:SKIN
G1 F1200 X99.57 Y148.539 E44.55416
G1 X81.644 Y117.501 E45.74629
G1 X99.571 Y86.461 E46.9385
G1 X135.43 Y86.461 E48.13118
G1 X153.356 Y117.5 E49.32334
G1 X135.43 Y148.539 E50.5155
G1 F1500 E44.0155
G0 F6000 X135.671 Y148.68
G0 X135.605 Y148.72
G0 X99.729 Y148.819
G0 X99.729 Y148.378
G1 F1500 E50.5155
G1 F1200 X99.568 Y148.217 E50.52307
G0 F6000 X100.295 Y148.378
G1 F1200 X98.795 Y146.878 E50.59363
G0 F6000 X98.414 Y147.097
G0 X97.641 Y145.758
G0 X98.021 Y145.539
G1 F1200 X100.861 Y148.378 E50.72719
G0 F6000 X101.426 Y148.378
G1 F1200 X97.249 Y144.2 E50.92369
G0 F6000 X96.868 Y144.42
G0 X96.094 Y143.08
G0 X96.475 Y142.861
G1 F1200 X101.992 Y148.378 E51.18319
G0 F6000 X102.558 Y148.378
G1 F1200 X95.702 Y141.523 E51.50565
G0 F6000 X95.322 Y141.742
G0 X94.548 Y140.403
G0 X94.929 Y140.183
G1 F1200 X103.123 Y148.378 E51.89109
G0 F6000 X103.689 Y148.378
G1 F1200 X94.156 Y138.845 E52.3395
G0 F6000 X93.775 Y139.065
G0 X93.001 Y137.725
G0 X93.382 Y137.506
G1 F1200 X104.255 Y148.378 E52.85091
G0 F6000 X104.82 Y148.378
G1 F1200 X92.609 Y136.167 E53.42527
G0 F6000 X92.228 Y136.386
G0 X91.455 Y135.048
G0 X91.836 Y134.828
G1 F1200 X105.386 Y148.378 E54.06263
G0 F6000 X105.952 Y148.378
G1 F1200 X91.063 Y133.489 E54.76296
G0 F6000 X90.682 Y133.709
G0 X89.908 Y132.369
G0 X90.289 Y132.15
G1 F1200 X106.517 Y148.378 E55.52627
G0 F6000 X107.083 Y148.378
G1 F1200 X89.516 Y130.811 E56.35257
G0 F6000 X89.135 Y131.031
G0 X88.362 Y129.692
G0 X88.743 Y129.472
G1 F1200 X107.649 Y148.378 E57.24185
G0 F6000 X108.214 Y148.378
G1 F1200 X87.97 Y128.134 E58.19407
G0 F6000 X87.589 Y128.354
G0 X86.815 Y127.014
G0 X87.196 Y126.794
G1 F1200 X108.78 Y148.378 E59.20931
G0 F6000 X109.346 Y148.378
G1 F1200 X86.424 Y125.456 E60.28749
G0 F6000 X86.042 Y125.676
G0 X85.269 Y124.337
G0 X85.65 Y124.117
G1 F1200 X109.911 Y148.378 E61.42866
G0 F6000 X110.477 Y148.378
G1 F1200 X84.877 Y122.778 E62.6328
G0 F6000 X84.496 Y122.998
G0 X83.722 Y121.659
G0 X84.103 Y121.439
G1 F1200 X111.043 Y148.378 E63.89995
G0 F6000 X111.609 Y148.378
G1 F1200 X83.331 Y120.1 E65.23006
G0 F6000 X82.949 Y120.32
G0 X82.176 Y118.981
G0 X82.557 Y118.761
G1 F1200 X112.174 Y148.378 E66.62316
G0 F6000 X112.74 Y148.378
G1 F1200 X81.84 Y117.478 E68.0766
G0 F6000 X82.047 Y117.12
G1 F1200 X113.306 Y148.378 E69.5469
G0 F6000 X113.871 Y148.378
G1 F1200 X82.254 Y116.761 E71.03407
G0 F6000 X82.462 Y116.403
G1 F1200 X114.437 Y148.378 E72.53807
G0 F6000 X115.003 Y148.378
G1 F1200 X82.669 Y116.044 E74.05897
G0 F6000 X82.876 Y115.686
G1 F1200 X115.568 Y148.378 E75.5967
G0 F6000 X116.134 Y148.378
G1 F1200 X83.083 Y115.327 E77.15132
G0 F6000 X83.29 Y114.968
G1 F1200 X116.7 Y148.378 E78.72282
G0 F6000 X117.265 Y148.378
G1 F1200 X83.497 Y114.609 E80.31119
G0 F6000 X83.704 Y114.251
G1 F1200 X117.831 Y148.378 E81.91642
G0 F6000 X118.397 Y148.378
G1 F1200 X83.911 Y113.892 E83.53853
G0 F6000 X84.118 Y113.534
G1 F1200 X118.962 Y148.378 E85.17749
G0 F6000 X119.528 Y148.378
G1 F1200 X84.326 Y113.175 E86.8333
G0 F6000 X84.533 Y112.817
G1 F1200 X120.094 Y148.378 E88.50598
G0 F6000 X120.659 Y148.378
G1 F1200 X84.74 Y112.458 E90.19553
G0 F6000 X84.946 Y112.099
G1 F1200 X121.225 Y148.378 E91.90198
G0 F6000 X121.791 Y148.378
G1 F1200 X85.154 Y111.741 E93.62527
G0 F6000 X85.361 Y111.382
G1 F1200 X122.357 Y148.378 E95.36545
G0 F6000 X122.922 Y148.378
G1 F1200 X85.568 Y111.024 E97.12247
G0 F6000 X85.775 Y110.665
G1 F1200 X123.488 Y148.378 E98.89637
G0 F6000 X124.054 Y148.378
G1 F1200 X85.982 Y110.307 E100.68714
G0 F6000 X86.189 Y109.948
G1 F1200 X124.619 Y148.378 E102.49477
G0 F6000 X125.185 Y148.378
G1 F1200 X86.397 Y109.59 E104.31924
G0 F6000 X86.603 Y109.231
G1 F1200 X125.751 Y148.378 E106.16062
G0 F6000 X126.316 Y148.378
G1 F1200 X86.81 Y108.872 E108.01886
G0 F6000 X87.017 Y108.514
G1 F1200 X126.882 Y148.378 E109.89396
G0 F6000 X127.448 Y148.378
G1 F1200 X87.225 Y108.155 E111.78593
G0 F6000 X87.432 Y107.797
G1 F1200 X128.013 Y148.378 E113.69473
G0 F6000 X128.579 Y148.378
G1 F1200 X87.639 Y107.438 E115.62043
G0 F6000 X87.846 Y107.08
G1 F1200 X129.145 Y148.378 E117.56298
G0 F6000 X129.71 Y148.378
G1 F1200 X88.053 Y106.721 E119.5224
G0 F6000 X88.26 Y106.362
G1 F1200 X130.276 Y148.378 E121.4987
G0 F6000 X130.842 Y148.378
G1 F1200 X88.467 Y106.003 E123.49189
G0 F6000 X88.674 Y105.645
G1 F1200 X131.408 Y148.378 E125.50194
G0 F6000 X131.973 Y148.378
G1 F1200 X88.881 Y105.286 E127.52886
G0 F6000 X89.089 Y104.928
G1 F1200 X132.539 Y148.378 E129.57261
G0 F6000 X133.105 Y148.378
G1 F1200 X89.296 Y104.569 E131.63326
G0 F6000 X89.503 Y104.211
G1 F1200 X133.67 Y148.378 E133.71074
G0 F6000 X134.236 Y148.378
G1 F1200 X89.71 Y103.852 E135.8051
G0 F6000 X89.917 Y103.493
G1 F1200 X134.802 Y148.378 E137.91636
G0 F6000 X135.349 Y148.36
G1 F1200 X90.124 Y103.135 E140.0436
G0 F6000 X90.331 Y102.776
G1 F1200 X135.556 Y148.001 E142.17085
G0 F6000 X135.763 Y147.643
G1 F1200 X90.538 Y102.418 E144.29809
G0 F6000 X90.745 Y102.059
G1 F1200 X135.97 Y147.283 E146.42531
G0 F6000 X136.177 Y146.925
G1 F1200 X90.953 Y101.701 E148.55251
G0 F6000 X91.16 Y101.342
G1 F1200 X136.384 Y146.566 E150.67971
G0 F6000 X136.591 Y146.208
G1 F1200 X91.366 Y100.983 E152.80696
G0 F6000 X91.573 Y100.624
G1 F1200 X136.798 Y145.849 E154.9342
G0 F6000 X137.006 Y145.491
G1 F1200 X91.781 Y100.266 E157.06145
G0 F6000 X91.988 Y99.907
G1 F1200 X137.213 Y145.132 E159.18869
G0 F6000 X137.42 Y144.774
G1 F1200 X92.195 Y99.549 E161.31594
G0 F6000 X92.402 Y99.19
G1 F1200 X137.627 Y144.415 E163.44318
G0 F6000 X137.834 Y144.056
G1 F1200 X92.609 Y98.832 E165.5704
G0 F6000 X92.816 Y98.473
G1 F1200 X138.041 Y143.698 E167.69765
G0 F6000 X138.248 Y143.339
G1 F1200 X93.023 Y98.114 E169.82489
G0 F6000 X93.23 Y97.756
G1 F1200 X138.455 Y142.981 E171.95214
G0 F6000 X138.662 Y142.622
G1 F1200 X93.437 Y97.397 E174.07939
G0 F6000 X93.644 Y97.039
G1 F1200 X138.87 Y142.264 E176.20665
G0 F6000 X139.077 Y141.905
G1 F1200 X93.852 Y96.68 E178.3339
G0 F6000 X94.059 Y96.322
G1 F1200 X139.283 Y141.546 E180.4611
G0 F6000 X139.49 Y141.188
G1 F1200 X94.266 Y95.963 E182.58832
G0 F6000 X94.473 Y95.605
G1 F1200 X139.698 Y140.829 E184.71554
G0 F6000 X139.905 Y140.471
G1 F1200 X94.68 Y95.245 E186.84281
G0 F6000 X94.887 Y94.887
G1 F1200 X140.112 Y140.112 E188.97006
G0 F6000 X140.319 Y139.753
G1 F1200 X95.094 Y94.528 E191.0973
G0 F6000 X95.301 Y94.17
G1 F1200 X140.526 Y139.395 E193.22455
G0 F6000 X140.733 Y139.036
G1 F1200 X95.508 Y93.811 E195.35179
G0 F6000 X95.716 Y93.453
