;FLAVOR:Marlin
;TIME:188
;Filament used: 0.0724668m
;Layer height: 0.2
;MINX:97.6
;MINY:88.5
;MINZ:0.2
;MAXX:122.4
;MAXY:131.5
;MAXZ:2.8
;Generated with Cura_SteamEngine master
M140 S60
M105
M190 S60
M104 S200
M105
M109 S200
M82 ;absolute extrusion mode
; Ender 3 Custom Start G-code
G92 E0 ; Reset Extruder
G28 ; Home all axes
G1 Z2.0 F3000 ; Move Z Axis up little to prevent scratching of Heat Bed
G1 X0.1 Y20 Z0.3 F5000.0 ; Move to start position
G1 X0.1 Y200.0 Z0.3 F1500.0 E15 ; Draw the first line
G1 X0.4 Y200.0 Z0.3 F5000.0 ; Move to side a little
G1 X0.4 Y20 Z0.3 F1500.0 E30 ; Draw the second line
G92 E0 ; Reset Extruder
G1 Z2.0 F3000 ; Move Z Axis up little to prevent scratching of Heat Bed
G1 X5 Y20 Z0.3 F5000.0 ; Move over to prevent blob squish
G92 E0
G92 E0
G1 F1500 E-6.5
;LAYER_COUNT:14
;LAYER:0
M107
G0 F6000 X100.798 Y91.764 Z0.2
;TYPE:SKIRT
G1 F1500 E0
G1 F1200 X101.486 Y91.127 E0.03119
G1 X102.226 Y90.551 E0.06237
G1 X103.012 Y90.039 E0.09357
G1 X103.839 Y89.597 E0.12476
G1 X104.701 Y89.227 E0.15596
G1 X105.591 Y88.931 E0.18716
G1 X106.503 Y88.713 E0.21835
G1 X107.43 Y88.572 E0.24953
G1 X108.301 Y88.513 E0.27857
G1 X108.622 Y88.504 E0.28925
G1 X108.93 Y88.5 E0.29949
G1 X110.851 Y88.501 E0.36339
G1 X111.549 Y88.511 E0.38661
G1 X112.485 Y88.565 E0.41779
G1 X113.413 Y88.697 E0.44896
G1 X114.327 Y88.909 E0.48017
G1 X115.219 Y89.198 E0.51136
G1 X116.084 Y89.561 E0.54256
G1 X116.914 Y89.997 E0.57374
G1 X117.705 Y90.502 E0.60495
G1 X118.449 Y91.073 E0.63615
G1 X119.142 Y91.705 E0.66734
G1 X119.779 Y92.393 E0.69853
G1 X120.354 Y93.134 E0.72972
G1 X120.865 Y93.92 E0.7609
G1 X121.307 Y94.748 E0.79212
G1 X121.676 Y95.61 E0.82331
G1 X121.971 Y96.5 E0.85449
G1 X122.189 Y97.412 E0.88568
G1 X122.329 Y98.34 E0.9169
G1 X122.387 Y99.201 E0.9456
G1 X122.396 Y99.521 E0.95625
G1 X122.4 Y99.83 E0.96652
G1 X122.399 Y119.9 E1.63406
G1 X122.39 Y120.627 E1.65824
G1 X122.339 Y121.564 E1.68945
G1 X122.207 Y122.492 E1.72062
G1 X121.998 Y123.406 E1.75181
G1 X121.711 Y124.299 E1.78301
G1 X121.349 Y125.165 E1.81422
G1 X120.915 Y125.996 E1.84541
G1 X120.411 Y126.787 E1.8766
G1 X119.842 Y127.532 E1.90778
G1 X119.211 Y128.227 E1.939
G1 X118.524 Y128.865 E1.97019
G1 X117.785 Y129.442 E2.00137
G1 X116.999 Y129.954 E2.03257
G1 X116.173 Y130.397 E2.06374
G1 X115.311 Y130.769 E2.09497
G1 X114.422 Y131.065 E2.12613
G1 X113.51 Y131.285 E2.15734
G1 X112.583 Y131.426 E2.18852
G1 X111.699 Y131.487 E2.218
G1 X111.378 Y131.496 E2.22868
G1 X111.07 Y131.5 E2.23892
G1 X109.165 Y131.499 E2.30228
G1 X108.467 Y131.49 E2.3255
G1 X107.531 Y131.438 E2.35668
G1 X106.602 Y131.306 E2.38789
G1 X105.688 Y131.096 E2.41908
G1 X104.795 Y130.809 E2.45028
G1 X103.93 Y130.446 E2.48148
G1 X103.099 Y130.012 E2.51266
G1 X102.308 Y129.508 E2.54386
G1 X101.563 Y128.938 E2.57506
G1 X100.869 Y128.307 E2.60625
G1 X100.232 Y127.62 E2.63741
G1 X99.655 Y126.88 E2.66862
G1 X99.143 Y126.094 E2.69982
G1 X98.7 Y125.267 E2.73103
G1 X98.329 Y124.406 E2.76221
G1 X98.033 Y123.516 E2.7934
G1 X97.814 Y122.604 E2.8246
G1 X97.673 Y121.677 E2.85579
G1 X97.613 Y120.788 E2.88542
G1 X97.604 Y120.455 E2.8965
G1 X97.6 Y120.158 E2.90638
G1 X97.601 Y100.025 E3.57601
G1 X97.61 Y99.36 E3.59813
G1 X97.663 Y98.424 E3.62931
G1 X97.795 Y97.495 E3.66052
G1 X98.006 Y96.581 E3.69172
G1 X98.294 Y95.689 E3.72289
G1 X98.657 Y94.824 E3.75409
G1 X99.092 Y93.993 E3.78529
G1 X99.596 Y93.203 E3.81646
G1 X100.166 Y92.458 E3.84766
G1 X100.798 Y91.764 E3.87888
G0 F6000 X101.189 Y91.939
G1 F1200 X101.874 Y91.323 E3.90952
G1 X102.61 Y90.77 E3.94014
G1 X103.391 Y90.282 E3.97077
G1 X104.211 Y89.864 E4.00138
G1 X105.065 Y89.519 E4.03201
G1 X105.945 Y89.249 E4.06263
G1 X106.845 Y89.057 E4.09324
G1 X107.759 Y88.943 E4.12387
G1 X108.312 Y88.913 E4.14229
G1 X108.633 Y88.904 E4.15297
G1 X108.93 Y88.9 E4.16285
G1 X110.693 Y88.9 E4.22149
G1 X111.543 Y88.911 E4.24976
G1 X112.462 Y88.964 E4.28038
G1 X113.373 Y89.097 E4.311
G1 X114.269 Y89.308 E4.34162
G1 X115.143 Y89.596 E4.37223
G1 X115.99 Y89.959 E4.40287
G1 X116.801 Y90.394 E4.43348
G1 X117.571 Y90.898 E4.46409
G1 X118.295 Y91.467 E4.49472
G1 X118.967 Y92.097 E4.52536
G1 X119.582 Y92.782 E4.55597
G1 X120.135 Y93.518 E4.58659
G1 X120.622 Y94.299 E4.61721
G1 X121.039 Y95.12 E4.64783
G1 X121.384 Y95.974 E4.67847
G1 X121.653 Y96.854 E4.70907
G1 X121.845 Y97.755 E4.73971
G1 X121.958 Y98.668 E4.77031
G1 X121.987 Y99.212 E4.78843
G1 X121.996 Y99.532 E4.79908
G1 X122 Y99.83 E4.80899
G1 X121.999 Y119.895 E5.47636
G1 X121.99 Y120.622 E5.50054
G1 X121.939 Y121.541 E5.53115
G1 X121.808 Y122.453 E5.5618
G1 X121.598 Y123.349 E5.5924
G1 X121.312 Y124.224 E5.62302
G1 X120.951 Y125.071 E5.65365
G1 X120.517 Y125.883 E5.68427
G1 X120.015 Y126.655 E5.7149
G1 X119.447 Y127.38 E5.74553
G1 X118.819 Y128.053 E5.77614
G1 X118.135 Y128.669 E5.80676
G1 X117.4 Y129.223 E5.83737
G1 X116.62 Y129.712 E5.86799
G1 X115.8 Y130.131 E5.89862
G1 X114.947 Y130.477 E5.92924
G1 X114.067 Y130.748 E5.95986
G1 X113.167 Y130.941 E5.99048
G1 X112.253 Y131.056 E6.02112
G1 X111.688 Y131.087 E6.03994
G1 X111.367 Y131.096 E6.05062
G1 X111.07 Y131.1 E6.0605
G1 X109.17 Y131.099 E6.12369
G1 X108.472 Y131.09 E6.14691
G1 X107.553 Y131.038 E6.17752
G1 X106.642 Y130.907 E6.20813
G1 X105.746 Y130.697 E6.23874
G1 X104.871 Y130.41 E6.26937
G1 X104.024 Y130.048 E6.30001
G1 X103.212 Y129.614 E6.33063
G1 X102.441 Y129.112 E6.36123
G1 X101.716 Y128.544 E6.39186
G1 X101.043 Y127.915 E6.4225
G1 X100.428 Y127.231 E6.4531
G1 X99.874 Y126.496 E6.48371
G1 X99.386 Y125.715 E6.51434
G1 X98.967 Y124.895 E6.54497
G1 X98.621 Y124.042 E6.57558
G1 X98.351 Y123.162 E6.6062
G1 X98.158 Y122.261 E6.63684
G1 X98.044 Y121.348 E6.66745
G1 X98.013 Y120.777 E6.68647
G1 X98.004 Y120.444 E6.69755
G1 X98 Y120.158 E6.70706
G1 X98.001 Y100.031 E7.37649
G1 X98.01 Y99.366 E7.39861
G1 X98.062 Y98.446 E7.42925
G1 X98.194 Y97.535 E7.45987
G1 X98.405 Y96.639 E7.49049
G1 X98.692 Y95.764 E7.52111
G1 X99.055 Y94.918 E7.55173
G1 X99.489 Y94.106 E7.58236
G1 X99.992 Y93.335 E7.61298
G1 X100.561 Y92.611 E7.6436
G1 X101.189 Y91.939 E7.67419
G0 F6000 X101.581 Y92.117
G1 F1200 X102.262 Y91.524 E7.70423
G1 X102.994 Y90.994 E7.73429
G1 X103.769 Y90.531 E7.76431
G1 X104.582 Y90.138 E7.79435
G1 X105.427 Y89.818 E7.8244
G1 X106.296 Y89.575 E7.85441
G1 X107.184 Y89.409 E7.88446
G1 X108.323 Y89.313 E7.92247
G1 X108.644 Y89.304 E7.93316
G1 X108.93 Y89.3 E7.94267
G1 X110.693 Y89.3 E8.00131
G1 X111.537 Y89.311 E8.02938
G1 X112.439 Y89.364 E8.05943
G1 X113.332 Y89.496 E8.08946
G1 X114.21 Y89.707 E8.11949
G1 X115.066 Y89.995 E8.14953
G1 X115.893 Y90.357 E8.17956
G1 X116.685 Y90.792 E8.20961
G1 X117.436 Y91.294 E8.23965
G1 X118.139 Y91.861 E8.26969
G1 X118.789 Y92.488 E8.29973
G1 X119.381 Y93.17 E8.32977
G1 X119.911 Y93.901 E8.3598
G1 X120.373 Y94.677 E8.38984
G1 X120.766 Y95.49 E8.41987
G1 X121.084 Y96.335 E8.4499
G1 X121.327 Y97.205 E8.47994
G1 X121.492 Y98.093 E8.50998
G1 X121.587 Y99.223 E8.5477
G1 X121.596 Y99.543 E8.55835
G1 X121.6 Y99.83 E8.5679
G1 X121.599 Y119.89 E9.23509
G1 X121.59 Y120.617 E9.25928
G1 X121.539 Y121.519 E9.28932
G1 X121.408 Y122.413 E9.31938
G1 X121.199 Y123.291 E9.34939
G1 X120.913 Y124.148 E9.37944
G1 X120.552 Y124.976 E9.40949
G1 X120.12 Y125.768 E9.43949
G1 X119.619 Y126.52 E9.46955
G1 X119.053 Y127.224 E9.49959
G1 X118.428 Y127.875 E9.52961
G1 X117.747 Y128.469 E9.55966
G1 X117.016 Y129 E9.58971
G1 X116.242 Y129.464 E9.61973
G1 X115.429 Y129.858 E9.64978
G1 X114.585 Y130.178 E9.6798
G1 X113.715 Y130.423 E9.70986
G1 X112.828 Y130.589 E9.73987
G1 X111.677 Y130.687 E9.7783
G1 X111.356 Y130.696 E9.78898
G1 X111.07 Y130.7 E9.79849
G1 X109.175 Y130.699 E9.86152
G1 X108.477 Y130.69 E9.88473
G1 X107.576 Y130.639 E9.91475
G1 X106.682 Y130.507 E9.94481
G1 X105.804 Y130.298 E9.97483
G1 X104.947 Y130.011 E10.00488
G1 X104.12 Y129.65 E10.0349
G1 X103.327 Y129.217 E10.06495
G1 X102.576 Y128.716 E10.09497
G1 X101.872 Y128.15 E10.12502
G1 X101.221 Y127.524 E10.15506
G1 X100.628 Y126.843 E10.18509
G1 X100.098 Y126.112 E10.21512
G1 X99.634 Y125.337 E10.24517
G1 X99.24 Y124.524 E10.27522
G1 X98.92 Y123.68 E10.30524
G1 X98.676 Y122.81 E10.33529
G1 X98.51 Y121.922 E10.36534
G1 X98.413 Y120.767 E10.40389
G1 X98.404 Y120.434 E10.41497
G1 X98.4 Y120.158 E10.42415
G1 X98.401 Y100.036 E11.09341
G1 X98.41 Y99.371 E11.11553
G1 X98.462 Y98.469 E11.14558
G1 X98.594 Y97.576 E11.1756
G1 X98.804 Y96.698 E11.20563
G1 X99.091 Y95.841 E11.23569
G1 X99.453 Y95.014 E11.26571
G1 X99.886 Y94.222 E11.29574
G1 X100.388 Y93.471 E11.32578
G1 X100.955 Y92.767 E11.35585
G1 X101.581 Y92.117 E11.38586
G1 F1500 E4.88586
;MESH:crank_shaft.stl
G0 F6000 X109.014 Y98.835
G0 X109.014 Y99.914
G0 X109.382 Y119.718
G0 X110.8 Y119.9
;TYPE:WALL-INNER
G1 F1500 E11.38586
G1 F1200 X109.2 Y119.9 E11.43908
G1 X109.2 Y100.1 E12.09763
G1 X110.8 Y100.1 E12.15084
G1 X110.8 Y119.9 E12.80939
G0 F6000 X111.2 Y120.3
;TYPE:WALL-OUTER
G1 F1200 X108.8 Y120.3 E12.88922
G1 X108.8 Y99.7 E13.57438
G1 X111.2 Y99.7 E13.6542
G1 X111.2 Y120.3 E14.33936
G0 F6000 X110.93 Y120.03
G0 X110.69 Y119.51
G0 X110.41 Y119.51
;TYPE:SKIN
G1 F1200 X109.59 Y119.51 E14.36663
G1 X109.59 Y100.49 E14.99924
G1 X110.41 Y100.49 E15.02651
G1 X110.41 Y119.51 E15.65912
G0 F6000 X110.249 Y119.3
G1 F1200 X109.749 Y118.8 E15.68264
G0 F6000 X110.249 Y118.735
G1 F1200 X109.749 Y118.234 E15.70618
G0 F6000 X110.249 Y118.169
G1 F1200 X109.749 Y117.668 E15.72973
G0 F6000 X110.249 Y117.603
G1 F1200 X109.749 Y117.103 E15.75324
G0 F6000 X110.249 Y117.038
G1 F1200 X109.749 Y116.537 E15.77679
G0 F6000 X110.249 Y116.472
G1 F1200 X109.749 Y115.971 E15.80033
G0 F6000 X110.249 Y115.906
G1 F1200 X109.749 Y115.406 E15.82385
G0 F6000 X110.249 Y115.341
G1 F1200 X109.749 Y114.84 E15.84739
G0 F6000 X110.249 Y114.775
G1 F1200 X109.749 Y114.274 E15.87093
G0 F6000 X110.249 Y114.209
G1 F1200 X109.749 Y113.709 E15.89445
G0 F6000 X110.249 Y113.644
G1 F1200 X109.749 Y113.143 E15.91799
G0 F6000 X110.249 Y113.078
G1 F1200 X109.749 Y112.577 E15.94153
G0 F6000 X110.249 Y112.512
G1 F1200 X109.749 Y112.012 E15.96505
G0 F6000 X110.249 Y111.947
G1 F1200 X109.749 Y111.446 E15.98859
G0 F6000 X110.249 Y111.381
G1 F1200 X109.749 Y110.88 E16.01213
G0 F6000 X110.249 Y110.815
G1 F1200 X109.749 Y110.315 E16.03565
G0 F6000 X110.249 Y110.249
G1 F1200 X109.749 Y109.749 E16.05917
G0 F6000 X110.249 Y109.684
G1 F1200 X109.749 Y109.183 E16.08271
G0 F6000 X110.249 Y109.118
G1 F1200 X109.749 Y108.617 E16.10626
G0 F6000 X110.249 Y108.552
G1 F1200 X109.749 Y108.052 E16.12977
G0 F6000 X110.249 Y107.987
G1 F1200 X109.749 Y107.486 E16.15332
G0 F6000 X110.249 Y107.421
G1 F1200 X109.749 Y106.92 E16.17686
G0 F6000 X110.249 Y106.855
G1 F1200 X109.749 Y106.355 E16.20038
G0 F6000 X110.249 Y106.29
G1 F1200 X109.749 Y105.789 E16.22392
G0 F6000 X110.249 Y105.724
G1 F1200 X109.749 Y105.223 E16.24746
G0 F6000 X110.249 Y105.158
G1 F1200 X109.749 Y104.658 E16.27098
G0 F6000 X110.249 Y104.593
G1 F1200 X109.749 Y104.092 E16.29452
G0 F6000 X110.249 Y104.027
G1 F1200 X109.749 Y103.526 E16.31806
G0 F6000 X110.249 Y103.461
G1 F1200 X109.749 Y102.961 E16.34158
G0 F6000 X110.249 Y102.896
G1 F1200 X109.749 Y102.395 E16.36512
G0 F6000 X110.249 Y102.33
G1 F1200 X109.749 Y101.829 E16.38867
G0 F6000 X110.249 Y101.764
G1 F1200 X109.749 Y101.264 E16.41218
G0 F6000 X110.249 Y101.199
G1 F1200 X109.749 Y100.698 E16.43573
G0 F6000 X109.4 Y100.698
;MESH:NONMESH
G0 F300 X109.4 Y100.698 Z0.4
G0 F6000 X109.31 Y100.698
G0 X109.382 Y100.282
G0 X110.618 Y100.282
G0 X110.8 Y119.9
;TIME_ELAPSED:33.803713
;LAYER:1
M106 S85
;TYPE:WALL-INNER
;MESH:crank_shaft.stl
G1 F939.4 X109.2 Y119.9 E16.48894
G1 X109.2 Y100.1 E17.14749
G1 X110.8 Y100.1 E17.20071
G1 X110.8 Y119.9 E17.85926
G0 F7500 X111.2 Y120.3
;TYPE:WALL-OUTER
G1 F939.4 X108.8 Y120.3 E17.93908
G1 X108.8 Y99.7 E18.62424
G1 X111.2 Y99.7 E18.70407
G1 X111.2 Y120.3 E19.38923
G0 F7500 X110.93 Y120.03
G0 X110.69 Y119.51
G0 X110.41 Y119.51
;TYPE:SKIN
G1 F939.4 X109.59 Y119.51 E19.4165
G1 X109.59 Y100.49 E20.04911
G1 X110.41 Y100.49 E20.07638
G1 X110.41 Y119.51 E20.70899
G0 F7500 X110.249 Y118.853
G1 F939.4 X109.752 Y119.349 E20.73234
G0 F7500 X109.75 Y118.786
G1 F939.4 X110.249 Y118.287 E20.75581
G0 F7500 X109.75 Y118.221
G1 F939.4 X110.249 Y117.721 E20.77931
G0 F7500 X109.75 Y117.655
G1 F939.4 X110.249 Y117.156 E20.80278
G0 F7500 X109.75 Y117.089
G1 F939.4 X110.249 Y116.59 E20.82625
G0 F7500 X109.75 Y116.524
G1 F939.4 X110.249 Y116.024 E20.84975
G0 F7500 X109.75 Y115.958
G1 F939.4 X110.249 Y115.459 E20.87322
G0 F7500 X109.75 Y115.392
G1 F939.4 X110.249 Y114.893 E20.89669
G0 F7500 X109.75 Y114.827
G1 F939.4 X110.249 Y114.327 E20.92018
G0 F7500 X109.75 Y114.261
G1 F939.4 X110.249 Y113.762 E20.94366
G0 F7500 X109.75 Y113.695
G1 F939.4 X110.249 Y113.196 E20.96713
G0 F7500 X109.75 Y113.13
G1 F939.4 X110.249 Y112.63 E20.99062
G0 F7500 X109.75 Y112.564
G1 F939.4 X110.249 Y112.065 E21.01409
G0 F7500 X109.75 Y111.998
G1 F939.4 X110.249 Y111.499 E21.03756
G0 F7500 X109.75 Y111.432
G1 F939.4 X110.249 Y110.933 E21.06104
G0 F7500 X109.75 Y110.867
G1 F939.4 X110.249 Y110.368 E21.08451
G0 F7500 X109.75 Y110.301
G1 F939.4 X110.249 Y109.802 E21.10798
G0 F7500 X109.75 Y109.735
G1 F939.4 X110.249 Y109.236 E21.13145
G0 F7500 X109.75 Y109.17
G1 F939.4 X110.249 Y108.67 E21.15495
G0 F7500 X109.75 Y108.604
G1 F939.4 X110.249 Y108.105 E21.17842
G0 F7500 X109.75 Y108.038
G1 F939.4 X110.249 Y107.539 E21.20189
G0 F7500 X109.75 Y107.473
G1 F939.4 X110.249 Y106.973 E21.22538
G0 F7500 X109.75 Y106.907
G1 F939.4 X110.249 Y106.408 E21.24885
G0 F7500 X109.75 Y106.341
G1 F939.4 X110.249 Y105.842 E21.27233
G0 F7500 X109.75 Y105.776
G1 F939.4 X110.249 Y105.276 E21.29582
G0 F7500 X109.75 Y105.21
G1 F939.4 X110.249 Y104.711 E21.31929
G0 F7500 X109.75 Y104.644
G1 F939.4 X110.249 Y104.145 E21.34276
G0 F7500 X109.75 Y104.079
G1 F939.4 X110.249 Y103.579 E21.36626
G0 F7500 X109.75 Y103.513
G1 F939.4 X110.249 Y103.014 E21.38973
G0 F7500 X109.75 Y102.947
G1 F939.4 X110.249 Y102.448 E21.4132
G0 F7500 X109.75 Y102.381
G1 F939.4 X110.249 Y101.882 E21.43667
G0 F7500 X109.75 Y101.816
G1 F939.4 X110.249 Y101.317 E21.46014
G0 F7500 X109.75 Y101.25
G1 F939.4 X110.249 Y100.751 E21.48362
G0 F7500 X110.6 Y100.751
;MESH:NONMESH
G0 F300 X110.6 Y100.751 Z0.6
G0 F7500 X110.69 Y100.751
G0 X110.8 Y119.9
;TIME_ELAPSED:46.374984
;LAYER:2
M106 S170
;TYPE:WALL-INNER
;MESH:crank_shaft.stl
G1 F934.5 X109.2 Y119.9 E21.53683
G1 X109.2 Y100.1 E22.19538
G1 X110.8 Y100.1 E22.2486
G1 X110.8 Y119.9 E22.90715
G0 F9000 X111.2 Y120.3
;TYPE:WALL-OUTER
G1 F934.5 X108.8 Y120.3 E22.98697
G1 X108.8 Y99.7 E23.67213
G1 X111.2 Y99.7 E23.75196
G1 X111.2 Y120.3 E24.43712
G0 F9000 X110.93 Y120.03
G0 X110.69 Y119.51
G0 X110.41 Y119.51
;TYPE:SKIN
G1 F934.5 X109.59 Y119.51 E24.46439
G1 X109.59 Y100.49 E25.097
G1 X110.41 Y100.49 E25.12427
G1 X110.41 Y119.51 E25.75688
G0 F9000 X110.249 Y119.3
G1 F934.5 X109.749 Y118.8 E25.7804
G0 F9000 X110.249 Y118.735
G1 F934.5 X109.749 Y118.234 E25.80394
G0 F9000 X110.249 Y118.169
G1 F934.5 X109.749 Y117.668 E25.82748
G0 F9000 X110.249 Y117.603
G1 F934.5 X109.749 Y117.103 E25.851
G0 F9000 X110.249 Y117.038
G1 F934.5 X109.749 Y116.537 E25.87454
G0 F9000 X110.249 Y116.472
G1 F934.5 X109.749 Y115.971 E25.89808
G0 F9000 X110.249 Y115.906
G1 F934.5 X109.749 Y115.406 E25.9216
G0 F9000 X110.249 Y115.341
G1 F934.5 X109.749 Y114.84 E25.94514
G0 F9000 X110.249 Y114.775
G1 F934.5 X109.749 Y114.274 E25.96869
G0 F9000 X110.249 Y114.209
G1 F934.5 X109.749 Y113.709 E25.9922
G0 F9000 X110.249 Y113.644
G1 F934.5 X109.749 Y113.143 E26.01575
G0 F9000 X110.249 Y113.078
G1 F934.5 X109.749 Y112.577 E26.03929
G0 F9000 X110.249 Y112.512
G1 F934.5 X109.749 Y112.012 E26.06281
G0 F9000 X110.249 Y111.947
G1 F934.5 X109.749 Y111.446 E26.08635
G0 F9000 X110.249 Y111.381
G1 F934.5 X109.749 Y110.88 E26.10989
G0 F9000 X110.249 Y110.815
G1 F934.5 X109.749 Y110.315 E26.13341
G0 F9000 X110.249 Y110.249
G1 F934.5 X109.749 Y109.749 E26.15693
G0 F9000 X110.249 Y109.684
G1 F934.5 X109.749 Y109.183 E26.18047
G0 F9000 X110.249 Y109.118
G1 F934.5 X109.749 Y108.617 E26.20401
G0 F9000 X110.249 Y108.552
G1 F934.5 X109.749 Y108.052 E26.22753
G0 F9000 X110.249 Y107.987
