;FLAVOR:Marlin
;TIME:350
;Filament used: 0.189084m
;Layer height: 0.2
;MINX:85.68
;MINY:93.038
;MINZ:0.2
;MAXX:134.326
;MAXY:126.961
;MAXZ:4
;Generated with Cura_SteamEngine master
M140 S60
M105
M190 S60
M104 S200
M105
M109 S200
M82 ;absolute extrusion mode
; Ender 3 Custom Start G-code
G92 E0 ; Reset Extruder
G28 ; Home all axes
G1 Z2.0 F3000 ; Move Z Axis up little to prevent scratching of Heat Bed
G1 X0.1 Y20 Z0.3 F5000.0 ; Move to start position
G1 X0.1 Y200.0 Z0.3 F1500.0 E15 ; Draw the first line
G1 X0.4 Y200.0 Z0.3 F5000.0 ; Move to side a little
G1 X0.4 Y20 Z0.3 F1500.0 E30 ; Draw the second line
G92 E0 ; Reset Extruder
G1 Z2.0 F3000 ; Move Z Axis up little to prevent scratching of Heat Bed
G1 X5 Y20 Z0.3 F5000.0 ; Move over to prevent blob squish
G92 E0
G92 E0
G1 F1500 E-6.5
;LAYER_COUNT:20
;LAYER:0
M107
G0 F6000 X89.459 Y95.864 Z0.2
;TYPE:SKIRT
G1 F1500 E0
G1 F1200 X90.183 Y95.268 E0.03119
G1 X90.955 Y94.735 E0.06239
G1 X91.769 Y94.27 E0.09357
G1 X92.62 Y93.876 E0.12476
G1 X93.502 Y93.556 E0.15597
G1 X94.407 Y93.313 E0.18714
G1 X95.331 Y93.147 E0.21836
G1 X96.501 Y93.051 E0.25741
G1 X96.821 Y93.042 E0.26805
G1 X97.13 Y93.038 E0.27833
G1 X98.251 Y93.039 E0.31562
G1 X98.949 Y93.049 E0.33883
G1 X99.454 Y93.068 E0.35564
G1 X99.912 Y93.104 E0.37092
G1 X101.16 Y93.228 E0.41264
G1 X103.789 Y93.451 E0.50039
G1 X106.306 Y93.592 E0.58424
G1 X108.826 Y93.663 E0.66809
G1 X111.35 Y93.661 E0.75203
G1 X113.85 Y93.589 E0.83522
G1 X116.352 Y93.448 E0.91857
G1 X118.909 Y93.229 E1.00393
G1 X120.053 Y93.108 E1.04219
G1 X120.901 Y93.051 E1.07046
G1 X121.22 Y93.042 E1.08107
G1 X121.53 Y93.038 E1.09138
G1 X122.635 Y93.039 E1.12813
G1 X123.333 Y93.048 E1.15135
G1 X124.269 Y93.1 E1.18253
G1 X125.198 Y93.232 E1.21374
G1 X126.112 Y93.442 E1.24493
G1 X127.005 Y93.729 E1.27613
G1 X127.87 Y94.092 E1.30733
G1 X128.701 Y94.526 E1.33851
G1 X129.492 Y95.03 E1.36971
G1 X130.237 Y95.6 E1.40091
G1 X130.931 Y96.231 E1.4321
G1 X131.568 Y96.918 E1.46326
G1 X132.145 Y97.658 E1.49447
G1 X132.657 Y98.444 E1.52567
G1 X133.1 Y99.271 E1.55688
G1 X133.471 Y100.132 E1.58806
G1 X133.767 Y101.022 E1.61926
G1 X133.986 Y101.934 E1.65045
G1 X134.149 Y103.083 E1.68905
G1 X134.182 Y103.479 E1.70227
G1 X134.272 Y104.738 E1.74425
G1 X134.311 Y105.397 E1.7662
G1 X134.326 Y106.335 E1.79741
G1 X134.261 Y107.271 E1.82861
G1 X134.116 Y108.197 E1.85979
G1 X133.903 Y109.07 E1.88968
G1 X133.833 Y109.314 E1.89812
G1 X133.726 Y109.668 E1.91042
G1 X133.47 Y110.459 E1.93807
G1 X133.221 Y111.197 E1.96398
G1 X132.883 Y112.072 E1.99517
G1 X132.433 Y112.984 E2.029
G1 X131.924 Y113.907 E2.06406
G1 X131.815 Y114.1 E2.07143
G1 X131.132 Y115.28 E2.11678
G1 X130.785 Y115.86 E2.13926
G1 X130.269 Y116.644 E2.17047
G1 X129.669 Y117.404 E2.20268
G1 X128.971 Y118.212 E2.23819
G1 X128.826 Y118.377 E2.2455
G1 X128.022 Y119.271 E2.28549
G1 X127.482 Y119.856 E2.31197
G1 X126.817 Y120.517 E2.34315
G1 X126.035 Y121.167 E2.37697
G1 X125.168 Y121.822 E2.41312
G1 X125.005 Y121.942 E2.41985
G1 X124.038 Y122.645 E2.45961
G1 X123.377 Y123.112 E2.48653
G1 X122.588 Y123.619 E2.51772
G1 X121.725 Y124.073 E2.55016
G1 X120.775 Y124.52 E2.58508
G1 X120.565 Y124.617 E2.59277
G1 X119.455 Y125.111 E2.63318
G1 X118.727 Y125.425 E2.65955
G1 X117.851 Y125.759 E2.69073
G1 X116.872 Y126.035 E2.72456
G1 X115.846 Y126.274 E2.7596
G1 X115.63 Y126.322 E2.76696
G1 X114.403 Y126.582 E2.80868
G1 X113.654 Y126.731 E2.83408
G1 X112.727 Y126.874 E2.86527
G1 X111.74 Y126.938 E2.89817
G1 X110.685 Y126.959 E2.93327
G1 X110.466 Y126.961 E2.94055
G1 X109.093 Y126.96 E2.98622
G1 X108.439 Y126.951 E3.00797
G1 X107.502 Y126.898 E3.03919
G1 X106.52 Y126.755 E3.07219
G1 X105.544 Y126.568 E3.10524
G1 X105.332 Y126.526 E3.11243
G1 X104.087 Y126.262 E3.15476
G1 X103.288 Y126.081 E3.18201
G1 X102.383 Y125.834 E3.21321
G1 X101.465 Y125.494 E3.24577
G1 X100.484 Y125.081 E3.28117
G1 X100.274 Y124.99 E3.28878
G1 X99.018 Y124.43 E3.33452
G1 X98.446 Y124.166 E3.35548
G1 X97.612 Y123.737 E3.38667
G1 X96.759 Y123.197 E3.42025
G1 X95.871 Y122.577 E3.45627
G1 X95.699 Y122.455 E3.46328
G1 X94.645 Y121.688 E3.50664
G1 X94.111 Y121.29 E3.52879
G1 X93.384 Y120.698 E3.55997
G1 X92.71 Y120.046 E3.59116
G1 X92.671 Y120.001 E3.59314
G1 X92.67 Y120.002 E3.59319
G1 X91.952 Y119.238 E3.62806
G1 X91.791 Y119.063 E3.63597
G1 X90.973 Y118.154 E3.67664
G1 X90.856 Y118.022 E3.68251
G1 X90.423 Y117.525 E3.70443
G1 X89.838 Y116.792 E3.73563
G1 X89.307 Y115.996 E3.76745
G1 X88.77 Y115.109 E3.80194
G1 X88.655 Y114.914 E3.80947
G1 X87.951 Y113.694 E3.85632
G1 X87.65 Y113.156 E3.87682
G1 X87.228 Y112.319 E3.908
G1 X86.857 Y111.388 E3.94133
G1 X86.493 Y110.338 E3.97829
G1 X86.375 Y109.978 E3.99089
G1 X86.159 Y109.278 E4.01526
G1 X85.921 Y108.371 E4.04645
G1 X85.761 Y107.447 E4.07764
G1 X85.68 Y106.513 E4.10882
G1 X85.695 Y105.291 E4.14947
G1 X85.767 Y104.229 E4.18487
G1 X85.788 Y103.963 E4.19374
G1 X85.838 Y103.263 E4.21709
G1 X85.945 Y102.331 E4.24829
G1 X86.13 Y101.412 E4.27947
G1 X86.393 Y100.512 E4.31065
G1 X86.732 Y99.638 E4.34183
G1 X87.145 Y98.795 E4.37305
G1 X87.627 Y97.991 E4.40423
G1 X88.176 Y97.231 E4.43542
G1 X88.788 Y96.52 E4.46662
G1 X89.459 Y95.864 E4.49783
G0 F6000 X89.84 Y96.061
G1 F1200 X90.559 Y95.486 E4.52845
G1 X91.326 Y94.976 E4.55908
G1 X92.133 Y94.534 E4.58969
G1 X92.977 Y94.164 E4.62034
G1 X93.849 Y93.869 E4.65096
G1 X94.743 Y93.651 E4.68156
G1 X95.653 Y93.51 E4.71219
G1 X96.512 Y93.451 E4.74083
G1 X96.832 Y93.442 E4.75148
G1 X97.13 Y93.438 E4.76139
G1 X98.093 Y93.438 E4.79342
G1 X98.943 Y93.449 E4.82169
G1 X99.431 Y93.467 E4.83793
G1 X99.872 Y93.502 E4.85265
G1 X101.154 Y93.629 E4.89549
G1 X103.767 Y93.851 E4.98272
G1 X106.273 Y93.992 E5.0662
G1 X108.815 Y94.063 E5.15078
G1 X111.327 Y94.061 E5.23433
G1 X113.882 Y93.988 E5.31934
G1 X116.41 Y93.845 E5.40356
G1 X118.936 Y93.629 E5.48788
G1 X120.095 Y93.506 E5.52664
G1 X120.912 Y93.451 E5.55388
G1 X121.231 Y93.442 E5.56449
G1 X121.53 Y93.438 E5.57444
G1 X122.63 Y93.439 E5.61103
G1 X123.328 Y93.448 E5.63424
G1 X124.247 Y93.5 E5.66486
G1 X125.158 Y93.631 E5.69547
G1 X126.054 Y93.841 E5.72608
G1 X126.929 Y94.128 E5.75671
G1 X127.776 Y94.49 E5.78734
G1 X128.588 Y94.924 E5.81797
G1 X129.359 Y95.426 E5.84857
G1 X130.084 Y95.994 E5.8792
G1 X130.757 Y96.623 E5.90984
G1 X131.372 Y97.307 E5.94043
G1 X131.926 Y98.042 E5.97104
G1 X132.414 Y98.823 E6.00167
G1 X132.833 Y99.643 E6.0323
G1 X133.179 Y100.496 E6.06292
G1 X133.449 Y101.376 E6.09353
G1 X133.642 Y102.277 E6.12418
G1 X133.75 Y103.118 E6.15238
G1 X133.783 Y103.507 E6.16537
G1 X133.882 Y104.906 E6.21201
G1 X133.912 Y105.421 E6.22917
G1 X133.926 Y106.341 E6.25977
G1 X133.859 Y107.259 E6.29039
G1 X133.713 Y108.168 E6.32101
G1 X133.519 Y108.96 E6.34813
G1 X133.449 Y109.204 E6.35657
G1 X133.345 Y109.545 E6.36843
G1 X133.045 Y110.469 E6.40074
G1 X132.842 Y111.069 E6.42181
G1 X132.509 Y111.928 E6.45245
G1 X132.083 Y112.791 E6.48446
G1 X131.574 Y113.714 E6.51952
G1 X131.469 Y113.9 E6.52662
G1 X130.869 Y114.938 E6.5665
G1 X130.441 Y115.655 E6.59427
G1 X129.935 Y116.424 E6.62489
G1 X129.366 Y117.142 E6.65536
G1 X128.668 Y117.95 E6.69087
G1 X128.529 Y118.109 E6.6979
G1 X127.628 Y119.11 E6.74269
G1 X127.189 Y119.585 E6.76421
G1 X126.535 Y120.233 E6.79483
G1 X125.794 Y120.848 E6.82685
G1 X124.927 Y121.503 E6.863
G1 X124.77 Y121.619 E6.86949
G1 X123.803 Y122.322 E6.90925
G1 X123.147 Y122.785 E6.93596
G1 X122.372 Y123.282 E6.96658
G1 X121.555 Y123.711 E6.99727
G1 X120.605 Y124.158 E7.03219
G1 X120.402 Y124.251 E7.03962
G1 X119.175 Y124.796 E7.08427
G1 X118.569 Y125.057 E7.10622
G1 X117.708 Y125.385 E7.13686
G1 X116.781 Y125.646 E7.16889
G1 X115.755 Y125.885 E7.20393
G1 X115.547 Y125.931 E7.21102
G1 X114.179 Y126.22 E7.25752
G1 X113.577 Y126.339 E7.27793
G1 X112.666 Y126.478 E7.30858
G1 X111.732 Y126.538 E7.33971
G1 X110.677 Y126.559 E7.37481
G1 X110.466 Y126.561 E7.38183
G1 X109.098 Y126.56 E7.42733
G1 X108.444 Y126.551 E7.44908
G1 X107.525 Y126.498 E7.4797
G1 X106.595 Y126.363 E7.51095
G1 X105.619 Y126.176 E7.54401
G1 X105.415 Y126.134 E7.55093
G1 X104.013 Y125.836 E7.5986
G1 X103.377 Y125.691 E7.6203
G1 X102.489 Y125.447 E7.65093
G1 X101.62 Y125.126 E7.68174
G1 X100.639 Y124.713 E7.71714
G1 X100.437 Y124.625 E7.72447
G1 X99.313 Y124.124 E7.7654
G1 X98.614 Y123.802 E7.791
G1 X97.796 Y123.381 E7.8216
G1 X96.988 Y122.869 E7.85341
G1 X96.1 Y122.249 E7.88944
G1 X95.934 Y122.131 E7.89621
G1 X94.884 Y121.367 E7.9394
G1 X94.35 Y120.969 E7.96155
G1 X93.637 Y120.387 E7.99216
G1 X92.976 Y119.746 E8.02279
G1 X92.942 Y119.707 E8.02451
G1 X92.244 Y118.964 E8.05841
G1 X92.089 Y118.796 E8.06602
G1 X91.271 Y117.887 E8.10669
G1 X90.725 Y117.262 E8.13429
G1 X90.151 Y116.542 E8.16492
G1 X89.649 Y115.789 E8.19502
G1 X89.112 Y114.902 E8.22951
G1 X89.001 Y114.714 E8.23677
G1 X88.3 Y113.499 E8.28342
G1 X87.999 Y112.961 E8.30393
G1 X87.585 Y112.138 E8.33457
G1 X87.235 Y111.257 E8.3661
G1 X86.871 Y110.207 E8.40306
G1 X86.757 Y109.86 E8.41521
G1 X86.541 Y109.16 E8.43957
G1 X86.308 Y108.27 E8.47017
G1 X86.153 Y107.362 E8.50081
G1 X86.078 Y106.445 E8.53141
G1 X86.094 Y105.318 E8.5689
G1 X86.166 Y104.256 E8.6043
G1 X86.184 Y104.027 E8.61194
G1 X86.237 Y103.292 E8.63645
G1 X86.342 Y102.377 E8.66708
G1 X86.527 Y101.475 E8.69771
G1 X86.789 Y100.593 E8.72831
G1 X87.126 Y99.736 E8.75894
G1 X87.537 Y98.912 E8.78957
G1 X88.017 Y98.127 E8.82017
G1 X88.564 Y97.386 E8.8508
G1 X89.173 Y96.696 E8.88141
G1 X89.84 Y96.061 E8.91204
G0 F6000 X90.221 Y96.261
G1 F1200 X90.935 Y95.709 E8.94206
G1 X91.696 Y95.222 E8.97211
G1 X92.496 Y94.804 E9.00213
G1 X93.331 Y94.459 E9.03218
G1 X94.192 Y94.189 E9.06219
G1 X95.075 Y93.996 E9.09226
G1 X95.971 Y93.882 E9.1223
G1 X96.523 Y93.851 E9.14069
G1 X96.843 Y93.842 E9.15133
G1 X97.13 Y93.838 E9.16088
G1 X98.093 Y93.838 E9.19291
G1 X98.937 Y93.849 E9.22098
G1 X99.408 Y93.867 E9.23666
G1 X99.833 Y93.9 E9.25084
G1 X101.086 Y94.024 E9.29272
G1 X103.746 Y94.25 E9.38151
G1 X106.274 Y94.392 E9.46572
G1 X108.804 Y94.463 E9.5499
G1 X111.338 Y94.461 E9.63418
G1 X113.882 Y94.388 E9.71883
G1 X116.43 Y94.244 E9.80371
G1 X119.012 Y94.023 E9.88991
G1 X120.137 Y93.904 E9.92753
G1 X120.923 Y93.851 E9.95373
G1 X121.242 Y93.842 E9.96435
G1 X121.53 Y93.838 E9.97393
G1 X122.625 Y93.839 E10.01035
G1 X123.323 Y93.848 E10.03357
G1 X124.224 Y93.899 E10.06358
G1 X125.118 Y94.031 E10.09364
G1 X125.996 Y94.24 E10.12366
G1 X126.853 Y94.527 E10.15372
G1 X127.68 Y94.888 E10.18373
G1 X128.473 Y95.321 E10.21378
G1 X129.224 Y95.822 E10.24381
G1 X129.928 Y96.388 E10.27385
G1 X130.579 Y97.014 E10.30389
G1 X131.172 Y97.695 E10.33392
G1 X131.702 Y98.426 E10.36395
G1 X132.166 Y99.201 E10.394
G1 X132.56 Y100.014 E10.42405
G1 X132.88 Y100.858 E10.45407
G1 X133.124 Y101.728 E10.48412
G1 X133.29 Y102.616 E10.51417
G1 X133.352 Y103.153 E10.53215
G1 X133.384 Y103.536 E10.54493
G1 X133.483 Y104.929 E10.59138
G1 X133.513 Y105.444 E10.60854
G1 X133.525 Y106.347 E10.63857
G1 X133.458 Y107.247 E10.66859
G1 X133.311 Y108.139 E10.69866
G1 X133.135 Y108.85 E10.72302
G1 X133.065 Y109.094 E10.73146
G1 X132.964 Y109.422 E10.74288
G1 X132.666 Y110.341 E10.77501
G1 X132.463 Y110.941 E10.79608
G1 X132.136 Y111.783 E10.82612
G1 X131.733 Y112.598 E10.85636
G1 X131.224 Y113.521 E10.89142
G1 X131.123 Y113.7 E10.89825
G1 X130.523 Y114.738 E10.93813
G1 X130.098 Y115.45 E10.96571
G1 X129.601 Y116.203 E10.99572
G1 X129.064 Y116.881 E11.02448
G1 X128.366 Y117.689 E11.06
G1 X128.231 Y117.842 E11.06678
G1 X127.334 Y118.838 E11.11137
G1 X126.895 Y119.313 E11.13288
G1 X126.253 Y119.948 E11.16291
G1 X125.552 Y120.529 E11.19319
G1 X124.685 Y121.184 E11.22933
G1 X124.535 Y121.295 E11.23554
G1 X123.568 Y121.998 E11.2753
G1 X122.917 Y122.458 E11.30182
G1 X122.156 Y122.945 E11.33187
G1 X121.385 Y123.349 E11.36082
G1 X120.435 Y123.796 E11.39574
G1 X120.239 Y123.886 E11.40291
G1 X119.017 Y124.429 E11.44739
G1 X118.411 Y124.69 E11.46933
G1 X117.566 Y125.01 E11.49939
G1 X116.69 Y125.256 E11.52965
G1 X115.664 Y125.495 E11.56469
G1 X115.464 Y125.539 E11.5715
G1 X114.101 Y125.827 E11.61783
G1 X113.499 Y125.946 E11.63824
G1 X112.606 Y126.082 E11.66829
G1 X111.724 Y126.138 E11.69768
G1 X110.669 Y126.159 E11.73278
G1 X110.466 Y126.161 E11.73953
G1 X109.104 Y126.16 E11.78483
G1 X108.45 Y126.151 E11.80658
G1 X107.548 Y126.099 E11.83663
G1 X106.671 Y125.97 E11.86612
G1 X105.695 Y125.783 E11.89917
G1 X105.498 Y125.743 E11.90586
G1 X104.102 Y125.446 E11.95333
G1 X103.466 Y125.301 E11.97502
G1 X102.595 Y125.061 E12.00507
G1 X101.775 Y124.757 E12.03416
G1 X100.794 Y124.344 E12.06956
G1 X100.599 Y124.259 E12.07664
G1 X99.354 Y123.703 E12.12199
G1 X98.782 Y123.439 E12.14294
G1 X97.979 Y123.025 E12.17299
G1 X97.217 Y122.541 E12.20301
G1 X96.329 Y121.921 E12.23903
G1 X96.17 Y121.808 E12.24552
G1 X95.221 Y121.118 E12.28455
G1 X94.59 Y120.648 E12.31072
G1 X93.89 Y120.077 E12.34076
G1 X93.244 Y119.446 E12.3708
G1 X92.535 Y118.69 E12.40527
G1 X92.386 Y118.528 E12.41259
G1 X91.568 Y117.619 E12.45326
G1 X91.459 Y117.496 E12.45873
G1 X91.026 Y116.999 E12.48065
G1 X90.464 Y116.293 E12.51067
G1 X89.991 Y115.582 E12.53907
G1 X89.454 Y114.695 E12.57356
G1 X89.347 Y114.514 E12.58055
G1 X88.718 Y113.425 E12.62238
G1 X88.348 Y112.765 E12.64754
G1 X87.943 Y111.958 E12.67757
G1 X87.613 Y111.126 E12.70734
G1 X87.249 Y110.076 E12.74431
G1 X87.139 Y109.743 E12.75597
G1 X86.923 Y109.043 E12.78034
G1 X86.696 Y108.169 E12.81037
G1 X86.546 Y107.278 E12.84042
G1 X86.476 Y106.378 E12.87045
G1 X86.493 Y105.345 E12.90481
G1 X86.565 Y104.283 E12.94021
G1 X86.59 Y103.97 E12.95066
G1 X86.636 Y103.32 E12.97233
G1 X86.74 Y102.423 E13.00236
G1 X86.923 Y101.539 E13.03239
G1 X87.184 Y100.674 E13.06244
G1 X87.52 Y99.836 E13.09247
G1 X87.929 Y99.031 E13.1225
G1 X88.407 Y98.265 E13.15253
G1 X88.952 Y97.544 E13.18259
G1 X89.558 Y96.875 E13.21261
G1 X90.221 Y96.261 E13.24267
G1 F1500 E6.74267
;MESH:crank_support.stl
G0 F6000 X97.214 Y103.373
G0 X97.214 Y104.452
G0 X97.571 Y106.347
G0 X97.918 Y107.418
G0 X99.298 Y109.807
G0 X101.152 Y111.865
G0 X103.388 Y113.491
G0 X105.916 Y114.618
G0 X108.346 Y115.132
G0 X111.4 Y115.361
;TYPE:WALL-INNER
G1 F1500 E13.24267
G1 F1200 X108.6 Y115.361 E13.3358
G1 X105.86 Y114.78 E13.42896
G1 X103.305 Y113.641 E13.522
G1 X101.035 Y111.992 E13.61532
G1 X99.159 Y109.909 E13.70855
G1 X97.761 Y107.487 E13.80157
G1 X97.4 Y106.375 E13.84045
G1 X97.4 Y104.638 E13.89822
G1 X98.2 Y104.638 E13.92483
G1 X98.2 Y106.638 E13.99135
G1 X121.8 Y106.638 E14.77629
G1 X121.8 Y104.638 E14.84281
G1 X122.6 Y104.638 E14.86942
G1 X122.6 Y106.375 E14.92719
G1 X122.239 Y107.487 E14.96608
G1 X120.841 Y109.909 E15.05909
G1 X118.965 Y111.992 E15.15233
G1 X116.695 Y113.641 E15.24565
G1 X114.14 Y114.78 E15.33869
G1 X111.4 Y115.361 E15.43185
G0 F6000 X111.441 Y115.761
;TYPE:WALL-OUTER
G1 F1200 X108.559 Y115.761 E15.5277
G1 X105.736 Y115.162 E15.62369
G1 X103.102 Y113.988 E15.7196
G1 X100.767 Y112.292 E15.81559
G1 X98.835 Y110.147 E15.9116
G1 X97.394 Y107.65 E16.00749
G1 X96.935 Y106.238 E16.05687
G1 X97 Y106.238 E16.05904
G1 X97 Y104.238 E16.12556
G1 X98.6 Y104.238 E16.17877
G1 X98.6 Y106.238 E16.24529
G1 X121.4 Y106.238 E17.00362
G1 X121.4 Y104.238 E17.07014
G1 X123 Y104.238 E17.12336
G1 X123 Y106.238 E17.18988
G1 X123.065 Y106.238 E17.19204
G1 X122.606 Y107.65 E17.24142
G1 X121.165 Y110.147 E17.33731
G1 X119.233 Y112.292 E17.43333
G1 X116.898 Y113.988 E17.52931
G1 X114.264 Y115.162 E17.62523
G1 X111.441 Y115.761 E17.72121
G0 F6000 X111.396 Y115.324
G0 X111.358 Y114.971
;TYPE:SKIN
G1 F1200 X108.642 Y114.971 E17.81155
G1 X105.982 Y114.406 E17.90199
G1 X103.503 Y113.302 E17.99225
G1 X101.296 Y111.698 E18.083
G1 X99.476 Y109.679 E18.1734
G1 X98.12 Y107.327 E18.2637
G1 X98.023 Y107.028 E18.27416
G1 X121.977 Y107.028 E19.07087
G1 X121.88 Y107.327 E19.08133
G1 X120.524 Y109.679 E19.17162
G1 X118.704 Y111.698 E19.26203
G1 X116.497 Y113.302 E19.35278
G1 X114.018 Y114.406 E19.44303
G1 X111.358 Y114.971 E19.53348
G0 F6000 X111.358 Y115.251
G0 X114.084 Y114.618
G0 X116.612 Y113.491
G0 X118.848 Y111.865
G0 X120.702 Y109.807
G0 X121.944 Y107.657
G0 X122.456 Y106.46
G0 X122.19 Y106.374
G1 F1200 X122.19 Y105.028 E19.57825
G1 X122.21 Y105.028 E19.57891
G1 X122.21 Y106.313 E19.62165
