;FLAVOR:Marlin
;TIME:680
;Filament used: 0.412086m
;Layer height: 0.2
;MINX:89.012
;MINY:89.015
;MINZ:0.2
;MAXX:130.977
;MAXY:130.978
;MAXZ:12.2
;Generated with Cura_SteamEngine master
M140 S60
M105
M190 S60
M104 S200
M105
M109 S200
M82 ;absolute extrusion mode
; Ender 3 Custom Start G-code
G92 E0 ; Reset Extruder
G28 ; Home all axes
G1 Z2.0 F3000 ; Move Z Axis up little to prevent scratching of Heat Bed
G1 X0.1 Y20 Z0.3 F5000.0 ; Move to start position
G1 X0.1 Y200.0 Z0.3 F1500.0 E15 ; Draw the first line
G1 X0.4 Y200.0 Z0.3 F5000.0 ; Move to side a little
G1 X0.4 Y20 Z0.3 F1500.0 E30 ; Draw the second line
G92 E0 ; Reset Extruder
G1 Z2.0 F3000 ; Move Z Axis up little to prevent scratching of Heat Bed
G1 X5 Y20 Z0.3 F5000.0 ; Move over to prevent blob squish
G92 E0
G92 E0
G1 F1500 E-6.5
;LAYER_COUNT:61
;LAYER:0
M107
G0 F6000 X95.256 Y95.063 Z0.2
;TYPE:SKIRT
G1 F1500 E0
G1 F1200 X95.338 Y94.982 E0.00383
G1 X95.8 Y94.551 E0.02485
G1 X96.468 Y93.963 E0.05445
G1 X96.743 Y93.729 E0.06646
G1 X96.811 Y93.673 E0.06939
G1 X97.384 Y93.232 E0.09344
G1 X98.081 Y92.731 E0.12199
G1 X98.403 Y92.508 E0.13501
G1 X99.044 Y92.104 E0.16021
G1 X99.806 Y91.66 E0.18955
G1 X100.146 Y91.47 E0.2025
G1 X100.215 Y91.433 E0.2051
G1 X100.817 Y91.133 E0.22748
G1 X101.615 Y90.766 E0.25669
G1 X102.013 Y90.592 E0.27114
G1 X102.122 Y90.547 E0.27506
G1 X102.698 Y90.329 E0.29554
G1 X103.455 Y90.065 E0.32221
G1 X103.854 Y89.934 E0.33618
G1 X103.978 Y89.896 E0.34049
G1 X104.611 Y89.722 E0.36232
G1 X105.486 Y89.51 E0.39227
G1 X105.939 Y89.411 E0.40769
G1 X106.04 Y89.391 E0.41112
G1 X106.627 Y89.291 E0.43092
G1 X107.435 Y89.176 E0.45807
G1 X107.88 Y89.122 E0.47298
G1 X107.979 Y89.112 E0.47628
G1 X108.596 Y89.067 E0.49686
G1 X109.519 Y89.026 E0.52759
G1 X109.895 Y89.015 E0.5401
G1 X110.649 Y89.029 E0.56518
G1 X111.502 Y89.074 E0.59359
G1 X111.818 Y89.095 E0.60413
G1 X111.916 Y89.103 E0.6074
G1 X112.653 Y89.189 E0.63208
G1 X113.526 Y89.32 E0.66144
G1 X113.894 Y89.381 E0.67384
G1 X114.013 Y89.403 E0.67787
G1 X114.694 Y89.552 E0.70106
G1 X115.49 Y89.752 E0.72835
G1 X115.941 Y89.875 E0.7439
G1 X116.042 Y89.905 E0.74741
G1 X116.594 Y90.085 E0.76672
G1 X117.438 Y90.385 E0.79651
G1 X117.767 Y90.508 E0.80819
G1 X118.526 Y90.831 E0.83563
G1 X119.296 Y91.194 E0.86394
G1 X119.61 Y91.348 E0.87557
G1 X120.313 Y91.732 E0.90222
G1 X121.085 Y92.191 E0.93209
G1 X121.411 Y92.393 E0.94484
G1 X121.481 Y92.438 E0.94761
G1 X122.029 Y92.814 E0.96972
G1 X122.7 Y93.305 E0.99737
G1 X122.963 Y93.504 E1.00834
G1 X123.067 Y93.585 E1.01272
G1 X123.645 Y94.067 E1.03776
G1 X124.284 Y94.639 E1.06628
G1 X124.591 Y94.925 E1.08024
G1 X124.68 Y95.011 E1.08435
G1 X125.113 Y95.453 E1.10493
G1 X125.677 Y96.063 E1.13256
G1 X125.959 Y96.381 E1.1467
G1 X126.03 Y96.464 E1.15033
G1 X126.442 Y96.976 E1.17219
G1 X126.971 Y97.675 E1.20135
G1 X127.162 Y97.933 E1.21202
G1 X127.635 Y98.641 E1.24034
G1 X128.074 Y99.356 E1.26825
G1 X128.245 Y99.645 E1.27942
G1 X128.308 Y99.755 E1.28363
G1 X128.643 Y100.386 E1.3074
G1 X129.017 Y101.15 E1.33569
G1 X129.208 Y101.562 E1.35079
G1 X129.255 Y101.669 E1.35468
G1 X129.481 Y102.223 E1.37458
G1 X129.776 Y103.008 E1.40247
G1 X129.926 Y103.435 E1.41752
G1 X129.955 Y103.523 E1.42061
G1 X130.134 Y104.124 E1.44146
G1 X130.383 Y105.055 E1.47352
G1 X130.48 Y105.442 E1.48679
G1 X130.499 Y105.525 E1.48962
G1 X130.635 Y106.224 E1.5133
G1 X130.759 Y106.991 E1.53914
G1 X130.806 Y107.314 E1.55
G1 X130.829 Y107.489 E1.55587
G1 X130.899 Y108.201 E1.57967
G1 X130.952 Y109.008 E1.60657
G1 X130.97 Y109.38 E1.61895
G1 X130.976 Y109.569 E1.62524
G1 X130.977 Y110.26 E1.64822
G1 X130.956 Y110.935 E1.67069
G1 X130.941 Y111.257 E1.68141
G1 X130.928 Y111.472 E1.68857
G1 X130.864 Y112.162 E1.71162
G1 X130.765 Y112.96 E1.73836
G1 X130.709 Y113.355 E1.75163
G1 X130.69 Y113.473 E1.75561
G1 X130.569 Y114.106 E1.77704
G1 X130.376 Y114.976 E1.80668
G1 X130.277 Y115.385 E1.82068
G1 X130.261 Y115.446 E1.82278
G1 X130.075 Y116.076 E1.84463
G1 X129.789 Y116.95 E1.87521
G1 X129.682 Y117.263 E1.88621
G1 X129.374 Y118.04 E1.91401
G1 X129.013 Y118.857 E1.94372
G1 X128.872 Y119.164 E1.95496
G1 X128.5 Y119.885 E1.98194
G1 X128.073 Y120.644 E2.01091
G1 X127.888 Y120.961 E2.02311
G1 X127.455 Y121.632 E2.04967
G1 X126.96 Y122.341 E2.07844
G1 X126.73 Y122.659 E2.09149
G1 X126.269 Y123.24 E2.11616
G1 X125.703 Y123.906 E2.14523
G1 X125.487 Y124.153 E2.15614
G1 X125.413 Y124.235 E2.15981
G1 X124.891 Y124.775 E2.18479
G1 X124.298 Y125.348 E2.21222
G1 X124.021 Y125.606 E2.22481
G1 X123.919 Y125.698 E2.22938
G1 X123.403 Y126.136 E2.25189
G1 X122.736 Y126.667 E2.28025
G1 X122.437 Y126.897 E2.29279
G1 X122.348 Y126.963 E2.29648
G1 X121.792 Y127.349 E2.31899
G1 X121.086 Y127.808 E2.347
G1 X120.71 Y128.042 E2.36173
G1 X120.604 Y128.105 E2.36583
G1 X120.064 Y128.405 E2.38638
G1 X119.292 Y128.807 E2.41533
G1 X118.831 Y129.034 E2.43242
G1 X118.764 Y129.065 E2.43487
G1 X118.259 Y129.284 E2.45318
G1 X117.458 Y129.607 E2.48191
G1 X117.174 Y129.717 E2.49204
G1 X117.069 Y129.756 E2.49576
G1 X116.336 Y129.999 E2.52145
G1 X115.501 Y130.244 E2.55039
G1 X115.006 Y130.377 E2.56744
G1 X114.891 Y130.405 E2.57137
G1 X114.371 Y130.518 E2.58907
G1 X113.541 Y130.678 E2.61719
G1 X113.12 Y130.751 E2.6314
G1 X113.048 Y130.762 E2.63382
G1 X112.413 Y130.84 E2.6551
G1 X111.527 Y130.923 E2.6847
G1 X111.106 Y130.954 E2.69874
G1 X110.979 Y130.961 E2.70297
G1 X110.334 Y130.978 E2.72443
G1 X109.516 Y130.975 E2.75163
G1 X109.125 Y130.967 E2.76464
G1 X109.023 Y130.963 E2.76804
G1 X108.353 Y130.916 E2.79038
G1 X107.448 Y130.825 E2.82063
G1 X106.937 Y130.761 E2.83776
G1 X106.856 Y130.749 E2.84048
G1 X106.323 Y130.657 E2.85847
G1 X105.508 Y130.495 E2.88611
G1 X105.046 Y130.393 E2.90184
G1 X104.923 Y130.363 E2.90605
G1 X104.355 Y130.208 E2.92564
G1 X103.519 Y129.956 E2.95468
G1 X103.182 Y129.848 E2.96645
G1 X103.09 Y129.817 E2.96968
G1 X102.405 Y129.561 E2.994
G1 X101.625 Y129.239 E3.02207
G1 X101.212 Y129.059 E3.03705
G1 X101.095 Y129.005 E3.04134
G1 X100.562 Y128.741 E3.06112
G1 X99.819 Y128.348 E3.08908
G1 X99.426 Y128.129 E3.10404
G1 X99.335 Y128.076 E3.10754
G1 X98.811 Y127.751 E3.12805
G1 X98.093 Y127.277 E3.15667
G1 X97.713 Y127.014 E3.17204
G1 X97.605 Y126.936 E3.17647
G1 X97.124 Y126.569 E3.19659
G1 X96.473 Y126.042 E3.22445
G1 X96.216 Y125.827 E3.23559
G1 X96.144 Y125.765 E3.23875
G1 X95.606 Y125.27 E3.26307
G1 X94.978 Y124.652 E3.29237
G1 X94.747 Y124.418 E3.30331
G1 X94.68 Y124.348 E3.30653
G1 X94.184 Y123.793 E3.33129
G1 X93.627 Y123.126 E3.36019
G1 X93.37 Y122.807 E3.37382
G1 X93.305 Y122.723 E3.37735
G1 X92.929 Y122.206 E3.39861
G1 X92.464 Y121.527 E3.42598
G1 X92.287 Y121.26 E3.43664
G1 X92.224 Y121.162 E3.44051
G1 X91.841 Y120.52 E3.46538
G1 X91.406 Y119.73 E3.49537
G1 X91.201 Y119.339 E3.51006
G1 X90.904 Y118.704 E3.53337
G1 X90.563 Y117.911 E3.56208
G1 X90.455 Y117.651 E3.57145
G1 X90.413 Y117.546 E3.57521
G1 X90.146 Y116.803 E3.60147
G1 X89.889 Y115.997 E3.62961
G1 X89.757 Y115.549 E3.64514
G1 X89.727 Y115.439 E3.64893
G1 X89.592 Y114.889 E3.66777
G1 X89.433 Y114.16 E3.69258
G1 X89.387 Y113.941 E3.70003
G1 X89.337 Y113.687 E3.70864
G1 X89.201 Y112.811 E3.73812
G1 X89.108 Y111.997 E3.76537
G1 X89.073 Y111.633 E3.77753
G1 X89.06 Y111.472 E3.78291
G1 X89.026 Y110.786 E3.80575
G1 X89.013 Y110.067 E3.82967
G1 X89.012 Y109.708 E3.84161
G1 X89.015 Y109.502 E3.84846
G1 X89.046 Y108.83 E3.87084
G1 X89.108 Y108.013 E3.89809
G1 X89.148 Y107.588 E3.91229
G1 X89.161 Y107.475 E3.91607
G1 X89.249 Y106.863 E3.93663
G1 X89.388 Y106.057 E3.96384
G1 X89.458 Y105.691 E3.97623
G1 X89.491 Y105.532 E3.98163
G1 X89.654 Y104.854 E4.00483
G1 X89.866 Y104.082 E4.03145
G1 X89.976 Y103.708 E4.04442
G1 X90.074 Y103.395 E4.05533
G1 X90.24 Y102.906 E4.0725
G1 X90.293 Y102.761 E4.07764
G1 X90.398 Y102.484 E4.08749
G1 X90.484 Y102.267 E4.09525
G1 X90.577 Y102.039 E4.10344
G1 X90.735 Y101.665 E4.11695
G1 X91.024 Y101.036 E4.13997
G1 X91.425 Y100.232 E4.16985
G1 X91.693 Y99.729 E4.18881
G1 X91.719 Y99.683 E4.19057
G1 X91.971 Y99.26 E4.20694
G1 X92.441 Y98.509 E4.23641
G1 X92.717 Y98.09 E4.2531
G1 X92.773 Y98.009 E4.25637
G1 X93.103 Y97.556 E4.27502
G1 X93.617 Y96.888 E4.30305
G1 X93.915 Y96.517 E4.31888
G1 X94.01 Y96.404 E4.32379
G1 X94.399 Y95.966 E4.34327
G1 X94.955 Y95.372 E4.37033
G1 X95.256 Y95.063 E4.38468
G0 F6000 X95.537 Y95.348
G1 F1200 X95.619 Y95.267 E4.38851
G1 X96.064 Y94.851 E4.40877
G1 X96.732 Y94.263 E4.43837
G1 X97.066 Y93.982 E4.45289
G1 X97.617 Y93.557 E4.47603
G1 X98.314 Y93.056 E4.50458
G1 X98.627 Y92.839 E4.51725
G1 X99.245 Y92.449 E4.54156
G1 X100.007 Y92.005 E4.57089
G1 X100.335 Y91.822 E4.58338
G1 X100.404 Y91.785 E4.58599
G1 X100.984 Y91.497 E4.60752
G1 X101.782 Y91.13 E4.63674
G1 X102.166 Y90.962 E4.65068
G1 X102.275 Y90.917 E4.6546
G1 X102.829 Y90.706 E4.67432
G1 X103.586 Y90.442 E4.70098
G1 X103.971 Y90.316 E4.71446
G1 X104.095 Y90.278 E4.71877
G1 X104.705 Y90.111 E4.73981
G1 X105.58 Y89.899 E4.76975
G1 X106.017 Y89.803 E4.78463
G1 X106.118 Y89.783 E4.78806
G1 X106.683 Y89.687 E4.80712
G1 X107.491 Y89.572 E4.83426
G1 X107.92 Y89.52 E4.84864
G1 X108.019 Y89.51 E4.85195
G1 X108.614 Y89.466 E4.87179
G1 X109.537 Y89.425 E4.90252
G1 X109.902 Y89.415 E4.91466
G1 X110.628 Y89.429 E4.93881
G1 X111.481 Y89.474 E4.96722
G1 X111.785 Y89.494 E4.97736
G1 X111.883 Y89.502 E4.98063
G1 X112.594 Y89.584 E5.00443
G1 X113.467 Y89.715 E5.03379
G1 X113.821 Y89.775 E5.04574
G1 X113.94 Y89.797 E5.04976
G1 X114.596 Y89.94 E5.07209
G1 X115.392 Y90.14 E5.09939
G1 X115.827 Y90.259 E5.11439
G1 X115.928 Y90.289 E5.11789
G1 X116.46 Y90.462 E5.1365
G1 X117.304 Y90.762 E5.16629
G1 X117.624 Y90.881 E5.17765
G1 X118.355 Y91.193 E5.20408
G1 X119.125 Y91.556 E5.2324
G1 X119.431 Y91.706 E5.24373
G1 X120.108 Y92.076 E5.26939
G1 X120.88 Y92.535 E5.29926
G1 X121.195 Y92.73 E5.31159
G1 X121.265 Y92.775 E5.31435
G1 X121.793 Y93.137 E5.33565
G1 X122.464 Y93.628 E5.3633
G1 X122.717 Y93.819 E5.37384
G1 X122.821 Y93.9 E5.37823
G1 X123.378 Y94.365 E5.40236
G1 X124.017 Y94.937 E5.43089
G1 X124.313 Y95.212 E5.44432
G1 X124.402 Y95.298 E5.44844
G1 X124.819 Y95.725 E5.46829
G1 X125.383 Y96.335 E5.49592
G1 X125.655 Y96.641 E5.50954
G1 X125.726 Y96.724 E5.51317
G1 X126.123 Y97.217 E5.53423
G1 X126.652 Y97.916 E5.56338
G1 X126.838 Y98.168 E5.5738
G1 X127.294 Y98.851 E5.60111
G1 X127.733 Y99.566 E5.62902
G1 X127.898 Y99.844 E5.63977
G1 X127.961 Y99.954 E5.64399
G1 X128.283 Y100.561 E5.66684
G1 X128.657 Y101.325 E5.69513
G1 X128.842 Y101.723 E5.70973
G1 X128.889 Y101.83 E5.71362
G1 X129.106 Y102.364 E5.73279
G1 X129.401 Y103.149 E5.76068
G1 X129.546 Y103.56 E5.77518
G1 X129.575 Y103.648 E5.77826
G1 X129.748 Y104.227 E5.79836
G1 X129.997 Y105.158 E5.83041
G1 X130.09 Y105.532 E5.84323
G1 X130.109 Y105.615 E5.84606
G1 X130.24 Y106.288 E5.86887
G1 X130.364 Y107.055 E5.89471
G1 X130.41 Y107.366 E5.90516
G1 X130.433 Y107.541 E5.91103
G1 X130.5 Y108.227 E5.93396
G1 X130.553 Y109.034 E5.96086
G1 X130.571 Y109.393 E5.97281
G1 X130.577 Y109.582 E5.9791
G1 X130.577 Y110.248 E6.00125
G1 X130.556 Y110.923 E6.02372
G1 X130.542 Y111.233 E6.03404
G1 X130.529 Y111.448 E6.0412
G1 X130.467 Y112.113 E6.06342
G1 X130.368 Y112.911 E6.09016
G1 X130.314 Y113.291 E6.10293
G1 X130.295 Y113.409 E6.1069
G1 X130.178 Y114.02 E6.12759
G1 X129.985 Y114.89 E6.15723
G1 X129.89 Y115.283 E6.17068
G1 X129.874 Y115.344 E6.17278
G1 X129.695 Y115.952 E6.19386
G1 X129.409 Y116.826 E6.22444
G1 X129.305 Y117.13 E6.23513
G1 X129.008 Y117.878 E6.2619
G1 X128.647 Y118.695 E6.29161
G1 X128.509 Y118.994 E6.30256
G1 X128.151 Y119.689 E6.32856
G1 X127.724 Y120.448 E6.35753
G1 X127.595 Y120.673 E6.36615
G1 X127.545 Y120.757 E6.3694
G1 X127.127 Y121.403 E6.395
G1 X126.632 Y122.112 E6.42376
G1 X126.463 Y122.348 E6.43341
G1 X126.409 Y122.421 E6.43643
G1 X125.964 Y122.981 E6.46022
G1 X125.398 Y123.647 E6.48929
G1 X125.19 Y123.885 E6.4998
G1 X125.116 Y123.967 E6.50348
G1 X124.613 Y124.488 E6.52756
G1 X124.02 Y125.061 E6.55499
G1 X123.754 Y125.309 E6.56709
G1 X123.652 Y125.401 E6.57166
G1 X123.154 Y125.823 E6.59337
G1 X122.487 Y126.354 E6.62172
G1 X122.199 Y126.575 E6.6338
G1 X122.11 Y126.641 E6.63748
G1 X121.574 Y127.014 E6.6592
G1 X120.868 Y127.473 E6.68721
G1 X120.506 Y127.698 E6.70139
G1 X120.4 Y127.761 E6.70549
G1 X119.88 Y128.051 E6.72529
G1 X119.108 Y128.453 E6.75424
G1 X118.663 Y128.671 E6.77072
G1 X118.596 Y128.702 E6.77318
G1 X118.109 Y128.913 E6.79083
G1 X117.308 Y129.236 E6.81955
G1 X117.035 Y129.342 E6.82929
G1 X116.93 Y129.381 E6.83302
G1 X116.223 Y129.615 E6.85779
G1 X115.388 Y129.86 E6.88673
G1 X114.912 Y129.988 E6.90313
G1 X114.797 Y130.016 E6.90706
G1 X114.295 Y130.125 E6.92415
G1 X113.465 Y130.285 E6.95226
G1 X113.06 Y130.355 E6.96593
G1 X112.988 Y130.366 E6.96836
G1 X112.376 Y130.442 E6.98887
G1 X111.49 Y130.525 E7.01846
G1 X111.084 Y130.555 E7.03201
G1 X110.957 Y130.562 E7.03624
G1 X110.335 Y130.578 E7.05693
G1 X109.517 Y130.575 E7.08414
G1 X109.141 Y130.567 E7.09665
G1 X109.039 Y130.563 E7.10004
G1 X108.393 Y130.518 E7.12158
G1 X107.488 Y130.427 E7.15183
G1 X106.996 Y130.366 E7.16832
G1 X106.915 Y130.354 E7.17104
G1 X106.401 Y130.265 E7.18839
G1 X105.586 Y130.103 E7.21603
G1 X105.141 Y130.004 E7.23119
G1 X105.018 Y129.974 E7.23541
G1 X104.471 Y129.825 E7.25426
G1 X103.635 Y129.573 E7.2833
G1 X103.309 Y129.469 E7.29468
G1 X103.217 Y129.438 E7.29791
G1 X102.557 Y129.191 E7.32135
G1 X101.777 Y128.869 E7.34942
G1 X101.38 Y128.695 E7.36383
G1 X101.263 Y128.641 E7.36812
G1 X100.749 Y128.387 E7.38719
G1 X100.006 Y127.994 E7.41515
G1 X99.627 Y127.784 E7.42956
G1 X99.536 Y127.731 E7.43306
G1 X99.031 Y127.417 E7.45284
G1 X98.313 Y126.943 E7.48145
G1 X97.947 Y126.69 E7.49625
G1 X97.839 Y126.612 E7.50068
G1 X97.375 Y126.258 E7.52009
G1 X96.724 Y125.731 E7.54795
G1 X96.405 Y125.462 E7.56183
G1 X95.887 Y124.985 E7.58525
G1 X95.259 Y124.367 E7.61456
G1 X95.036 Y124.141 E7.62512
G1 X94.969 Y124.071 E7.62834
G1 X94.491 Y123.536 E7.6522
G1 X93.934 Y122.869 E7.6811
G1 X93.687 Y122.562 E7.69421
G1 X93.622 Y122.478 E7.69774
G1 X93.259 Y121.98 E7.71824
G1 X92.794 Y121.301 E7.74561
G1 X92.624 Y121.044 E7.75586
G1 X92.561 Y120.946 E7.75973
G1 X92.192 Y120.327 E7.7837
G1 X91.757 Y119.537 E7.8137
G1 X91.59 Y119.223 E7.82553
G1 X91.557 Y119.158 E7.82795
G1 X91.271 Y118.546 E7.85042
G1 X90.93 Y117.753 E7.87913
G1 X90.826 Y117.503 E7.88814
G1 X90.784 Y117.398 E7.8919
G1 X90.527 Y116.681 E7.91723
G1 X90.27 Y115.875 E7.94537
G1 X90.143 Y115.444 E7.96031
G1 X90.113 Y115.334 E7.96411
G1 X89.982 Y114.804 E7.98226
G1 X89.823 Y114.075 E8.00708
G1 X89.73 Y113.609 E8.02289
G1 X89.599 Y112.765 E8.05129
G1 X89.506 Y111.951 E8.07854
G1 X89.471 Y111.601 E8.09024
G1 X89.458 Y111.44 E8.09561
G1 X89.426 Y110.779 E8.11762
G1 X89.413 Y110.06 E8.14154
G1 X89.412 Y109.714 E8.15305
G1 X89.415 Y109.508 E8.1599
G1 X89.444 Y108.86 E8.18148
G1 X89.506 Y108.043 E8.20873
G1 X89.545 Y107.634 E8.22239
G1 X89.558 Y107.521 E8.22618
G1 X89.643 Y106.931 E8.246
G1 X89.782 Y106.125 E8.27321
G1 X89.849 Y105.772 E8.28516
G1 X89.882 Y105.613 E8.29056
G1 X90.039 Y104.96 E8.3129
G1 X90.251 Y104.188 E8.33952
G1 X90.357 Y103.828 E8.35201
G1 X90.455 Y103.515 E8.36291
G1 X90.615 Y103.043 E8.37949
G1 X90.668 Y102.898 E8.38463
G1 X90.77 Y102.632 E8.3941
G1 X90.856 Y102.415 E8.40186
G1 X90.946 Y102.195 E8.40977
G1 X91.104 Y101.821 E8.42327
G1 X91.382 Y101.215 E8.44545
G1 X91.783 Y100.411 E8.47533
G1 X92.041 Y99.926 E8.4936
G1 X92.067 Y99.88 E8.49536
G1 X92.31 Y99.473 E8.51113
G1 X92.78 Y98.722 E8.54059
G1 X93.046 Y98.317 E8.55671
G1 X93.102 Y98.236 E8.55998
G1 X93.42 Y97.8 E8.57793
G1 X93.934 Y97.132 E8.60597
G1 X94.221 Y96.775 E8.6212
G1 X94.316 Y96.662 E8.62611
G1 X94.691 Y96.239 E8.64491
G1 X95.247 Y95.645 E8.67198
G1 X95.537 Y95.348 E8.68578
G0 F6000 X95.818 Y95.632
G1 F1200 X95.9 Y95.551 E8.68961
G1 X96.329 Y95.152 E8.7091
G1 X96.997 Y94.564 E8.7387
G1 X97.252 Y94.346 E8.74986
G1 X97.32 Y94.29 E8.75279
G1 X97.851 Y93.882 E8.77506
G1 X98.548 Y93.381 E8.80361
G1 X98.771 Y93.224 E8.81268
G1 X98.852 Y93.169 E8.81594
G1 X99.447 Y92.795 E8.83931
G1 X100.209 Y92.351 E8.86864
G1 X100.524 Y92.175 E8.88065
G1 X100.593 Y92.138 E8.88325
G1 X101.151 Y91.86 E8.90399
G1 X101.949 Y91.493 E8.9332
