;FLAVOR:Marlin
;TIME:351
;Filament used: 0.103251m
;Layer height: 0.2
;MINX:95
;MINY:96
;MINZ:0.2
;MAXX:125
;MAXY:124
;MAXZ:8
;Generated with Cura_SteamEngine master
M140 S60
M105
M190 S60
M104 S200
M105
M109 S200
M82 ;absolute extrusion mode
; Ender 3 Custom Start G-code
G92 E0 ; Reset Extruder
G28 ; Home all axes
G1 Z2.0 F3000 ; Move Z Axis up little to prevent scratching of Heat Bed
G1 X0.1 Y20 Z0.3 F5000.0 ; Move to start position
G1 X0.1 Y200.0 Z0.3 F1500.0 E15 ; Draw the first line
G1 X0.4 Y200.0 Z0.3 F5000.0 ; Move to side a little
G1 X0.4 Y20 Z0.3 F1500.0 E30 ; Draw the second line
G92 E0 ; Reset Extruder
G1 Z2.0 F3000 ; Move Z Axis up little to prevent scratching of Heat Bed
G1 X5 Y20 Z0.3 F5000.0 ; Move over to prevent blob squish
G92 E0
G92 E0
G1 F1500 E-6.5
;LAYER_COUNT:40
;LAYER:0
M107
G0 F6000 X98.21 Y99.252 Z0.2
;TYPE:SKIRT
G1 F1500 E0
G1 F1200 X98.899 Y98.616 E0.03119
G1 X99.64 Y98.041 E0.06238
G1 X100.427 Y97.531 E0.09357
G1 X101.255 Y97.09 E0.12478
G1 X102.117 Y96.721 E0.15596
G1 X103.008 Y96.427 E0.18717
G1 X103.92 Y96.209 E0.21836
G1 X104.847 Y96.071 E0.24953
G1 X105.701 Y96.013 E0.278
G1 X106.021 Y96.004 E0.28865
G1 X106.33 Y96 E0.29892
G1 X113.451 Y96.001 E0.53577
G1 X114.149 Y96.011 E0.55899
G1 X115.085 Y96.065 E0.59017
G1 X116.013 Y96.197 E0.62135
G1 X116.927 Y96.409 E0.65255
G1 X117.819 Y96.698 E0.68374
G1 X118.684 Y97.061 E0.71494
G1 X119.514 Y97.497 E0.74612
G1 X120.305 Y98.002 E0.77734
G1 X121.049 Y98.573 E0.80853
G1 X121.742 Y99.205 E0.83972
G1 X122.379 Y99.893 E0.87091
G1 X122.954 Y100.634 E0.90211
G1 X123.465 Y101.42 E0.93329
G1 X123.907 Y102.248 E0.9645
G1 X124.276 Y103.11 E0.99569
G1 X124.571 Y104 E1.02688
G1 X124.789 Y104.912 E1.05806
G1 X124.929 Y105.84 E1.08928
G1 X124.987 Y106.701 E1.11798
G1 X124.996 Y107.021 E1.12863
G1 X125 Y107.33 E1.13891
G1 X124.999 Y111.415 E1.27477
G1 X124.989 Y112.144 E1.29902
G1 X124.936 Y113.08 E1.3302
G1 X124.804 Y114.009 E1.36141
G1 X124.593 Y114.923 E1.39261
G1 X124.305 Y115.815 E1.42379
G1 X123.942 Y116.68 E1.45499
G1 X123.506 Y117.511 E1.4862
G1 X123.002 Y118.301 E1.51737
G1 X122.431 Y119.046 E1.54859
G1 X121.8 Y119.739 E1.57976
G1 X121.112 Y120.376 E1.61095
G1 X120.372 Y120.953 E1.64216
G1 X119.585 Y121.464 E1.67337
G1 X118.951 Y121.811 E1.6974
G1 X117.403 Y122.592 E1.75507
G1 X116.828 Y122.873 E1.77636
G1 X115.968 Y123.248 E1.80756
G1 X115.08 Y123.549 E1.83875
G1 X114.169 Y123.774 E1.86996
G1 X113.243 Y123.919 E1.90113
G1 X112.333 Y123.985 E1.93148
G1 X112.005 Y123.995 E1.94239
G1 X111.67 Y124 E1.95354
G1 X108.55 Y123.999 E2.05731
G1 X107.848 Y123.989 E2.08066
G1 X106.912 Y123.936 E2.11184
G1 X105.984 Y123.803 E2.14302
G1 X105.07 Y123.591 E2.17423
G1 X104.177 Y123.303 E2.20544
G1 X103.072 Y122.822 E2.24552
G1 X102.582 Y122.576 E2.26376
G1 X102.224 Y122.402 E2.277
G1 X101.071 Y121.823 E2.31991
G1 X100.251 Y121.367 E2.35112
G1 X99.474 Y120.842 E2.3823
G1 X98.744 Y120.253 E2.4135
G1 X98.067 Y119.604 E2.44469
G1 X97.447 Y118.9 E2.4759
G1 X96.89 Y118.146 E2.50707
G1 X96.399 Y117.347 E2.53827
G1 X95.978 Y116.509 E2.56946
G1 X95.63 Y115.638 E2.60065
G1 X95.357 Y114.74 E2.63187
G1 X95.162 Y113.823 E2.66305
G1 X95.046 Y112.892 E2.69426
G1 X95.013 Y112.299 E2.71401
G1 X95.004 Y111.975 E2.72479
G1 X95 Y111.67 E2.73494
G1 X95.001 Y107.509 E2.87333
G1 X95.011 Y106.844 E2.89545
G1 X95.065 Y105.907 E2.92667
G1 X95.199 Y104.979 E2.95786
G1 X95.411 Y104.065 E2.98906
G1 X95.7 Y103.173 E3.02025
G1 X96.065 Y102.309 E3.05144
G1 X96.501 Y101.479 E3.08263
G1 X97.007 Y100.689 E3.11383
G1 X97.578 Y99.945 E3.14502
G1 X98.21 Y99.252 E3.17622
G0 F6000 X98.602 Y99.427
G1 F1200 X99.288 Y98.813 E3.20684
G1 X100.024 Y98.261 E3.23744
G1 X100.806 Y97.774 E3.26808
G1 X101.627 Y97.358 E3.29869
G1 X102.481 Y97.014 E3.32931
G1 X103.361 Y96.745 E3.35992
G1 X104.262 Y96.554 E3.39055
G1 X105.176 Y96.442 E3.42118
G1 X105.712 Y96.413 E3.43903
G1 X106.032 Y96.404 E3.44968
G1 X106.33 Y96.4 E3.45959
G1 X113.293 Y96.4 E3.69118
G1 X114.143 Y96.411 E3.71946
G1 X115.062 Y96.464 E3.75007
G1 X115.973 Y96.597 E3.78069
G1 X116.869 Y96.808 E3.81131
G1 X117.743 Y97.096 E3.84192
G1 X118.59 Y97.459 E3.87257
G1 X119.401 Y97.894 E3.90318
G1 X120.171 Y98.398 E3.93379
G1 X120.895 Y98.967 E3.96441
G1 X121.567 Y99.597 E3.99505
G1 X122.182 Y100.282 E4.02567
G1 X122.735 Y101.018 E4.05629
G1 X123.222 Y101.799 E4.0869
G1 X123.639 Y102.62 E4.11753
G1 X123.984 Y103.474 E4.14816
G1 X124.253 Y104.354 E4.17877
G1 X124.445 Y105.255 E4.20941
G1 X124.558 Y106.168 E4.24001
G1 X124.587 Y106.712 E4.25812
G1 X124.596 Y107.032 E4.26877
G1 X124.6 Y107.33 E4.27868
G1 X124.599 Y111.409 E4.41435
G1 X124.589 Y112.138 E4.4386
G1 X124.536 Y113.058 E4.46925
G1 X124.404 Y113.969 E4.49987
G1 X124.194 Y114.865 E4.53048
G1 X123.906 Y115.739 E4.56108
G1 X123.543 Y116.586 E4.59173
G1 X123.109 Y117.397 E4.62233
G1 X122.605 Y118.168 E4.65296
G1 X122.037 Y118.893 E4.6836
G1 X121.408 Y119.565 E4.71421
G1 X120.723 Y120.18 E4.74483
G1 X119.987 Y120.733 E4.77545
G1 X119.206 Y121.221 E4.80608
G1 X118.77 Y121.454 E4.82252
G1 X117.227 Y122.233 E4.88001
G1 X116.652 Y122.514 E4.9013
G1 X115.808 Y122.882 E4.93192
G1 X114.936 Y123.175 E4.96252
G1 X114.041 Y123.391 E4.99314
G1 X113.13 Y123.529 E5.02378
G1 X112.321 Y123.585 E5.05076
G1 X111.993 Y123.595 E5.06167
G1 X111.67 Y123.6 E5.07241
G1 X108.556 Y123.599 E5.17599
G1 X107.854 Y123.589 E5.19934
G1 X106.935 Y123.536 E5.22995
G1 X106.024 Y123.403 E5.26058
G1 X105.128 Y123.192 E5.29119
G1 X104.253 Y122.904 E5.32183
G1 X103.251 Y122.464 E5.35823
G1 X102.758 Y122.217 E5.37657
G1 X102.277 Y121.982 E5.39437
G1 X101.25 Y121.466 E5.4326
G1 X100.446 Y121.017 E5.46323
G1 X99.684 Y120.5 E5.49386
G1 X98.97 Y119.919 E5.52447
G1 X98.309 Y119.279 E5.55508
G1 X97.706 Y118.583 E5.5857
G1 X97.165 Y117.838 E5.61633
G1 X96.692 Y117.048 E5.64695
G1 X96.288 Y116.221 E5.67756
G1 X95.958 Y115.361 E5.7082
G1 X95.704 Y114.476 E5.73883
G1 X95.527 Y113.573 E5.76943
G1 X95.413 Y112.288 E5.81234
G1 X95.404 Y111.964 E5.82312
G1 X95.4 Y111.67 E5.8329
G1 X95.401 Y107.515 E5.97109
G1 X95.411 Y106.85 E5.99321
G1 X95.465 Y105.931 E6.02383
G1 X95.598 Y105.02 E6.05445
G1 X95.81 Y104.124 E6.08508
G1 X96.099 Y103.249 E6.11573
G1 X96.463 Y102.404 E6.14633
G1 X96.898 Y101.593 E6.17694
G1 X97.403 Y100.822 E6.20759
G1 X97.972 Y100.099 E6.23819
G1 X98.602 Y99.427 E6.26883
G0 F6000 X98.993 Y99.606
G1 F1200 X99.675 Y99.014 E6.29887
G1 X100.407 Y98.485 E6.32891
G1 X101.183 Y98.023 E6.35894
G1 X101.997 Y97.632 E6.38898
G1 X102.842 Y97.313 E6.41902
G1 X103.712 Y97.071 E6.44905
G1 X104.6 Y96.907 E6.47909
G1 X105.723 Y96.813 E6.51657
G1 X106.043 Y96.804 E6.52722
G1 X106.33 Y96.8 E6.53677
G1 X113.293 Y96.8 E6.76836
G1 X114.137 Y96.811 E6.79643
G1 X115.039 Y96.864 E6.82648
G1 X115.932 Y96.996 E6.85651
G1 X116.81 Y97.207 E6.88654
G1 X117.666 Y97.495 E6.91658
G1 X118.493 Y97.857 E6.9466
G1 X119.285 Y98.292 E6.97666
G1 X120.036 Y98.794 E7.0067
G1 X120.739 Y99.361 E7.03674
G1 X121.389 Y99.988 E7.06678
G1 X121.981 Y100.67 E7.09682
G1 X122.511 Y101.401 E7.12685
G1 X122.973 Y102.177 E7.15689
G1 X123.366 Y102.99 E7.18692
G1 X123.684 Y103.835 E7.21695
G1 X123.927 Y104.705 E7.24699
G1 X124.092 Y105.593 E7.27703
G1 X124.187 Y106.723 E7.31475
G1 X124.196 Y107.043 E7.3254
G1 X124.2 Y107.33 E7.33494
G1 X124.199 Y111.404 E7.47045
G1 X124.189 Y112.133 E7.4947
G1 X124.137 Y113.034 E7.52471
G1 X124.005 Y113.928 E7.55477
G1 X123.794 Y114.806 E7.5848
G1 X123.507 Y115.662 E7.61483
G1 X123.145 Y116.49 E7.64489
G1 X122.712 Y117.282 E7.67491
G1 X122.21 Y118.033 E7.70495
G1 X121.643 Y118.736 E7.73499
G1 X121.017 Y119.387 E7.76503
G1 X120.335 Y119.979 E7.79507
G1 X119.604 Y120.509 E7.8251
G1 X118.59 Y121.097 E7.86409
G1 X117.052 Y121.873 E7.92138
G1 X116.477 Y122.154 E7.94267
G1 X115.648 Y122.514 E7.97273
G1 X114.792 Y122.8 E8.00275
G1 X113.913 Y123.009 E8.0328
G1 X113.019 Y123.139 E8.06285
G1 X112.309 Y123.185 E8.08651
G1 X111.981 Y123.195 E8.09742
G1 X111.67 Y123.2 E8.10777
G1 X108.562 Y123.199 E8.21114
G1 X107.86 Y123.189 E8.23449
G1 X106.958 Y123.136 E8.26455
G1 X106.065 Y123.004 E8.29457
G1 X105.187 Y122.793 E8.3246
G1 X104.331 Y122.505 E8.35464
G1 X103.43 Y122.107 E8.3874
G1 X102.866 Y121.824 E8.40839
G1 X102.457 Y121.624 E8.42353
G1 X101.43 Y121.108 E8.46176
G1 X100.641 Y120.667 E8.49182
G1 X99.895 Y120.159 E8.52184
G1 X99.197 Y119.586 E8.55188
G1 X98.552 Y118.954 E8.58191
G1 X97.966 Y118.267 E8.61195
G1 X97.443 Y117.531 E8.64198
G1 X96.986 Y116.751 E8.67204
G1 X96.601 Y115.935 E8.70205
G1 X96.289 Y115.087 E8.73211
G1 X96.054 Y114.215 E8.76214
G1 X95.896 Y113.326 E8.79218
G1 X95.813 Y112.277 E8.82718
G1 X95.804 Y111.953 E8.83796
G1 X95.8 Y111.67 E8.84737
G1 X95.801 Y107.521 E8.98537
G1 X95.811 Y106.856 E9.00749
G1 X95.865 Y105.954 E9.03754
G1 X95.998 Y105.061 E9.06757
G1 X96.209 Y104.183 E9.0976
G1 X96.498 Y103.327 E9.12765
G1 X96.861 Y102.5 E9.15769
G1 X97.295 Y101.709 E9.1877
G1 X97.798 Y100.958 E9.21776
G1 X98.366 Y100.256 E9.2478
G1 X98.993 Y99.606 E9.27784
G1 F1500 E2.77784
;MESH:crankshaft_support.stl
G0 F6000 X106.414 Y106.335
G0 X106.414 Y107.414
G0 X106.782 Y111.218
G0 X108.782 Y111.218
G0 X108.782 Y112.218
G0 X111.4 Y112.4
;TYPE:WALL-INNER
G1 F1500 E9.27784
G1 F1200 X108.6 Y112.4 E9.37096
G1 X108.6 Y111.4 E9.40422
G1 X106.6 Y111.4 E9.47074
G1 X106.6 Y107.6 E9.59713
G1 X113.4 Y107.6 E9.8233
G1 X113.4 Y111.4 E9.94969
G1 X111.4 Y111.4 E10.01621
G1 X111.4 Y112.4 E10.04947
G0 F6000 X111.8 Y112.8
;TYPE:WALL-OUTER
G1 F1200 X108.2 Y112.8 E10.16921
G1 X108.2 Y111.8 E10.20247
G1 X106.2 Y111.8 E10.26899
G1 X106.2 Y107.2 E10.42198
G1 X113.8 Y107.2 E10.67476
G1 X113.8 Y111.8 E10.82776
G1 X111.8 Y111.8 E10.89428
G1 X111.8 Y112.8 E10.92754
G0 F6000 X111.53 Y112.53
G0 X111.29 Y112.01
G0 X111.01 Y112.01
;TYPE:SKIN
G1 F1200 X108.99 Y112.01 E10.99472
G1 X108.99 Y111.01 E11.02798
G1 X106.99 Y111.01 E11.0945
G1 X106.99 Y107.99 E11.19495
G1 X113.01 Y107.99 E11.39518
G1 X113.01 Y111.01 E11.49562
G1 X111.01 Y111.01 E11.56214
G1 X111.01 Y112.01 E11.5954
G0 F6000 X111.29 Y112.01
G0 X111.218 Y112.218
G0 X108.782 Y112.218
G0 X108.773 Y111.667
G0 X107.455 Y111.29
G0 X107.455 Y110.849
G1 F1200 X107.15 Y110.544 E11.60975
G0 F6000 X107.15 Y109.978
G1 F1200 X108.021 Y110.849 E11.65072
G0 F6000 X108.586 Y110.849
G1 F1200 X107.15 Y109.412 E11.71829
G0 F6000 X107.15 Y108.847
G1 F1200 X110.152 Y111.849 E11.85949
G0 F6000 X110.718 Y111.849
G1 F1200 X107.15 Y108.281 E12.02732
G0 F6000 X107.584 Y108.149
G1 F1200 X110.849 Y111.415 E12.18092
G0 F6000 X110.849 Y110.849
G1 F1200 X108.149 Y108.149 E12.30792
G0 F6000 X108.715 Y108.149
G1 F1200 X111.415 Y110.849 E12.43492
G0 F6000 X111.98 Y110.849
G1 F1200 X109.281 Y108.149 E12.56189
G0 F6000 X109.846 Y108.149
G1 F1200 X112.546 Y110.849 E12.68889
G0 F6000 X112.849 Y110.586
G1 F1200 X110.412 Y108.149 E12.80352
G0 F6000 X110.978 Y108.149
G1 F1200 X112.849 Y110.02 E12.89153
G0 F6000 X112.849 Y109.455
G1 F1200 X111.543 Y108.149 E12.95296
G0 F6000 X112.109 Y108.149
G1 F1200 X112.849 Y108.889 E12.98777
G0 F6000 X112.849 Y108.323
G1 F1200 X112.675 Y108.149 E12.99595
G0 F6000 X112.675 Y107.71
G0 X113.218 Y107.782
G0 X113.218 Y111.218
G0 X111.218 Y111.218
G0 X111.218 Y112.218
G0 X108.782 Y112.218
G0 X108.71 Y111.412
G0 X109.149 Y111.412
G1 F1200 X109.586 Y111.849 E13.01651
G0 F6000 X109.586 Y112.2
;MESH:NONMESH
G0 F300 X109.586 Y112.2 Z0.4
G0 F6000 X109.586 Y112.29
G0 X111.4 Y112.4
;TIME_ELAPSED:28.110236
;LAYER:1
M106 S85
;TYPE:WALL-INNER
;MESH:crankshaft_support.stl
G1 F684 X108.6 Y112.4 E13.10963
G1 X108.6 Y111.4 E13.14289
G1 X106.6 Y111.4 E13.20941
G1 X106.6 Y107.6 E13.3358
G1 X113.4 Y107.6 E13.56197
G1 X113.4 Y111.4 E13.68836
G1 X111.4 Y111.4 E13.75488
G1 X111.4 Y112.4 E13.78814
G0 F7500 X111.8 Y112.8
;TYPE:WALL-OUTER
G1 F684 X108.2 Y112.8 E13.90788
G1 X108.2 Y111.8 E13.94114
G1 X106.2 Y111.8 E14.00766
G1 X106.2 Y107.2 E14.16065
G1 X113.8 Y107.2 E14.41343
G1 X113.8 Y111.8 E14.56643
G1 X111.8 Y111.8 E14.63295
G1 X111.8 Y112.8 E14.66621
G0 F7500 X111.53 Y112.53
G0 X111.29 Y112.01
G0 X111.01 Y112.01
;TYPE:SKIN
G1 F684 X108.99 Y112.01 E14.73339
G1 X108.99 Y111.01 E14.76665
G1 X106.99 Y111.01 E14.83317
G1 X106.99 Y107.99 E14.93362
G1 X113.01 Y107.99 E15.13385
G1 X113.01 Y111.01 E15.23429
G1 X111.01 Y111.01 E15.30081
G1 X111.01 Y112.01 E15.33407
G0 F7500 X111.29 Y112.01
G0 X111.543 Y111.616
G0 X112.596 Y111.29
G0 X112.596 Y110.849
G1 F684 X112.849 Y110.596 E15.34597
G0 F7500 X112.849 Y110.03
G1 F684 X112.03 Y110.849 E15.3845
G0 F7500 X111.464 Y110.849
G1 F684 X112.849 Y109.465 E15.44962
G0 F7500 X112.849 Y108.899
G1 F684 X110.899 Y110.849 E15.54134
G0 F7500 X110.849 Y110.899
G1 F684 X109.899 Y111.849 E15.58603
G0 F7500 X110.464 Y111.849
G1 F684 X110.849 Y111.464 E15.60413
G0 F7500 X111.29 Y111.464
G0 X111.218 Y112.218
G0 X109.333 Y112.29
G0 X109.333 Y111.849
G1 F684 X112.849 Y108.333 E15.76952
G0 F7500 X112.467 Y108.149
G1 F684 X109.149 Y111.467 E15.92558
G0 F7500 X109.149 Y110.901
G1 F684 X111.901 Y108.149 E16.05503
G0 F7500 X111.336 Y108.149
G1 F684 X108.636 Y110.849 E16.18203
G0 F7500 X108.07 Y110.849
G1 F684 X110.77 Y108.149 E16.30903
G0 F7500 X110.204 Y108.149
G1 F684 X107.504 Y110.849 E16.43603
G0 F7500 X107.15 Y110.638
G1 F684 X109.639 Y108.149 E16.5531
G0 F7500 X109.073 Y108.149
G1 F684 X107.15 Y110.073 E16.64358
G0 F7500 X107.15 Y109.507
G1 F684 X108.507 Y108.149 E16.70743
G0 F7500 X107.941 Y108.149
G1 F684 X107.15 Y108.941 E16.74466
G0 F7500 X107.15 Y108.376
G1 F684 X107.376 Y108.149 E16.75532
G0 F7500 X107.376 Y107.8
;MESH:NONMESH
G0 F300 X107.376 Y107.8 Z0.6
G0 F7500 X107.376 Y107.71
G0 X106.782 Y107.782
G0 X106.782 Y111.218
G0 X108.782 Y111.218
G0 X108.782 Y112.218
G0 X111.4 Y112.4
;TIME_ELAPSED:40.073155
;LAYER:2
M106 S170
;TYPE:WALL-INNER
;MESH:crankshaft_support.stl
G1 F689.3 X108.6 Y112.4 E16.84844
G1 X108.6 Y111.4 E16.8817
G1 X106.6 Y111.4 E16.94823
G1 X106.6 Y107.6 E17.07461
G1 X113.4 Y107.6 E17.30078
G1 X113.4 Y111.4 E17.42717
G1 X111.4 Y111.4 E17.49369
G1 X111.4 Y112.4 E17.52695
G0 F9000 X111.8 Y112.8
;TYPE:WALL-OUTER
G1 F689.3 X108.2 Y112.8 E17.64669
G1 X108.2 Y111.8 E17.67995
G1 X106.2 Y111.8 E17.74647
G1 X106.2 Y107.2 E17.89947
G1 X113.8 Y107.2 E18.15224
G1 X113.8 Y111.8 E18.30524
G1 X111.8 Y111.8 E18.37176
G1 X111.8 Y112.8 E18.40502
G0 F9000 X111.53 Y112.53
G0 X111.29 Y112.01
G0 X111.01 Y112.01
;TYPE:SKIN
G1 F689.3 X108.99 Y112.01 E18.4722
G1 X108.99 Y111.01 E18.50546
G1 X106.99 Y111.01 E18.57199
G1 X106.99 Y107.99 E18.67243
G1 X113.01 Y107.99 E18.87266
G1 X113.01 Y111.01 E18.9731
G1 X111.01 Y111.01 E19.03962
G1 X111.01 Y112.01 E19.07288
G0 F9000 X111.29 Y112.01
G0 X111.218 Y112.218
G0 X108.782 Y112.218
G0 X108.773 Y111.667
G0 X107.455 Y111.29
G0 X107.455 Y110.849
G1 F689.3 X107.15 Y110.544 E19.08723
G0 F9000 X107.15 Y109.978
G1 F689.3 X108.021 Y110.849 E19.1282
G0 F9000 X108.586 Y110.849
G1 F689.3 X107.15 Y109.412 E19.19577
G0 F9000 X107.15 Y108.847
G1 F689.3 X110.152 Y111.849 E19.33697
G0 F9000 X110.718 Y111.849
G1 F689.3 X107.15 Y108.281 E19.5048
G0 F9000 X107.584 Y108.149
G1 F689.3 X110.849 Y111.415 E19.6584
G0 F9000 X110.849 Y110.849
G1 F689.3 X108.149 Y108.149 E19.7854
G0 F9000 X108.715 Y108.149
G1 F689.3 X111.415 Y110.849 E19.9124
G0 F9000 X111.98 Y110.849
G1 F689.3 X109.281 Y108.149 E20.03937
G0 F9000 X109.846 Y108.149
G1 F689.3 X112.546 Y110.849 E20.16637
G0 F9000 X112.849 Y110.586
G1 F689.3 X110.412 Y108.149 E20.281
G0 F9000 X110.978 Y108.149
G1 F689.3 X112.849 Y110.02 E20.36901
G0 F9000 X112.849 Y109.455
G1 F689.3 X111.543 Y108.149 E20.43044
G0 F9000 X112.109 Y108.149
G1 F689.3 X112.849 Y108.889 E20.46525
G0 F9000 X112.849 Y108.323
G1 F689.3 X112.675 Y108.149 E20.47343
G0 F9000 X112.675 Y107.71
G0 X113.218 Y107.782
G0 X113.218 Y111.218
G0 X111.218 Y111.218
G0 X111.218 Y112.218
G0 X108.782 Y112.218
G0 X108.71 Y111.412
G0 X109.149 Y111.412
G1 F689.3 X109.586 Y111.849 E20.49399
G0 F9000 X109.586 Y112.2
;MESH:NONMESH
G0 F300 X109.586 Y112.2 Z0.8
G0 F9000 X109.586 Y112.29
G0 X111.4 Y112.4
;TIME_ELAPSED:52.110855
;LAYER:3
M106 S255
;TYPE:WALL-INNER
;MESH:crankshaft_support.stl
G1 F682.4 X108.6 Y112.4 E20.58711
G1 X108.6 Y111.4 E20.62037
G1 X106.6 Y111.4 E20.68689
G1 X106.6 Y107.6 E20.81328
