;FLAVOR:Marlin
;TIME:3486
;Filament used: 2.00323m
;Layer height: 0.2
;MINX:58.642
;MINY:37.188
;MINZ:0.2
;MAXX:161.348
;MAXY:182.821
;MAXZ:2
;Generated with Cura_SteamEngine master
M140 S60
M105
M190 S60
M104 S200
M105
M109 S200
M82 ;absolute extrusion mode
; Ender 3 Custom Start G-code
G92 E0 ; Reset Extruder
G28 ; Home all axes
G1 Z2.0 F3000 ; Move Z Axis up little to prevent scratching of Heat Bed
G1 X0.1 Y20 Z0.3 F5000.0 ; Move to start position
G1 X0.1 Y200.0 Z0.3 F1500.0 E15 ; Draw the first line
G1 X0.4 Y200.0 Z0.3 F5000.0 ; Move to side a little
G1 X0.4 Y20 Z0.3 F1500.0 E30 ; Draw the second line
G92 E0 ; Reset Extruder
G1 Z2.0 F3000 ; Move Z Axis up little to prevent scratching of Heat Bed
G1 X5 Y20 Z0.3 F5000.0 ; Move over to prevent blob squish
G92 E0
G92 E0
G1 F1500 E-6.5
;LAYER_COUNT:10
;LAYER:0
M107
G0 F6000 X61.065 Y42.749 Z0.2
;TYPE:SKIRT
G1 F1500 E0
G1 F1200 X61.627 Y41.998 E0.0312
G1 X62.25 Y41.297 E0.06239
G1 X62.931 Y40.652 E0.09359
G1 X63.664 Y40.067 E0.12478
G1 X64.444 Y39.547 E0.15596
G1 X65.266 Y39.095 E0.18716
G1 X66.123 Y38.714 E0.21835
G1 X67.01 Y38.409 E0.24955
G1 X67.919 Y38.18 E0.28073
G1 X68.845 Y38.029 E0.31193
G1 X69.413 Y37.976 E0.33091
G1 X70.128 Y37.928 E0.35474
G1 X70.922 Y37.886 E0.38119
G1 X71.726 Y37.855 E0.40795
G1 X72.298 Y37.848 E0.42698
G1 X72.499 Y37.851 E0.43366
G1 X72.698 Y37.856 E0.44028
G1 X74.902 Y37.929 E0.51363
G1 X77.424 Y37.941 E0.59751
G1 X79.954 Y37.881 E0.68168
G1 X82.424 Y37.754 E0.76394
G1 X84.982 Y37.548 E0.8493
G1 X86.361 Y37.399 E0.89543
G1 X87.062 Y37.333 E0.91885
G1 X87.365 Y37.309 E0.92896
G1 X88.18 Y37.256 E0.95612
G1 X88.928 Y37.217 E0.98104
G1 X89.662 Y37.189 E1.00547
G1 X90.6 Y37.193 E1.03666
G1 X91.534 Y37.277 E1.06786
G1 X92.138 Y37.375 E1.08821
G1 X93.35 Y37.606 E1.12924
G1 X95.885 Y38.051 E1.21485
G1 X98.367 Y38.413 E1.29827
G1 X100.848 Y38.706 E1.38136
G1 X103.388 Y38.932 E1.46618
G1 X105.905 Y39.084 E1.55005
G1 X108.393 Y39.165 E1.63284
G1 X110.917 Y39.174 E1.71679
G1 X113.44 Y39.113 E1.80073
G1 X115.97 Y38.979 E1.885
G1 X118.461 Y38.778 E1.96812
G1 X120.945 Y38.505 E2.05123
G1 X123.447 Y38.159 E2.13524
G1 X127.235 Y37.499 E2.26313
G1 X127.79 Y37.39 E2.28194
G1 X128.717 Y37.249 E2.31313
G1 X129.653 Y37.188 E2.34433
G1 X130.289 Y37.192 E2.36548
G1 X131.171 Y37.223 E2.39483
G1 X131.376 Y37.232 E2.40166
G1 X131.932 Y37.263 E2.42018
G1 X132.676 Y37.313 E2.44498
G1 X132.973 Y37.337 E2.45489
G1 X133.935 Y37.429 E2.48703
G1 X134.957 Y37.541 E2.52123
G1 X137.458 Y37.743 E2.60468
G1 X139.974 Y37.875 E2.68848
G1 X142.498 Y37.935 E2.77245
G1 X145.071 Y37.924 E2.85803
G1 X146.363 Y37.891 E2.90102
G1 X147.497 Y37.853 E2.93876
G1 X148.129 Y37.85 E2.95978
G1 X148.462 Y37.858 E2.97086
G1 X148.764 Y37.87 E2.98091
G1 X149.933 Y37.931 E3.01984
G1 X150.595 Y37.976 E3.04191
G1 X151.527 Y38.08 E3.0731
G1 X152.447 Y38.262 E3.10429
G1 X153.348 Y38.522 E3.13548
G1 X154.224 Y38.858 E3.16669
G1 X155.068 Y39.268 E3.1979
G1 X155.874 Y39.747 E3.22908
G1 X156.636 Y40.294 E3.26028
G1 X157.348 Y40.904 E3.29147
G1 X158.007 Y41.572 E3.32268
G1 X158.606 Y42.293 E3.35385
G1 X159.141 Y43.064 E3.38506
G1 X159.609 Y43.876 E3.41624
G1 X160.005 Y44.726 E3.44742
G1 X160.196 Y45.217 E3.46495
G1 X160.397 Y45.774 E3.48464
G1 X160.463 Y45.962 E3.49127
G1 X160.762 Y46.84 E3.52212
G1 X161.026 Y47.74 E3.55331
G1 X161.213 Y48.659 E3.58451
G1 X161.32 Y49.591 E3.61571
G1 X161.348 Y50.528 E3.64689
G1 X161.245 Y51.898 E3.69258
G1 X161.221 Y52.071 E3.69839
G1 X160.982 Y53.286 E3.73958
G1 X160.853 Y53.785 E3.75672
G1 X131.972 Y161.575 E7.46829
G1 X130.618 Y166.627 E7.64225
G1 X130.391 Y167.429 E7.66997
G1 X130.215 Y167.993 E7.68962
G1 X130.164 Y168.142 E7.69486
G1 X130.068 Y168.412 E7.70439
G1 X129.904 Y168.852 E7.72001
G1 X129.577 Y169.704 E7.75036
G1 X129.296 Y170.408 E7.77557
G1 X128.911 Y171.263 E7.80676
G1 X128.424 Y172.132 E7.83989
G1 X127.873 Y173.018 E7.8746
G1 X127.767 Y173.186 E7.8812
G1 X127.556 Y173.512 E7.89412
G1 X127.095 Y174.202 E7.92172
G1 X126.541 Y174.959 E7.95292
G1 X125.879 Y175.712 E7.98627
G1 X125.165 Y176.454 E8.02052
G1 X125.017 Y176.605 E8.02755
G1 X124.605 Y177.016 E8.0469
G1 X124.15 Y177.458 E8.068
G1 X123.45 Y178.082 E8.09919
G1 X122.663 Y178.669 E8.13185
G1 X121.816 Y179.244 E8.1659
G1 X121.624 Y179.372 E8.17357
G1 X121.179 Y179.659 E8.19118
G1 X120.592 Y180.028 E8.21424
G1 X119.778 Y180.493 E8.24542
G1 X118.885 Y180.903 E8.27811
G1 X117.922 Y181.295 E8.31269
G1 X117.717 Y181.377 E8.32003
G1 X117.334 Y181.524 E8.33368
G1 X116.581 Y181.801 E8.36036
G1 X115.688 Y182.085 E8.39153
G1 X114.744 Y182.298 E8.42372
G1 X113.721 Y182.482 E8.45829
G1 X113.487 Y182.522 E8.46618
G1 X112.953 Y182.605 E8.48416
G1 X112.244 Y182.707 E8.50798
G1 X111.311 Y182.801 E8.53917
G1 X110.696 Y182.819 E8.55963
G1 X109.479 Y182.821 E8.60011
G1 X109.213 Y182.818 E8.60896
G1 X107.906 Y182.718 E8.65256
G1 X106.814 Y182.568 E8.68922
G1 X106.575 Y182.532 E8.69726
G1 X106.076 Y182.452 E8.71407
G1 X105.439 Y182.342 E8.73557
G1 X104.523 Y182.143 E8.76674
G1 X103.571 Y181.847 E8.7999
G1 X102.589 Y181.492 E8.83463
G1 X102.398 Y181.421 E8.84141
G1 X102.006 Y181.271 E8.85537
G1 X101.272 Y180.978 E8.88165
G1 X100.417 Y180.593 E8.91284
G1 X99.556 Y180.11 E8.94568
G1 X98.664 Y179.556 E8.9806
G1 X98.457 Y179.425 E8.98875
G1 X98.129 Y179.211 E9.00178
G1 X97.479 Y178.776 E9.02779
G1 X96.722 Y178.222 E9.05899
G1 X95.977 Y177.568 E9.09196
G1 X95.247 Y176.867 E9.12562
G1 X95.088 Y176.711 E9.13303
G1 X94.683 Y176.305 E9.15211
G1 X94.233 Y175.842 E9.17358
G1 X93.608 Y175.142 E9.20479
G1 X93.018 Y174.351 E9.23761
G1 X92.406 Y173.449 E9.27387
G1 X92.283 Y173.263 E9.28128
G1 X92.031 Y172.873 E9.29673
G1 X91.65 Y172.266 E9.32056
G1 X91.186 Y171.451 E9.35176
G1 X90.781 Y170.57 E9.38401
G1 X90.393 Y169.618 E9.4182
G1 X90.315 Y169.421 E9.42525
G1 X90.098 Y168.856 E9.44538
G1 X89.879 Y168.261 E9.46646
G1 X89.7 Y167.734 E9.48498
G1 X89.633 Y167.519 E9.49247
G1 X89.538 Y167.197 E9.50363
G1 X89.427 Y166.795 E9.5175
G1 X60.534 Y58.963 E13.23052
G1 X59.196 Y53.97 E13.40245
G1 X58.977 Y53.107 E13.43206
G1 X58.786 Y52.188 E13.46328
G1 X58.674 Y51.257 E13.49447
G1 X58.642 Y50.32 E13.52565
G1 X58.69 Y49.383 E13.55686
G1 X58.818 Y48.454 E13.58805
G1 X59.024 Y47.539 E13.61925
G1 X59.192 Y46.978 E13.63872
G1 X59.362 Y46.461 E13.65682
G1 X59.453 Y46.196 E13.66614
G1 X59.791 Y45.25 E13.69956
G1 X60.144 Y44.381 E13.73075
G1 X60.57 Y43.545 E13.76196
G1 X61.065 Y42.749 E13.79314
G0 F6000 X61.424 Y42.933
G1 F1200 X61.979 Y42.198 E13.82377
G1 X62.596 Y41.515 E13.85438
G1 X63.27 Y40.887 E13.88502
G1 X63.996 Y40.321 E13.91564
G1 X64.768 Y39.819 E13.94627
G1 X65.58 Y39.387 E13.97686
G1 X66.428 Y39.026 E14.00751
G1 X67.303 Y38.741 E14.03812
G1 X68.2 Y38.532 E14.06876
G1 X69.44 Y38.375 E14.11033
G1 X70.32 Y38.317 E14.13966
G1 X71.094 Y38.278 E14.16544
G1 X71.741 Y38.254 E14.18697
G1 X72.292 Y38.248 E14.2053
G1 X72.493 Y38.251 E14.21198
G1 X72.685 Y38.256 E14.21837
G1 X74.887 Y38.329 E14.29165
G1 X77.432 Y38.341 E14.3763
G1 X79.948 Y38.282 E14.46
G1 X82.476 Y38.151 E14.5442
G1 X85.02 Y37.946 E14.62909
G1 X86.398 Y37.798 E14.67518
G1 X87.099 Y37.732 E14.6986
G1 X87.391 Y37.708 E14.70835
G1 X88.201 Y37.655 E14.73534
G1 X88.777 Y37.624 E14.75453
G1 X89.677 Y37.589 E14.78449
G1 X90.598 Y37.594 E14.81512
G1 X91.514 Y37.678 E14.84571
G1 X92.063 Y37.768 E14.86422
G1 X93.272 Y37.998 E14.90515
G1 X95.795 Y38.441 E14.99035
G1 X98.334 Y38.812 E15.07569
G1 X100.834 Y39.107 E15.15942
G1 X103.33 Y39.329 E15.24276
G1 X105.869 Y39.483 E15.32737
G1 X108.414 Y39.565 E15.41206
G1 X110.924 Y39.574 E15.49554
G1 X113.471 Y39.512 E15.58028
G1 X115.987 Y39.38 E15.66408
G1 X118.469 Y39.179 E15.7469
G1 X121.043 Y38.896 E15.83303
G1 X123.486 Y38.559 E15.91505
G1 X127.283 Y37.896 E16.04325
G1 X127.867 Y37.782 E16.06304
G1 X128.777 Y37.645 E16.09365
G1 X129.696 Y37.587 E16.12428
G1 X130.275 Y37.592 E16.14353
G1 X131.354 Y37.631 E16.17945
G1 X131.763 Y37.653 E16.19307
G1 X132.649 Y37.712 E16.2226
G1 X132.936 Y37.735 E16.23218
G1 X133.74 Y37.811 E16.25904
G1 X134.918 Y37.939 E16.29845
G1 X137.439 Y38.143 E16.38257
G1 X139.945 Y38.274 E16.46604
G1 X142.49 Y38.335 E16.55071
G1 X145.083 Y38.324 E16.63695
G1 X146.376 Y38.291 E16.67997
G1 X147.51 Y38.253 E16.71771
G1 X148.12 Y38.25 E16.738
G1 X148.453 Y38.258 E16.74908
G1 X148.744 Y38.269 E16.75876
G1 X149.906 Y38.33 E16.79746
G1 X150.568 Y38.375 E16.81953
G1 X151.483 Y38.478 E16.85016
G1 X152.385 Y38.659 E16.88076
G1 X153.269 Y38.918 E16.9114
G1 X154.127 Y39.252 E16.94202
G1 X154.952 Y39.66 E16.97263
G1 X155.739 Y40.138 E17.00326
G1 X156.482 Y40.682 E17.03388
G1 X157.174 Y41.289 E17.0645
G1 X157.811 Y41.954 E17.09513
G1 X158.388 Y42.671 E17.12574
G1 X158.901 Y43.436 E17.15637
G1 X159.346 Y44.242 E17.187
G1 X159.82 Y45.353 E17.22717
G1 X160.021 Y45.91 E17.24687
G1 X160.084 Y46.091 E17.25324
G1 X160.383 Y46.969 E17.28409
G1 X160.642 Y47.852 E17.3147
G1 X160.823 Y48.755 E17.34533
G1 X160.925 Y49.67 E17.37595
G1 X160.947 Y50.591 E17.40659
G1 X160.848 Y51.843 E17.44836
G1 X160.824 Y52.016 E17.45417
G1 X160.594 Y53.187 E17.49386
G1 X160.467 Y53.681 E17.51083
G1 X131.586 Y161.471 E21.2224
G1 X130.192 Y166.667 E21.40133
G1 X130.007 Y167.32 E21.4239
G1 X129.837 Y167.864 E21.44286
G1 X129.786 Y168.013 E21.44809
G1 X129.693 Y168.272 E21.45725
G1 X129.53 Y168.709 E21.47276
G1 X129.149 Y169.7 E21.50807
G1 X128.925 Y170.26 E21.52813
G1 X128.546 Y171.099 E21.55875
G1 X128.084 Y171.921 E21.59012
G1 X127.431 Y172.969 E21.63119
G1 X127.131 Y173.43 E21.64948
G1 X126.763 Y173.98 E21.67149
G1 X126.218 Y174.722 E21.70211
G1 X125.591 Y175.435 E21.73369
G1 X124.877 Y176.177 E21.76794
G1 X124.435 Y176.621 E21.78878
G1 X124.326 Y176.729 E21.79388
G1 X123.871 Y177.171 E21.81498
G1 X123.183 Y177.783 E21.8456
G1 X122.439 Y178.338 E21.87648
G1 X121.592 Y178.913 E21.91053
G1 X121.406 Y179.036 E21.91794
G1 X120.966 Y179.32 E21.93536
G1 X120.379 Y179.689 E21.95842
G1 X119.579 Y180.145 E21.98905
G1 X118.734 Y180.533 E22.01997
G1 X117.771 Y180.925 E22.05456
G1 X117.573 Y181.003 E22.06163
G1 X117.039 Y181.207 E22.08065
G1 X116.444 Y181.425 E22.10172
G1 X115.566 Y181.704 E22.13236
G1 X114.673 Y181.905 E22.16281
G1 X113.65 Y182.089 E22.19738
G1 X113.424 Y182.127 E22.205
G1 X112.896 Y182.209 E22.22277
G1 X112.187 Y182.311 E22.2466
G1 X111.271 Y182.402 E22.27721
G1 X110.695 Y182.419 E22.29638
G1 X109.478 Y182.421 E22.33686
G1 X109.22 Y182.418 E22.34544
G1 X107.961 Y182.321 E22.38744
G1 X106.869 Y182.171 E22.4241
G1 X106.639 Y182.137 E22.43183
G1 X106.144 Y182.057 E22.44851
G1 X105.507 Y181.947 E22.47001
G1 X104.608 Y181.751 E22.50061
G1 X103.707 Y181.471 E22.532
G1 X102.725 Y181.116 E22.56673
G1 X102.149 Y180.897 E22.58722
G1 X101.997 Y180.838 E22.59264
G1 X101.42 Y180.607 E22.61332
G1 X100.581 Y180.228 E22.64394
G1 X99.767 Y179.771 E22.67499
G1 X98.875 Y179.217 E22.70991
G1 X98.676 Y179.09 E22.71776
G1 X98.245 Y178.808 E22.73489
G1 X97.701 Y178.444 E22.75666
G1 X96.959 Y177.899 E22.78728
G1 X96.254 Y177.28 E22.81849
G1 X95.524 Y176.579 E22.85215
G1 X95.076 Y176.133 E22.87317
G1 X94.97 Y176.026 E22.87818
G1 X94.52 Y175.563 E22.89966
G1 X93.907 Y174.875 E22.93031
G1 X93.349 Y174.126 E22.96137
G1 X92.737 Y173.224 E22.99763
G1 X92.618 Y173.045 E23.00478
G1 X92.457 Y172.797 E23.01461
G1 X91.989 Y172.053 E23.04384
G1 X91.534 Y171.253 E23.07445
G1 X91.151 Y170.419 E23.10498
G1 X90.763 Y169.467 E23.13917
G1 X90.688 Y169.278 E23.14593
G1 X90.473 Y168.717 E23.16592
G1 X90.254 Y168.122 E23.187
G1 X90.082 Y167.615 E23.20481
G1 X90.015 Y167.4 E23.2123
G1 X89.924 Y167.09 E23.22305
G1 X89.813 Y166.691 E23.23682
G1 X60.92 Y58.859 E26.94984
G1 X59.543 Y53.718 E27.12686
G1 X59.364 Y53.009 E27.15118
G1 X59.178 Y52.107 E27.18181
G1 X59.071 Y51.193 E27.21242
G1 X59.043 Y50.273 E27.24303
G1 X59.095 Y49.353 E27.27368
G1 X59.227 Y48.442 E27.3043
G1 X59.437 Y47.546 E27.33491
G1 X59.572 Y47.103 E27.35031
G1 X59.742 Y46.586 E27.36841
G1 X59.83 Y46.33 E27.37742
G1 X60.168 Y45.384 E27.41083
G1 X60.515 Y44.532 E27.44143
G1 X60.935 Y43.712 E27.47207
G1 X61.424 Y42.933 E27.50266
G0 F6000 X61.783 Y43.117
G1 F1200 X62.332 Y42.4 E27.53269
G1 X62.942 Y41.734 E27.56273
G1 X63.608 Y41.125 E27.59275
G1 X64.326 Y40.577 E27.62279
G1 X65.09 Y40.095 E27.65284
G1 X65.893 Y39.682 E27.68287
G1 X66.73 Y39.342 E27.71292
G1 X67.593 Y39.077 E27.74294
G1 X68.477 Y38.889 E27.773
G1 X69.467 Y38.774 E27.80615
G1 X70.341 Y38.716 E27.83529
G1 X70.963 Y38.684 E27.856
G1 X71.756 Y38.654 E27.88239
G1 X72.286 Y38.648 E27.90002
G1 X72.487 Y38.651 E27.90671
G1 X72.672 Y38.656 E27.91287
G1 X74.872 Y38.729 E27.98608
G1 X77.439 Y38.741 E28.07146
G1 X79.98 Y38.681 E28.15599
G1 X82.496 Y38.551 E28.23979
G1 X85.024 Y38.348 E28.32414
G1 X86.294 Y38.21 E28.36663
G1 X87.137 Y38.13 E28.39479
G1 X87.417 Y38.107 E28.40414
G1 X88.095 Y38.062 E28.42674
G1 X88.958 Y38.016 E28.45548
G1 X89.692 Y37.988 E28.47991
G1 X90.595 Y37.994 E28.50995
G1 X91.494 Y38.079 E28.53998
G1 X91.988 Y38.161 E28.55664
G1 X93.205 Y38.393 E28.59784
G1 X95.734 Y38.836 E28.68324
G1 X98.265 Y39.206 E28.76832
G1 X100.787 Y39.504 E28.85278
G1 X103.338 Y39.731 E28.93796
G1 X105.833 Y39.882 E29.0211
G1 X108.399 Y39.965 E29.10649
G1 X110.933 Y39.974 E29.19077
G1 X113.466 Y39.913 E29.27504
G1 X116.007 Y39.779 E29.35968
G1 X118.544 Y39.573 E29.44433
G1 X121.065 Y39.296 E29.52869
G1 X123.552 Y38.953 E29.61219
G1 X127.387 Y38.284 E29.74167
G1 X127.944 Y38.175 E29.76054
G1 X128.837 Y38.041 E29.79058
G1 X129.738 Y37.986 E29.8206
G1 X130.261 Y37.991 E29.838
G1 X131.143 Y38.022 E29.86735
G1 X131.742 Y38.053 E29.8873
G1 X132.622 Y38.111 E29.91663
G1 X132.898 Y38.133 E29.92584
G1 X133.702 Y38.209 E29.9527
G1 X134.878 Y38.336 E29.99204
G1 X137.419 Y38.542 E30.07683
G1 X139.95 Y38.675 E30.16113
G1 X142.482 Y38.735 E30.24537
G1 X145.048 Y38.725 E30.33072
G1 X146.469 Y38.688 E30.378
G1 X147.523 Y38.653 E30.41307
G1 X148.11 Y38.65 E30.43259
G1 X148.443 Y38.658 E30.44367
G1 X148.723 Y38.669 E30.45299
G1 X149.879 Y38.729 E30.49149
G1 X150.541 Y38.774 E30.51356
G1 X151.438 Y38.876 E30.54359
G1 X152.323 Y39.056 E30.57363
G1 X153.189 Y39.313 E30.60367
G1 X154.028 Y39.646 E30.6337
G1 X154.835 Y40.053 E30.66376
G1 X155.602 Y40.528 E30.69376
G1 X156.325 Y41.07 E30.72382
G1 X156.996 Y41.674 E30.75384
G1 X157.612 Y42.335 E30.7839
G1 X158.167 Y43.047 E30.81392
G1 X158.656 Y43.806 E30.84395
G1 X159.077 Y44.605 E30.87399
G1 X159.443 Y45.489 E30.90581
G1 X159.644 Y46.046 E30.92551
G1 X159.705 Y46.22 E30.93164
G1 X160.004 Y47.098 E30.96249
G1 X160.257 Y47.965 E30.99253
G1 X160.433 Y48.851 E31.02257
G1 X160.529 Y49.749 E31.05261
G1 X160.546 Y50.652 E31.08265
G1 X160.452 Y51.788 E31.12056
G1 X160.428 Y51.961 E31.12637
G1 X160.206 Y53.088 E31.16458
G1 X160.08 Y53.578 E31.1814
G1 X131.199 Y161.368 E34.89297
G1 X129.845 Y166.42 E35.06693
G1 X129.622 Y167.211 E35.09427
G1 X129.458 Y167.734 E35.1125
G1 X129.407 Y167.883 E35.11774
G1 X129.318 Y168.133 E35.12656
G1 X129.157 Y168.566 E35.14193
G1 X128.83 Y169.418 E35.17228
G1 X128.553 Y170.111 E35.1971
G1 X128.181 Y170.934 E35.22714
G1 X127.745 Y171.71 E35.25675
G1 X127.194 Y172.596 E35.29145
G1 X126.884 Y173.077 E35.31048
G1 X126.43 Y173.757 E35.33768
G1 X125.895 Y174.485 E35.36772
G1 X125.303 Y175.157 E35.39751
G1 X124.589 Y175.899 E35.43176
G1 X124.152 Y176.338 E35.45236
G1 X124.047 Y176.442 E35.45728
G1 X123.592 Y176.884 E35.47838
G1 X122.917 Y177.484 E35.50841
G1 X122.214 Y178.007 E35.53756
G1 X121.367 Y178.582 E35.57161
G1 X121.188 Y178.701 E35.57876
G1 X120.753 Y178.982 E35.59598
G1 X120.166 Y179.351 E35.61904
G1 X119.381 Y179.797 E35.64907
G1 X118.584 Y180.162 E35.67823
G1 X117.621 Y180.554 E35.71281
G1 X117.43 Y180.63 E35.71964
G1 X117.047 Y180.777 E35.73329
G1 X116.306 Y181.049 E35.75954
G1 X115.445 Y181.322 E35.78958
G1 X114.603 Y181.511 E35.81829
G1 X113.58 Y181.695 E35.85286
G1 X113.362 Y181.732 E35.86021
G1 X112.975 Y181.793 E35.87324
G1 X112.13 Y181.915 E35.90164
G1 X111.232 Y182.004 E35.93165
G1 X110.695 Y182.019 E35.94952
G1 X109.478 Y182.021 E35.99
G1 X109.227 Y182.018 E35.99835
G1 X108.015 Y181.925 E36.03878
G1 X106.923 Y181.775 E36.07544
G1 X106.702 Y181.742 E36.08287
G1 X106.212 Y181.663 E36.09938
