;FLAVOR:Marlin
;TIME:3745
;Filament used: 2.13388m
;Layer height: 0.2
;MINX:58.644
;MINY:37.188
;MINZ:0.2
;MAXX:161.348
;MAXY:182.821
;MAXZ:6
;Generated with Cura_SteamEngine master
M140 S60
M105
M190 S60
M104 S200
M105
M109 S200
M82 ;absolute extrusion mode
; Ender 3 Custom Start G-code
G92 E0 ; Reset Extruder
G28 ; Home all axes
G1 Z2.0 F3000 ; Move Z Axis up little to prevent scratching of Heat Bed
G1 X0.1 Y20 Z0.3 F5000.0 ; Move to start position
G1 X0.1 Y200.0 Z0.3 F1500.0 E15 ; Draw the first line
G1 X0.4 Y200.0 Z0.3 F5000.0 ; Move to side a little
G1 X0.4 Y20 Z0.3 F1500.0 E30 ; Draw the second line
G92 E0 ; Reset Extruder
G1 Z2.0 F3000 ; Move Z Axis up little to prevent scratching of Heat Bed
G1 X5 Y20 Z0.3 F5000.0 ; Move over to prevent blob squish
G92 E0
G92 E0
G1 F1500 E-6.5
;LAYER_COUNT:30
;LAYER:0
M107
G0 F6000 X61.076 Y42.736 Z0.2
;TYPE:SKIRT
G1 F1500 E0
G1 F1200 X61.638 Y41.985 E0.0312
G1 X62.263 Y41.286 E0.06239
G1 X62.944 Y40.641 E0.09358
G1 X63.678 Y40.058 E0.12476
G1 X64.46 Y39.538 E0.15599
G1 X65.282 Y39.088 E0.18716
G1 X66.14 Y38.709 E0.21836
G1 X67.027 Y38.404 E0.24956
G1 X67.937 Y38.176 E0.28076
G1 X68.863 Y38.027 E0.31195
G1 X69.413 Y37.976 E0.33033
G1 X70.126 Y37.928 E0.35409
G1 X70.922 Y37.886 E0.38061
G1 X71.726 Y37.855 E0.40737
G1 X72.298 Y37.848 E0.42639
G1 X72.499 Y37.851 E0.43308
G1 X72.698 Y37.856 E0.4397
G1 X74.902 Y37.929 E0.51305
G1 X77.424 Y37.941 E0.59693
G1 X79.954 Y37.881 E0.6811
G1 X82.424 Y37.754 E0.76336
G1 X84.982 Y37.548 E0.84872
G1 X86.361 Y37.399 E0.89485
G1 X87.062 Y37.333 E0.91827
G1 X87.365 Y37.309 E0.92838
G1 X88.18 Y37.256 E0.95554
G1 X88.928 Y37.217 E0.98045
G1 X89.662 Y37.189 E1.00488
G1 X90.6 Y37.193 E1.03608
G1 X91.534 Y37.277 E1.06727
G1 X92.138 Y37.375 E1.08762
G1 X93.35 Y37.606 E1.12866
G1 X95.885 Y38.051 E1.21426
G1 X98.367 Y38.413 E1.29769
G1 X100.848 Y38.706 E1.38078
G1 X103.388 Y38.932 E1.4656
G1 X105.905 Y39.084 E1.54946
G1 X108.393 Y39.165 E1.63226
G1 X110.917 Y39.174 E1.71621
G1 X113.44 Y39.113 E1.80015
G1 X115.97 Y38.979 E1.88441
G1 X118.461 Y38.778 E1.96753
G1 X120.945 Y38.505 E2.05065
G1 X123.447 Y38.159 E2.13466
G1 X127.235 Y37.499 E2.26255
G1 X127.79 Y37.39 E2.28136
G1 X128.717 Y37.249 E2.31255
G1 X129.653 Y37.188 E2.34374
G1 X130.289 Y37.192 E2.3649
G1 X131.171 Y37.223 E2.39425
G1 X131.376 Y37.232 E2.40108
G1 X131.932 Y37.263 E2.4196
G1 X132.676 Y37.313 E2.4444
G1 X132.973 Y37.337 E2.45431
G1 X133.935 Y37.429 E2.48645
G1 X134.957 Y37.541 E2.52065
G1 X137.458 Y37.743 E2.6041
G1 X139.974 Y37.875 E2.6879
G1 X142.498 Y37.935 E2.77187
G1 X145.071 Y37.924 E2.85745
G1 X146.363 Y37.891 E2.90044
G1 X147.497 Y37.853 E2.93817
G1 X148.129 Y37.85 E2.95919
G1 X148.462 Y37.858 E2.97027
G1 X148.764 Y37.87 E2.98033
G1 X149.935 Y37.931 E3.01933
G1 X150.596 Y37.976 E3.04136
G1 X151.528 Y38.08 E3.07255
G1 X152.448 Y38.262 E3.10375
G1 X153.349 Y38.523 E3.13494
G1 X154.225 Y38.859 E3.16615
G1 X155.069 Y39.268 E3.19734
G1 X155.874 Y39.748 E3.22852
G1 X156.636 Y40.295 E3.25972
G1 X157.349 Y40.904 E3.2909
G1 X158.007 Y41.573 E3.32211
G1 X158.606 Y42.294 E3.35329
G1 X159.141 Y43.065 E3.3845
G1 X159.609 Y43.877 E3.41567
G1 X160.006 Y44.727 E3.44688
G1 X160.196 Y45.217 E3.46436
G1 X160.397 Y45.774 E3.48405
G1 X160.463 Y45.962 E3.49068
G1 X160.762 Y46.84 E3.52153
G1 X161.026 Y47.74 E3.55272
G1 X161.213 Y48.659 E3.58392
G1 X161.32 Y49.591 E3.61512
G1 X161.348 Y50.528 E3.6463
G1 X161.245 Y51.898 E3.69199
G1 X161.221 Y52.071 E3.6978
G1 X160.982 Y53.286 E3.73899
G1 X160.853 Y53.785 E3.75613
G1 X131.972 Y161.575 E7.4677
G1 X130.59 Y166.731 E7.64524
G1 X130.385 Y167.453 E7.6702
G1 X130.208 Y168.016 E7.68983
G1 X130.148 Y168.191 E7.69598
G1 X130.05 Y168.465 E7.70566
G1 X129.928 Y168.79 E7.71721
G1 X129.518 Y169.854 E7.75513
G1 X129.29 Y170.422 E7.77549
G1 X128.904 Y171.276 E7.80666
G1 X128.426 Y172.129 E7.83918
G1 X127.87 Y173.024 E7.87423
G1 X127.754 Y173.206 E7.88141
G1 X127.463 Y173.652 E7.89912
G1 X127.095 Y174.202 E7.92113
G1 X126.541 Y174.959 E7.95233
G1 X125.879 Y175.712 E7.98568
G1 X125.165 Y176.454 E8.01993
G1 X125.017 Y176.605 E8.02696
G1 X124.605 Y177.016 E8.04631
G1 X124.15 Y177.458 E8.06741
G1 X123.45 Y178.082 E8.0986
G1 X122.663 Y178.669 E8.13126
G1 X121.816 Y179.244 E8.16531
G1 X121.624 Y179.372 E8.17298
G1 X121.179 Y179.659 E8.19059
G1 X120.592 Y180.028 E8.21365
G1 X119.778 Y180.493 E8.24483
G1 X118.885 Y180.903 E8.27752
G1 X117.922 Y181.295 E8.3121
G1 X117.717 Y181.377 E8.31944
G1 X117.334 Y181.524 E8.33309
G1 X116.581 Y181.801 E8.35977
G1 X115.688 Y182.085 E8.39094
G1 X114.744 Y182.298 E8.42313
G1 X113.721 Y182.482 E8.4577
G1 X113.487 Y182.522 E8.46559
G1 X112.953 Y182.605 E8.48357
G1 X112.244 Y182.707 E8.50739
G1 X111.311 Y182.801 E8.53858
G1 X110.696 Y182.819 E8.55904
G1 X109.479 Y182.821 E8.59952
G1 X109.213 Y182.818 E8.60837
G1 X107.906 Y182.718 E8.65197
G1 X106.814 Y182.568 E8.68863
G1 X106.575 Y182.532 E8.69667
G1 X106.076 Y182.452 E8.71348
G1 X105.439 Y182.342 E8.73498
G1 X104.523 Y182.143 E8.76615
G1 X103.571 Y181.847 E8.79931
G1 X102.589 Y181.492 E8.83404
G1 X102.398 Y181.421 E8.84082
G1 X102.006 Y181.271 E8.85478
G1 X101.272 Y180.978 E8.88107
G1 X100.417 Y180.593 E8.91225
G1 X99.556 Y180.11 E8.94509
G1 X98.664 Y179.556 E8.98001
G1 X98.457 Y179.425 E8.98816
G1 X98.129 Y179.211 E9.00119
G1 X97.479 Y178.776 E9.0272
G1 X96.722 Y178.222 E9.0584
G1 X95.977 Y177.568 E9.09137
G1 X95.247 Y176.867 E9.12503
G1 X95.088 Y176.711 E9.13244
G1 X94.683 Y176.305 E9.15152
G1 X94.233 Y175.842 E9.17299
G1 X93.608 Y175.142 E9.2042
G1 X93.018 Y174.351 E9.23702
G1 X92.406 Y173.449 E9.27328
G1 X92.283 Y173.263 E9.28069
G1 X92.034 Y172.877 E9.29597
G1 X91.652 Y172.269 E9.31985
G1 X91.187 Y171.454 E9.35106
G1 X90.78 Y170.57 E9.38343
G1 X90.4 Y169.638 E9.41691
G1 X90.309 Y169.406 E9.4252
G1 X90.114 Y168.893 E9.44345
G1 X89.87 Y168.232 E9.46689
G1 X89.651 Y167.579 E9.48979
G1 X89.595 Y167.392 E9.49629
G1 X89.534 Y167.18 E9.50362
G1 X89.428 Y166.795 E9.5169
G1 X60.535 Y58.965 E13.22986
G1 X59.188 Y53.942 E13.40283
G1 X58.984 Y53.142 E13.43029
G1 X58.791 Y52.224 E13.46149
G1 X58.678 Y51.293 E13.49268
G1 X58.644 Y50.356 E13.52387
G1 X58.708 Y49.247 E13.56081
G1 X58.712 Y49.21 E13.56205
G1 X58.852 Y48.282 E13.59327
G1 X59.203 Y46.941 E13.63937
G1 X59.356 Y46.478 E13.65559
G1 X59.448 Y46.213 E13.66492
G1 X59.799 Y45.235 E13.69948
G1 X60.153 Y44.367 E13.73066
G1 X60.58 Y43.532 E13.76185
G1 X61.076 Y42.736 E13.79304
G0 F6000 X61.435 Y42.92
G1 F1200 X61.991 Y42.187 E13.82364
G1 X62.609 Y41.504 E13.85428
G1 X63.283 Y40.877 E13.8849
G1 X64.01 Y40.312 E13.91552
G1 X64.783 Y39.812 E13.94614
G1 X65.596 Y39.38 E13.97676
G1 X66.444 Y39.021 E14.00739
G1 X67.319 Y38.737 E14.03799
G1 X68.216 Y38.529 E14.06861
G1 X69.44 Y38.375 E14.10964
G1 X70.153 Y38.327 E14.13341
G1 X70.32 Y38.317 E14.13898
G1 X71.094 Y38.278 E14.16475
G1 X71.741 Y38.254 E14.18629
G1 X72.292 Y38.248 E14.20461
G1 X72.493 Y38.251 E14.2113
G1 X72.685 Y38.256 E14.21769
G1 X74.887 Y38.329 E14.29097
G1 X77.432 Y38.341 E14.37562
G1 X79.948 Y38.282 E14.45932
G1 X82.476 Y38.151 E14.54352
G1 X85.02 Y37.946 E14.6284
G1 X86.398 Y37.798 E14.6745
G1 X87.099 Y37.732 E14.69792
G1 X87.391 Y37.708 E14.70766
G1 X88.201 Y37.655 E14.73466
G1 X88.777 Y37.624 E14.75385
G1 X89.677 Y37.589 E14.7838
G1 X90.598 Y37.594 E14.81444
G1 X91.514 Y37.678 E14.84503
G1 X92.063 Y37.768 E14.86353
G1 X93.272 Y37.998 E14.90447
G1 X95.795 Y38.441 E14.98967
G1 X98.334 Y38.812 E15.07501
G1 X100.834 Y39.107 E15.15874
G1 X103.33 Y39.329 E15.24208
G1 X105.869 Y39.483 E15.32669
G1 X108.414 Y39.565 E15.41138
G1 X110.924 Y39.574 E15.49486
G1 X113.471 Y39.512 E15.5796
G1 X115.987 Y39.38 E15.6634
G1 X118.469 Y39.179 E15.74622
G1 X121.043 Y38.896 E15.83235
G1 X123.486 Y38.559 E15.91437
G1 X127.283 Y37.896 E16.04257
G1 X127.867 Y37.782 E16.06236
G1 X128.777 Y37.645 E16.09297
G1 X129.696 Y37.587 E16.12359
G1 X130.275 Y37.592 E16.14285
G1 X131.354 Y37.631 E16.17876
G1 X131.763 Y37.653 E16.19239
G1 X132.649 Y37.712 E16.22192
G1 X132.936 Y37.735 E16.2315
G1 X133.74 Y37.811 E16.25836
G1 X134.918 Y37.939 E16.29777
G1 X137.439 Y38.143 E16.38189
G1 X139.945 Y38.274 E16.46535
G1 X142.49 Y38.335 E16.55003
G1 X145.083 Y38.324 E16.63627
G1 X146.376 Y38.291 E16.67929
G1 X147.51 Y38.253 E16.71703
G1 X148.12 Y38.25 E16.73732
G1 X148.453 Y38.258 E16.7484
G1 X148.743 Y38.269 E16.75805
G1 X149.908 Y38.33 E16.79685
G1 X150.569 Y38.375 E16.81888
G1 X151.484 Y38.478 E16.84951
G1 X152.387 Y38.659 E16.88014
G1 X153.27 Y38.918 E16.91075
G1 X154.128 Y39.253 E16.94138
G1 X154.953 Y39.661 E16.97199
G1 X155.74 Y40.139 E17.00262
G1 X156.482 Y40.683 E17.03322
G1 X157.175 Y41.29 E17.06386
G1 X157.812 Y41.954 E17.09447
G1 X158.389 Y42.672 E17.1251
G1 X158.902 Y43.436 E17.15571
G1 X159.346 Y44.243 E17.18635
G1 X159.82 Y45.353 E17.22649
G1 X160.021 Y45.91 E17.24618
G1 X160.084 Y46.091 E17.25256
G1 X160.383 Y46.969 E17.28341
G1 X160.642 Y47.852 E17.31401
G1 X160.823 Y48.755 E17.34465
G1 X160.925 Y49.67 E17.37527
G1 X160.947 Y50.591 E17.40591
G1 X160.848 Y51.843 E17.44768
G1 X160.824 Y52.016 E17.45349
G1 X160.594 Y53.187 E17.49318
G1 X160.467 Y53.681 E17.51015
G1 X131.586 Y161.471 E21.22171
G1 X130.247 Y166.469 E21.39381
G1 X130 Y167.343 E21.42402
G1 X129.83 Y167.886 E21.44294
G1 X129.77 Y168.061 E21.4491
G1 X129.675 Y168.325 E21.45843
G1 X129.555 Y168.647 E21.46986
G1 X129.204 Y169.56 E21.50239
G1 X128.919 Y170.273 E21.52793
G1 X128.539 Y171.111 E21.55853
G1 X128.086 Y171.918 E21.58931
G1 X127.53 Y172.813 E21.62436
G1 X127.419 Y172.988 E21.63125
G1 X127.131 Y173.43 E21.6488
G1 X126.763 Y173.98 E21.67081
G1 X126.218 Y174.722 E21.70143
G1 X125.591 Y175.435 E21.73301
G1 X124.877 Y176.177 E21.76726
G1 X124.435 Y176.621 E21.78809
G1 X124.326 Y176.729 E21.7932
G1 X123.871 Y177.171 E21.8143
G1 X123.183 Y177.783 E21.84492
G1 X122.439 Y178.338 E21.87579
G1 X121.592 Y178.913 E21.90984
G1 X121.406 Y179.036 E21.91726
G1 X120.966 Y179.32 E21.93468
G1 X120.379 Y179.689 E21.95774
G1 X119.579 Y180.145 E21.98837
G1 X118.734 Y180.533 E22.01929
G1 X117.771 Y180.925 E22.05387
G1 X117.573 Y181.003 E22.06095
G1 X117.039 Y181.207 E22.07996
G1 X116.444 Y181.425 E22.10104
G1 X115.566 Y181.704 E22.13168
G1 X114.673 Y181.905 E22.16213
G1 X113.65 Y182.089 E22.1967
G1 X113.424 Y182.127 E22.20432
G1 X112.896 Y182.209 E22.22209
G1 X112.187 Y182.311 E22.24592
G1 X111.271 Y182.402 E22.27653
G1 X110.695 Y182.419 E22.2957
G1 X109.478 Y182.421 E22.33618
G1 X109.22 Y182.418 E22.34476
G1 X107.961 Y182.321 E22.38676
G1 X106.869 Y182.171 E22.42342
G1 X106.639 Y182.137 E22.43115
G1 X106.144 Y182.057 E22.44783
G1 X105.507 Y181.947 E22.46933
G1 X104.608 Y181.751 E22.49993
G1 X103.707 Y181.471 E22.53131
G1 X102.725 Y181.116 E22.56604
G1 X102.149 Y180.897 E22.58654
G1 X101.997 Y180.838 E22.59196
G1 X101.42 Y180.607 E22.61263
G1 X100.581 Y180.228 E22.64325
G1 X99.767 Y179.771 E22.6743
G1 X98.875 Y179.217 E22.70923
G1 X98.676 Y179.09 E22.71708
G1 X98.245 Y178.808 E22.73421
G1 X97.701 Y178.444 E22.75598
G1 X96.959 Y177.899 E22.7866
G1 X96.254 Y177.28 E22.81781
G1 X95.524 Y176.579 E22.85147
G1 X95.076 Y176.133 E22.87249
G1 X94.97 Y176.026 E22.8775
G1 X94.52 Y175.563 E22.89898
G1 X93.907 Y174.875 E22.92962
G1 X93.349 Y174.126 E22.96069
G1 X92.737 Y173.224 E22.99694
G1 X92.618 Y173.045 E23.00409
G1 X92.457 Y172.797 E23.01393
G1 X91.991 Y172.056 E23.04304
G1 X91.535 Y171.256 E23.07367
G1 X91.151 Y170.419 E23.1043
G1 X90.771 Y169.487 E23.13777
G1 X90.682 Y169.264 E23.14576
G1 X90.489 Y168.755 E23.16387
G1 X90.245 Y168.094 E23.1873
G1 X90.035 Y167.464 E23.20939
G1 X89.92 Y167.073 E23.22294
G1 X89.814 Y166.691 E23.23613
G1 X60.921 Y58.859 E26.94915
G1 X59.575 Y53.839 E27.12201
G1 X59.372 Y53.044 E27.1493
G1 X59.183 Y52.142 E27.17996
G1 X59.074 Y51.228 E27.21057
G1 X59.045 Y50.308 E27.24118
G1 X59.105 Y49.29 E27.2751
G1 X59.109 Y49.253 E27.27634
G1 X59.248 Y48.343 E27.30696
G1 X59.583 Y47.066 E27.35087
G1 X59.736 Y46.603 E27.36709
G1 X59.824 Y46.348 E27.37606
G1 X60.175 Y45.37 E27.41062
G1 X60.523 Y44.518 E27.44123
G1 X60.944 Y43.699 E27.47186
G1 X61.435 Y42.92 E27.50248
G0 F6000 X61.793 Y43.105
G1 F1200 X62.343 Y42.389 E27.53251
G1 X62.954 Y41.724 E27.56255
G1 X63.622 Y41.116 E27.59259
G1 X64.34 Y40.569 E27.62261
G1 X65.104 Y40.087 E27.65266
G1 X65.908 Y39.676 E27.68269
G1 X66.745 Y39.337 E27.71273
G1 X67.609 Y39.073 E27.74278
G1 X68.493 Y38.887 E27.77282
G1 X69.467 Y38.774 E27.80543
G1 X70.341 Y38.716 E27.83457
G1 X70.963 Y38.684 E27.85528
G1 X71.756 Y38.654 E27.88168
G1 X72.286 Y38.648 E27.89931
G1 X72.487 Y38.651 E27.90599
G1 X72.672 Y38.656 E27.91215
G1 X74.872 Y38.729 E27.98536
G1 X77.439 Y38.741 E28.07074
G1 X79.98 Y38.681 E28.15528
G1 X82.496 Y38.551 E28.23907
G1 X85.024 Y38.348 E28.32342
G1 X86.294 Y38.21 E28.36591
G1 X87.137 Y38.13 E28.39408
G1 X87.417 Y38.107 E28.40342
G1 X88.095 Y38.062 E28.42602
G1 X88.958 Y38.016 E28.45477
G1 X89.692 Y37.988 E28.4792
G1 X90.595 Y37.994 E28.50923
G1 X91.494 Y38.079 E28.53926
G1 X91.988 Y38.161 E28.55592
G1 X93.205 Y38.393 E28.59713
G1 X95.734 Y38.836 E28.68252
G1 X98.265 Y39.206 E28.7676
G1 X100.787 Y39.504 E28.85206
G1 X103.338 Y39.731 E28.93725
G1 X105.833 Y39.882 E29.02038
G1 X108.399 Y39.965 E29.10577
G1 X110.933 Y39.974 E29.19005
G1 X113.466 Y39.913 E29.27433
G1 X116.007 Y39.779 E29.35896
G1 X118.544 Y39.573 E29.44362
G1 X121.065 Y39.296 E29.52797
G1 X123.552 Y38.953 E29.61147
G1 X127.387 Y38.284 E29.74095
G1 X127.944 Y38.175 E29.75983
G1 X128.837 Y38.041 E29.78986
G1 X129.738 Y37.986 E29.81988
G1 X130.261 Y37.991 E29.83728
G1 X131.143 Y38.022 E29.86663
G1 X131.742 Y38.053 E29.88658
G1 X132.622 Y38.111 E29.91591
G1 X132.898 Y38.133 E29.92512
G1 X133.702 Y38.209 E29.95198
G1 X134.878 Y38.336 E29.99133
G1 X137.419 Y38.542 E30.07612
G1 X139.95 Y38.675 E30.16041
G1 X142.482 Y38.735 E30.24465
G1 X145.048 Y38.725 E30.33
G1 X146.469 Y38.688 E30.37728
G1 X147.523 Y38.653 E30.41235
G1 X148.11 Y38.65 E30.43188
G1 X148.443 Y38.658 E30.44296
G1 X148.723 Y38.669 E30.45228
G1 X149.713 Y38.72 E30.48525
G1 X149.881 Y38.73 E30.49084
G1 X150.542 Y38.775 E30.51288
G1 X151.439 Y38.876 E30.5429
G1 X152.324 Y39.056 E30.57294
G1 X153.19 Y39.314 E30.603
G1 X154.029 Y39.647 E30.63302
G1 X154.836 Y40.053 E30.66306
G1 X155.603 Y40.529 E30.69309
G1 X156.326 Y41.071 E30.72314
G1 X156.997 Y41.675 E30.75317
G1 X157.613 Y42.336 E30.78322
G1 X158.168 Y43.048 E30.81325
G1 X158.657 Y43.807 E30.84328
G1 X159.077 Y44.606 E30.8733
G1 X159.443 Y45.489 E30.90509
G1 X159.644 Y46.046 E30.92479
G1 X159.705 Y46.22 E30.93092
G1 X160.004 Y47.098 E30.96177
G1 X160.257 Y47.965 E30.99181
G1 X160.433 Y48.851 E31.02185
G1 X160.529 Y49.749 E31.05189
G1 X160.546 Y50.652 E31.08193
G1 X160.452 Y51.788 E31.11984
G1 X160.428 Y51.961 E31.12565
G1 X160.206 Y53.088 E31.16386
G1 X160.08 Y53.578 E31.18068
G1 X131.199 Y161.368 E34.89225
G1 X129.82 Y166.512 E35.06938
G1 X129.615 Y167.234 E35.09435
G1 X129.452 Y167.756 E35.11253
G1 X129.392 Y167.931 E35.11869
G1 X129.301 Y168.185 E35.12766
G1 X129.182 Y168.503 E35.13895
G1 X128.776 Y169.556 E35.17649
G1 X128.548 Y170.124 E35.19685
G1 X128.175 Y170.946 E35.22687
G1 X127.746 Y171.706 E35.2559
G1 X127.19 Y172.601 E35.29094
G1 X127.083 Y172.77 E35.29759
G1 X126.798 Y173.207 E35.31495
G1 X126.43 Y173.757 E35.33696
G1 X125.895 Y174.485 E35.36701
G1 X125.303 Y175.157 E35.39679
G1 X124.589 Y175.899 E35.43104
G1 X124.152 Y176.338 E35.45164
G1 X124.047 Y176.442 E35.45656
G1 X123.592 Y176.884 E35.47766
G1 X122.917 Y177.484 E35.5077
G1 X122.214 Y178.007 E35.53684
G1 X121.367 Y178.582 E35.57089
G1 X121.188 Y178.701 E35.57804
G1 X120.753 Y178.982 E35.59526
G1 X120.166 Y179.351 E35.61832
G1 X119.381 Y179.797 E35.64835
G1 X118.584 Y180.162 E35.67751
G1 X117.621 Y180.554 E35.71209
G1 X117.43 Y180.63 E35.71893
G1 X117.047 Y180.777 E35.73257
G1 X116.306 Y181.049 E35.75882
G1 X115.445 Y181.322 E35.78887
G1 X114.603 Y181.511 E35.81757
G1 X113.58 Y181.695 E35.85214
G1 X113.362 Y181.732 E35.85949
G1 X112.975 Y181.793 E35.87252
G1 X112.13 Y181.915 E35.90092
G1 X111.232 Y182.004 E35.93093
G1 X110.695 Y182.019 E35.9488
G1 X109.478 Y182.021 E35.98928
G1 X109.227 Y182.018 E35.99763
G1 X108.015 Y181.925 E36.03806
