;FLAVOR:Marlin
;TIME:1686
;Filament used: 0.790863m
;Layer height: 0.2
;MINX:78.709
;MINY:78.882
;MINZ:0.2
;MAXX:141.292
;MAXY:141.115
;MAXZ:5.4
;Generated with Cura_SteamEngine master
M140 S60
M105
M190 S60
M104 S200
M105
M109 S200
M82 ;absolute extrusion mode
; Ender 3 Custom Start G-code
G92 E0 ; Reset Extruder
G28 ; Home all axes
G1 Z2.0 F3000 ; Move Z Axis up little to prevent scratching of Heat Bed
G1 X0.1 Y20 Z0.3 F5000.0 ; Move to start position
G1 X0.1 Y200.0 Z0.3 F1500.0 E15 ; Draw the first line
G1 X0.4 Y200.0 Z0.3 F5000.0 ; Move to side a little
G1 X0.4 Y20 Z0.3 F1500.0 E30 ; Draw the second line
G92 E0 ; Reset Extruder
G1 Z2.0 F3000 ; Move Z Axis up little to prevent scratching of Heat Bed
G1 X5 Y20 Z0.3 F5000.0 ; Move over to prevent blob squish
G92 E0
G92 E0
G1 F1500 E-6.5
;LAYER_COUNT:27
;LAYER:0
M107
G0 F6000 X87.466 Y88.391 Z0.2
;TYPE:SKIRT
G1 F1500 E0
G1 F1200 X88.131 Y87.745 E0.03084
G1 X88.512 Y87.406 E0.0478
G1 X89.913 Y86.191 E0.10948
G1 X90.776 Y85.424 E0.14788
G1 X91.503 Y84.832 E0.17906
G1 X92.258 Y84.316 E0.20948
G1 X92.99 Y83.859 E0.23818
G1 X93.643 Y83.435 E0.26408
G1 X93.881 Y83.295 E0.27326
G1 X94.948 Y82.617 E0.31531
G1 X95.76 Y82.149 E0.34648
G1 X96.486 Y81.812 E0.3731
G1 X96.484 Y81.807 E0.37328
G1 X97.972 Y81.148 E0.42741
G1 X98.278 Y81.028 E0.43834
G1 X99.364 Y80.557 E0.47771
G1 X100.24 Y80.221 E0.50892
G1 X101.128 Y79.964 E0.53966
G1 X102.495 Y79.63 E0.58647
G1 X102.496 Y79.632 E0.58654
G1 X102.586 Y79.605 E0.58967
G1 X104.303 Y79.201 E0.64833
G1 X105.224 Y79.026 E0.67951
G1 X106.157 Y78.929 E0.71071
G1 X106.865 Y78.909 E0.73427
G1 X107.03 Y78.91 E0.73976
G1 X108.976 Y78.884 E0.80449
G1 X109.963 Y78.882 E0.83732
G1 X110.268 Y78.886 E0.84746
G1 X110.609 Y78.895 E0.85881
G1 X112.039 Y78.951 E0.90641
G1 X112.138 Y78.959 E0.90971
G1 X113.466 Y79.01 E0.95391
G1 X114.401 Y79.086 E0.98511
G1 X115.311 Y79.238 E1.0158
G1 X116.509 Y79.49 E1.05652
G1 X118.376 Y79.863 E1.11984
G1 X119.287 Y80.085 E1.15103
G1 X120.176 Y80.384 E1.18222
G1 X120.661 Y80.584 E1.19967
G1 X121.618 Y81.005 E1.23444
G1 X123.119 Y81.651 E1.2888
G1 X123.413 Y81.775 E1.29941
G1 X124.261 Y82.176 E1.33061
G1 X125.059 Y82.639 E1.36129
G1 X126.141 Y83.33 E1.40399
G1 X127.011 Y83.879 E1.43821
G1 X127.705 Y84.311 E1.4654
G1 X128.48 Y84.84 E1.49661
G1 X129.206 Y85.433 E1.52779
G1 X130.15 Y86.274 E1.56984
G1 X131.201 Y87.23 E1.61709
G1 X131.757 Y87.719 E1.64172
G1 X132.426 Y88.359 E1.67251
G1 X133.016 Y88.974 E1.70086
G1 X134.528 Y90.586 E1.77437
G1 X135.103 Y91.249 E1.80355
G1 X135.657 Y92.006 E1.83475
G1 X136.084 Y92.7 E1.86186
G1 X136.685 Y93.763 E1.90247
G1 X136.928 Y94.206 E1.91928
G1 X137.057 Y94.43 E1.92787
G1 X137.577 Y95.354 E1.96314
G1 X137.728 Y95.631 E1.97363
G1 X138.001 Y96.151 E1.99317
G1 X138.652 Y97.332 E2.03802
G1 X138.836 Y97.702 E2.05176
G1 X139.346 Y98.638 E2.08722
G1 X139.759 Y99.48 E2.11841
G1 X140.099 Y100.354 E2.1496
G1 X140.363 Y101.254 E2.18079
G1 X140.55 Y102.173 E2.21199
G1 X140.655 Y103.076 E2.24222
G1 X140.697 Y103.636 E2.2609
G1 X140.927 Y106.209 E2.34682
G1 X141.177 Y108.313 E2.41729
G1 X141.232 Y108.823 E2.43435
G1 X141.292 Y109.758 E2.46552
G1 X141.273 Y110.696 E2.49672
G1 X141.218 Y111.305 E2.51706
G1 X141.192 Y111.523 E2.52436
G1 X141.164 Y111.735 E2.53147
G1 X140.967 Y113.148 E2.57892
G1 X140.826 Y114.238 E2.61548
G1 X140.722 Y114.889 E2.63741
G1 X140.588 Y115.585 E2.66098
G1 X140.576 Y115.644 E2.66298
G1 X140.446 Y116.21 E2.6823
G1 X140.393 Y116.414 E2.68931
G1 X140.005 Y117.982 E2.74303
G1 X139.873 Y118.534 E2.76191
G1 X139.631 Y119.394 E2.79163
G1 X139.497 Y119.784 E2.80534
G1 X139.217 Y120.555 E2.83262
G1 X139.026 Y121.06 E2.85058
G1 X138.557 Y122.396 E2.89768
G1 X138.315 Y123.056 E2.92106
G1 X137.955 Y123.922 E2.95225
G1 X137.529 Y124.741 E2.98295
G1 X137.158 Y125.388 E3.00776
G1 X136.175 Y127.149 E3.07484
G1 X135.552 Y128.138 E3.11371
G1 X135.441 Y128.295 E3.12011
G1 X134.867 Y129.037 E3.15131
G1 X134.392 Y129.565 E3.17493
G1 X132.587 Y131.444 E3.26159
G1 X132.465 Y131.569 E3.2674
G1 X132.111 Y131.926 E3.28412
G1 X131.891 Y132.142 E3.29438
G1 X131.74 Y132.286 E3.30132
G1 X131.504 Y132.504 E3.312
G1 X130.789 Y133.147 E3.34399
G1 X130.565 Y133.343 E3.35389
G1 X129.941 Y133.917 E3.38209
G1 X129.21 Y134.569 E3.41467
G1 X128.483 Y135.163 E3.44589
G1 X127.72 Y135.685 E3.47664
G1 X126.951 Y136.165 E3.50679
G1 X126.321 Y136.574 E3.53177
G1 X126.183 Y136.656 E3.53711
G1 X125.014 Y137.395 E3.58311
G1 X124.201 Y137.862 E3.61429
G1 X123.083 Y138.365 E3.65507
G1 X121.9 Y138.82 E3.69723
G1 X121.68 Y138.915 E3.7052
G1 X120.771 Y139.257 E3.7375
G1 X120.323 Y139.435 E3.75353
G1 X119.736 Y139.649 E3.77431
G1 X118.809 Y139.913 E3.80637
G1 X118.15 Y140.07 E3.8289
G1 X117.189 Y140.32 E3.86193
G1 X116.788 Y140.406 E3.87557
G1 X115.73 Y140.672 E3.91185
G1 X114.811 Y140.862 E3.94307
G1 X113.575 Y140.991 E3.9844
G1 X112.855 Y141.025 E4.00837
G1 X111.428 Y141.081 E4.05587
G1 X110.32 Y141.114 E4.09274
G1 X109.698 Y141.115 E4.11343
G1 X109.169 Y141.1 E4.13103
G1 X107.159 Y141.017 E4.19794
G1 X106.87 Y141.01 E4.20755
G1 X106.503 Y140.996 E4.21977
G1 X105.568 Y140.92 E4.25097
G1 X104.319 Y140.692 E4.2932
G1 X103.382 Y140.463 E4.32528
G1 X102.29 Y140.183 E4.36278
G1 X101.903 Y140.094 E4.37598
G1 X101.723 Y140.051 E4.38214
G1 X101.05 Y139.884 E4.4052
G1 X99.933 Y139.543 E4.44405
G1 X99.68 Y139.45 E4.45301
G1 X98.259 Y138.911 E4.50356
G1 X97.956 Y138.781 E4.51453
G1 X96.855 Y138.353 E4.55382
G1 X95.911 Y137.934 E4.58817
G1 X94.916 Y137.37 E4.62621
G1 X93.765 Y136.636 E4.67161
G1 X93.001 Y136.155 E4.70164
G1 X92.258 Y135.692 E4.73076
G1 X91.484 Y135.162 E4.76196
G1 X90.763 Y134.573 E4.79292
G1 X89.999 Y133.893 E4.82694
G1 X89.058 Y133.035 E4.8693
G1 X88.185 Y132.263 E4.90806
G1 X87.503 Y131.606 E4.93955
G1 X86.526 Y130.58 E4.98667
G1 X86.457 Y130.51 E4.98994
G1 X85.489 Y129.475 E5.03708
G1 X85.158 Y129.104 E5.05361
G1 X85.082 Y129.015 E5.05751
G1 X84.504 Y128.277 E5.08868
G1 X83.879 Y127.298 E5.12732
G1 X83.361 Y126.384 E5.16226
G1 X82.874 Y125.501 E5.1958
G1 X82.611 Y125.046 E5.21328
G1 X82.507 Y124.862 E5.22031
G1 X82.357 Y124.591 E5.23061
G1 X81.938 Y123.752 E5.2618
G1 X81.595 Y122.886 E5.29278
G1 X81.435 Y122.426 E5.30898
G1 X80.789 Y120.63 E5.37246
G1 X80.489 Y119.822 E5.40113
G1 X80.123 Y118.635 E5.44244
G1 X79.785 Y117.267 E5.48931
G1 X79.452 Y115.907 E5.53588
G1 X79.346 Y115.428 E5.5522
G1 X79.285 Y115.12 E5.56264
G1 X79.143 Y114.207 E5.59337
G1 X79.128 Y114.073 E5.59786
G1 X78.799 Y111.449 E5.68581
G1 X78.776 Y111.247 E5.69258
G1 X78.709 Y110.312 E5.72375
G1 X78.723 Y109.374 E5.75496
G1 X78.778 Y108.742 E5.77606
G1 X78.895 Y107.727 E5.81004
G1 X79.161 Y105.084 E5.89839
G1 X79.277 Y103.497 E5.95131
G1 X79.324 Y102.956 E5.96938
G1 X79.445 Y102.026 E6.00057
G1 X79.645 Y101.11 E6.03175
G1 X79.922 Y100.214 E6.06294
G1 X80.395 Y99.088 E6.10357
G1 X80.434 Y99.008 E6.10653
G1 X80.654 Y98.581 E6.1225
G1 X81.883 Y96.317 E6.20818
G1 X82.236 Y95.643 E6.23349
G1 X82.39 Y95.359 E6.24423
G1 X82.916 Y94.423 E6.27994
G1 X83.21 Y93.915 E6.29947
G1 X83.72 Y92.988 E6.33466
G1 X83.853 Y92.753 E6.34364
G1 X83.955 Y92.578 E6.35037
G1 X84.462 Y91.788 E6.3816
G1 X85.034 Y91.045 E6.41278
G1 X85.401 Y90.629 E6.43123
G1 X86.246 Y89.719 E6.47254
G1 X87.151 Y88.726 E6.51722
G1 X87.466 Y88.391 E6.53252
G0 F6000 X87.756 Y88.666
G1 F1200 X88.397 Y88.043 E6.56225
G1 X88.774 Y87.708 E6.57902
G1 X90.159 Y86.507 E6.63999
G1 X91.041 Y85.723 E6.67924
G1 X91.756 Y85.142 E6.70989
G1 X92.47 Y84.655 E6.73863
G1 X93.198 Y84.201 E6.76717
G1 X93.861 Y83.77 E6.79347
G1 X94.097 Y83.631 E6.80258
G1 X95.162 Y82.955 E6.84453
G1 X95.96 Y82.496 E6.87515
G1 X96.648 Y82.177 E6.90038
G1 X96.646 Y82.173 E6.90052
G1 X98.134 Y81.514 E6.95465
G1 X98.426 Y81.399 E6.96509
G1 X99.523 Y80.924 E7.00485
G1 X100.383 Y80.595 E7.03548
G1 X101.223 Y80.353 E7.06455
G1 X102.59 Y80.02 E7.11135
G1 X102.677 Y79.995 E7.11436
G1 X104.394 Y79.591 E7.17302
G1 X105.299 Y79.419 E7.20366
G1 X106.215 Y79.326 E7.23429
G1 X106.863 Y79.309 E7.25585
G1 X107.034 Y79.31 E7.26153
G1 X108.977 Y79.284 E7.32616
G1 X109.964 Y79.282 E7.35899
G1 X110.258 Y79.286 E7.36877
G1 X110.594 Y79.295 E7.37995
G1 X112.024 Y79.351 E7.42755
G1 X112.121 Y79.359 E7.43079
G1 X113.451 Y79.41 E7.47506
G1 X114.368 Y79.485 E7.50566
G1 X115.229 Y79.629 E7.53469
G1 X116.446 Y79.885 E7.57605
G1 X118.298 Y80.256 E7.63888
G1 X119.192 Y80.474 E7.66948
G1 X120.064 Y80.77 E7.70011
G1 X120.5 Y80.95 E7.7158
G1 X121.406 Y81.349 E7.74873
G1 X122.979 Y82.026 E7.80568
G1 X123.257 Y82.143 E7.81572
G1 X124.089 Y82.537 E7.84633
G1 X124.844 Y82.976 E7.87538
G1 X125.975 Y83.698 E7.92001
G1 X126.742 Y84.182 E7.95018
G1 X127.494 Y84.65 E7.97964
G1 X128.254 Y85.17 E8.01026
G1 X128.94 Y85.732 E8.03976
G1 X129.881 Y86.57 E8.08167
G1 X130.95 Y87.543 E8.12975
G1 X131.493 Y88.02 E8.15379
G1 X132.138 Y88.636 E8.18345
G1 X132.724 Y89.247 E8.21161
G1 X134.236 Y90.859 E8.28512
G1 X134.79 Y91.499 E8.31327
G1 X135.334 Y92.242 E8.3439
G1 X135.736 Y92.897 E8.36946
G1 X136.335 Y93.955 E8.4099
G1 X136.591 Y94.421 E8.42758
G1 X136.709 Y94.626 E8.43545
G1 X137.229 Y95.55 E8.47071
G1 X137.374 Y95.817 E8.48082
G1 X137.644 Y96.331 E8.50013
G1 X138.302 Y97.525 E8.54547
G1 X138.477 Y97.879 E8.55861
G1 X138.995 Y98.829 E8.5946
G1 X139.399 Y99.656 E8.62521
G1 X139.731 Y100.515 E8.65584
G1 X139.987 Y101.399 E8.68645
G1 X140.165 Y102.303 E8.71709
G1 X140.256 Y103.106 E8.74397
G1 X140.296 Y103.633 E8.76155
G1 X140.53 Y106.255 E8.84911
G1 X140.779 Y108.355 E8.91944
G1 X140.834 Y108.865 E8.9365
G1 X140.893 Y109.784 E8.96713
G1 X140.872 Y110.705 E8.99777
G1 X140.82 Y111.257 E9.01621
G1 X140.768 Y111.68 E9.03039
G1 X140.557 Y113.197 E9.08133
G1 X140.429 Y114.187 E9.11453
G1 X140.329 Y114.814 E9.13565
G1 X140.184 Y115.565 E9.16109
G1 X140.059 Y116.109 E9.17965
G1 X139.994 Y116.36 E9.18828
G1 X139.616 Y117.886 E9.24057
G1 X139.484 Y118.441 E9.25954
G1 X139.25 Y119.27 E9.28819
G1 X139.121 Y119.647 E9.30144
G1 X138.784 Y120.574 E9.33425
G1 X138.647 Y120.934 E9.34706
G1 X138.232 Y122.117 E9.38876
G1 X137.939 Y122.918 E9.41713
G1 X137.585 Y123.768 E9.44775
G1 X137.182 Y124.542 E9.47677
G1 X136.833 Y125.151 E9.50012
G1 X135.826 Y126.955 E9.56884
G1 X135.225 Y127.907 E9.60628
G1 X135.114 Y128.064 E9.61268
G1 X134.551 Y128.792 E9.64329
G1 X134.103 Y129.288 E9.66552
G1 X132.181 Y131.288 E9.75777
G1 X131.827 Y131.645 E9.7745
G1 X131.615 Y131.852 E9.78435
G1 X131.464 Y131.996 E9.79129
G1 X131.237 Y132.207 E9.8016
G1 X130.522 Y132.85 E9.83358
G1 X130.278 Y133.063 E9.84435
G1 X129.546 Y133.735 E9.8774
G1 X128.944 Y134.271 E9.90421
G1 X128.23 Y134.853 E9.93485
G1 X127.508 Y135.346 E9.96393
G1 X126.74 Y135.825 E9.99403
G1 X126.103 Y136.239 E10.0193
G1 X125.958 Y136.324 E10.02489
G1 X124.8 Y137.057 E10.07048
G1 X124.001 Y137.515 E10.10111
G1 X122.939 Y137.992 E10.13983
G1 X121.884 Y138.398 E10.17743
G1 X121.539 Y138.541 E10.18985
G1 X120.59 Y138.898 E10.22357
G1 X120.175 Y139.063 E10.23843
G1 X119.609 Y139.269 E10.25846
G1 X118.716 Y139.524 E10.28935
G1 X118.054 Y139.682 E10.31198
G1 X117.088 Y139.933 E10.34518
G1 X116.685 Y140.02 E10.35889
G1 X115.632 Y140.284 E10.395
G1 X114.73 Y140.47 E10.42563
G1 X113.556 Y140.592 E10.46489
G1 X112.839 Y140.626 E10.48876
G1 X111.417 Y140.681 E10.53609
G1 X110.309 Y140.714 E10.57296
G1 X109.709 Y140.715 E10.59292
G1 X109.185 Y140.7 E10.61035
G1 X107.182 Y140.618 E10.67703
G1 X106.885 Y140.61 E10.68691
G1 X106.518 Y140.596 E10.69913
G1 X105.6 Y140.521 E10.72976
G1 X104.414 Y140.303 E10.76987
G1 X103.481 Y140.075 E10.80181
G1 X102.431 Y139.806 E10.83787
G1 X101.993 Y139.705 E10.85282
G1 X101.146 Y139.496 E10.88183
G1 X100.07 Y139.167 E10.91926
G1 X99.822 Y139.076 E10.92804
G1 X98.401 Y138.537 E10.97859
G1 X98.101 Y138.408 E10.98945
G1 X97 Y137.98 E11.02874
G1 X96.09 Y137.576 E11.06186
G1 X95.131 Y137.032 E11.09853
G1 X94.027 Y136.329 E11.14206
G1 X93.167 Y135.787 E11.17587
G1 X92.47 Y135.352 E11.2032
G1 X91.711 Y134.832 E11.2338
G1 X91.029 Y134.274 E11.2631
G1 X90.164 Y133.503 E11.30164
G1 X89.309 Y132.722 E11.34016
G1 X88.45 Y131.963 E11.37829
G1 X87.793 Y131.33 E11.40863
G1 X86.816 Y130.304 E11.45575
G1 X86.817 Y130.303 E11.4558
G1 X86.749 Y130.237 E11.45895
G1 X85.781 Y129.202 E11.50608
G1 X85.462 Y128.844 E11.52203
G1 X85.386 Y128.755 E11.52592
G1 X84.819 Y128.03 E11.55654
G1 X84.227 Y127.101 E11.59318
G1 X83.711 Y126.191 E11.62797
G1 X83.223 Y125.306 E11.66158
G1 X82.957 Y124.846 E11.67926
G1 X82.707 Y124.397 E11.69635
G1 X82.296 Y123.573 E11.72698
G1 X81.972 Y122.755 E11.75624
G1 X81.776 Y122.193 E11.77604
G1 X81.137 Y120.418 E11.83878
G1 X80.864 Y119.683 E11.86486
G1 X80.511 Y118.539 E11.90468
G1 X80.173 Y117.172 E11.95152
G1 X79.84 Y115.812 E11.99809
G1 X79.738 Y115.35 E12.01382
G1 X79.677 Y115.042 E12.02426
G1 X79.541 Y114.162 E12.05388
G1 X79.533 Y114.089 E12.05632
G1 X79.196 Y111.404 E12.14633
G1 X79.173 Y111.202 E12.15309
G1 X79.109 Y110.284 E12.1837
G1 X79.124 Y109.363 E12.21433
G1 X79.175 Y108.788 E12.23353
G1 X79.295 Y107.746 E12.26842
G1 X79.56 Y105.117 E12.3563
G1 X79.664 Y103.681 E12.40419
G1 X79.723 Y102.991 E12.42722
G1 X79.842 Y102.078 E12.45785
G1 X80.04 Y101.179 E12.48846
G1 X80.316 Y100.3 E12.51911
G1 X80.755 Y99.263 E12.55656
G1 X80.794 Y99.183 E12.55952
G1 X81.006 Y98.771 E12.57493
G1 X82.261 Y96.459 E12.66243
G1 X82.591 Y95.829 E12.68608
G1 X82.739 Y95.555 E12.69644
G1 X83.336 Y94.494 E12.73693
G1 X83.578 Y94.076 E12.753
G1 X84.071 Y93.181 E12.78698
G1 X84.199 Y92.954 E12.79565
G1 X84.301 Y92.779 E12.80239
G1 X84.799 Y92.005 E12.833
G1 X85.362 Y91.276 E12.86363
G1 X85.694 Y90.901 E12.88029
G1 X86.601 Y89.925 E12.92461
G1 X87.447 Y88.996 E12.9664
G1 X87.582 Y88.85 E12.97301
G1 X87.756 Y88.666 E12.98143
G0 F6000 X88.047 Y88.941
G1 F1200 X88.663 Y88.341 E13.01004
G1 X88.925 Y88.107 E13.02172
G1 X90.447 Y86.786 E13.08875
G1 X91.307 Y86.022 E13.12701
G1 X92.008 Y85.453 E13.15704
G1 X92.682 Y84.994 E13.18416
G1 X93.445 Y84.518 E13.21407
G1 X94.079 Y84.106 E13.23922
G1 X94.295 Y83.979 E13.24755
G1 X95.377 Y83.292 E13.29018
G1 X96.16 Y82.843 E13.3202
G1 X96.809 Y82.542 E13.344
G1 X96.808 Y82.539 E13.3441
G1 X98.296 Y81.88 E13.39823
G1 X98.575 Y81.771 E13.40819
G1 X99.682 Y81.291 E13.44832
G1 X100.526 Y80.969 E13.47837
G1 X101.318 Y80.741 E13.50578
G1 X102.674 Y80.41 E13.55221
G1 X102.769 Y80.384 E13.55548
G1 X104.486 Y79.98 E13.61415
G1 X105.373 Y79.812 E13.64418
G1 X106.272 Y79.724 E13.67422
G1 X106.862 Y79.709 E13.69385
G1 X107.038 Y79.71 E13.6997
G1 X108.977 Y79.684 E13.7642
G1 X109.964 Y79.682 E13.79703
G1 X110.248 Y79.685 E13.80647
G1 X110.578 Y79.695 E13.81746
G1 X112.008 Y79.751 E13.86505
G1 X112.082 Y79.757 E13.86752
G1 X113.435 Y79.809 E13.91256
G1 X114.335 Y79.884 E13.9426
G1 X115.146 Y80.021 E13.96995
G1 X116.281 Y80.26 E14.00853
G1 X118.22 Y80.648 E14.0743
G1 X119.097 Y80.863 E14.10433
G1 X120.339 Y81.316 E14.1483
G1 X121.281 Y81.73 E14.18253
G1 X122.846 Y82.404 E14.2392
G1 X123.102 Y82.512 E14.24844
G1 X123.918 Y82.899 E14.27848
G1 X124.628 Y83.313 E14.30582
G1 X125.759 Y84.035 E14.35044
G1 X126.53 Y84.522 E14.38078
G1 X127.282 Y84.99 E14.41024
G1 X128.027 Y85.501 E14.44028
G1 X128.674 Y86.03 E14.46808
G1 X129.612 Y86.866 E14.50987
G1 X130.67 Y87.829 E14.55745
G1 X131.229 Y88.32 E14.5822
G1 X131.849 Y88.913 E14.61073
G1 X132.433 Y89.521 E14.63877
G1 X133.945 Y91.133 E14.71228
G1 X134.478 Y91.749 E14.73938
G1 X135.01 Y92.479 E14.76942
G1 X135.388 Y93.094 E14.79343
G1 X135.984 Y94.148 E14.8337
G1 X136.244 Y94.622 E14.85168
G1 X136.36 Y94.823 E14.8594
G1 X136.88 Y95.747 E14.89467
G1 X137.02 Y96.003 E14.90437
G1 X137.287 Y96.511 E14.92346
G1 X137.952 Y97.718 E14.96929
G1 X138.137 Y98.091 E14.98314
G1 X138.643 Y99.021 E15.01836
G1 X139.04 Y99.832 E15.04839
G1 X139.363 Y100.675 E15.07841
G1 X139.61 Y101.544 E15.10846
G1 X139.78 Y102.431 E15.1385
G1 X139.857 Y103.136 E15.16209
G1 X139.899 Y103.694 E15.1807
G1 X140.129 Y106.271 E15.26675
G1 X140.381 Y108.398 E15.33799
G1 X140.436 Y108.908 E15.35505
G1 X140.493 Y109.81 E15.38511
G1 X140.47 Y110.712 E15.41512
G1 X140.423 Y111.21 E15.43176
G1 X140.372 Y111.625 E15.44567
G1 X140.174 Y113.046 E15.49339
G1 X140.033 Y114.136 E15.52994
G1 X139.936 Y114.739 E15.55026
