;FLAVOR:Marlin
;TIME:132
;Filament used: 0.0576612m
;Layer height: 0.2
;MINX:94.015
;MINY:94.026
;MINZ:0.2
;MAXX:125.977
;MAXY:125.978
;MAXZ:4.8
;Generated with Cura_SteamEngine master
M140 S60
M105
M190 S60
M104 S200
M105
M109 S200
M82 ;absolute extrusion mode
; Ender 3 Custom Start G-code
G92 E0 ; Reset Extruder
G28 ; Home all axes
G1 Z2.0 F3000 ; Move Z Axis up little to prevent scratching of Heat Bed
G1 X0.1 Y20 Z0.3 F5000.0 ; Move to start position
G1 X0.1 Y200.0 Z0.3 F1500.0 E15 ; Draw the first line
G1 X0.4 Y200.0 Z0.3 F5000.0 ; Move to side a little
G1 X0.4 Y20 Z0.3 F1500.0 E30 ; Draw the second line
G92 E0 ; Reset Extruder
G1 Z2.0 F3000 ; Move Z Axis up little to prevent scratching of Heat Bed
G1 X5 Y20 Z0.3 F5000.0 ; Move over to prevent blob squish
G92 E0
G92 E0
G1 F1500 E-6.5
;LAYER_COUNT:24
;LAYER:0
M107
G0 F6000 X98.53 Y98.872 Z0.2
;TYPE:SKIRT
G1 F1500 E0
G1 F1200 X99.247 Y98.177 E0.03321
G1 X99.579 Y97.883 E0.04796
G1 X100.44 Y97.195 E0.08462
G1 X100.877 Y96.88 E0.10254
G1 X101.773 Y96.298 E0.13807
G1 X102.149 Y96.079 E0.15254
G1 X103.11 Y95.581 E0.18854
G1 X103.556 Y95.377 E0.20486
G1 X104.528 Y94.987 E0.23969
G1 X105.027 Y94.814 E0.25726
G1 X106.047 Y94.515 E0.29261
G1 X106.552 Y94.393 E0.30989
G1 X107.655 Y94.185 E0.34722
G1 X107.979 Y94.141 E0.3581
G1 X108.997 Y94.051 E0.39209
G1 X109.592 Y94.026 E0.41189
G1 X110.62 Y94.031 E0.44609
G1 X111.086 Y94.055 E0.46161
G1 X111.811 Y94.116 E0.4858
G1 X112.031 Y94.142 E0.49317
G1 X112.722 Y94.246 E0.51641
G1 X112.924 Y94.283 E0.52324
G1 X113.65 Y94.442 E0.54796
G1 X114.146 Y94.568 E0.56498
G1 X115.117 Y94.863 E0.59874
G1 X115.565 Y95.022 E0.61455
G1 X116.561 Y95.431 E0.65036
G1 X117.004 Y95.639 E0.66664
G1 X117.939 Y96.134 E0.70183
G1 X118.364 Y96.386 E0.71826
G1 X119.239 Y96.963 E0.75312
G1 X119.613 Y97.236 E0.76852
G1 X120.475 Y97.934 E0.80541
G1 X120.826 Y98.249 E0.8211
G1 X121.561 Y98.974 E0.85544
G1 X121.91 Y99.352 E0.87255
G1 X122.583 Y100.155 E0.90739
G1 X122.869 Y100.531 E0.92311
G1 X123.479 Y101.42 E0.95897
G1 X123.723 Y101.816 E0.97444
G1 X124.246 Y102.766 E1.01051
G1 X124.46 Y103.205 E1.02675
G1 X124.872 Y104.163 E1.06143
G1 X125.04 Y104.611 E1.07735
G1 X125.366 Y105.63 E1.11293
G1 X125.466 Y105.989 E1.12533
G1 X125.734 Y107.193 E1.16635
G1 X125.797 Y107.577 E1.1793
G1 X125.916 Y108.606 E1.21375
G1 X125.955 Y109.175 E1.23272
G1 X125.977 Y110.235 E1.26798
G1 X125.965 Y110.664 E1.28226
G1 X125.881 Y111.741 E1.31819
G1 X125.814 Y112.269 E1.33589
G1 X125.633 Y113.304 E1.37083
G1 X125.518 Y113.814 E1.38822
G1 X125.216 Y114.891 E1.42543
G1 X125.104 Y115.225 E1.43714
G1 X124.744 Y116.156 E1.47034
G1 X124.525 Y116.654 E1.48844
G1 X124.047 Y117.611 E1.52402
G1 X123.805 Y118.042 E1.54046
G1 X123.238 Y118.948 E1.576
G1 X122.971 Y119.331 E1.59153
G1 X122.342 Y120.148 E1.62583
G1 X122.044 Y120.5 E1.64117
G1 X121.296 Y121.299 E1.67757
G1 X120.931 Y121.652 E1.69446
G1 X120.126 Y122.358 E1.73007
G1 X119.737 Y122.667 E1.74659
G1 X118.887 Y123.279 E1.78143
G1 X118.516 Y123.52 E1.79614
G1 X117.602 Y124.053 E1.83134
G1 X117.162 Y124.282 E1.84783
G1 X116.196 Y124.727 E1.88321
G1 X115.727 Y124.916 E1.90003
G1 X114.693 Y125.274 E1.93642
G1 X114.247 Y125.404 E1.95187
G1 X113.267 Y125.641 E1.98541
G1 X112.809 Y125.73 E2.00092
G1 X111.729 Y125.885 E2.03721
G1 X111.234 Y125.931 E2.05375
G1 X110.172 Y125.978 E2.0891
G1 X109.672 Y125.976 E2.10574
G1 X108.612 Y125.92 E2.14104
G1 X108.057 Y125.864 E2.15959
G1 X107.089 Y125.723 E2.19213
G1 X106.943 Y125.695 E2.19707
G1 X106.439 Y125.586 E2.21422
G1 X106.219 Y125.533 E2.22175
G1 X105.621 Y125.371 E2.24236
G1 X105.183 Y125.239 E2.25757
G1 X104.154 Y124.872 E2.29391
G1 X103.663 Y124.669 E2.31158
G1 X102.717 Y124.225 E2.34634
G1 X102.296 Y124.002 E2.36218
G1 X101.378 Y123.457 E2.39769
G1 X101.012 Y123.215 E2.41228
G1 X100.156 Y122.587 E2.4476
G1 X99.73 Y122.242 E2.46583
G1 X98.963 Y121.559 E2.49999
G1 X98.648 Y121.251 E2.51464
G1 X97.875 Y120.413 E2.55256
G1 X97.557 Y120.03 E2.56912
G1 X96.942 Y119.215 E2.60307
G1 X96.684 Y118.838 E2.61827
G1 X96.132 Y117.943 E2.65324
G1 X95.883 Y117.492 E2.67038
G1 X95.404 Y116.511 E2.70669
G1 X95.217 Y116.075 E2.72247
G1 X94.847 Y115.084 E2.75765
G1 X94.674 Y114.542 E2.77657
G1 X94.369 Y113.366 E2.81698
G1 X94.295 Y112.998 E2.82947
G1 X94.168 Y112.225 E2.85552
G1 X94.123 Y111.861 E2.86772
G1 X94.087 Y111.534 E2.87866
G1 X94.023 Y110.518 E2.91252
G1 X94.015 Y110.051 E2.92806
G1 X94.044 Y109.033 E2.96193
G1 X94.077 Y108.597 E2.97647
G1 X94.205 Y107.566 E3.01102
G1 X94.313 Y106.937 E3.03225
G1 X94.592 Y105.725 E3.07362
G1 X94.688 Y105.395 E3.08505
G1 X94.998 Y104.481 E3.11715
G1 X95.18 Y104.013 E3.13385
G1 X95.584 Y103.099 E3.16709
G1 X95.795 Y102.675 E3.18284
G1 X96.326 Y101.728 E3.21895
G1 X96.594 Y101.301 E3.23572
G1 X97.197 Y100.436 E3.27079
G1 X97.489 Y100.057 E3.2867
G1 X98.193 Y99.23 E3.32282
G1 X98.53 Y98.872 E3.33918
G0 F6000 X98.822 Y99.146
G1 F1200 X99.513 Y98.476 E3.37119
G1 X99.845 Y98.182 E3.38594
G1 X100.674 Y97.519 E3.42125
G1 X101.111 Y97.204 E3.43916
G1 X101.974 Y96.643 E3.4734
G1 X102.35 Y96.424 E3.48787
G1 X103.276 Y95.945 E3.52255
G1 X103.722 Y95.741 E3.53886
G1 X104.659 Y95.365 E3.57244
G1 X105.158 Y95.192 E3.59
G1 X106.141 Y94.903 E3.62408
G1 X106.646 Y94.781 E3.64136
G1 X107.709 Y94.581 E3.67734
G1 X108.033 Y94.537 E3.68821
G1 X109.014 Y94.45 E3.72097
G1 X109.609 Y94.425 E3.74078
G1 X110.599 Y94.43 E3.7737
G1 X111.065 Y94.454 E3.78922
G1 X111.764 Y94.513 E3.81256
G1 X111.984 Y94.539 E3.81992
G1 X112.65 Y94.639 E3.84232
G1 X112.852 Y94.676 E3.84915
G1 X113.552 Y94.829 E3.87299
G1 X114.048 Y94.955 E3.89001
G1 X114.983 Y95.239 E3.92251
G1 X115.431 Y95.398 E3.93832
G1 X116.391 Y95.793 E3.97285
G1 X116.834 Y96.001 E3.98912
G1 X117.735 Y96.478 E4.02303
G1 X118.16 Y96.73 E4.03946
G1 X119.004 Y97.286 E4.07308
G1 X119.378 Y97.559 E4.08848
G1 X120.208 Y98.232 E4.12402
G1 X120.559 Y98.547 E4.13971
G1 X121.267 Y99.245 E4.17278
G1 X121.616 Y99.623 E4.18989
G1 X122.265 Y100.397 E4.22348
G1 X122.551 Y100.773 E4.23919
G1 X123.138 Y101.629 E4.27372
G1 X123.382 Y102.025 E4.28919
G1 X123.886 Y102.941 E4.32396
G1 X124.1 Y103.38 E4.3402
G1 X124.497 Y104.303 E4.37362
G1 X124.665 Y104.751 E4.38954
G1 X124.98 Y105.734 E4.42387
G1 X125.005 Y105.828 E4.4271
G1 X125.081 Y106.097 E4.4364
G1 X125.339 Y107.258 E4.47596
G1 X125.402 Y107.642 E4.4889
G1 X125.517 Y108.633 E4.52208
G1 X125.556 Y109.202 E4.54105
G1 X125.577 Y110.223 E4.57502
G1 X125.565 Y110.652 E4.58929
G1 X125.485 Y111.69 E4.62392
G1 X125.418 Y112.218 E4.64162
G1 X125.242 Y113.216 E4.67533
G1 X125.127 Y113.726 E4.69272
G1 X124.837 Y114.764 E4.72856
G1 X124.725 Y115.098 E4.74028
G1 X124.378 Y115.995 E4.77227
G1 X124.159 Y116.493 E4.79036
G1 X123.699 Y117.416 E4.82466
G1 X123.457 Y117.847 E4.8411
G1 X122.91 Y118.719 E4.87534
G1 X122.643 Y119.102 E4.89087
G1 X122.037 Y119.889 E4.9239
G1 X121.739 Y120.241 E4.93924
G1 X121.018 Y121.012 E4.97435
G1 X120.653 Y121.365 E4.99124
G1 X119.877 Y122.045 E5.02556
G1 X119.488 Y122.354 E5.04208
G1 X118.669 Y122.943 E5.07563
G1 X118.298 Y123.184 E5.09035
G1 X117.418 Y123.698 E5.12425
G1 X116.978 Y123.927 E5.14074
G1 X116.046 Y124.356 E5.17487
G1 X115.577 Y124.545 E5.19169
G1 X114.581 Y124.89 E5.22674
G1 X114.135 Y125.02 E5.2422
G1 X113.191 Y125.248 E5.2745
G1 X112.733 Y125.337 E5.29001
G1 X111.692 Y125.487 E5.325
G1 X111.197 Y125.533 E5.34153
G1 X110.174 Y125.578 E5.37559
G1 X109.674 Y125.576 E5.39222
G1 X108.652 Y125.522 E5.42626
G1 X108.097 Y125.466 E5.44481
G1 X107.165 Y125.33 E5.47614
G1 X107.019 Y125.302 E5.48108
G1 X106.532 Y125.197 E5.49765
G1 X106.312 Y125.144 E5.50518
G1 X105.736 Y124.988 E5.52503
G1 X105.298 Y124.856 E5.54024
G1 X104.307 Y124.503 E5.57523
G1 X103.816 Y124.3 E5.5929
G1 X102.904 Y123.871 E5.62642
G1 X102.483 Y123.648 E5.64227
G1 X101.599 Y123.123 E5.67647
G1 X101.233 Y122.881 E5.69106
G1 X100.408 Y122.276 E5.72509
G1 X99.982 Y121.931 E5.74332
G1 X99.242 Y121.273 E5.77625
G1 X98.927 Y120.965 E5.79091
G1 X98.183 Y120.157 E5.82744
G1 X97.865 Y119.774 E5.844
G1 X97.272 Y118.989 E5.87672
G1 X97.014 Y118.612 E5.89191
G1 X96.482 Y117.749 E5.92563
G1 X96.233 Y117.298 E5.94277
G1 X95.771 Y116.353 E5.97775
G1 X95.584 Y115.917 E5.99353
G1 X95.228 Y114.962 E6.02743
G1 X95.055 Y114.42 E6.04635
G1 X94.761 Y113.287 E6.08528
G1 X94.687 Y112.919 E6.09777
G1 X94.565 Y112.174 E6.12288
G1 X94.521 Y111.817 E6.13484
G1 X94.485 Y111.49 E6.14578
G1 X94.423 Y110.512 E6.17838
G1 X94.415 Y110.045 E6.19391
G1 X94.443 Y109.063 E6.22659
G1 X94.476 Y108.627 E6.24113
G1 X94.599 Y107.633 E6.27444
G1 X94.707 Y107.004 E6.29567
G1 X94.976 Y105.837 E6.3355
G1 X95.072 Y105.507 E6.34693
G1 X95.371 Y104.626 E6.37788
G1 X95.553 Y104.158 E6.39458
G1 X95.942 Y103.277 E6.42661
G1 X96.153 Y102.853 E6.44236
G1 X96.665 Y101.941 E6.47715
G1 X96.933 Y101.514 E6.49391
G1 X97.514 Y100.68 E6.52772
G1 X97.806 Y100.301 E6.54363
G1 X98.485 Y99.504 E6.57846
G1 X98.822 Y99.146 E6.59481
G0 F6000 X99.113 Y99.421
G1 F1200 X99.778 Y98.776 E6.62562
G1 X100.11 Y98.482 E6.64037
G1 X100.908 Y97.844 E6.67435
G1 X101.345 Y97.529 E6.69227
G1 X102.175 Y96.989 E6.72521
G1 X102.551 Y96.77 E6.73968
G1 X103.442 Y96.308 E6.77306
G1 X103.888 Y96.104 E6.78937
G1 X104.79 Y95.743 E6.82169
G1 X105.289 Y95.57 E6.83925
G1 X106.235 Y95.292 E6.87205
G1 X106.74 Y95.17 E6.88933
G1 X107.762 Y94.978 E6.92391
G1 X108.086 Y94.934 E6.93479
G1 X109.031 Y94.85 E6.96634
G1 X109.626 Y94.825 E6.98615
G1 X110.579 Y94.83 E7.01785
G1 X111.045 Y94.854 E7.03337
G1 X111.717 Y94.91 E7.0558
G1 X111.937 Y94.936 E7.06316
G1 X112.578 Y95.033 E7.08473
G1 X112.78 Y95.07 E7.09156
G1 X113.453 Y95.217 E7.11447
G1 X113.949 Y95.343 E7.13149
G1 X114.85 Y95.616 E7.1628
G1 X115.298 Y95.775 E7.17861
G1 X116.221 Y96.155 E7.21181
G1 X116.664 Y96.363 E7.22809
G1 X117.531 Y96.822 E7.26072
G1 X117.956 Y97.074 E7.27715
G1 X118.768 Y97.609 E7.30949
G1 X119.142 Y97.882 E7.32489
G1 X119.941 Y98.53 E7.35911
G1 X120.292 Y98.845 E7.3748
G1 X120.973 Y99.517 E7.40662
G1 X121.322 Y99.895 E7.42373
G1 X121.946 Y100.639 E7.45603
G1 X122.232 Y101.015 E7.47174
G1 X122.798 Y101.839 E7.50499
G1 X123.042 Y102.235 E7.52046
G1 X123.527 Y103.117 E7.55394
G1 X123.741 Y103.556 E7.57018
G1 X124.123 Y104.444 E7.60233
G1 X124.291 Y104.892 E7.61825
G1 X124.594 Y105.837 E7.65125
G1 X124.696 Y106.206 E7.66399
G1 X124.944 Y107.323 E7.70204
G1 X125.007 Y107.707 E7.71498
G1 X125.118 Y108.661 E7.74693
G1 X125.157 Y109.23 E7.7659
G1 X125.177 Y110.212 E7.79857
G1 X125.165 Y110.641 E7.81284
G1 X125.088 Y111.64 E7.84617
G1 X125.021 Y112.168 E7.86387
G1 X124.852 Y113.128 E7.89629
G1 X124.737 Y113.638 E7.91368
G1 X124.458 Y114.637 E7.94818
G1 X124.346 Y114.971 E7.95989
G1 X124.012 Y115.834 E7.99067
G1 X123.793 Y116.332 E8.00877
G1 X123.35 Y117.22 E8.04177
G1 X123.108 Y117.651 E8.05821
G1 X122.581 Y118.49 E8.09117
G1 X122.314 Y118.873 E8.10669
G1 X121.732 Y119.631 E8.13848
G1 X121.434 Y119.983 E8.15382
G1 X120.74 Y120.724 E8.18759
G1 X120.375 Y121.077 E8.20447
G1 X119.628 Y121.732 E8.23752
G1 X119.239 Y122.041 E8.25404
G1 X118.451 Y122.608 E8.28633
G1 X118.08 Y122.849 E8.30105
G1 X117.233 Y123.343 E8.33366
G1 X116.793 Y123.572 E8.35016
G1 X115.897 Y123.985 E8.38297
G1 X115.428 Y124.174 E8.39979
G1 X114.469 Y124.505 E8.43353
G1 X114.023 Y124.635 E8.44898
G1 X113.115 Y124.856 E8.48006
G1 X112.657 Y124.945 E8.49558
G1 X111.655 Y125.088 E8.52925
G1 X111.16 Y125.134 E8.54578
G1 X110.175 Y125.178 E8.57858
G1 X109.675 Y125.176 E8.59521
G1 X108.692 Y125.124 E8.62795
G1 X108.137 Y125.068 E8.6465
G1 X107.24 Y124.937 E8.67665
G1 X107.094 Y124.909 E8.68159
G1 X106.626 Y124.808 E8.69752
G1 X106.406 Y124.755 E8.70505
G1 X105.852 Y124.605 E8.72413
G1 X105.414 Y124.473 E8.73935
G1 X104.46 Y124.133 E8.77303
G1 X103.969 Y123.93 E8.79071
G1 X103.092 Y123.518 E8.82293
G1 X102.671 Y123.295 E8.83878
G1 X101.819 Y122.789 E8.87174
G1 X101.453 Y122.547 E8.88633
G1 X100.66 Y121.966 E8.91903
G1 X100.234 Y121.621 E8.93726
G1 X99.522 Y120.987 E8.96897
G1 X99.207 Y120.679 E8.98362
G1 X98.49 Y119.902 E9.01879
G1 X98.172 Y119.519 E9.03534
G1 X97.602 Y118.764 E9.06681
G1 X97.344 Y118.387 E9.082
G1 X96.833 Y117.556 E9.11445
G1 X96.584 Y117.105 E9.13158
G1 X96.139 Y116.196 E9.16525
G1 X95.952 Y115.76 E9.18103
G1 X95.609 Y114.841 E9.21365
G1 X95.436 Y114.299 E9.23257
G1 X95.153 Y113.208 E9.27006
G1 X95.079 Y112.84 E9.28255
G1 X94.961 Y112.123 E9.30671
G1 X94.918 Y111.773 E9.31844
G1 X94.882 Y111.446 E9.32939
G1 X94.822 Y110.505 E9.36075
G1 X94.814 Y110.038 E9.37628
G1 X94.842 Y109.093 E9.40773
G1 X94.875 Y108.657 E9.42227
G1 X94.993 Y107.701 E9.45431
G1 X95.101 Y107.072 E9.47553
G1 X95.36 Y105.949 E9.51387
G1 X95.456 Y105.619 E9.5253
G1 X95.744 Y104.771 E9.55508
G1 X95.926 Y104.303 E9.57178
G1 X96.3 Y103.456 E9.60258
G1 X96.511 Y103.032 E9.61833
G1 X97.004 Y102.154 E9.65182
G1 X97.272 Y101.727 E9.66859
G1 X97.831 Y100.924 E9.70113
G1 X98.123 Y100.545 E9.71705
G1 X98.776 Y99.779 E9.75052
G1 X99.113 Y99.421 E9.76688
G1 F1500 E3.26688
;MESH:gear_support_plug.stl
G0 F6000 X105.141 Y107.087
G0 X106.048 Y107.679
G0 X105.774 Y109.793
G0 X105.813 Y110.61
G0 X106.009 Y111.402
G0 X106.345 Y112.132
G0 X106.84 Y112.812
G0 X107.427 Y113.358
G0 X108.385 Y113.892
G0 X110.11 Y114.399
;TYPE:WALL-INNER
G1 F1500 E9.76688
G1 F1200 X109.678 Y114.387 E9.78125
G1 X109.249 Y114.336 E9.79562
G1 X108.843 Y114.246 E9.80945
G1 X108.438 Y114.114 E9.82362
G1 X108.049 Y113.944 E9.83774
G1 X107.677 Y113.737 E9.8519
G1 X107.323 Y113.494 E9.86618
G1 X107.001 Y113.222 E9.8802
G1 X106.709 Y112.922 E9.89412
G1 X106.437 Y112.585 E9.90853
G1 X106.2 Y112.223 E9.92292
G1 X106.011 Y111.862 E9.93647
G1 X105.849 Y111.462 E9.95082
G1 X105.724 Y111.047 E9.96524
G1 X105.644 Y110.634 E9.97923
G1 X105.603 Y110.21 E9.9934
G1 X105.603 Y109.783 E10.0076
G1 X105.644 Y109.368 E10.02147
G1 X105.724 Y108.953 E10.03553
G1 X105.849 Y108.538 E10.04994
G1 X106.011 Y108.138 E10.0643
G1 X106.2 Y107.777 E10.07785
G1 X106.437 Y107.415 E10.09224
G1 X106.709 Y107.078 E10.10665
G1 X107.001 Y106.778 E10.12057
G1 X107.323 Y106.506 E10.13459
G1 X107.677 Y106.263 E10.14887
G1 X108.049 Y106.056 E10.16303
G1 X108.438 Y105.886 E10.17715
G1 X108.843 Y105.754 E10.19132
G1 X109.249 Y105.664 E10.20515
G1 X109.678 Y105.613 E10.21952
G1 X110.1 Y105.602 E10.23356
G1 X110.536 Y105.634 E10.2481
G1 X110.941 Y105.703 E10.26176
G1 X111.361 Y105.818 E10.27625
G1 X111.75 Y105.965 E10.29008
G1 X112.132 Y106.154 E10.30425
G1 X112.5 Y106.382 E10.31865
G1 X112.839 Y106.642 E10.33286
G1 X113.146 Y106.927 E10.34679
G1 X113.416 Y107.232 E10.36034
G1 X113.682 Y107.597 E10.37536
G1 X113.892 Y107.953 E10.38911
G1 X114.071 Y108.338 E10.40323
G1 X114.211 Y108.738 E10.41733
G1 X114.31 Y109.144 E10.43123
G1 X114.316 Y109.164 E10.43192
G1 X114.375 Y109.569 E10.44553
G1 X114.396 Y110 E10.45989
G1 X114.375 Y110.429 E10.47417
G1 X114.313 Y110.854 E10.48846
G1 X114.216 Y111.249 E10.50199
G1 X114.07 Y111.663 E10.51659
G1 X113.894 Y112.043 E10.53052
G1 X113.682 Y112.403 E10.54441
G1 X113.418 Y112.766 E10.55934
G1 X113.146 Y113.073 E10.57298
G1 X112.839 Y113.358 E10.58691
G1 X112.5 Y113.618 E10.60112
G1 X112.132 Y113.846 E10.61552
G1 X111.75 Y114.035 E10.6297
G1 X111.361 Y114.182 E10.64353
G1 X110.941 Y114.297 E10.65801
G1 X110.525 Y114.368 E10.67205
G1 X110.11 Y114.399 E10.68589
G0 F6000 X110.119 Y114.799
;TYPE:WALL-OUTER
G1 F1200 X109.653 Y114.787 E10.70139
G1 X109.183 Y114.731 E10.71714
G1 X108.736 Y114.631 E10.73237
G1 X108.294 Y114.487 E10.74783
G1 X107.873 Y114.304 E10.7631
G1 X107.464 Y114.076 E10.77868
G1 X107.084 Y113.815 E10.79401
G1 X106.728 Y113.514 E10.80951
G1 X106.403 Y113.181 E10.82499
G1 X106.114 Y112.822 E10.84032
G1 X105.859 Y112.433 E10.85579
G1 X105.643 Y112.02 E10.87129
G1 X105.473 Y111.602 E10.8863
G1 X105.334 Y111.139 E10.90238
G1 X105.248 Y110.696 E10.91739
G1 X105.203 Y110.227 E10.93306
G1 X105.203 Y109.766 E10.94839
G1 X105.243 Y109.351 E10.96226
G1 X105.249 Y109.302 E10.9639
G1 X105.334 Y108.861 E10.97884
G1 X105.473 Y108.398 E10.99492
G1 X105.643 Y107.98 E11.00992
G1 X105.859 Y107.567 E11.02543
G1 X106.114 Y107.178 E11.0409
G1 X106.403 Y106.819 E11.05623
G1 X106.728 Y106.486 E11.0717
G1 X107.084 Y106.185 E11.08721
