;FLAVOR:Marlin
;TIME:3590
;Filament used: 1.59279m
;Layer height: 0.2
;MINX:59.538
;MINY:59.55
;MINZ:0.2
;MAXX:160.468
;MAXY:160.453
;MAXZ:6
;Generated with Cura_SteamEngine master
M140 S60
M105
M190 S60
M104 S200
M105
M109 S200
M82 ;absolute extrusion mode
; Ender 3 Custom Start G-code
G92 E0 ; Reset Extruder
G28 ; Home all axes
G1 Z2.0 F3000 ; Move Z Axis up little to prevent scratching of Heat Bed
G1 X0.1 Y20 Z0.3 F5000.0 ; Move to start position
G1 X0.1 Y200.0 Z0.3 F1500.0 E15 ; Draw the first line
G1 X0.4 Y200.0 Z0.3 F5000.0 ; Move to side a little
G1 X0.4 Y20 Z0.3 F1500.0 E30 ; Draw the second line
G92 E0 ; Reset Extruder
G1 Z2.0 F3000 ; Move Z Axis up little to prevent scratching of Heat Bed
G1 X5 Y20 Z0.3 F5000.0 ; Move over to prevent blob squish
G92 E0
G92 E0
G1 F1500 E-6.5
;LAYER_COUNT:30
;LAYER:0
M107
G0 F6000 X74.134 Y74.713 Z0.2
;TYPE:SKIRT
G1 F1500 E0
G1 F1200 X74.754 Y74.095 E0.02912
G1 X75.18 Y73.703 E0.04837
G1 X76.938 Y72.047 E0.1287
G1 X77.492 Y71.559 E0.15325
G1 X77.583 Y71.484 E0.15718
G1 X78.638 Y70.589 E0.20319
G1 X78.764 Y70.492 E0.20848
G1 X79.819 Y69.613 E0.25415
G1 X80.754 Y68.914 E0.29298
G1 X81.345 Y68.545 E0.31615
G1 X81.493 Y68.459 E0.32185
G1 X82.7 Y67.732 E0.36871
G1 X84.64 Y66.59 E0.44359
G1 X85.477 Y66.112 E0.47564
G1 X86.349 Y65.588 E0.50948
G1 X86.757 Y65.351 E0.52517
G1 X87.886 Y64.783 E0.56721
G1 X89.274 Y64.183 E0.6175
G1 X89.493 Y64.092 E0.62539
G1 X90.597 Y63.611 E0.66544
G1 X91.46 Y63.278 E0.69621
G1 X91.998 Y63.096 E0.7151
G1 X93.67 Y62.514 E0.77398
G1 X94.002 Y62.395 E0.78571
G1 X94.291 Y62.295 E0.79589
G1 X96.024 Y61.729 E0.85652
G1 X97.214 Y61.335 E0.89821
G1 X98.116 Y61.078 E0.92941
G1 X98.707 Y60.954 E0.94949
G1 X99.343 Y60.84 E0.97098
G1 X100.881 Y60.583 E1.02285
G1 X101.099 Y60.543 E1.03022
G1 X101.991 Y60.386 E1.06034
G1 X102.602 Y60.296 E1.08088
G1 X103.308 Y60.213 E1.10453
G1 X104.953 Y60.042 E1.15954
G1 X106.455 Y59.865 E1.20984
G1 X107.847 Y59.721 E1.25638
G1 X108.231 Y59.672 E1.26926
G1 X108.456 Y59.646 E1.27679
G1 X108.794 Y59.61 E1.2881
G1 X109.73 Y59.55 E1.31929
G1 X110.668 Y59.571 E1.3505
G1 X111.294 Y59.629 E1.37141
G1 X111.474 Y59.651 E1.37744
G1 X112.834 Y59.787 E1.4229
G1 X113.156 Y59.833 E1.43372
G1 X114.344 Y59.962 E1.47346
G1 X114.622 Y59.996 E1.48278
G1 X114.745 Y60.013 E1.48691
G1 X117.135 Y60.301 E1.56698
G1 X117.367 Y60.331 E1.57476
G1 X119.997 Y60.641 E1.66284
G1 X120.339 Y60.676 E1.67427
G1 X121.267 Y60.81 E1.70546
G1 X122.471 Y61.109 E1.74672
G1 X123.278 Y61.358 E1.77481
G1 X125.456 Y62.007 E1.8504
G1 X126.228 Y62.268 E1.8775
G1 X127.562 Y62.776 E1.92498
G1 X129.062 Y63.362 E1.97854
G1 X129.385 Y63.494 E1.99014
G1 X129.782 Y63.671 E2.0046
G1 X131.048 Y64.265 E2.05111
G1 X131.157 Y64.312 E2.05506
G1 X131.376 Y64.417 E2.06314
G1 X131.879 Y64.644 E2.08149
G1 X132.061 Y64.728 E2.08816
G1 X132.677 Y65.019 E2.11082
G1 X133.222 Y65.296 E2.13115
G1 X133.828 Y65.626 E2.1541
G1 X135.229 Y66.412 E2.20753
G1 X135.515 Y66.564 E2.21831
G1 X135.716 Y66.674 E2.22593
G1 X135.962 Y66.812 E2.23531
G1 X136.748 Y67.298 E2.26605
G1 X137.473 Y67.789 E2.29517
G1 X138.305 Y68.369 E2.3289
G1 X138.84 Y68.724 E2.35026
G1 X139.014 Y68.842 E2.35725
G1 X139.373 Y69.09 E2.37176
G1 X140.342 Y69.842 E2.41256
G1 X141.265 Y70.645 E2.45325
G1 X141.391 Y70.746 E2.45862
G1 X142.737 Y71.908 E2.51776
G1 X144.723 Y73.525 E2.60294
G1 X144.833 Y73.612 E2.60761
G1 X145.545 Y74.224 E2.63883
G1 X146.211 Y74.904 E2.67049
G1 X147.081 Y75.874 E2.71383
G1 X147.215 Y76.015 E2.7203
G1 X148.081 Y76.997 E2.76385
G1 X148.526 Y77.512 E2.78648
G1 X149.995 Y79.26 E2.86243
G1 X150.448 Y79.787 E2.88554
G1 X151.029 Y80.523 E2.91673
G1 X151.542 Y81.302 E2.94775
G1 X151.619 Y81.43 E2.95272
G1 X152.543 Y82.935 E3.01146
G1 X152.999 Y83.662 E3.04
G1 X153.304 Y84.179 E3.05997
G1 X153.401 Y84.354 E3.06662
G1 X154.138 Y85.631 E3.11566
G1 X154.292 Y85.927 E3.12676
G1 X154.863 Y86.932 E3.1652
G1 X155.424 Y88.068 E3.20734
G1 X155.666 Y88.639 E3.22797
G1 X155.872 Y89.099 E3.24473
G1 X155.945 Y89.282 E3.25129
G1 X156.515 Y90.606 E3.29923
G1 X156.742 Y91.177 E3.31967
G1 X157.11 Y92.183 E3.35529
G1 X157.25 Y92.533 E3.36783
G1 X157.861 Y94.24 E3.42814
G1 X158.128 Y95.044 E3.45631
G1 X158.443 Y96.14 E3.49424
G1 X158.834 Y97.468 E3.54029
G1 X159.04 Y98.281 E3.56818
G1 X159.218 Y99.121 E3.59674
G1 X159.475 Y100.422 E3.64085
G1 X159.588 Y100.933 E3.65825
G1 X159.703 Y101.491 E3.6772
G1 X159.815 Y102.13 E3.69878
G1 X159.869 Y102.502 E3.71128
G1 X160.079 Y103.789 E3.75465
G1 X160.256 Y104.953 E3.79381
G1 X160.302 Y105.287 E3.80503
G1 X160.342 Y105.618 E3.81612
G1 X160.375 Y105.933 E3.82665
G1 X160.43 Y106.927 E3.85976
G1 X160.443 Y108.337 E3.90666
G1 X160.441 Y108.337 E3.90673
G1 X160.447 Y108.438 E3.91009
G1 X160.447 Y108.863 E3.92423
G1 X160.464 Y109.585 E3.94825
G1 X160.467 Y109.81 E3.95573
G1 X160.468 Y110.13 E3.96638
G1 X160.465 Y110.421 E3.97606
G1 X160.456 Y110.809 E3.98896
G1 X160.429 Y113.273 E4.07092
G1 X160.363 Y114.363 E4.10724
G1 X160.316 Y114.778 E4.12113
G1 X160.142 Y116.144 E4.16693
G1 X159.966 Y117.542 E4.2138
G1 X159.948 Y117.673 E4.2182
G1 X159.738 Y118.783 E4.25577
G1 X159.419 Y120.097 E4.30074
G1 X159.413 Y120.127 E4.30176
G1 X159.202 Y121.004 E4.33176
G1 X159.036 Y121.716 E4.35608
G1 X158.969 Y121.987 E4.36536
G1 X158.924 Y122.16 E4.37131
G1 X158.445 Y124.07 E4.4368
G1 X158.253 Y124.869 E4.46413
G1 X158.051 Y125.596 E4.48923
G1 X157.665 Y126.643 E4.52635
G1 X157.191 Y127.752 E4.56646
G1 X157.136 Y127.892 E4.57146
G1 X156.486 Y129.435 E4.62715
G1 X156.109 Y130.294 E4.65835
G1 X155.583 Y131.545 E4.70349
G1 X155.205 Y132.412 E4.73495
G1 X154.645 Y133.521 E4.77627
G1 X154.118 Y134.432 E4.81127
G1 X153.914 Y134.798 E4.82521
G1 X153.837 Y134.923 E4.83009
G1 X153.84 Y134.924 E4.8302
G1 X153.14 Y136.143 E4.87695
G1 X152.988 Y136.4 E4.88688
G1 X152.519 Y137.166 E4.91675
G1 X151.339 Y139.048 E4.99064
G1 X150.751 Y139.895 E5.02493
G1 X149.81 Y141.122 E5.07636
G1 X149.243 Y141.845 E5.10692
G1 X148.895 Y142.304 E5.12608
G1 X148.297 Y143.026 E5.15726
G1 X147.871 Y143.473 E5.1778
G1 X147.236 Y144.102 E5.20752
G1 X146.637 Y144.68 E5.23521
G1 X145.518 Y145.804 E5.28796
G1 X145.145 Y146.184 E5.30567
G1 X144.217 Y147.105 E5.34916
G1 X143.639 Y147.703 E5.37682
G1 X142.935 Y148.37 E5.40907
G1 X142.709 Y148.566 E5.41902
G1 X142.219 Y148.967 E5.44008
G1 X140.152 Y150.561 E5.5269
G1 X139.764 Y150.852 E5.54303
G1 X139.045 Y151.346 E5.57205
G1 X138.263 Y151.838 E5.60278
G1 X137.34 Y152.402 E5.63875
G1 X136.858 Y152.711 E5.65779
G1 X136.677 Y152.825 E5.66491
G1 X136.384 Y153.005 E5.67635
G1 X136.114 Y153.165 E5.68679
G1 X135.07 Y153.765 E5.72684
G1 X134.729 Y153.955 E5.73982
G1 X134.527 Y154.074 E5.74762
G1 X133.467 Y154.682 E5.78826
G1 X132.371 Y155.232 E5.82905
G1 X131.229 Y155.727 E5.87044
G1 X130.973 Y155.846 E5.87983
G1 X129.5 Y156.469 E5.93303
G1 X128.743 Y156.783 E5.96028
G1 X127.996 Y157.108 E5.98738
G1 X127.822 Y157.175 E5.99358
G1 X126.558 Y157.708 E6.03921
G1 X125.68 Y158.035 E6.07037
G1 X125.215 Y158.175 E6.08652
G1 X124.86 Y158.269 E6.09873
G1 X123.221 Y158.676 E6.1549
G1 X123.143 Y158.692 E6.15755
G1 X121.385 Y159.134 E6.21784
G1 X120.151 Y159.435 E6.26009
G1 X119.947 Y159.476 E6.26701
G1 X118.667 Y159.776 E6.31074
G1 X117.451 Y159.99 E6.3518
G1 X116.758 Y160.072 E6.37501
G1 X115.722 Y160.212 E6.40978
G1 X114.567 Y160.353 E6.44848
G1 X114.503 Y160.361 E6.45063
G1 X113.237 Y160.446 E6.49283
G1 X112.188 Y160.453 E6.52772
G1 X110.656 Y160.446 E6.57868
G1 X110.088 Y160.452 E6.59757
G1 X107.662 Y160.442 E6.67826
G1 X107.095 Y160.447 E6.69712
G1 X106.158 Y160.414 E6.7283
G1 X105.258 Y160.307 E6.75845
G1 X104.779 Y160.23 E6.77458
G1 X102.211 Y159.851 E6.86092
G1 X101.969 Y159.812 E6.86907
G1 X101.361 Y159.696 E6.88966
G1 X101.114 Y159.642 E6.89807
G1 X98.767 Y159.158 E6.97777
G1 X98.513 Y159.109 E6.98638
G1 X97.605 Y158.895 E7.01741
G1 X96.906 Y158.698 E7.04156
G1 X96.744 Y158.651 E7.04717
G1 X95.585 Y158.305 E7.0874
G1 X95.322 Y158.231 E7.09649
G1 X94.918 Y158.111 E7.1105
G1 X94.333 Y157.919 E7.13098
G1 X93.531 Y157.63 E7.15934
G1 X92.315 Y157.175 E7.20252
G1 X92.1 Y157.099 E7.2101
G1 X91.179 Y156.765 E7.24269
G1 X90.602 Y156.537 E7.26332
G1 X89.202 Y155.937 E7.31398
G1 X88.886 Y155.797 E7.32548
G1 X88.659 Y155.703 E7.33365
G1 X88.485 Y155.629 E7.33994
G1 X87.952 Y155.397 E7.35927
G1 X86.829 Y154.83 E7.40112
G1 X86.266 Y154.504 E7.42275
G1 X85.11 Y153.862 E7.46673
G1 X84.04 Y153.251 E7.50772
G1 X83.765 Y153.089 E7.51833
G1 X82.995 Y152.618 E7.54835
G1 X82.049 Y152.024 E7.58551
G1 X81.216 Y151.516 E7.61796
G1 X80.437 Y150.994 E7.64915
G1 X79.933 Y150.601 E7.6704
G1 X79.723 Y150.426 E7.6795
G1 X78.338 Y149.244 E7.74006
G1 X77.458 Y148.51 E7.77817
G1 X77.224 Y148.309 E7.78843
G1 X76.642 Y147.795 E7.81426
G1 X75.715 Y146.953 E7.85591
G1 X75.19 Y146.497 E7.87904
G1 X75.005 Y146.332 E7.88728
G1 X74.84 Y146.182 E7.8947
G1 X74.407 Y145.767 E7.91465
G1 X73.474 Y144.82 E7.95886
G1 X73.332 Y144.685 E7.96538
G1 X72.974 Y144.314 E7.98253
G1 X72.576 Y143.923 E8.00108
G1 X72.436 Y143.783 E8.00767
G1 X72.081 Y143.421 E8.02453
G1 X72.083 Y143.419 E8.02463
G1 X72.003 Y143.343 E8.0283
G1 X71.383 Y142.64 E8.05947
G1 X70.883 Y141.973 E8.0872
G1 X70.249 Y141.056 E8.12428
G1 X69.319 Y139.741 E8.17785
G1 X68.477 Y138.574 E8.22571
G1 X67.761 Y137.606 E8.26576
G1 X67.405 Y137.108 E8.28612
G1 X67.13 Y136.705 E8.30234
G1 X66.583 Y135.771 E8.33834
G1 X66.108 Y134.86 E8.37252
G1 X65.594 Y133.842 E8.41045
G1 X65.215 Y133.118 E8.43763
G1 X65.029 Y132.747 E8.45143
G1 X64.913 Y132.5 E8.4605
G1 X64.783 Y132.212 E8.47101
G1 X64.209 Y131.003 E8.51553
G1 X63.623 Y129.733 E8.56205
G1 X63.378 Y129.161 E8.58274
G1 X63.15 Y128.583 E8.60341
G1 X62.541 Y126.975 E8.6606
G1 X62.297 Y126.357 E8.6827
G1 X61.992 Y125.478 E8.71364
G1 X61.712 Y124.546 E8.74601
G1 X61.449 Y123.626 E8.77784
G1 X61.276 Y123.065 E8.79736
G1 X61.06 Y122.332 E8.82278
G1 X60.833 Y121.422 E8.85397
G1 X60.687 Y120.514 E8.88456
G1 X60.535 Y119.228 E8.92763
G1 X60.49 Y118.803 E8.94185
G1 X60.329 Y117.535 E8.98436
G1 X60.042 Y115.122 E9.06518
G1 X59.975 Y114.617 E9.08212
G1 X59.939 Y114.308 E9.09247
G1 X59.805 Y113.018 E9.13561
G1 X59.671 Y111.802 E9.1763
G1 X59.606 Y111.242 E9.19505
G1 X59.538 Y110.306 E9.22626
G1 X59.543 Y109.512 E9.25267
G1 X59.6 Y108.746 E9.27822
G1 X59.753 Y107.368 E9.32433
G1 X59.763 Y107.25 E9.32827
G1 X59.866 Y106.398 E9.35681
G1 X60.052 Y104.609 E9.41664
G1 X60.269 Y102.697 E9.48064
G1 X60.377 Y101.965 E9.50525
G1 X60.537 Y101.087 E9.53493
G1 X60.754 Y99.852 E9.57664
G1 X60.921 Y98.865 E9.60993
G1 X61.196 Y97.655 E9.6512
G1 X61.524 Y96.518 E9.69056
G1 X61.956 Y95.078 E9.74057
G1 X62.08 Y94.692 E9.75405
G1 X62.111 Y94.601 E9.75725
G1 X62.229 Y94.27 E9.76894
G1 X62.502 Y93.547 E9.79464
G1 X62.817 Y92.661 E9.82592
G1 X62.869 Y92.533 E9.83051
G1 X63.342 Y91.245 E9.87615
G1 X63.48 Y90.89 E9.88882
G1 X63.596 Y90.611 E9.89887
G1 X64.135 Y89.364 E9.94405
G1 X64.189 Y89.229 E9.94889
G1 X64.498 Y88.536 E9.97412
G1 X64.734 Y87.979 E9.99424
G1 X65.288 Y86.856 E10.03589
G1 X65.804 Y85.946 E10.07068
G1 X66.342 Y85.024 E10.10619
G1 X66.583 Y84.591 E10.12267
G1 X66.861 Y84.108 E10.14121
G1 X67.024 Y83.834 E10.15181
G1 X67.747 Y82.658 E10.19773
G1 X68.617 Y81.212 E10.25385
G1 X69.187 Y80.356 E10.28806
G1 X69.652 Y79.766 E10.31304
G1 X70.389 Y78.893 E10.35104
G1 X70.985 Y78.167 E10.38229
G1 X71.095 Y78.035 E10.388
G1 X71.633 Y77.4 E10.41568
G1 X72.037 Y76.949 E10.43582
G1 X72.923 Y76.013 E10.47869
G1 X74.134 Y74.713 E10.53778
G0 F6000 X74.428 Y74.984
G1 F1200 X75.024 Y74.39 E10.56577
G1 X75.455 Y73.993 E10.58526
G1 X77.212 Y72.338 E10.66554
G1 X77.746 Y71.868 E10.6892
G1 X77.847 Y71.785 E10.69355
G1 X78.897 Y70.894 E10.73935
G1 X78.999 Y70.815 E10.74364
G1 X80.074 Y69.92 E10.79016
G1 X80.976 Y69.247 E10.82759
G1 X81.546 Y68.891 E10.84995
G1 X81.695 Y68.804 E10.85568
G1 X82.903 Y68.077 E10.90258
G1 X84.843 Y66.935 E10.97745
G1 X85.669 Y66.464 E11.00908
G1 X86.555 Y65.931 E11.04347
G1 X86.957 Y65.697 E11.05894
G1 X88.045 Y65.15 E11.09944
G1 X89.428 Y64.552 E11.14956
G1 X89.681 Y64.446 E11.15868
G1 X90.757 Y63.978 E11.19771
G1 X91.588 Y63.657 E11.22734
G1 X92.13 Y63.473 E11.24637
G1 X93.708 Y62.924 E11.30194
G1 X94.136 Y62.771 E11.31706
G1 X94.416 Y62.676 E11.3269
G1 X96.115 Y62.12 E11.38635
G1 X97.339 Y61.715 E11.42923
G1 X98.225 Y61.464 E11.45986
G1 X98.779 Y61.348 E11.47869
G1 X99.408 Y61.235 E11.49994
G1 X100.958 Y60.976 E11.55221
G1 X101.169 Y60.936 E11.55935
G1 X102.061 Y60.779 E11.58948
G1 X102.649 Y60.693 E11.60924
G1 X103.349 Y60.611 E11.63268
G1 X104.973 Y60.442 E11.68699
G1 X106.343 Y60.28 E11.73287
G1 X107.895 Y60.118 E11.78477
G1 X108.282 Y60.069 E11.79775
G1 X108.498 Y60.044 E11.80498
G1 X108.836 Y60.008 E11.81629
G1 X109.755 Y59.95 E11.84691
G1 X110.676 Y59.972 E11.87756
G1 X111.245 Y60.026 E11.89657
G1 X111.429 Y60.049 E11.90273
G1 X112.794 Y60.185 E11.94836
G1 X113.121 Y60.232 E11.95935
G1 X114.301 Y60.36 E11.99882
G1 X114.568 Y60.392 E12.00777
G1 X114.711 Y60.411 E12.01256
G1 X117.083 Y60.698 E12.09203
G1 X117.268 Y60.722 E12.09824
G1 X119.968 Y61.04 E12.18866
G1 X120.299 Y61.074 E12.19973
G1 X121.21 Y61.207 E12.23035
G1 X122.353 Y61.491 E12.26952
G1 X123.143 Y61.735 E12.29702
G1 X125.342 Y62.39 E12.37334
G1 X126.086 Y62.642 E12.39946
G1 X127.416 Y63.149 E12.4468
G1 X128.916 Y63.735 E12.50037
G1 X129.229 Y63.863 E12.51161
G1 X129.612 Y64.033 E12.52555
G1 X130.792 Y64.586 E12.56889
G1 X130.983 Y64.672 E12.57586
G1 X131.232 Y64.792 E12.58505
G1 X131.714 Y65.009 E12.60263
G1 X131.89 Y65.09 E12.60908
G1 X132.506 Y65.381 E12.63174
G1 X133.032 Y65.647 E12.65134
G1 X133.633 Y65.974 E12.6741
G1 X135.082 Y66.786 E12.72934
G1 X135.327 Y66.917 E12.73859
G1 X135.52 Y67.023 E12.74591
G1 X135.766 Y67.161 E12.75529
G1 X136.524 Y67.629 E12.78492
G1 X137.249 Y68.12 E12.81404
G1 X138.068 Y68.691 E12.84725
G1 X138.619 Y69.057 E12.86925
G1 X138.787 Y69.171 E12.876
G1 X139.146 Y69.419 E12.89052
G1 X140.079 Y70.143 E12.92979
G1 X140.956 Y70.906 E12.96846
G1 X141.129 Y71.049 E12.97592
G1 X142.452 Y72.191 E13.03405
G1 X144.473 Y73.837 E13.12074
G1 X144.586 Y73.926 E13.12553
G1 X145.283 Y74.527 E13.15614
G1 X145.913 Y75.171 E13.1861
G1 X146.622 Y75.962 E13.22143
G1 X146.915 Y76.279 E13.23579
G1 X147.779 Y77.259 E13.27924
G1 X148.112 Y77.643 E13.29615
G1 X149.621 Y79.438 E13.37415
G1 X150.145 Y80.047 E13.40087
G1 X150.715 Y80.771 E13.43151
G1 X151.199 Y81.507 E13.46081
G1 X151.278 Y81.639 E13.46593
G1 X152.176 Y83.102 E13.52302
G1 X152.66 Y83.874 E13.55333
G1 X152.954 Y84.373 E13.57259
G1 X153.062 Y84.567 E13.57998
G1 X153.791 Y85.831 E13.62851
G1 X153.937 Y86.111 E13.63901
G1 X154.515 Y87.129 E13.67795
G1 X155.056 Y88.224 E13.71857
G1 X155.298 Y88.795 E13.7392
G1 X155.507 Y89.262 E13.75621
G1 X155.575 Y89.434 E13.76237
G1 X156.148 Y90.764 E13.81053
G1 X156.367 Y91.314 E13.83022
G1 X156.805 Y92.51 E13.87259
G1 X156.873 Y92.668 E13.87831
G1 X157.484 Y94.375 E13.93861
G1 X157.744 Y95.154 E13.96592
G1 X158.079 Y96.32 E14.00627
G1 X158.45 Y97.581 E14.04999
G1 X158.649 Y98.364 E14.07686
G1 X158.826 Y99.199 E14.10525
G1 X159.083 Y100.5 E14.14936
G1 X159.161 Y100.849 E14.16125
G1 X159.311 Y101.571 E14.18578
G1 X159.419 Y102.187 E14.20658
G1 X159.479 Y102.601 E14.2205
G1 X159.684 Y103.849 E14.26256
G1 X159.861 Y105.013 E14.30172
G1 X159.904 Y105.335 E14.31253
G1 X159.944 Y105.666 E14.32361
G1 X159.977 Y105.973 E14.33388
G1 X160.03 Y106.93 E14.36576
G1 X160.042 Y108.34 E14.41266
G1 X160.047 Y108.438 E14.41592
G1 X160.047 Y108.872 E14.43036
G1 X160.064 Y109.594 E14.45438
G1 X160.067 Y109.811 E14.4616
G1 X160.068 Y110.131 E14.47224
G1 X160.065 Y110.412 E14.48159
G1 X160.057 Y110.734 E14.4923
G1 X160.029 Y113.269 E14.57662
G1 X159.966 Y114.319 E14.61161
G1 X159.94 Y114.554 E14.61947
G1 X159.552 Y117.619 E14.72223
G1 X159.35 Y118.688 E14.75841
G1 X158.812 Y120.913 E14.83455
G1 X158.646 Y121.625 E14.85886
G1 X158.582 Y121.886 E14.8678
G1 X158.537 Y122.059 E14.87375
G1 X158.056 Y123.977 E14.93952
G1 X157.864 Y124.776 E14.96685
G1 X157.669 Y125.477 E14.99105
G1 X157.297 Y126.485 E15.02678
G1 X156.796 Y127.657 E15.06918
G1 X156.767 Y127.737 E15.07201
G1 X156.119 Y129.275 E15.12752
