;FLAVOR:Marlin
;TIME:2814
;Filament used: 1.35353m
;Layer height: 0.2
;MINX:69.229
;MINY:69.094
;MINZ:0.2
;MAXX:150.77
;MAXY:150.906
;MAXZ:4
;Generated with Cura_SteamEngine master
M140 S60
M105
M190 S60
M104 S200
M105
M109 S200
M82 ;absolute extrusion mode
; Ender 3 Custom Start G-code
G92 E0 ; Reset Extruder
G28 ; Home all axes
G1 Z2.0 F3000 ; Move Z Axis up little to prevent scratching of Heat Bed
G1 X0.1 Y20 Z0.3 F5000.0 ; Move to start position
G1 X0.1 Y200.0 Z0.3 F1500.0 E15 ; Draw the first line
G1 X0.4 Y200.0 Z0.3 F5000.0 ; Move to side a little
G1 X0.4 Y20 Z0.3 F1500.0 E30 ; Draw the second line
G92 E0 ; Reset Extruder
G1 Z2.0 F3000 ; Move Z Axis up little to prevent scratching of Heat Bed
G1 X5 Y20 Z0.3 F5000.0 ; Move over to prevent blob squish
G92 E0
G92 E0
G1 F1500 E-6.5
;LAYER_COUNT:20
;LAYER:0
M107
G0 F6000 X81.133 Y81.414 Z0.2
;TYPE:SKIRT
G1 F1500 E0
G1 F1200 X82.367 Y80.206 E0.05744
G1 X82.368 Y80.207 E0.05748
G1 X83.174 Y79.479 E0.09361
G1 X84.147 Y78.687 E0.13533
G1 X84.319 Y78.531 E0.14306
G1 X85.444 Y77.628 E0.19104
G1 X85.669 Y77.452 E0.20054
G1 X85.828 Y77.331 E0.20718
G1 X87.228 Y76.251 E0.26599
G1 X88.363 Y75.391 E0.31336
G1 X89.134 Y74.857 E0.34455
G1 X89.947 Y74.39 E0.37573
G1 X90.499 Y74.124 E0.39611
G1 X90.908 Y73.94 E0.41103
G1 X92.259 Y73.319 E0.46049
G1 X93.366 Y72.8 E0.50115
G1 X93.982 Y72.534 E0.52347
G1 X95.997 Y71.685 E0.59619
G1 X96.697 Y71.4 E0.62133
G1 X97.58 Y71.084 E0.65252
G1 X98.164 Y70.92 E0.6727
G1 X99.242 Y70.65 E0.70966
G1 X99.847 Y70.507 E0.73034
G1 X99.86 Y70.505 E0.73077
G1 X101.128 Y70.191 E0.77422
G1 X101.912 Y70.027 E0.80086
G1 X104.155 Y69.642 E0.87656
G1 X104.75 Y69.534 E0.89667
G1 X105.946 Y69.384 E0.93676
G1 X106.278 Y69.361 E0.94783
G1 X107.659 Y69.24 E0.99394
G1 X107.827 Y69.232 E0.99953
G1 X109.127 Y69.129 E1.0429
G1 X110.064 Y69.094 E1.07409
G1 X110.688 Y69.116 E1.09486
G1 X111.138 Y69.144 E1.10985
G1 X113.954 Y69.351 E1.20377
G1 X115.007 Y69.479 E1.23905
G1 X115.707 Y69.599 E1.26267
G1 X117.024 Y69.845 E1.30723
G1 X117.596 Y69.938 E1.32651
G1 X118.129 Y70.032 E1.34451
G1 X118.792 Y70.17 E1.36703
G1 X119.665 Y70.38 E1.39689
G1 X120.49 Y70.59 E1.42521
G1 X120.52 Y70.599 E1.42625
G1 X121.768 Y70.903 E1.46897
G1 X122.669 Y71.164 E1.50017
G1 X123.518 Y71.489 E1.53041
G1 X123.619 Y71.533 E1.53407
G1 X125.215 Y72.205 E1.59167
G1 X126.127 Y72.579 E1.62445
G1 X126.595 Y72.784 E1.64145
G1 X128.412 Y73.631 E1.70813
G1 X129.546 Y74.145 E1.74954
G1 X130.383 Y74.568 E1.78073
G1 X131.435 Y75.24 E1.82225
G1 X132.573 Y76.061 E1.86892
G1 X133.162 Y76.474 E1.89285
G1 X134.072 Y77.129 E1.93014
G1 X134.805 Y77.705 E1.96114
G1 X135.743 Y78.51 E2.00226
G1 X136.121 Y78.841 E2.01897
G1 X137.182 Y79.78 E2.06609
G1 X137.652 Y80.221 E2.08753
G1 X138.396 Y80.963 E2.12248
G1 X138.903 Y81.481 E2.14658
G1 X139.83 Y82.388 E2.18972
G1 X140.04 Y82.598 E2.1996
G1 X140.255 Y82.823 E2.20995
G1 X141.192 Y83.831 E2.25572
G1 X141.19 Y83.833 E2.25582
G1 X141.269 Y83.913 E2.25955
G1 X142.328 Y85.076 E2.31187
G1 X143.187 Y86.147 E2.35753
G1 X143.218 Y86.191 E2.35932
G1 X143.535 Y86.666 E2.37832
G1 X143.861 Y87.184 E2.39867
G1 X144.981 Y88.912 E2.46716
G1 X145.273 Y89.377 E2.48543
G1 X145.729 Y90.181 E2.51617
G1 X145.889 Y90.495 E2.52789
G1 X147.104 Y92.938 E2.61864
G1 X147.583 Y94.051 E2.65894
G1 X147.607 Y94.117 E2.66128
G1 X148.641 Y96.825 E2.75769
G1 X148.718 Y97.033 E2.76506
G1 X148.925 Y97.648 E2.78665
G1 X149.171 Y98.456 E2.81474
G1 X149.473 Y99.496 E2.85076
G1 X149.651 Y100.056 E2.8703
G1 X149.704 Y100.228 E2.87629
G1 X149.874 Y100.796 E2.89601
G1 X150.038 Y101.408 E2.91708
G1 X150.262 Y102.651 E2.95909
G1 X150.47 Y104.366 E3.01655
G1 X150.642 Y105.632 E3.05904
G1 X150.673 Y105.88 E3.06736
G1 X150.703 Y106.146 E3.07626
G1 X150.768 Y107.082 E3.10747
G1 X150.769 Y107.584 E3.12416
G1 X150.74 Y110.288 E3.2141
G1 X150.756 Y111.674 E3.2602
G1 X150.77 Y112.413 E3.28479
G1 X150.748 Y113.35 E3.31596
G1 X150.69 Y113.962 E3.33641
G1 X150.586 Y114.8 E3.36449
G1 X150.4 Y116.163 E3.41025
G1 X150.261 Y117.36 E3.45033
G1 X150.245 Y117.48 E3.45435
G1 X150.081 Y118.403 E3.48553
G1 X149.924 Y119.026 E3.5069
G1 X149.666 Y119.936 E3.53836
G1 X149.4 Y120.85 E3.57002
G1 X149.363 Y120.96 E3.57388
G1 X148.972 Y122.267 E3.61926
G1 X148.669 Y123.144 E3.65012
G1 X148.279 Y124.135 E3.68554
G1 X148.201 Y124.329 E3.6925
G1 X148.147 Y124.458 E3.69715
G1 X147.61 Y125.855 E3.74693
G1 X147.533 Y126.05 E3.7539
G1 X147.433 Y126.296 E3.76273
G1 X147.123 Y126.991 E3.78804
G1 X145.995 Y129.295 E3.87336
G1 X145.849 Y129.604 E3.88473
G1 X145.412 Y130.434 E3.91593
G1 X145.084 Y130.961 E3.93658
G1 X144.634 Y131.642 E3.96372
G1 X144.089 Y132.494 E3.99736
G1 X143.389 Y133.558 E4.03972
G1 X142.84 Y134.319 E4.07093
G1 X142.247 Y135.01 E4.10122
G1 X141.664 Y135.636 E4.12967
G1 X140.333 Y137.092 E4.19528
G1 X139.308 Y138.234 E4.24632
G1 X138.367 Y139.288 E4.29332
G1 X137.713 Y139.96 E4.3245
G1 X137.233 Y140.387 E4.34587
G1 X136.825 Y140.729 E4.36358
G1 X135.326 Y141.955 E4.42799
G1 X135.025 Y142.211 E4.44113
G1 X134.585 Y142.575 E4.46012
G1 X133.84 Y143.139 E4.4912
G1 X133.407 Y143.439 E4.50872
G1 X132.057 Y144.356 E4.563
G1 X131.052 Y145.027 E4.60319
G1 X130.251 Y145.514 E4.63437
G1 X129.418 Y145.928 E4.66531
G1 X128.901 Y146.158 E4.68413
G1 X127.282 Y146.895 E4.7433
G1 X126.593 Y147.217 E4.76859
G1 X126.232 Y147.378 E4.78174
G1 X124.024 Y148.305 E4.86139
G1 X123.315 Y148.594 E4.88685
G1 X122.432 Y148.911 E4.91806
G1 X121.845 Y149.076 E4.93834
G1 X120.97 Y149.296 E4.96835
G1 X120.802 Y149.337 E4.9741
G1 X120.059 Y149.511 E4.99948
G1 X119.913 Y149.55 E5.0045
G1 X119.723 Y149.598 E5.01102
G1 X118.834 Y149.816 E5.04147
G1 X118.247 Y149.943 E5.06144
G1 X117.555 Y150.072 E5.08485
G1 X116.066 Y150.328 E5.13511
G1 X115.784 Y150.381 E5.14465
G1 X115.053 Y150.511 E5.16934
G1 X113.838 Y150.658 E5.21005
G1 X113.113 Y150.705 E5.23421
G1 X111.882 Y150.793 E5.27526
G1 X110.857 Y150.873 E5.30946
G1 X109.92 Y150.906 E5.34064
G1 X109.3 Y150.884 E5.36128
G1 X108.564 Y150.836 E5.38581
G1 X106.434 Y150.676 E5.45685
G1 X106.25 Y150.665 E5.46298
G1 X105.529 Y150.599 E5.48706
G1 X104.965 Y150.516 E5.50602
G1 X103.976 Y150.343 E5.53942
G1 X102.926 Y150.147 E5.57494
G1 X102.529 Y150.082 E5.58832
G1 X101.83 Y149.958 E5.61193
G1 X101.193 Y149.825 E5.63358
G1 X100.258 Y149.6 E5.66556
G1 X99.219 Y149.337 E5.70121
G1 X98.229 Y149.095 E5.73511
G1 X96.984 Y148.711 E5.77844
G1 X96.912 Y148.684 E5.781
G1 X96.496 Y148.518 E5.7959
G1 X94.865 Y147.83 E5.85477
G1 X93.9 Y147.433 E5.88948
G1 X93.607 Y147.308 E5.90007
G1 X93.173 Y147.114 E5.91589
G1 X91.119 Y146.18 E5.99093
G1 X90.394 Y145.841 E6.01755
G1 X89.459 Y145.347 E6.05272
G1 X88.776 Y144.911 E6.07968
G1 X88.497 Y144.718 E6.09096
G1 X86.956 Y143.688 E6.15261
G1 X86.194 Y143.163 E6.18338
G1 X85.253 Y142.437 E6.22291
G1 X85.054 Y142.265 E6.23166
G1 X83.268 Y140.753 E6.30949
G1 X82.832 Y140.392 E6.32832
G1 X82.136 Y139.764 E6.3595
G1 X81.721 Y139.333 E6.3794
G1 X80.885 Y138.416 E6.42067
G1 X80.687 Y138.214 E6.43008
G1 X80.128 Y137.588 E6.45799
G1 X78.802 Y136.159 E6.52283
G1 X78.803 Y136.158 E6.52288
G1 X78.726 Y136.08 E6.52653
G1 X77.653 Y134.9 E6.57957
G1 X77.052 Y134.18 E6.61077
G1 X76.626 Y133.583 E6.63516
G1 X76.332 Y133.139 E6.65287
G1 X75.326 Y131.586 E6.71441
G1 X75.165 Y131.346 E6.72403
G1 X74.878 Y130.905 E6.74153
G1 X74.27 Y129.846 E6.78214
G1 X73.921 Y129.149 E6.80807
G1 X73.254 Y127.772 E6.85896
G1 X73.072 Y127.416 E6.87226
G1 X72.953 Y127.178 E6.88111
G1 X72.837 Y126.937 E6.89
G1 X72.489 Y126.133 E6.91914
G1 X72.078 Y125.07 E6.95705
G1 X71.93 Y124.671 E6.9712
G1 X71.517 Y123.633 E7.00836
G1 X71.452 Y123.466 E7.01432
G1 X71.278 Y123.007 E7.03064
G1 X70.98 Y122.106 E7.06221
G1 X70.881 Y121.757 E7.07427
G1 X70.533 Y120.623 E7.11373
G1 X70.422 Y120.197 E7.12837
G1 X70.115 Y119.164 E7.16421
G1 X69.887 Y118.255 E7.19538
G1 X69.738 Y117.346 E7.22602
G1 X69.585 Y116.08 E7.26843
G1 X69.358 Y114.369 E7.32584
G1 X69.33 Y114.139 E7.33355
G1 X69.297 Y113.843 E7.34345
G1 X69.247 Y113.253 E7.36314
G1 X69.229 Y112.481 E7.38883
G1 X69.26 Y109.791 E7.4783
G1 X69.246 Y108.468 E7.52231
G1 X69.23 Y107.566 E7.55232
G1 X69.253 Y106.628 E7.58352
G1 X69.313 Y106.009 E7.60421
G1 X69.417 Y105.178 E7.63206
G1 X69.575 Y104.036 E7.67041
G1 X69.736 Y102.674 E7.71602
G1 X69.886 Y101.748 E7.74722
G1 X70.177 Y100.632 E7.78558
G1 X70.966 Y98.028 E7.87608
G1 X71.037 Y97.782 E7.8846
G1 X71.329 Y96.907 E7.91528
G1 X71.763 Y95.771 E7.95572
G1 X71.902 Y95.421 E7.96825
G1 X72.299 Y94.349 E8.00627
G1 X72.494 Y93.847 E8.02418
G1 X72.863 Y93.004 E8.05479
G1 X73.412 Y91.882 E8.09633
G1 X74.013 Y90.682 E8.14097
G1 X74.253 Y90.212 E8.15853
G1 X74.787 Y89.282 E8.19419
G1 X76.442 Y86.7 E8.2962
G1 X76.6 Y86.459 E8.30578
G1 X77.147 Y85.697 E8.33698
G1 X77.749 Y84.993 E8.36779
G1 X78.391 Y84.304 E8.39911
G1 X79.638 Y82.941 E8.46056
G1 X80.055 Y82.503 E8.48067
G1 X80.752 Y81.81 E8.51336
G1 X80.778 Y81.779 E8.51471
G1 X81.133 Y81.414 E8.53164
G0 F6000 X81.413 Y81.7
G1 F1200 X82.647 Y80.492 E8.58908
G1 X82.648 Y80.493 E8.58912
G1 X83.427 Y79.789 E8.62405
G1 X84.337 Y79.048 E8.66308
G1 X84.57 Y78.843 E8.6734
G1 X85.695 Y77.94 E8.72138
G1 X85.911 Y77.771 E8.7305
G1 X87.469 Y76.569 E8.79595
G1 X88.604 Y75.709 E8.84331
G1 X89.362 Y75.186 E8.87394
G1 X90.161 Y74.73 E8.90454
G1 X90.663 Y74.488 E8.92308
G1 X91.115 Y74.285 E8.93956
G1 X92.47 Y73.662 E8.98916
G1 X93.536 Y73.162 E9.02832
G1 X94.1 Y72.917 E9.04878
G1 X96.028 Y72.105 E9.11836
G1 X96.848 Y71.771 E9.1478
G1 X97.715 Y71.461 E9.17843
G1 X98.261 Y71.308 E9.19729
G1 X99.334 Y71.039 E9.23408
G1 X100.033 Y70.874 E9.25797
G1 X101.224 Y70.579 E9.29878
G1 X101.979 Y70.421 E9.32443
G1 X104.194 Y70.041 E9.39918
G1 X104.821 Y69.927 E9.42038
G1 X105.974 Y69.783 E9.45902
G1 X106.279 Y69.762 E9.46919
G1 X107.693 Y69.638 E9.5164
G1 X107.85 Y69.631 E9.52163
G1 X109.159 Y69.527 E9.56531
G1 X110.079 Y69.494 E9.59592
G1 X110.663 Y69.515 E9.61536
G1 X111.109 Y69.543 E9.63022
G1 X113.924 Y69.749 E9.7241
G1 X114.939 Y69.873 E9.75811
G1 X115.639 Y69.993 E9.78173
G1 X116.966 Y70.24 E9.82663
G1 X117.527 Y70.332 E9.84554
G1 X118.06 Y70.426 E9.86354
G1 X118.698 Y70.559 E9.88521
G1 X119.713 Y70.804 E9.91994
G1 X120.391 Y70.977 E9.94321
G1 X120.438 Y70.991 E9.94485
G1 X121.673 Y71.292 E9.98712
G1 X122.558 Y71.549 E10.01778
G1 X123.36 Y71.856 E10.04634
G1 X125.018 Y72.556 E10.1062
G1 X125.975 Y72.949 E10.14061
G1 X126.426 Y73.146 E10.15697
G1 X128.258 Y74 E10.2242
G1 X129.381 Y74.509 E10.26521
G1 X130.202 Y74.925 E10.29582
G1 X131.201 Y75.564 E10.33527
G1 X132.328 Y76.378 E10.3815
G1 X132.809 Y76.714 E10.40102
G1 X133.838 Y77.454 E10.44318
G1 X134.544 Y78.009 E10.47304
G1 X135.48 Y78.812 E10.51406
G1 X135.856 Y79.14 E10.53066
G1 X136.917 Y80.079 E10.57778
G1 X137.37 Y80.504 E10.59844
G1 X138.012 Y81.143 E10.62857
G1 X138.597 Y81.741 E10.65639
G1 X139.551 Y82.674 E10.70078
G1 X139.755 Y82.879 E10.71039
G1 X139.962 Y83.095 E10.72034
G1 X140.899 Y84.103 E10.76612
G1 X140.898 Y84.104 E10.76617
G1 X140.974 Y84.182 E10.76979
G1 X142.033 Y85.345 E10.8221
G1 X142.86 Y86.377 E10.86609
G1 X142.891 Y86.421 E10.86788
G1 X143.197 Y86.879 E10.8862
G1 X143.565 Y87.463 E10.90916
G1 X144.645 Y89.13 E10.97522
G1 X144.933 Y89.589 E10.99324
G1 X145.374 Y90.364 E11.0229
G1 X145.531 Y90.673 E11.03443
G1 X146.746 Y93.116 E11.12518
G1 X147.208 Y94.189 E11.16403
G1 X147.254 Y94.314 E11.16846
G1 X148.266 Y96.964 E11.26281
G1 X148.343 Y97.172 E11.27019
G1 X148.542 Y97.765 E11.29099
G1 X148.828 Y98.707 E11.32374
G1 X149.088 Y99.603 E11.35477
G1 X149.27 Y100.177 E11.3748
G1 X149.491 Y100.911 E11.40029
G1 X149.649 Y101.501 E11.42061
G1 X149.865 Y102.699 E11.46109
G1 X150.08 Y104.47 E11.52043
G1 X150.245 Y105.686 E11.56124
G1 X150.275 Y105.925 E11.56926
G1 X150.305 Y106.191 E11.57816
G1 X150.369 Y107.11 E11.6088
G1 X150.369 Y107.579 E11.6244
G1 X150.34 Y110.288 E11.71451
G1 X150.356 Y111.681 E11.76084
G1 X150.37 Y112.42 E11.78542
G1 X150.348 Y113.341 E11.81606
G1 X150.293 Y113.913 E11.83518
G1 X150.19 Y114.746 E11.86309
G1 X150.004 Y116.112 E11.90895
G1 X149.887 Y117.122 E11.94276
G1 X149.848 Y117.427 E11.95299
G1 X149.687 Y118.333 E11.9836
G1 X149.539 Y118.917 E12.00363
G1 X149.282 Y119.824 E12.03499
G1 X149.016 Y120.738 E12.06665
G1 X148.983 Y120.834 E12.07003
G1 X148.589 Y122.153 E12.11581
G1 X148.297 Y122.998 E12.14555
G1 X147.907 Y123.989 E12.18097
G1 X147.79 Y124.274 E12.19122
G1 X147.237 Y125.712 E12.24246
G1 X147.163 Y125.9 E12.24918
G1 X147.063 Y126.146 E12.25801
G1 X146.763 Y126.815 E12.2824
G1 X145.695 Y128.996 E12.36317
G1 X145.488 Y129.433 E12.37925
G1 X145.058 Y130.247 E12.40987
G1 X144.75 Y130.741 E12.42923
G1 X144.305 Y131.413 E12.45604
G1 X143.834 Y132.152 E12.48519
G1 X143.054 Y133.338 E12.5324
G1 X142.515 Y134.084 E12.56301
G1 X141.955 Y134.737 E12.59162
G1 X141.301 Y135.439 E12.62353
G1 X140.066 Y136.79 E12.68441
G1 X139.045 Y137.93 E12.73531
G1 X138.929 Y138.057 E12.74103
G1 X138.068 Y139.021 E12.78402
G1 X137.426 Y139.681 E12.81465
G1 X136.976 Y140.081 E12.83467
G1 X136.572 Y140.419 E12.85219
G1 X135.052 Y141.662 E12.9175
G1 X134.77 Y141.902 E12.92982
G1 X134.33 Y142.266 E12.94881
G1 X133.612 Y142.811 E12.97879
G1 X133.182 Y143.108 E12.99617
G1 X131.835 Y144.024 E13.05035
G1 X130.83 Y144.695 E13.09054
G1 X130.043 Y145.172 E13.12115
G1 X129.255 Y145.563 E13.15041
G1 X128.686 Y145.816 E13.17112
G1 X127.081 Y146.547 E13.22978
G1 X126.424 Y146.854 E13.2539
G1 X126.072 Y147.011 E13.26672
G1 X123.873 Y147.935 E13.34605
G1 X123.164 Y148.224 E13.37152
G1 X122.297 Y148.534 E13.40214
G1 X121.748 Y148.688 E13.42111
G1 X120.873 Y148.908 E13.45111
G1 X119.971 Y149.121 E13.48194
G1 X119.628 Y149.21 E13.49373
G1 X118.739 Y149.428 E13.52417
G1 X118.173 Y149.55 E13.54343
G1 X117.487 Y149.678 E13.56664
G1 X115.926 Y149.947 E13.61932
G1 X115.714 Y149.987 E13.6265
G1 X114.983 Y150.117 E13.65119
G1 X113.812 Y150.259 E13.69043
G1 X113.055 Y150.308 E13.71566
G1 X111.851 Y150.394 E13.7558
G1 X110.826 Y150.474 E13.79
G1 X109.906 Y150.506 E13.82062
G1 X109.326 Y150.484 E13.83992
G1 X108.594 Y150.437 E13.86432
G1 X106.43 Y150.274 E13.9365
G1 X106.273 Y150.265 E13.94173
G1 X105.61 Y150.206 E13.96387
G1 X105.033 Y150.122 E13.98326
G1 X104.178 Y149.973 E14.01212
G1 X103.019 Y149.756 E14.05134
G1 X102.594 Y149.687 E14.06566
G1 X101.9 Y149.564 E14.08911
G1 X101.287 Y149.436 E14.10993
G1 X100.238 Y149.183 E14.14582
G1 X99.362 Y148.96 E14.17589
G1 X99.21 Y148.924 E14.18109
G1 X98.324 Y148.707 E14.21142
G1 X97.124 Y148.336 E14.2532
G1 X97.052 Y148.309 E14.25576
G1 X96.651 Y148.149 E14.27012
G1 X95.05 Y147.473 E14.32792
G1 X94.052 Y147.063 E14.36381
G1 X93.77 Y146.942 E14.37401
G1 X93.339 Y146.75 E14.3897
G1 X91.288 Y145.817 E14.46465
G1 X90.563 Y145.478 E14.49127
G1 X89.662 Y145.003 E14.52514
G1 X89.004 Y144.582 E14.55113
G1 X88.725 Y144.389 E14.56241
G1 X87.178 Y143.355 E14.6243
G1 X86.421 Y142.834 E14.65486
G1 X85.515 Y142.135 E14.69292
G1 X85.312 Y141.96 E14.70184
G1 X83.501 Y140.427 E14.78075
G1 X83.087 Y140.084 E14.79864
G1 X82.404 Y139.467 E14.82925
G1 X82.017 Y139.063 E14.84786
G1 X81.331 Y138.311 E14.88171
G1 X80.985 Y137.948 E14.89839
G1 X80.411 Y137.306 E14.92703
G1 X79.095 Y135.887 E14.9914
G1 X79.022 Y135.811 E14.99491
G1 X77.949 Y134.631 E15.04795
G1 X77.359 Y133.924 E15.07858
G1 X76.959 Y133.362 E15.10152
G1 X76.732 Y133.02 E15.11518
G1 X75.666 Y131.375 E15.18037
G1 X75.501 Y131.128 E15.19025
G1 X75.214 Y130.687 E15.20775
G1 X74.627 Y129.666 E15.24692
G1 X74.281 Y128.975 E15.27263
G1 X73.612 Y127.594 E15.32367
G1 X73.428 Y127.234 E15.33711
G1 X73.314 Y127.004 E15.34565
G1 X73.198 Y126.763 E15.35455
G1 X72.862 Y125.989 E15.38261
G1 X72.451 Y124.926 E15.42052
G1 X72.301 Y124.522 E15.43485
G1 X71.826 Y123.324 E15.47771
G1 X71.652 Y122.865 E15.49404
G1 X71.365 Y121.997 E15.52445
G1 X71.255 Y121.61 E15.53783
G1 X70.916 Y120.506 E15.57624
G1 X70.804 Y120.075 E15.59105
G1 X70.499 Y119.05 E15.62662
G1 X70.275 Y118.157 E15.65724
G1 X70.135 Y117.298 E15.68619
G1 X69.986 Y116.059 E15.7277
G1 X69.754 Y114.316 E15.78618
G1 X69.727 Y114.094 E15.79362
G1 X69.694 Y113.798 E15.80352
G1 X69.646 Y113.229 E15.82252
G1 X69.629 Y112.486 E15.84723
