;FLAVOR:Marlin
;TIME:1814
;Filament used: 0.886246m
;Layer height: 0.2
;MINX:84.029
;MINY:83.5
;MINZ:0.2
;MAXX:135.988
;MAXY:136.478
;MAXZ:10
;Generated with Cura_SteamEngine master
M140 S60
M105
M190 S60
M104 S200
M105
M109 S200
M82 ;absolute extrusion mode
; Ender 3 Custom Start G-code
G92 E0 ; Reset Extruder
G28 ; Home all axes
G1 Z2.0 F3000 ; Move Z Axis up little to prevent scratching of Heat Bed
G1 X0.1 Y20 Z0.3 F5000.0 ; Move to start position
G1 X0.1 Y200.0 Z0.3 F1500.0 E15 ; Draw the first line
G1 X0.4 Y200.0 Z0.3 F5000.0 ; Move to side a little
G1 X0.4 Y20 Z0.3 F1500.0 E30 ; Draw the second line
G92 E0 ; Reset Extruder
G1 Z2.0 F3000 ; Move Z Axis up little to prevent scratching of Heat Bed
G1 X5 Y20 Z0.3 F5000.0 ; Move over to prevent blob squish
G92 E0
G92 E0
G1 F1500 E-6.5
;LAYER_COUNT:50
;LAYER:0
M107
G0 F6000 X91.028 Y88.755 Z0.2
;TYPE:SKIRT
G1 F1500 E0
G1 F1200 X91.522 Y88.246 E0.02359
G1 X92.283 Y87.51 E0.0588
G1 X92.561 Y87.25 E0.07146
G1 X92.868 Y86.973 E0.08522
G1 X93.379 Y86.539 E0.10752
G1 X93.991 Y86.051 E0.13355
G1 X94.264 Y85.841 E0.14501
G1 X94.45 Y85.702 E0.15273
G1 X95.225 Y85.173 E0.18394
G1 X96.041 Y84.712 E0.21511
G1 X96.894 Y84.322 E0.2463
G1 X97.778 Y84.006 E0.27753
G1 X98.684 Y83.767 E0.30869
G1 X99.608 Y83.606 E0.33989
G1 X100.847 Y83.515 E0.38121
G1 X101.796 Y83.5 E0.41278
G1 X118.457 Y83.502 E0.96692
G1 X119.138 Y83.512 E0.98958
G1 X120.074 Y83.566 E1.02076
G1 X121.002 Y83.699 E1.05194
G1 X121.916 Y83.911 E1.08315
G1 X122.808 Y84.2 E1.11433
G1 X123.672 Y84.564 E1.14552
G1 X124.503 Y85 E1.17673
G1 X124.99 Y85.3 E1.19575
G1 X125.111 Y85.379 E1.20056
G1 X126.02 Y86.042 E1.23798
G1 X126.704 Y86.596 E1.26726
G1 X126.999 Y86.843 E1.28005
G1 X127.298 Y87.103 E1.29323
G1 X127.798 Y87.566 E1.3159
G1 X128.58 Y88.336 E1.3524
G1 X128.83 Y88.591 E1.36428
G1 X129.086 Y88.86 E1.37663
G1 X129.558 Y89.389 E1.40021
G1 X130.235 Y90.199 E1.43532
G1 X130.461 Y90.478 E1.44726
G1 X130.694 Y90.776 E1.45984
G1 X131.107 Y91.341 E1.48312
G1 X131.724 Y92.243 E1.51947
G1 X131.944 Y92.577 E1.53277
G1 X132.138 Y92.884 E1.54485
G1 X132.466 Y93.439 E1.56629
G1 X132.99 Y94.387 E1.60232
G1 X133.17 Y94.726 E1.61508
G1 X133.33 Y95.041 E1.62683
G1 X133.627 Y95.675 E1.65012
G1 X134.062 Y96.686 E1.68673
G1 X134.204 Y97.031 E1.69914
G1 X134.338 Y97.374 E1.71138
G1 X134.57 Y98.028 E1.73446
G1 X134.888 Y99.023 E1.76921
G1 X135 Y99.397 E1.78219
G1 X135.1 Y99.753 E1.79449
G1 X135.259 Y100.391 E1.81636
G1 X135.481 Y101.412 E1.85111
G1 X135.551 Y101.762 E1.86298
G1 X135.595 Y102.002 E1.8711
G1 X135.643 Y102.25 E1.8795
G1 X135.755 Y102.954 E1.90321
G1 X135.793 Y103.263 E1.91356
G1 X135.852 Y103.808 E1.9318
G1 X135.884 Y104.153 E1.94332
G1 X135.928 Y104.677 E1.96081
G1 X135.965 Y105.375 E1.98406
G1 X135.987 Y106.463 E2.02025
G1 X135.988 Y106.858 E2.03339
G1 X135.982 Y107.24 E2.0461
G1 X135.951 Y107.909 E2.06837
G1 X135.871 Y108.951 E2.10313
G1 X135.837 Y109.308 E2.11506
G1 X135.794 Y109.7 E2.12818
G1 X135.696 Y110.394 E2.15149
G1 X135.512 Y111.447 E2.18704
G1 X135.437 Y111.835 E2.20019
G1 X135.359 Y112.203 E2.2127
G1 X135.2 Y112.852 E2.23492
G1 X134.836 Y114.165 E2.28024
G1 X134.804 Y114.273 E2.28399
G1 X134.693 Y114.627 E2.29632
G1 X134.583 Y114.957 E2.30789
G1 X134.483 Y115.242 E2.31794
G1 X133.648 Y117.658 E2.40296
G1 X133.438 Y118.343 E2.42679
G1 X133.305 Y118.719 E2.44006
G1 X132.951 Y119.823 E2.47862
G1 X132.626 Y120.703 E2.50982
G1 X132.228 Y121.552 E2.541
G1 X131.759 Y122.365 E2.57222
G1 X131.196 Y123.168 E2.60484
G1 X130.793 Y123.692 E2.62683
G1 X130.095 Y124.513 E2.66267
G1 X129.364 Y125.292 E2.6982
G1 X129.133 Y125.531 E2.70925
G1 X128.802 Y125.863 E2.72485
G1 X128.263 Y126.368 E2.74941
G1 X127.444 Y127.086 E2.78564
G1 X127.164 Y127.324 E2.79786
G1 X126.81 Y127.614 E2.81308
G1 X126.271 Y128.029 E2.83571
G1 X125.383 Y128.669 E2.87211
G1 X125.073 Y128.884 E2.88466
G1 X124.289 Y129.409 E2.91604
G1 X122.19 Y130.859 E3.00089
G1 X119.314 Y132.991 E3.11997
G1 X118.776 Y133.406 E3.14257
G1 X118.463 Y133.639 E3.15554
G1 X118.042 Y133.941 E3.17278
G1 X117.175 Y134.503 E3.20714
G1 X116.942 Y134.639 E3.21612
G1 X115.969 Y135.144 E3.25258
G1 X115.667 Y135.282 E3.26362
G1 X114.672 Y135.679 E3.29925
G1 X114.387 Y135.777 E3.30927
G1 X113.421 Y136.061 E3.34276
G1 X113.114 Y136.136 E3.35328
G1 X111.785 Y136.375 E3.39819
G1 X111.606 Y136.396 E3.40418
G1 X110.809 Y136.46 E3.43078
G1 X110.401 Y136.478 E3.44436
G1 X109.166 Y136.463 E3.48544
G1 X109.005 Y136.452 E3.49081
G1 X108.113 Y136.355 E3.52065
G1 X107.709 Y136.294 E3.53424
G1 X106.559 Y136.057 E3.57329
G1 X106.418 Y136.02 E3.57814
G1 X105.495 Y135.734 E3.61028
G1 X105.063 Y135.579 E3.62554
G1 X103.889 Y135.079 E3.66798
G1 X103.758 Y135.014 E3.67285
G1 X103.018 Y134.611 E3.70087
G1 X102.746 Y134.449 E3.7114
G1 X101.865 Y133.865 E3.74656
G1 X101.44 Y133.553 E3.76409
G1 X101.284 Y133.436 E3.77058
G1 X99.267 Y131.899 E3.85492
G1 X97.242 Y130.445 E3.93784
G1 X95.885 Y129.536 E3.99216
G1 X94.981 Y128.92 E4.02855
G1 X94.669 Y128.7 E4.04125
G1 X93.682 Y127.976 E4.08196
G1 X93.401 Y127.763 E4.09369
G1 X93.026 Y127.469 E4.10953
G1 X92.48 Y127.011 E4.13324
G1 X91.666 Y126.283 E4.16956
G1 X91.385 Y126.023 E4.18229
G1 X91.068 Y125.719 E4.1969
G1 X90.597 Y125.239 E4.21927
G1 X89.859 Y124.439 E4.25547
G1 X89.611 Y124.161 E4.26786
G1 X89.212 Y123.698 E4.28819
G1 X88.631 Y122.962 E4.31938
G1 X88.114 Y122.179 E4.35058
G1 X87.666 Y121.355 E4.38178
G1 X87.46 Y120.91 E4.39809
G1 X87.074 Y119.894 E4.43424
G1 X86.872 Y119.271 E4.45602
G1 X86.438 Y117.872 E4.50474
G1 X85.71 Y115.781 E4.57838
G1 X85.593 Y115.393 E4.59186
G1 X85.422 Y114.901 E4.60918
G1 X85.266 Y114.435 E4.62553
G1 X85.073 Y113.794 E4.64779
G1 X84.802 Y112.784 E4.68257
G1 X84.708 Y112.408 E4.69546
G1 X84.617 Y112.014 E4.70891
G1 X84.485 Y111.351 E4.7314
G1 X84.311 Y110.309 E4.76654
G1 X84.253 Y109.915 E4.77978
G1 X84.201 Y109.515 E4.7932
G1 X84.135 Y108.853 E4.81532
G1 X84.064 Y107.822 E4.8497
G1 X84.044 Y107.425 E4.86292
G1 X84.031 Y107.027 E4.87616
G1 X84.029 Y106.363 E4.89825
G1 X84.059 Y105.28 E4.93428
G1 X84.077 Y104.882 E4.94753
G1 X84.101 Y104.507 E4.96003
G1 X84.164 Y103.846 E4.98212
G1 X84.292 Y102.822 E5.01644
G1 X84.347 Y102.44 E5.02928
G1 X84.411 Y102.042 E5.04268
G1 X84.54 Y101.37 E5.06544
G1 X84.777 Y100.318 E5.10131
G1 X84.866 Y99.954 E5.11377
G1 X84.963 Y99.583 E5.12653
G1 X85.157 Y98.924 E5.14937
G1 X85.484 Y97.931 E5.18415
G1 X85.608 Y97.574 E5.19672
G1 X85.743 Y97.207 E5.20972
G1 X86.002 Y96.567 E5.23269
G1 X86.431 Y95.594 E5.26805
G1 X86.58 Y95.271 E5.27988
G1 X86.749 Y94.919 E5.29287
G1 X87.076 Y94.29 E5.31645
G1 X87.587 Y93.381 E5.35113
G1 X87.76 Y93.084 E5.36257
G1 X87.972 Y92.733 E5.3762
G1 X88.365 Y92.129 E5.40017
G1 X88.966 Y91.267 E5.43512
G1 X89.182 Y90.967 E5.44742
G1 X89.42 Y90.649 E5.46063
G1 X89.852 Y90.108 E5.48366
G1 X90.535 Y89.306 E5.51869
G1 X90.769 Y89.04 E5.53048
G1 X91.028 Y88.755 E5.54328
G0 F6000 X91.324 Y89.024
G1 F1200 X91.8 Y88.534 E5.56601
G1 X92.561 Y87.798 E5.60122
G1 X92.829 Y87.547 E5.61343
G1 X93.136 Y87.27 E5.62718
G1 X93.628 Y86.852 E5.64866
G1 X94.24 Y86.364 E5.67469
G1 X94.504 Y86.161 E5.68577
G1 X94.69 Y86.022 E5.69349
G1 X95.45 Y85.503 E5.7241
G1 X96.253 Y85.053 E5.75471
G1 X97.092 Y84.674 E5.78533
G1 X97.961 Y84.369 E5.81597
G1 X98.853 Y84.14 E5.8466
G1 X99.761 Y83.99 E5.87721
G1 X100.854 Y83.915 E5.91364
G1 X101.796 Y83.9 E5.94498
G1 X118.451 Y83.902 E6.49893
G1 X119.132 Y83.912 E6.52158
G1 X120.051 Y83.966 E6.5522
G1 X120.962 Y84.099 E6.58282
G1 X121.858 Y84.31 E6.61344
G1 X122.732 Y84.599 E6.64405
G1 X123.578 Y84.962 E6.67467
G1 X124.771 Y85.635 E6.72023
G1 X124.892 Y85.714 E6.72504
G1 X125.769 Y86.353 E6.76113
G1 X126.453 Y86.907 E6.7904
G1 X126.736 Y87.145 E6.8027
G1 X127.035 Y87.405 E6.81588
G1 X127.517 Y87.851 E6.83772
G1 X128.299 Y88.621 E6.87422
G1 X128.541 Y88.867 E6.8857
G1 X128.797 Y89.136 E6.89805
G1 X129.251 Y89.645 E6.92074
G1 X129.928 Y90.455 E6.95585
G1 X130.146 Y90.724 E6.96736
G1 X130.379 Y91.022 E6.97995
G1 X130.777 Y91.566 E7.00237
G1 X131.394 Y92.468 E7.03871
G1 X131.606 Y92.79 E7.05154
G1 X131.8 Y93.097 E7.06361
G1 X132.116 Y93.632 E7.08428
G1 X132.64 Y94.58 E7.12031
G1 X132.814 Y94.908 E7.13266
G1 X132.974 Y95.223 E7.14441
G1 X133.26 Y95.834 E7.16685
G1 X133.695 Y96.845 E7.20345
G1 X133.831 Y97.177 E7.21539
G1 X133.965 Y97.52 E7.22763
G1 X134.189 Y98.15 E7.24987
G1 X134.507 Y99.145 E7.28462
G1 X134.615 Y99.505 E7.29712
G1 X134.715 Y99.861 E7.30941
G1 X134.868 Y100.476 E7.33049
G1 X135.09 Y101.497 E7.36525
G1 X135.158 Y101.834 E7.37668
G1 X135.218 Y102.161 E7.38774
G1 X135.25 Y102.326 E7.39333
G1 X135.359 Y103.005 E7.4162
G1 X135.395 Y103.307 E7.42632
G1 X135.454 Y103.847 E7.44438
G1 X135.486 Y104.186 E7.45571
G1 X135.53 Y104.71 E7.4732
G1 X135.565 Y105.383 E7.49561
G1 X135.587 Y106.471 E7.53181
G1 X135.588 Y106.851 E7.54445
G1 X135.582 Y107.233 E7.55715
G1 X135.552 Y107.878 E7.57863
G1 X135.472 Y108.92 E7.61339
G1 X135.44 Y109.265 E7.62491
G1 X135.397 Y109.657 E7.63803
G1 X135.302 Y110.326 E7.6605
G1 X135.118 Y111.379 E7.69606
G1 X135.046 Y111.752 E7.70869
G1 X134.968 Y112.12 E7.7212
G1 X134.815 Y112.746 E7.74264
G1 X134.506 Y113.864 E7.78122
G1 X134.42 Y114.159 E7.79144
G1 X134.313 Y114.5 E7.80332
G1 X134.203 Y114.83 E7.81489
G1 X133.272 Y117.52 E7.90957
G1 X133.056 Y118.226 E7.93412
G1 X132.925 Y118.594 E7.94712
G1 X132.57 Y119.701 E7.98578
G1 X132.251 Y120.565 E8.01642
G1 X131.858 Y121.397 E8.04702
G1 X131.394 Y122.193 E8.07766
G1 X130.879 Y122.924 E8.10741
G1 X130.476 Y123.448 E8.12939
G1 X129.804 Y124.239 E8.16391
G1 X129.073 Y125.018 E8.19944
G1 X128.85 Y125.249 E8.21012
G1 X128.519 Y125.581 E8.22572
G1 X128 Y126.068 E8.24939
G1 X127.181 Y126.786 E8.28561
G1 X126.91 Y127.015 E8.29741
G1 X126.556 Y127.305 E8.31263
G1 X126.037 Y127.704 E8.33441
G1 X125.149 Y128.344 E8.37081
G1 X124.85 Y128.552 E8.38293
G1 X124.045 Y129.092 E8.41517
G1 X121.973 Y130.522 E8.4989
G1 X119.063 Y132.679 E8.61938
G1 X118.531 Y133.09 E8.64174
G1 X118.23 Y133.314 E8.65422
G1 X117.809 Y133.616 E8.67145
G1 X116.973 Y134.158 E8.70459
G1 X116.74 Y134.294 E8.71356
G1 X115.803 Y134.78 E8.74867
G1 X115.501 Y134.918 E8.75971
G1 X114.542 Y135.301 E8.79406
G1 X114.257 Y135.399 E8.80408
G1 X113.326 Y135.672 E8.83635
G1 X113.019 Y135.747 E8.84686
G1 X111.738 Y135.978 E8.89016
G1 X111.559 Y135.999 E8.89615
G1 X110.791 Y136.061 E8.92178
G1 X110.383 Y136.079 E8.93536
G1 X109.193 Y136.064 E8.97495
G1 X109.032 Y136.053 E8.98031
G1 X108.172 Y135.959 E9.00909
G1 X107.768 Y135.898 E9.02268
G1 X106.661 Y135.67 E9.06027
G1 X106.52 Y135.633 E9.06512
G1 X105.63 Y135.357 E9.09611
G1 X105.198 Y135.202 E9.11137
G1 X104.067 Y134.72 E9.15226
G1 X103.936 Y134.655 E9.15713
G1 X103.223 Y134.267 E9.18413
G1 X102.951 Y134.105 E9.19466
G1 X102.102 Y133.543 E9.22852
G1 X101.677 Y133.231 E9.24606
G1 X101.526 Y133.118 E9.25233
G1 X99.481 Y131.56 E9.33784
G1 X97.476 Y130.121 E9.41992
G1 X96.11 Y129.206 E9.47461
G1 X95.206 Y128.59 E9.51099
G1 X94.905 Y128.377 E9.52325
G1 X93.918 Y127.653 E9.56397
G1 X93.648 Y127.448 E9.57524
G1 X93.273 Y127.154 E9.59109
G1 X92.747 Y126.713 E9.61392
G1 X91.933 Y125.985 E9.65024
G1 X91.662 Y125.735 E9.66251
G1 X91.345 Y125.431 E9.67711
G1 X90.891 Y124.967 E9.6987
G1 X90.153 Y124.167 E9.73491
G1 X89.914 Y123.9 E9.74682
G1 X89.515 Y123.437 E9.76715
G1 X88.945 Y122.714 E9.79777
G1 X88.44 Y121.944 E9.8284
G1 X87.834 Y120.766 E9.87246
G1 X87.455 Y119.77 E9.90791
G1 X87.212 Y119.017 E9.93422
G1 X86.827 Y117.774 E9.9775
G1 X86.087 Y115.65 E10.05231
G1 X85.969 Y115.255 E10.06602
G1 X85.801 Y114.774 E10.08297
G1 X85.645 Y114.308 E10.09931
G1 X85.459 Y113.69 E10.12078
G1 X85.188 Y112.68 E10.15556
G1 X85.098 Y112.318 E10.16797
G1 X85.007 Y111.924 E10.18142
G1 X84.88 Y111.285 E10.20309
G1 X84.706 Y110.243 E10.23822
G1 X84.649 Y109.864 E10.25097
G1 X84.597 Y109.464 E10.26439
G1 X84.534 Y108.825 E10.28574
G1 X84.463 Y107.794 E10.32012
G1 X84.444 Y107.412 E10.33284
G1 X84.431 Y107.014 E10.34608
G1 X84.429 Y106.374 E10.36737
G1 X84.459 Y105.291 E10.4034
G1 X84.477 Y104.908 E10.41615
G1 X84.501 Y104.533 E10.42865
G1 X84.561 Y103.895 E10.44997
G1 X84.689 Y102.871 E10.48429
G1 X84.741 Y102.503 E10.49665
G1 X84.805 Y102.105 E10.51006
G1 X84.93 Y101.458 E10.53198
G1 X85.167 Y100.406 E10.56784
G1 X85.253 Y100.055 E10.57986
G1 X85.35 Y99.684 E10.59262
G1 X85.537 Y99.05 E10.6146
G1 X85.864 Y98.057 E10.64937
G1 X85.984 Y97.713 E10.66149
G1 X86.119 Y97.346 E10.6745
G1 X86.368 Y96.729 E10.69663
G1 X86.797 Y95.756 E10.73199
G1 X86.94 Y95.444 E10.74341
G1 X87.109 Y95.092 E10.7564
G1 X87.425 Y94.486 E10.77913
G1 X87.936 Y93.577 E10.81381
G1 X88.103 Y93.291 E10.82483
G1 X88.315 Y92.94 E10.83847
G1 X88.693 Y92.358 E10.86155
G1 X89.294 Y91.496 E10.8965
G1 X89.503 Y91.207 E10.90836
G1 X89.741 Y90.889 E10.92157
G1 X90.157 Y90.367 E10.94377
G1 X90.84 Y89.565 E10.97881
G1 X91.065 Y89.309 E10.99014
G1 X91.324 Y89.024 E11.00295
G0 F6000 X91.62 Y89.293
G1 F1200 X92.078 Y88.821 E11.02483
G1 X92.839 Y88.085 E11.06004
G1 X93.097 Y87.844 E11.07178
G1 X93.404 Y87.567 E11.08554
G1 X93.878 Y87.165 E11.10621
G1 X94.49 Y86.677 E11.13224
G1 X94.743 Y86.481 E11.14289
G1 X94.929 Y86.342 E11.15061
G1 X95.676 Y85.834 E11.18066
G1 X96.464 Y85.394 E11.21067
G1 X97.289 Y85.026 E11.24072
G1 X98.143 Y84.732 E11.27076
G1 X99.019 Y84.514 E11.30078
G1 X99.912 Y84.375 E11.33084
G1 X100.861 Y84.314 E11.36247
G1 X101.621 Y84.301 E11.38775
G1 X101.796 Y84.3 E11.39357
G1 X118.445 Y84.302 E11.94732
G1 X119.126 Y84.312 E11.96997
G1 X120.027 Y84.365 E11.99999
G1 X120.921 Y84.498 E12.03006
G1 X121.799 Y84.709 E12.06009
G1 X122.655 Y84.997 E12.09013
G1 X123.482 Y85.36 E12.12017
G1 X124.552 Y85.97 E12.16113
G1 X124.673 Y86.049 E12.16594
G1 X125.517 Y86.664 E12.20067
G1 X126.201 Y87.218 E12.22995
G1 X126.474 Y87.447 E12.2418
G1 X126.773 Y87.707 E12.25498
G1 X127.237 Y88.136 E12.276
G1 X128.019 Y88.906 E12.3125
G1 X128.251 Y89.142 E12.32351
G1 X128.507 Y89.411 E12.33586
G1 X128.944 Y89.902 E12.35772
G1 X129.621 Y90.712 E12.39283
G1 X129.83 Y90.97 E12.40387
G1 X130.063 Y91.268 E12.41645
G1 X130.447 Y91.792 E12.43806
G1 X131.064 Y92.694 E12.47441
G1 X131.268 Y93.004 E12.48675
G1 X131.462 Y93.311 E12.49883
G1 X131.766 Y93.826 E12.51872
G1 X132.29 Y94.774 E12.55475
G1 X132.457 Y95.089 E12.56661
G1 X132.617 Y95.404 E12.57836
G1 X132.893 Y95.992 E12.59996
G1 X133.328 Y97.003 E12.63657
G1 X133.459 Y97.322 E12.64804
G1 X133.593 Y97.665 E12.66029
G1 X133.808 Y98.272 E12.6817
G1 X134.126 Y99.267 E12.71645
G1 X134.23 Y99.614 E12.7285
G1 X134.33 Y99.97 E12.74079
G1 X134.477 Y100.561 E12.76105
G1 X134.699 Y101.582 E12.7958
G1 X134.764 Y101.906 E12.80679
G1 X134.812 Y102.169 E12.81569
G1 X134.857 Y102.402 E12.82358
G1 X134.962 Y103.055 E12.84558
G1 X134.998 Y103.351 E12.85549
G1 X135.056 Y103.885 E12.87336
G1 X135.087 Y104.22 E12.88455
G1 X135.131 Y104.744 E12.90204
G1 X135.165 Y105.391 E12.92359
G1 X135.187 Y106.479 E12.95978
G1 X135.188 Y106.845 E12.97195
G1 X135.182 Y107.227 E12.98466
G1 X135.153 Y107.848 E13.00534
G1 X135.073 Y108.89 E13.0401
G1 X135.042 Y109.221 E13.05116
G1 X134.999 Y109.613 E13.06427
G1 X134.908 Y110.257 E13.0859
G1 X134.724 Y111.31 E13.12146
G1 X134.654 Y111.669 E13.13362
G1 X134.576 Y112.037 E13.14613
G1 X134.429 Y112.639 E13.16675
G1 X134.069 Y113.938 E13.21158
G1 X134.037 Y114.046 E13.21533
G1 X133.934 Y114.374 E13.22676
G1 X133.824 Y114.704 E13.23833
G1 X133.746 Y114.926 E13.24616
G1 X132.885 Y117.415 E13.33375
G1 X132.673 Y118.108 E13.35786
G1 X132.548 Y118.459 E13.37025
G1 X132.189 Y119.579 E13.40937
G1 X131.875 Y120.426 E13.43941
G1 X131.488 Y121.241 E13.46942
G1 X131.03 Y122.02 E13.49948
G1 X130.562 Y122.68 E13.52639
G1 X130.159 Y123.204 E13.54837
G1 X129.512 Y123.966 E13.58162
G1 X128.781 Y124.745 E13.61715
G1 X128.566 Y124.967 E13.62743
G1 X128.235 Y125.299 E13.64302
G1 X127.736 Y125.767 E13.66578
G1 X126.917 Y126.485 E13.702
G1 X126.657 Y126.705 E13.71333
G1 X126.303 Y126.995 E13.72855
G1 X125.803 Y127.38 E13.74954
G1 X124.915 Y128.02 E13.78595
G1 X124.628 Y128.219 E13.79756
G1 X123.849 Y128.741 E13.82875
G1 X121.723 Y130.209 E13.91468
G1 X118.836 Y132.349 E14.03421
G1 X118.287 Y132.773 E14.05728
