;FLAVOR:Marlin
;TIME:1686
;Filament used: 0.627242m
;Layer height: 0.2
;MINX:93.01
;MINY:93.027
;MINZ:0.2
;MAXX:126.975
;MAXY:126.979
;MAXZ:37
;Generated with Cura_SteamEngine master
M140 S60
M105
M190 S60
M104 S200
M105
M109 S200
M82 ;absolute extrusion mode
; Ender 3 Custom Start G-code
G92 E0 ; Reset Extruder
G28 ; Home all axes
G1 Z2.0 F3000 ; Move Z Axis up little to prevent scratching of Heat Bed
G1 X0.1 Y20 Z0.3 F5000.0 ; Move to start position
G1 X0.1 Y200.0 Z0.3 F1500.0 E15 ; Draw the first line
G1 X0.4 Y200.0 Z0.3 F5000.0 ; Move to side a little
G1 X0.4 Y20 Z0.3 F1500.0 E30 ; Draw the second line
G92 E0 ; Reset Extruder
G1 Z2.0 F3000 ; Move Z Axis up little to prevent scratching of Heat Bed
G1 X5 Y20 Z0.3 F5000.0 ; Move over to prevent blob squish
G92 E0
G92 E0
G1 F1500 E-6.5
;LAYER_COUNT:185
;LAYER:0
M107
G0 F6000 X97.784 Y98.203 Z0.2
;TYPE:SKIRT
G1 F1500 E0
G1 F1200 X98.557 Y97.455 E0.03578
G1 X99.056 Y97.017 E0.05786
G1 X99.887 Y96.355 E0.0932
G1 X100.29 Y96.065 E0.10971
G1 X101.162 Y95.499 E0.14429
G1 X101.663 Y95.206 E0.16359
G1 X102.629 Y94.703 E0.19982
G1 X103.2 Y94.441 E0.22071
G1 X104.187 Y94.045 E0.25608
G1 X104.698 Y93.868 E0.27407
G1 X105.704 Y93.572 E0.30895
G1 X106.285 Y93.431 E0.32883
G1 X107.345 Y93.228 E0.36473
G1 X107.906 Y93.149 E0.38357
G1 X108.953 Y93.053 E0.41854
G1 X109.54 Y93.027 E0.43808
G1 X110.605 Y93.031 E0.47351
G1 X111.175 Y93.061 E0.49249
G1 X112.203 Y93.164 E0.52685
G1 X112.752 Y93.245 E0.54531
G1 X113.842 Y93.463 E0.58228
G1 X114.459 Y93.619 E0.60345
G1 X115.436 Y93.914 E0.63739
G1 X115.93 Y94.089 E0.65482
G1 X116.946 Y94.507 E0.69136
G1 X117.502 Y94.769 E0.71181
G1 X118.42 Y95.256 E0.74637
G1 X118.896 Y95.538 E0.76477
G1 X119.777 Y96.119 E0.79987
G1 X120.237 Y96.455 E0.81882
G1 X121.094 Y97.15 E0.85552
G1 X121.56 Y97.568 E0.87634
G1 X122.304 Y98.302 E0.9111
G1 X122.656 Y98.684 E0.92838
G1 X123.329 Y99.488 E0.96325
G1 X123.71 Y99.99 E0.98421
G1 X124.315 Y100.873 E1.01981
G1 X124.613 Y101.357 E1.03872
G1 X125.124 Y102.285 E1.07395
G1 X125.39 Y102.828 E1.09406
G1 X125.707 Y103.537 E1.11989
G1 X125.786 Y103.732 E1.12689
G1 X125.993 Y104.285 E1.14653
G1 X126.135 Y104.698 E1.16106
G1 X126.317 Y105.277 E1.18124
G1 X126.366 Y105.45 E1.18722
G1 X126.493 Y105.942 E1.20412
G1 X126.544 Y106.16 E1.21157
G1 X126.683 Y106.858 E1.23524
G1 X126.792 Y107.512 E1.25729
G1 X126.917 Y108.582 E1.29312
G1 X126.954 Y109.132 E1.31146
G1 X126.975 Y110.177 E1.34622
G1 X126.958 Y110.786 E1.36649
G1 X126.876 Y111.854 E1.40211
G1 X126.811 Y112.37 E1.41941
G1 X126.63 Y113.404 E1.45432
G1 X126.485 Y114.05 E1.47635
G1 X126.205 Y115.066 E1.5114
G1 X126.109 Y115.359 E1.52165
G1 X125.974 Y115.747 E1.53532
G1 X125.831 Y116.134 E1.54904
G1 X125.561 Y116.798 E1.57288
G1 X125.43 Y117.092 E1.58358
G1 X125.239 Y117.497 E1.59848
G1 X124.954 Y118.042 E1.61893
G1 X124.663 Y118.561 E1.63872
G1 X124.09 Y119.474 E1.67457
G1 X123.781 Y119.917 E1.69254
G1 X123.147 Y120.741 E1.72712
G1 X122.727 Y121.236 E1.74871
G1 X121.978 Y122.034 E1.78511
G1 X121.604 Y122.395 E1.8024
G1 X120.817 Y123.085 E1.83721
G1 X120.336 Y123.468 E1.85766
G1 X119.471 Y124.091 E1.89312
G1 X118.987 Y124.405 E1.91231
G1 X118.075 Y124.936 E1.94741
G1 X117.6 Y125.183 E1.96521
G1 X116.634 Y125.628 E2.00059
G1 X116.043 Y125.866 E2.02178
G1 X115.025 Y126.219 E2.05762
G1 X114.523 Y126.366 E2.07501
G1 X113.518 Y126.609 E2.1094
G1 X112.902 Y126.728 E2.13027
G1 X111.83 Y126.881 E2.16629
G1 X111.279 Y126.932 E2.18469
G1 X110.208 Y126.979 E2.22035
G1 X109.626 Y126.976 E2.2397
G1 X108.581 Y126.921 E2.27451
G1 X108.005 Y126.863 E2.29376
G1 X106.935 Y126.701 E2.32976
G1 X106.364 Y126.586 E2.34913
G1 X105.366 Y126.336 E2.38335
G1 X104.811 Y126.169 E2.40263
G1 X103.792 Y125.807 E2.43859
G1 X103.287 Y125.599 E2.45676
G1 X102.309 Y125.139 E2.49271
G1 X101.764 Y124.849 E2.51324
G1 X100.863 Y124.313 E2.54811
G1 X100.364 Y123.983 E2.56801
G1 X99.52 Y123.365 E2.6028
G1 X99.135 Y123.054 E2.61926
G1 X98.345 Y122.351 E2.65443
G1 X97.881 Y121.896 E2.67605
G1 X97.139 Y121.092 E2.71244
G1 X96.79 Y120.674 E2.73055
G1 X96.143 Y119.817 E2.76626
G1 X95.799 Y119.312 E2.78659
G1 X95.268 Y118.451 E2.82023
G1 X95.007 Y117.98 E2.83814
G1 X94.522 Y116.99 E2.87481
G1 X94.275 Y116.415 E2.89562
G1 X93.899 Y115.405 E2.93147
G1 X93.742 Y114.911 E2.94871
G1 X93.482 Y113.944 E2.98201
G1 X93.329 Y113.249 E3.00568
G1 X93.134 Y112.051 E3.04605
G1 X93.089 Y111.615 E3.06063
G1 X93.059 Y111.281 E3.07178
G1 X93.022 Y110.698 E3.09121
G1 X93.015 Y110.506 E3.0976
G1 X93.01 Y109.918 E3.11716
G1 X93.015 Y109.624 E3.12694
G1 X93.043 Y109.001 E3.14768
G1 X93.065 Y108.703 E3.15762
G1 X93.106 Y108.262 E3.17235
G1 X93.163 Y107.764 E3.18902
G1 X93.259 Y107.106 E3.21114
G1 X93.296 Y106.896 E3.21823
G1 X93.364 Y106.541 E3.23026
G1 X93.409 Y106.327 E3.23753
G1 X93.569 Y105.67 E3.26002
G1 X93.634 Y105.434 E3.26816
G1 X93.74 Y105.074 E3.28064
G1 X93.805 Y104.866 E3.28789
G1 X94.038 Y104.197 E3.31145
G1 X94.245 Y103.659 E3.33063
G1 X94.669 Y102.697 E3.36559
G1 X94.948 Y102.138 E3.38637
G1 X95.472 Y101.203 E3.42202
G1 X95.755 Y100.752 E3.43973
G1 X96.351 Y99.896 E3.47442
G1 X96.723 Y99.412 E3.49472
G1 X97.416 Y98.596 E3.53033
G1 X97.784 Y98.203 E3.54824
G0 F6000 X98.076 Y98.477
G1 F1200 X98.82 Y97.756 E3.5827
G1 X99.319 Y97.318 E3.60478
G1 X100.121 Y96.68 E3.63887
G1 X100.524 Y96.39 E3.65538
G1 X101.364 Y95.844 E3.6887
G1 X101.865 Y95.551 E3.70801
G1 X102.795 Y95.067 E3.74288
G1 X103.366 Y94.805 E3.76377
G1 X104.318 Y94.423 E3.79789
G1 X104.829 Y94.246 E3.81588
G1 X105.798 Y93.961 E3.84947
G1 X106.379 Y93.82 E3.86935
G1 X107.401 Y93.625 E3.90396
G1 X107.962 Y93.546 E3.9228
G1 X108.971 Y93.452 E3.95651
G1 X109.558 Y93.426 E3.97605
G1 X110.584 Y93.431 E4.01018
G1 X111.154 Y93.461 E4.02916
G1 X112.144 Y93.56 E4.06225
G1 X112.693 Y93.641 E4.08071
G1 X113.744 Y93.85 E4.11635
G1 X114.361 Y94.006 E4.13752
G1 X115.303 Y94.291 E4.17025
G1 X115.797 Y94.466 E4.18768
G1 X116.775 Y94.869 E4.22286
G1 X117.331 Y95.131 E4.24331
G1 X118.216 Y95.6 E4.27662
G1 X118.692 Y95.882 E4.29502
G1 X119.541 Y96.442 E4.32885
G1 X120.001 Y96.778 E4.3478
G1 X120.827 Y97.447 E4.38315
G1 X121.293 Y97.865 E4.40397
G1 X122.01 Y98.573 E4.43748
G1 X122.362 Y98.955 E4.45476
G1 X123.011 Y99.73 E4.48838
G1 X123.392 Y100.232 E4.50934
G1 X123.974 Y101.082 E4.54361
G1 X124.272 Y101.566 E4.56251
G1 X124.765 Y102.461 E4.5965
G1 X125.031 Y103.004 E4.61661
G1 X125.336 Y103.687 E4.64149
G1 X125.415 Y103.882 E4.64848
G1 X125.615 Y104.415 E4.66742
G1 X125.757 Y104.828 E4.68194
G1 X125.932 Y105.386 E4.70139
G1 X125.981 Y105.559 E4.70737
G1 X126.103 Y106.033 E4.72365
G1 X126.154 Y106.251 E4.7311
G1 X126.289 Y106.923 E4.7539
G1 X126.398 Y107.577 E4.77595
G1 X126.518 Y108.609 E4.81051
G1 X126.555 Y109.159 E4.82884
G1 X126.575 Y110.166 E4.86234
G1 X126.558 Y110.775 E4.8826
G1 X126.479 Y111.804 E4.91693
G1 X126.414 Y112.32 E4.93423
G1 X126.24 Y113.316 E4.96785
G1 X126.095 Y113.962 E4.98988
G1 X125.825 Y114.941 E5.02365
G1 X125.729 Y115.234 E5.03391
G1 X125.599 Y115.608 E5.04708
G1 X125.456 Y115.995 E5.0608
G1 X125.195 Y116.635 E5.08379
G1 X125.064 Y116.929 E5.09449
G1 X124.88 Y117.321 E5.1089
G1 X124.605 Y117.846 E5.12861
G1 X124.314 Y118.365 E5.1484
G1 X123.762 Y119.245 E5.18295
G1 X123.453 Y119.688 E5.20091
G1 X122.842 Y120.482 E5.23424
G1 X122.422 Y120.977 E5.25583
G1 X121.701 Y121.746 E5.29089
G1 X121.327 Y122.107 E5.30818
G1 X120.568 Y122.772 E5.34174
G1 X120.087 Y123.155 E5.36219
G1 X119.253 Y123.756 E5.39638
G1 X118.769 Y124.07 E5.41557
G1 X117.89 Y124.581 E5.44939
G1 X117.415 Y124.828 E5.46719
G1 X116.485 Y125.257 E5.50126
G1 X115.894 Y125.495 E5.52245
G1 X114.913 Y125.835 E5.55698
G1 X114.411 Y125.982 E5.57438
G1 X113.443 Y126.217 E5.60751
G1 X112.827 Y126.336 E5.62838
G1 X111.793 Y126.483 E5.66311
G1 X111.242 Y126.534 E5.68152
G1 X110.21 Y126.579 E5.71588
G1 X109.628 Y126.576 E5.73523
G1 X108.621 Y126.523 E5.76877
G1 X108.045 Y126.465 E5.78803
G1 X107.014 Y126.309 E5.82271
G1 X106.443 Y126.194 E5.84208
G1 X105.482 Y125.953 E5.87503
G1 X104.927 Y125.786 E5.89431
G1 X103.944 Y125.437 E5.92901
G1 X103.439 Y125.229 E5.94717
G1 X102.497 Y124.786 E5.98179
G1 X101.952 Y124.496 E6.00233
G1 X101.084 Y123.979 E6.03593
G1 X100.585 Y123.649 E6.05583
G1 X99.771 Y123.054 E6.08936
G1 X99.386 Y122.743 E6.10582
G1 X98.625 Y122.065 E6.13972
G1 X98.161 Y121.61 E6.16134
G1 X97.446 Y120.836 E6.19638
G1 X97.097 Y120.418 E6.2145
G1 X96.473 Y119.592 E6.24893
G1 X96.129 Y119.087 E6.26925
G1 X95.618 Y118.257 E6.30167
G1 X95.357 Y117.786 E6.31958
G1 X94.89 Y116.832 E6.35491
G1 X94.643 Y116.257 E6.37572
G1 X94.28 Y115.284 E6.41026
G1 X94.123 Y114.79 E6.4275
G1 X93.873 Y113.858 E6.4596
G1 X93.72 Y113.163 E6.48327
G1 X93.532 Y112.009 E6.52215
G1 X93.505 Y111.756 E6.53062
G1 X93.458 Y111.245 E6.54768
G1 X93.422 Y110.683 E6.56641
G1 X93.415 Y110.491 E6.5728
G1 X93.41 Y109.925 E6.59163
G1 X93.415 Y109.631 E6.60141
G1 X93.442 Y109.031 E6.62139
G1 X93.464 Y108.733 E6.63133
G1 X93.504 Y108.308 E6.64552
G1 X93.561 Y107.81 E6.6622
G1 X93.653 Y107.176 E6.6835
G1 X93.69 Y106.966 E6.6906
G1 X93.756 Y106.624 E6.70218
G1 X93.801 Y106.41 E6.70945
G1 X93.955 Y105.776 E6.73115
G1 X94.02 Y105.54 E6.7393
G1 X94.122 Y105.193 E6.75132
G1 X94.187 Y104.985 E6.75857
G1 X94.411 Y104.341 E6.78125
G1 X94.618 Y103.803 E6.80042
G1 X95.027 Y102.875 E6.83415
G1 X95.306 Y102.316 E6.85493
G1 X95.811 Y101.416 E6.88926
G1 X96.094 Y100.965 E6.90697
G1 X96.669 Y100.139 E6.94044
G1 X97.041 Y99.655 E6.96074
G1 X97.708 Y98.87 E6.99501
G1 X98.076 Y98.477 E7.01291
G0 F6000 X98.368 Y98.75
G1 F1200 X99.084 Y98.056 E7.04608
G1 X99.583 Y97.618 E7.06816
G1 X100.354 Y97.005 E7.10092
G1 X100.757 Y96.715 E7.11744
G1 X101.566 Y96.189 E7.14953
G1 X102.067 Y95.896 E7.16883
G1 X102.962 Y95.43 E7.2024
G1 X103.533 Y95.168 E7.22329
G1 X104.449 Y94.801 E7.25611
G1 X104.96 Y94.624 E7.2741
G1 X105.892 Y94.35 E7.30641
G1 X106.473 Y94.209 E7.32629
G1 X107.457 Y94.021 E7.35961
G1 X108.018 Y93.942 E7.37846
G1 X108.989 Y93.852 E7.41089
G1 X109.576 Y93.826 E7.43043
G1 X110.563 Y93.83 E7.46326
G1 X111.133 Y93.86 E7.48225
G1 X112.086 Y93.955 E7.5141
G1 X112.635 Y94.036 E7.53256
G1 X113.646 Y94.238 E7.56685
G1 X114.263 Y94.394 E7.58802
G1 X115.169 Y94.668 E7.6195
G1 X115.663 Y94.843 E7.63693
G1 X116.605 Y95.231 E7.67081
G1 X117.161 Y95.493 E7.69126
G1 X118.012 Y95.944 E7.72329
G1 X118.488 Y96.226 E7.74169
G1 X119.305 Y96.765 E7.77425
G1 X119.765 Y97.101 E7.79319
G1 X120.56 Y97.745 E7.82722
G1 X121.026 Y98.163 E7.84804
G1 X121.716 Y98.844 E7.88029
G1 X122.068 Y99.226 E7.89756
G1 X122.692 Y99.971 E7.92989
G1 X123.073 Y100.473 E7.95085
G1 X123.634 Y101.292 E7.98386
G1 X123.932 Y101.776 E8.00277
G1 X124.406 Y102.637 E8.03546
G1 X124.672 Y103.18 E8.05557
G1 X124.966 Y103.837 E8.07951
G1 X125.045 Y104.032 E8.08651
G1 X125.237 Y104.546 E8.10476
G1 X125.379 Y104.959 E8.11928
G1 X125.547 Y105.495 E8.13796
G1 X125.596 Y105.668 E8.14394
G1 X125.714 Y106.124 E8.15961
G1 X125.765 Y106.342 E8.16706
G1 X125.894 Y106.989 E8.189
G1 X126.003 Y107.643 E8.21105
G1 X126.119 Y108.635 E8.24427
G1 X126.156 Y109.185 E8.26261
G1 X126.175 Y110.155 E8.29487
G1 X126.158 Y110.764 E8.31514
G1 X126.082 Y111.754 E8.34816
G1 X126.017 Y112.27 E8.36546
G1 X125.849 Y113.229 E8.39784
G1 X125.704 Y113.875 E8.41986
G1 X125.445 Y114.817 E8.45236
G1 X125.349 Y115.11 E8.46261
G1 X125.224 Y115.469 E8.47526
G1 X125.081 Y115.856 E8.48898
G1 X124.83 Y116.472 E8.5111
G1 X124.699 Y116.766 E8.52181
G1 X124.521 Y117.145 E8.53573
G1 X124.256 Y117.65 E8.5547
G1 X123.965 Y118.169 E8.57449
G1 X123.434 Y119.016 E8.60774
G1 X123.125 Y119.459 E8.62571
G1 X122.537 Y120.223 E8.65777
G1 X122.117 Y120.718 E8.67936
G1 X121.423 Y121.458 E8.71311
G1 X121.049 Y121.819 E8.73039
G1 X120.319 Y122.459 E8.76268
G1 X119.838 Y122.842 E8.78313
G1 X119.035 Y123.42 E8.81604
G1 X118.551 Y123.734 E8.83523
G1 X117.706 Y124.227 E8.86777
G1 X117.231 Y124.474 E8.88558
G1 X116.335 Y124.886 E8.91838
G1 X115.744 Y125.124 E8.93957
G1 X114.8 Y125.451 E8.9728
G1 X114.298 Y125.598 E8.99019
G1 X113.367 Y125.824 E9.02206
G1 X112.751 Y125.943 E9.04292
G1 X111.756 Y126.085 E9.07635
G1 X111.205 Y126.136 E9.09476
G1 X110.212 Y126.179 E9.12782
G1 X109.63 Y126.176 E9.14717
G1 X108.661 Y126.125 E9.17945
G1 X108.085 Y126.067 E9.1987
G1 X107.093 Y125.917 E9.23207
G1 X106.522 Y125.802 E9.25144
G1 X105.597 Y125.57 E9.28316
G1 X105.042 Y125.403 E9.30244
G1 X104.096 Y125.067 E9.33583
G1 X103.591 Y124.859 E9.354
G1 X102.685 Y124.433 E9.38729
G1 X102.14 Y124.143 E9.40783
G1 X101.305 Y123.646 E9.44015
G1 X100.806 Y123.316 E9.46004
G1 X100.022 Y122.743 E9.49234
G1 X99.637 Y122.432 E9.5088
G1 X98.905 Y121.78 E9.54141
G1 X98.441 Y121.325 E9.56302
G1 X97.753 Y120.579 E9.59677
G1 X97.404 Y120.161 E9.61489
G1 X96.804 Y119.366 E9.64801
G1 X96.46 Y118.861 E9.66834
G1 X95.968 Y118.063 E9.69952
G1 X95.707 Y117.592 E9.71743
G1 X95.257 Y116.674 E9.75143
G1 X95.01 Y116.099 E9.77225
G1 X94.661 Y115.162 E9.8055
G1 X94.504 Y114.668 E9.82274
G1 X94.264 Y113.772 E9.85359
G1 X94.111 Y113.077 E9.87726
G1 X93.93 Y111.966 E9.9147
G1 X93.886 Y111.543 E9.92885
G1 X93.856 Y111.209 E9.94
G1 X93.822 Y110.669 E9.958
G1 X93.815 Y110.477 E9.96439
G1 X93.809 Y109.932 E9.98251
G1 X93.814 Y109.638 E9.99229
G1 X93.841 Y109.06 E10.01154
G1 X93.863 Y108.762 E10.02148
G1 X93.901 Y108.353 E10.03514
G1 X93.958 Y107.855 E10.05181
G1 X94.047 Y107.245 E10.07232
G1 X94.084 Y107.035 E10.07941
G1 X94.147 Y106.706 E10.09055
G1 X94.192 Y106.492 E10.09782
G1 X94.34 Y105.883 E10.11867
G1 X94.405 Y105.647 E10.12681
G1 X94.503 Y105.313 E10.13839
G1 X94.568 Y105.105 E10.14563
G1 X94.784 Y104.484 E10.1675
G1 X94.991 Y103.946 E10.18668
G1 X95.385 Y103.054 E10.21911
G1 X95.664 Y102.495 E10.23989
G1 X96.15 Y101.629 E10.27292
G1 X96.433 Y101.178 E10.29063
G1 X96.986 Y100.383 E10.32284
G1 X97.358 Y99.899 E10.34314
G1 X98 Y99.143 E10.37613
G1 X98.368 Y98.75 E10.39403
G1 F1500 E3.89403
;MESH:spindle.stl
G0 F6000 X104.29 Y106.564
G0 X105.196 Y107.154
G0 X104.775 Y109.742
G0 X104.821 Y110.747
G0 X105.063 Y111.729
G0 X105.49 Y112.652
G0 X106.077 Y113.462
G0 X106.823 Y114.153
G0 X107.689 Y114.691
G0 X108.444 Y114.976
G0 X110.133 Y115.398
;TYPE:WALL-INNER
G1 F1500 E10.39403
G1 F1200 X109.607 Y115.384 E10.41154
G1 X109.084 Y115.321 E10.42906
G1 X108.573 Y115.208 E10.44646
G1 X108.082 Y115.049 E10.46363
G1 X107.605 Y114.841 E10.48094
G1 X107.15 Y114.588 E10.49825
G1 X106.723 Y114.292 E10.51553
G1 X106.317 Y113.952 E10.53315
G1 X105.95 Y113.576 E10.55062
G1 X105.628 Y113.175 E10.56773
G1 X105.343 Y112.739 E10.58505
G1 X105.099 Y112.275 E10.60249
G1 X104.905 Y111.795 E10.61971
G1 X104.753 Y111.289 E10.63728
G1 X104.652 Y110.772 E10.6548
G1 X104.604 Y110.249 E10.67227
G1 X104.604 Y109.734 E10.6894
G1 X104.651 Y109.233 E10.70613
G1 X104.749 Y108.729 E10.72321
G1 X104.904 Y108.208 E10.74129
G1 X105.101 Y107.722 E10.75873
G1 X105.345 Y107.257 E10.7762
G1 X105.628 Y106.825 E10.79338
G1 X105.95 Y106.424 E10.81048
G1 X106.317 Y106.048 E10.82796
G1 X106.723 Y105.708 E10.84557
G1 X107.15 Y105.412 E10.86285
G1 X107.605 Y105.159 E10.88017
G1 X108.082 Y104.951 E10.89747
G1 X108.573 Y104.792 E10.91464
G1 X109.084 Y104.679 E10.93205
G1 X109.607 Y104.616 E10.94957
G1 X110.133 Y104.602 E10.96707
G1 X110.649 Y104.64 E10.98428
G1 X111.154 Y104.726 E11.00131
G1 X111.67 Y104.867 E11.01911
G1 X112.149 Y105.048 E11.03614
G1 X112.625 Y105.283 E11.05379
G1 X113.06 Y105.554 E11.07084
G1 X113.484 Y105.878 E11.08859
G1 X113.856 Y106.224 E11.10548
G1 X114.208 Y106.621 E11.12313
G1 X114.514 Y107.044 E11.1405
G1 X114.775 Y107.487 E11.1576
G1 X114.996 Y107.96 E11.17496
G1 X115.177 Y108.48 E11.19327
G1 X115.294 Y108.953 E11.20948
G1 X115.369 Y109.473 E11.22696
G1 X115.395 Y110 E11.2445
G1 X115.369 Y110.527 E11.26205
G1 X115.294 Y111.044 E11.27943
G1 X115.172 Y111.537 E11.29632
G1 X115.003 Y112.024 E11.31347
G1 X114.775 Y112.515 E11.33147
G1 X114.514 Y112.956 E11.34852
G1 X114.208 Y113.379 E11.36588
G1 X113.856 Y113.776 E11.38353
G1 X113.484 Y114.122 E11.40042
G1 X113.06 Y114.446 E11.41817
G1 X112.625 Y114.717 E11.43522
G1 X112.149 Y114.952 E11.45288
G1 X111.67 Y115.133 E11.46991
G1 X111.154 Y115.274 E11.4877
G1 X110.649 Y115.36 E11.50474
