;FLAVOR:Marlin
;TIME:325
;Filament used: 0.130098m
;Layer height: 0.2
;MINX:93.025
;MINY:93.02
;MINZ:0.2
;MAXX:126.99
;MAXY:126.973
;MAXZ:7.4
;Generated with Cura_SteamEngine master
M140 S60
M105
M190 S60
M104 S200
M105
M109 S200
M82 ;absolute extrusion mode
; Ender 3 Custom Start G-code
G92 E0 ; Reset Extruder
G28 ; Home all axes
G1 Z2.0 F3000 ; Move Z Axis up little to prevent scratching of Heat Bed
G1 X0.1 Y20 Z0.3 F5000.0 ; Move to start position
G1 X0.1 Y200.0 Z0.3 F1500.0 E15 ; Draw the first line
G1 X0.4 Y200.0 Z0.3 F5000.0 ; Move to side a little
G1 X0.4 Y20 Z0.3 F1500.0 E30 ; Draw the second line
G92 E0 ; Reset Extruder
G1 Z2.0 F3000 ; Move Z Axis up little to prevent scratching of Heat Bed
G1 X5 Y20 Z0.3 F5000.0 ; Move over to prevent blob squish
G92 E0
G92 E0
G1 F1500 E-6.5
;LAYER_COUNT:37
;LAYER:0
M107
G0 F6000 X98.022 Y97.966 Z0.2
;TYPE:SKIRT
G1 F1500 E0
G1 F1200 X98.396 Y97.605 E0.01729
G1 X99.183 Y96.915 E0.0521
G1 X99.664 Y96.532 E0.07255
G1 X100.529 Y95.909 E0.10801
G1 X101.013 Y95.595 E0.12719
G1 X101.925 Y95.064 E0.16229
G1 X102.4 Y94.817 E0.1801
G1 X103.366 Y94.372 E0.21548
G1 X103.957 Y94.134 E0.23667
G1 X104.975 Y93.781 E0.2725
G1 X105.477 Y93.634 E0.2899
G1 X106.482 Y93.391 E0.32429
G1 X107.098 Y93.272 E0.34516
G1 X108.176 Y93.118 E0.38138
G1 X108.741 Y93.066 E0.40025
G1 X109.786 Y93.02 E0.43504
G1 X110.379 Y93.022 E0.45476
G1 X111.007 Y93.042 E0.47566
G1 X111.238 Y93.056 E0.48336
G1 X112.07 Y93.138 E0.51116
G1 X112.332 Y93.174 E0.51996
G1 X113.005 Y93.288 E0.54266
G1 X113.646 Y93.417 E0.56441
G1 X114.639 Y93.665 E0.59845
G1 X115.182 Y93.828 E0.61731
G1 X116.208 Y94.193 E0.65353
G1 X116.713 Y94.401 E0.67169
G1 X117.692 Y94.862 E0.70768
G1 X118.235 Y95.151 E0.72814
G1 X119.131 Y95.683 E0.7628
G1 X119.632 Y96.014 E0.78277
G1 X120.478 Y96.633 E0.81764
G1 X120.862 Y96.943 E0.83405
G1 X121.654 Y97.648 E0.86932
G1 X122.118 Y98.103 E0.89093
G1 X122.858 Y98.905 E0.92723
G1 X123.208 Y99.324 E0.94539
G1 X123.86 Y100.187 E0.98136
G1 X124.203 Y100.691 E1.00164
G1 X124.727 Y101.541 E1.03485
G1 X124.989 Y102.013 E1.05281
G1 X125.479 Y103.013 E1.08984
G1 X125.725 Y103.586 E1.11058
G1 X126.098 Y104.586 E1.14608
G1 X126.256 Y105.082 E1.1634
G1 X126.515 Y106.043 E1.1965
G1 X126.666 Y106.725 E1.21973
G1 X126.861 Y107.906 E1.25954
G1 X126.89 Y108.171 E1.26841
G1 X126.911 Y108.384 E1.27553
G1 X126.941 Y108.718 E1.28668
G1 X126.978 Y109.303 E1.30618
G1 X126.985 Y109.496 E1.3126
G1 X126.99 Y110.085 E1.33219
G1 X126.985 Y110.375 E1.34184
G1 X126.958 Y110.984 E1.36212
G1 X126.936 Y111.286 E1.37219
G1 X126.894 Y111.736 E1.38722
G1 X126.838 Y112.226 E1.40362
G1 X126.745 Y112.871 E1.4253
G1 X126.709 Y113.077 E1.43225
G1 X126.646 Y113.407 E1.44343
G1 X126.601 Y113.625 E1.45083
G1 X126.435 Y114.314 E1.4744
G1 X126.368 Y114.558 E1.48282
G1 X126.26 Y114.926 E1.49557
G1 X126.195 Y115.134 E1.50282
G1 X125.962 Y115.803 E1.52638
G1 X125.755 Y116.341 E1.54556
G1 X125.331 Y117.303 E1.58052
G1 X125.052 Y117.862 E1.6013
G1 X124.528 Y118.797 E1.63695
G1 X124.245 Y119.248 E1.65466
G1 X123.649 Y120.104 E1.68935
G1 X123.277 Y120.588 E1.70966
G1 X122.584 Y121.404 E1.74526
G1 X122.216 Y121.797 E1.76317
G1 X121.443 Y122.545 E1.79895
G1 X120.944 Y122.983 E1.82103
G1 X120.113 Y123.645 E1.85637
G1 X119.71 Y123.935 E1.87288
G1 X118.838 Y124.501 E1.90746
G1 X118.337 Y124.794 E1.92676
G1 X117.371 Y125.297 E1.96299
G1 X116.8 Y125.559 E1.98388
G1 X115.813 Y125.955 E2.01925
G1 X115.302 Y126.132 E2.03724
G1 X114.296 Y126.428 E2.07212
G1 X113.715 Y126.569 E2.092
G1 X112.655 Y126.772 E2.1279
G1 X112.094 Y126.851 E2.14674
G1 X111.047 Y126.947 E2.18171
G1 X110.46 Y126.973 E2.20125
G1 X109.395 Y126.969 E2.23668
G1 X108.825 Y126.939 E2.25566
G1 X107.797 Y126.836 E2.29002
G1 X107.248 Y126.755 E2.30848
G1 X106.158 Y126.537 E2.34545
G1 X105.541 Y126.381 E2.36662
G1 X104.564 Y126.086 E2.40056
G1 X104.07 Y125.911 E2.41799
G1 X103.054 Y125.493 E2.45454
G1 X102.498 Y125.231 E2.47498
G1 X101.58 Y124.744 E2.50954
G1 X101.104 Y124.462 E2.52794
G1 X100.219 Y123.878 E2.56321
G1 X99.758 Y123.541 E2.5822
G1 X98.906 Y122.85 E2.61869
G1 X98.441 Y122.433 E2.63946
G1 X97.696 Y121.698 E2.67427
G1 X97.344 Y121.316 E2.69155
G1 X96.669 Y120.509 E2.72654
G1 X96.286 Y120.004 E2.74762
G1 X95.682 Y119.122 E2.78317
G1 X95.386 Y118.641 E2.80196
G1 X94.876 Y117.715 E2.83712
G1 X94.61 Y117.172 E2.85723
G1 X94.278 Y116.427 E2.88436
G1 X94.195 Y116.22 E2.89178
G1 X94.006 Y115.713 E2.90977
G1 X93.867 Y115.31 E2.92395
G1 X93.668 Y114.67 E2.94624
G1 X93.616 Y114.483 E2.9527
G1 X93.5 Y114.029 E2.96828
G1 X93.453 Y113.827 E2.97518
G1 X93.316 Y113.137 E2.99858
G1 X93.207 Y112.481 E3.0207
G1 X93.083 Y111.419 E3.05626
G1 X93.046 Y110.871 E3.07453
G1 X93.025 Y109.823 E3.10939
G1 X93.042 Y109.214 E3.12966
G1 X93.124 Y108.146 E3.16528
G1 X93.189 Y107.63 E3.18258
G1 X93.372 Y106.587 E3.2178
G1 X93.518 Y105.939 E3.23989
G1 X93.792 Y104.943 E3.27425
G1 X93.887 Y104.652 E3.28443
G1 X94.026 Y104.253 E3.29848
G1 X94.169 Y103.866 E3.31221
G1 X94.443 Y103.193 E3.33638
G1 X94.577 Y102.893 E3.3473
G1 X94.755 Y102.515 E3.3612
G1 X95.046 Y101.958 E3.3821
G1 X95.337 Y101.439 E3.40189
G1 X95.91 Y100.526 E3.43774
G1 X96.219 Y100.083 E3.45571
G1 X96.853 Y99.259 E3.49029
G1 X97.273 Y98.764 E3.51188
G1 X98.022 Y97.966 E3.54828
G0 F6000 X98.299 Y98.254
G1 F1200 X98.673 Y97.893 E3.56557
G1 X99.432 Y97.228 E3.59913
G1 X99.913 Y96.845 E3.61958
G1 X100.747 Y96.244 E3.65377
G1 X101.231 Y95.93 E3.67296
G1 X102.11 Y95.419 E3.70678
G1 X102.585 Y95.172 E3.72459
G1 X103.515 Y94.743 E3.75865
G1 X104.106 Y94.505 E3.77984
G1 X105.087 Y94.165 E3.81437
G1 X105.589 Y94.018 E3.83177
G1 X106.557 Y93.783 E3.8649
G1 X107.173 Y93.664 E3.88577
G1 X108.213 Y93.517 E3.9207
G1 X108.778 Y93.465 E3.93958
G1 X109.785 Y93.42 E3.9731
G1 X110.378 Y93.422 E3.99283
G1 X110.983 Y93.441 E4.01296
G1 X111.214 Y93.455 E4.02065
G1 X112.016 Y93.535 E4.04746
G1 X112.278 Y93.571 E4.05626
G1 X112.926 Y93.68 E4.07811
G1 X113.567 Y93.809 E4.09986
G1 X114.524 Y94.049 E4.13268
G1 X115.067 Y94.212 E4.15153
G1 X116.056 Y94.563 E4.18644
G1 X116.561 Y94.771 E4.2046
G1 X117.504 Y95.215 E4.23927
G1 X118.047 Y95.504 E4.25973
G1 X118.91 Y96.017 E4.29312
G1 X119.411 Y96.348 E4.31309
G1 X120.226 Y96.944 E4.34667
G1 X120.61 Y97.254 E4.36309
G1 X121.374 Y97.934 E4.39711
G1 X121.838 Y98.389 E4.41872
G1 X122.551 Y99.162 E4.4537
G1 X122.901 Y99.581 E4.47186
G1 X123.529 Y100.412 E4.5065
G1 X123.872 Y100.916 E4.52678
G1 X124.377 Y101.736 E4.55881
G1 X124.639 Y102.208 E4.57676
G1 X125.111 Y103.17 E4.6124
G1 X125.357 Y103.743 E4.63314
G1 X125.717 Y104.708 E4.6674
G1 X125.875 Y105.204 E4.68471
G1 X126.124 Y106.13 E4.71661
G1 X126.275 Y106.812 E4.73984
G1 X126.463 Y107.95 E4.7782
G1 X126.492 Y108.215 E4.78707
G1 X126.542 Y108.754 E4.80507
G1 X126.578 Y109.318 E4.82387
G1 X126.585 Y109.511 E4.83029
G1 X126.59 Y110.078 E4.84915
G1 X126.585 Y110.368 E4.8588
G1 X126.559 Y110.955 E4.87834
G1 X126.537 Y111.257 E4.88841
G1 X126.496 Y111.691 E4.90291
G1 X126.44 Y112.181 E4.91932
G1 X126.351 Y112.802 E4.94018
G1 X126.315 Y113.008 E4.94714
G1 X126.254 Y113.326 E4.95791
G1 X126.209 Y113.544 E4.96531
G1 X126.05 Y114.208 E4.98802
G1 X125.983 Y114.452 E4.99643
G1 X125.878 Y114.807 E5.00875
G1 X125.813 Y115.015 E5.016
G1 X125.589 Y115.659 E5.03867
G1 X125.382 Y116.197 E5.05785
G1 X124.973 Y117.125 E5.09158
G1 X124.694 Y117.684 E5.11236
G1 X124.189 Y118.584 E5.14668
G1 X123.906 Y119.035 E5.16439
G1 X123.331 Y119.861 E5.19786
G1 X122.959 Y120.345 E5.21817
G1 X122.292 Y121.13 E5.25243
G1 X121.924 Y121.523 E5.27034
G1 X121.18 Y122.244 E5.30479
G1 X120.681 Y122.682 E5.32688
G1 X119.879 Y123.32 E5.36096
G1 X119.476 Y123.61 E5.37748
G1 X118.636 Y124.156 E5.4108
G1 X118.135 Y124.449 E5.4301
G1 X117.205 Y124.933 E5.46497
G1 X116.634 Y125.195 E5.48587
G1 X115.682 Y125.577 E5.51999
G1 X115.171 Y125.754 E5.53797
G1 X114.202 Y126.039 E5.57157
G1 X113.621 Y126.18 E5.59145
G1 X112.599 Y126.375 E5.62606
G1 X112.038 Y126.454 E5.6449
G1 X111.029 Y126.548 E5.6786
G1 X110.442 Y126.574 E5.69815
G1 X109.416 Y126.569 E5.73227
G1 X108.846 Y126.539 E5.75126
G1 X107.856 Y126.44 E5.78435
G1 X107.307 Y126.359 E5.80281
G1 X106.256 Y126.15 E5.83845
G1 X105.639 Y125.994 E5.85961
G1 X104.697 Y125.709 E5.89235
G1 X104.203 Y125.534 E5.90978
G1 X103.225 Y125.131 E5.94496
G1 X102.669 Y124.869 E5.9654
G1 X101.784 Y124.4 E5.99872
G1 X101.308 Y124.118 E6.01712
G1 X100.455 Y123.555 E6.05111
G1 X99.994 Y123.218 E6.07011
G1 X99.173 Y122.553 E6.10525
G1 X98.708 Y122.136 E6.12602
G1 X97.99 Y121.427 E6.15958
G1 X97.638 Y121.045 E6.17686
G1 X96.987 Y120.267 E6.2106
G1 X96.604 Y119.762 E6.23168
G1 X96.022 Y118.912 E6.26594
G1 X95.726 Y118.431 E6.28473
G1 X95.235 Y117.539 E6.31859
G1 X94.969 Y116.996 E6.3387
G1 X94.649 Y116.278 E6.36485
G1 X94.566 Y116.071 E6.37227
G1 X94.384 Y115.582 E6.38962
G1 X94.245 Y115.179 E6.4038
G1 X94.053 Y114.563 E6.42526
G1 X94.001 Y114.376 E6.43172
G1 X93.89 Y113.938 E6.44674
G1 X93.843 Y113.736 E6.45364
G1 X93.71 Y113.071 E6.4762
G1 X93.601 Y112.415 E6.49832
G1 X93.482 Y111.392 E6.53257
G1 X93.445 Y110.844 E6.55084
G1 X93.425 Y109.834 E6.58444
G1 X93.442 Y109.225 E6.6047
G1 X93.521 Y108.196 E6.63903
G1 X93.586 Y107.68 E6.65632
G1 X93.762 Y106.675 E6.69026
G1 X93.908 Y106.027 E6.71235
G1 X94.172 Y105.067 E6.74547
G1 X94.267 Y104.776 E6.75565
G1 X94.401 Y104.392 E6.76918
G1 X94.544 Y104.005 E6.7829
G1 X94.809 Y103.356 E6.80621
G1 X94.943 Y103.056 E6.81714
G1 X95.114 Y102.691 E6.83055
G1 X95.395 Y102.154 E6.85071
G1 X95.686 Y101.635 E6.8705
G1 X96.238 Y100.755 E6.90505
G1 X96.547 Y100.312 E6.92301
G1 X97.158 Y99.518 E6.95633
G1 X97.578 Y99.023 E6.97793
G1 X98.299 Y98.254 E7.01299
G0 F6000 X98.577 Y98.542
G1 F1200 X98.951 Y98.181 E7.03028
G1 X99.681 Y97.541 E7.06257
G1 X100.162 Y97.158 E7.08302
G1 X100.965 Y96.58 E7.11592
G1 X101.449 Y96.266 E7.13511
G1 X102.294 Y95.773 E7.16765
G1 X102.769 Y95.526 E7.18546
G1 X103.665 Y95.114 E7.21826
G1 X104.256 Y94.876 E7.23945
G1 X105.2 Y94.549 E7.27268
G1 X105.702 Y94.402 E7.29007
G1 X106.633 Y94.176 E7.32194
G1 X107.249 Y94.057 E7.34281
G1 X108.249 Y93.915 E7.3764
G1 X108.814 Y93.863 E7.39527
G1 X109.783 Y93.82 E7.42753
G1 X110.376 Y93.822 E7.44725
G1 X110.959 Y93.841 E7.46666
G1 X111.19 Y93.855 E7.47435
G1 X111.961 Y93.931 E7.50012
G1 X112.223 Y93.967 E7.50892
G1 X112.847 Y94.072 E7.52996
G1 X113.488 Y94.201 E7.55171
G1 X114.409 Y94.432 E7.58329
G1 X114.952 Y94.595 E7.60215
G1 X115.904 Y94.933 E7.63575
G1 X116.409 Y95.141 E7.65391
G1 X117.316 Y95.568 E7.68726
G1 X117.859 Y95.857 E7.70772
G1 X118.69 Y96.351 E7.73987
G1 X119.191 Y96.682 E7.75984
G1 X119.975 Y97.255 E7.79214
G1 X120.359 Y97.565 E7.80855
G1 X121.094 Y98.219 E7.84128
G1 X121.558 Y98.674 E7.86289
G1 X122.244 Y99.418 E7.89655
G1 X122.594 Y99.837 E7.91471
G1 X123.198 Y100.637 E7.94805
G1 X123.541 Y101.141 E7.96832
G1 X124.027 Y101.93 E7.99915
G1 X124.289 Y102.402 E8.0171
G1 X124.744 Y103.328 E8.05142
G1 X124.99 Y103.901 E8.07216
G1 X125.336 Y104.829 E8.1051
G1 X125.494 Y105.325 E8.12241
G1 X125.734 Y106.216 E8.1531
G1 X125.885 Y106.898 E8.17634
G1 X126.065 Y107.993 E8.21324
G1 X126.114 Y108.456 E8.22873
G1 X126.144 Y108.79 E8.23988
G1 X126.178 Y109.332 E8.25795
G1 X126.185 Y109.525 E8.26437
G1 X126.19 Y110.071 E8.28253
G1 X126.185 Y110.361 E8.29218
G1 X126.16 Y110.926 E8.31099
G1 X126.138 Y111.228 E8.32106
G1 X126.099 Y111.645 E8.33499
G1 X126.043 Y112.135 E8.35139
G1 X125.957 Y112.733 E8.37149
G1 X125.921 Y112.939 E8.37844
G1 X125.862 Y113.245 E8.38881
G1 X125.817 Y113.463 E8.39621
G1 X125.664 Y114.102 E8.41806
G1 X125.597 Y114.346 E8.42648
G1 X125.497 Y114.687 E8.4383
G1 X125.432 Y114.895 E8.44555
G1 X125.216 Y115.516 E8.46742
G1 X125.009 Y116.054 E8.48659
G1 X124.615 Y116.946 E8.51902
G1 X124.336 Y117.505 E8.5398
G1 X123.85 Y118.371 E8.57283
G1 X123.567 Y118.822 E8.59054
G1 X123.014 Y119.617 E8.62275
G1 X122.642 Y120.101 E8.64305
G1 X122 Y120.857 E8.67604
G1 X121.632 Y121.25 E8.69395
G1 X120.916 Y121.944 E8.72711
G1 X120.417 Y122.382 E8.7492
G1 X119.646 Y122.995 E8.78196
G1 X119.243 Y123.285 E8.79847
G1 X118.434 Y123.811 E8.83057
G1 X117.933 Y124.104 E8.84987
G1 X117.038 Y124.57 E8.88343
G1 X116.467 Y124.832 E8.90433
G1 X115.551 Y125.199 E8.93715
G1 X115.04 Y125.376 E8.95513
G1 X114.108 Y125.65 E8.98744
G1 X113.527 Y125.791 E9.00733
G1 X112.543 Y125.979 E9.04065
G1 X111.982 Y126.058 E9.05949
G1 X111.011 Y126.148 E9.09193
G1 X110.424 Y126.174 E9.11147
G1 X109.437 Y126.17 E9.1443
G1 X108.867 Y126.14 E9.16328
G1 X107.914 Y126.045 E9.19513
G1 X107.365 Y125.964 E9.21359
G1 X106.354 Y125.762 E9.24788
G1 X105.737 Y125.606 E9.26905
G1 X104.831 Y125.332 E9.30053
G1 X104.337 Y125.157 E9.31796
G1 X103.395 Y124.769 E9.35185
G1 X102.839 Y124.507 E9.37229
G1 X101.988 Y124.056 E9.40432
G1 X101.512 Y123.774 E9.42273
G1 X100.691 Y123.232 E9.45545
G1 X100.23 Y122.895 E9.47444
G1 X99.44 Y122.255 E9.50825
G1 X98.975 Y121.838 E9.52903
G1 X98.284 Y121.156 E9.56132
G1 X97.932 Y120.774 E9.5786
G1 X97.306 Y120.026 E9.61104
G1 X96.923 Y119.521 E9.63212
G1 X96.363 Y118.703 E9.66509
G1 X96.067 Y118.222 E9.68388
G1 X95.594 Y117.363 E9.71649
G1 X95.328 Y116.82 E9.7366
G1 X95.021 Y116.129 E9.76175
G1 X94.938 Y115.922 E9.76917
G1 X94.762 Y115.452 E9.78586
G1 X94.623 Y115.049 E9.80004
G1 X94.439 Y114.456 E9.82069
G1 X94.387 Y114.269 E9.82715
G1 X94.279 Y113.848 E9.8416
G1 X94.232 Y113.646 E9.8485
G1 X94.105 Y113.006 E9.8702
G1 X93.996 Y112.35 E9.89232
G1 X93.881 Y111.365 E9.9253
G1 X93.844 Y110.817 E9.94357
G1 X93.825 Y109.845 E9.97591
G1 X93.842 Y109.236 E9.99617
G1 X93.918 Y108.246 E10.02919
G1 X93.983 Y107.73 E10.04649
G1 X94.152 Y106.763 E10.07914
G1 X94.298 Y106.115 E10.10123
G1 X94.553 Y105.192 E10.13308
G1 X94.648 Y104.901 E10.14327
G1 X94.776 Y104.531 E10.15629
G1 X94.919 Y104.144 E10.17001
G1 X95.174 Y103.519 E10.19246
G1 X95.308 Y103.219 E10.20339
G1 X95.474 Y102.866 E10.21636
G1 X95.744 Y102.35 E10.23573
G1 X96.035 Y101.831 E10.25552
G1 X96.566 Y100.984 E10.28877
G1 X96.875 Y100.541 E10.30674
G1 X97.463 Y99.777 E10.3388
G1 X97.883 Y99.282 E10.36039
G1 X98.577 Y98.542 E10.39414
G1 F1500 E3.89414
;MESH:spindle_plug_logo.stl
G0 F6000 X104.828 Y105.802
G0 X105.64 Y106.522
G0 X104.973 Y107.84
G0 X104.678 Y108.829
G0 X104.576 Y109.848
G0 X104.67 Y110.877
G0 X104.962 Y111.879
G0 X105.553 Y112.966
G0 X106.329 Y113.844
G0 X107.275 Y114.537
G0 X108.346 Y115.01
G0 X109.228 Y115.196
G0 X111.218 Y115.259
;TYPE:WALL-INNER
G1 F1500 E10.39414
G1 F1200 X111.416 Y115.211 E10.40091
G1 X111.753 Y115.106 E10.41265
G1 X111.924 Y115.04 E10.41875
G1 X112.081 Y114.979 E10.42435
G1 X112.388 Y114.838 E10.43559
G1 X112.402 Y114.831 E10.43611
G1 X112.713 Y114.662 E10.44788
G1 X112.844 Y114.58 E10.45302
G1 X113.014 Y114.473 E10.4597
G1 X113.272 Y114.286 E10.4703
G1 X113.306 Y114.261 E10.4717
G1 X113.585 Y114.03 E10.48375
G1 X113.68 Y113.94 E10.4881
G1 X113.851 Y113.779 E10.49592
G1 X114.039 Y113.576 E10.50512
G1 X114.156 Y113.45 E10.51084
G1 X114.375 Y113.173 E10.52258
G1 X114.396 Y113.147 E10.52369
G1 X114.378 Y113.175
G1 X114.158 Y113.45 E10.52378
G1 X114.05 Y113.585 E10.5239
G1 X113.856 Y113.783 E10.52416
G1 X113.691 Y113.951 E10.52437
G1 X113.59 Y114.035 E10.52451
G1 X113.313 Y114.268 E10.52473
G1 X113.28 Y114.296
G1 X113.018 Y114.477 E10.52497
G1 X112.853 Y114.592 E10.52517
G1 X112.717 Y114.668 E10.52535
G1 X112.408 Y114.84 E10.5256
G1 X112.394 Y114.848 E10.52565
G1 X112.083 Y114.983 E10.52591
G1 X111.929 Y115.05 E10.52599
G1 X111.754 Y115.106 E10.52612
G1 X111.422 Y115.214 E10.52621
G1 X111.218 Y115.259 E10.52631
G0 F6000 X111.009 Y115.306
G1 F1200 X110.918 Y115.326 E10.52941
G1 X110.831 Y115.336 E10.53232
G1 X110.917 Y115.322 E10.53234
G1 X111.009 Y115.306 E10.53235
G0 F6000 X110.006 Y115.313
G0 X110.016 Y115.014
;TYPE:WALL-OUTER
G1 F1200 X110.347 Y115 E10.54337
G1 X110.672 Y114.963 E10.55425
G1 X110.995 Y114.907 E10.56515
G1 X111.311 Y114.83 E10.57597
G1 X111.623 Y114.733 E10.58684
G1 X111.927 Y114.615 E10.59768
G1 X112.225 Y114.478 E10.60859
G1 X112.513 Y114.321 E10.6195
G1 X112.793 Y114.145 E10.6305
G1 X113.064 Y113.949 E10.64163
G1 X113.323 Y113.734 E10.65282
G1 X113.57 Y113.501 E10.66412
G1 X113.856 Y113.193 E10.6781
