;FLAVOR:Marlin
;TIME:517
;Filament used: 0.225945m
;Layer height: 0.2
;MINX:83.019
;MINY:82.026
;MINZ:0.2
;MAXX:136.986
;MAXY:137.979
;MAXZ:3
;Generated with Cura_SteamEngine master
M140 S60
M105
M190 S60
M104 S200
M105
M109 S200
M82 ;absolute extrusion mode
; Ender 3 Custom Start G-code
G92 E0 ; Reset Extruder
G28 ; Home all axes
G1 Z2.0 F3000 ; Move Z Axis up little to prevent scratching of Heat Bed
G1 X0.1 Y20 Z0.3 F5000.0 ; Move to start position
G1 X0.1 Y200.0 Z0.3 F1500.0 E15 ; Draw the first line
G1 X0.4 Y200.0 Z0.3 F5000.0 ; Move to side a little
G1 X0.4 Y20 Z0.3 F1500.0 E30 ; Draw the second line
G92 E0 ; Reset Extruder
G1 Z2.0 F3000 ; Move Z Axis up little to prevent scratching of Heat Bed
G1 X5 Y20 Z0.3 F5000.0 ; Move over to prevent blob squish
G92 E0
G92 E0
G1 F1500 E-6.5
;LAYER_COUNT:15
;LAYER:0
M107
G0 F6000 X87.53 Y88.872 Z0.2
;TYPE:SKIRT
G1 F1500 E0
G1 F1200 X88.247 Y88.177 E0.03321
G1 X88.579 Y87.883 E0.04796
G1 X89.44 Y87.195 E0.08462
G1 X89.877 Y86.88 E0.10254
G1 X90.773 Y86.298 E0.13807
G1 X91.149 Y86.079 E0.15254
G1 X92.11 Y85.581 E0.18854
G1 X92.556 Y85.377 E0.20486
G1 X93.534 Y84.985 E0.2399
G1 X94.031 Y84.813 E0.25739
G1 X95.035 Y84.518 E0.2922
G1 X95.542 Y84.395 E0.30955
G1 X96.655 Y84.185 E0.34722
G1 X96.979 Y84.141 E0.3581
G1 X97.995 Y84.051 E0.39202
G1 X98.682 Y84.022 E0.41489
G1 X98.904 Y84.015 E0.42228
G1 X101.631 Y83.955 E0.513
G1 X104.187 Y83.825 E0.59812
G1 X106.646 Y83.629 E0.68017
G1 X109.171 Y83.357 E0.76464
G1 X111.694 Y83.012 E0.84933
G1 X114.162 Y82.604 E0.93253
G1 X115.304 Y82.384 E0.97121
G1 X115.611 Y82.329 E0.98159
G1 X116.013 Y82.265 E0.99513
G1 X116.799 Y82.154 E1.02153
G1 X117.85 Y82.057 E1.05663
G1 X118.55 Y82.026 E1.07994
G1 X119.615 Y82.03 E1.11536
G1 X120.28 Y82.065 E1.13751
G1 X121.33 Y82.171 E1.17261
G1 X121.985 Y82.269 E1.19464
G1 X123.043 Y82.481 E1.23053
G1 X123.718 Y82.651 E1.25368
G1 X124.713 Y82.952 E1.28825
G1 X125.341 Y83.175 E1.31042
G1 X126.346 Y83.589 E1.34657
G1 X126.947 Y83.872 E1.36866
G1 X127.863 Y84.357 E1.40314
G1 X128.441 Y84.699 E1.42548
G1 X129.337 Y85.291 E1.46119
G1 X129.912 Y85.712 E1.4849
G1 X130.763 Y86.402 E1.52134
G1 X131.233 Y86.824 E1.54234
G1 X131.968 Y87.549 E1.57668
G1 X132.434 Y88.054 E1.59954
G1 X133.108 Y88.858 E1.63443
G1 X133.526 Y89.408 E1.65741
G1 X134.137 Y90.301 E1.6934
G1 X134.487 Y90.87 E1.71562
G1 X135.006 Y91.813 E1.75142
G1 X135.297 Y92.41 E1.77351
G1 X135.703 Y93.352 E1.80762
G1 X135.94 Y93.981 E1.82998
G1 X136.268 Y95.001 E1.86562
G1 X136.455 Y95.696 E1.88955
G1 X136.628 Y96.44 E1.91496
G1 X136.685 Y96.731 E1.92482
G1 X136.793 Y97.388 E1.94697
G1 X136.857 Y97.867 E1.96304
G1 X136.935 Y98.678 E1.99014
G1 X136.959 Y99.101 E2.00423
G1 X136.977 Y99.515 E2.01801
G1 X136.986 Y100.118 E2.03807
G1 X136.985 Y100.206 E2.041
G1 X136.962 Y100.805 E2.06094
G1 X136.868 Y102.231 E2.10847
G1 X136.851 Y102.456 E2.11597
G1 X136.752 Y103.6 E2.15416
G1 X136.607 Y106.124 E2.23825
G1 X136.534 Y108.621 E2.32134
G1 X136.531 Y111.145 E2.40529
G1 X136.6 Y113.677 E2.48953
G1 X136.737 Y116.153 E2.57201
G1 X136.817 Y117.09 E2.60329
G1 X136.935 Y118.648 E2.65526
G1 X136.959 Y119.101 E2.67034
G1 X136.977 Y119.515 E2.68413
G1 X136.986 Y120.118 E2.70418
G1 X136.985 Y120.206 E2.70711
G1 X136.962 Y120.808 E2.72715
G1 X136.915 Y121.518 E2.75082
G1 X136.848 Y122.204 E2.77374
G1 X136.83 Y122.343 E2.7784
G1 X136.791 Y122.616 E2.78757
G1 X136.744 Y122.919 E2.79777
G1 X136.596 Y123.691 E2.82392
G1 X136.455 Y124.306 E2.8449
G1 X136.184 Y125.28 E2.87853
G1 X135.962 Y125.956 E2.90219
G1 X135.579 Y126.955 E2.93778
G1 X135.322 Y127.539 E2.959
G1 X134.847 Y128.49 E2.99436
G1 X134.507 Y129.096 E3.01747
G1 X133.932 Y130.013 E3.05347
G1 X133.552 Y130.557 E3.07554
G1 X132.924 Y131.371 E3.10973
G1 X132.484 Y131.89 E3.13236
G1 X131.736 Y132.689 E3.16877
G1 X131.238 Y133.17 E3.19179
G1 X130.449 Y133.863 E3.22672
G1 X129.948 Y134.262 E3.24802
G1 X129.092 Y134.878 E3.2831
G1 X128.5 Y135.263 E3.30659
G1 X127.579 Y135.801 E3.34206
G1 X127.008 Y136.098 E3.36347
G1 X126.038 Y136.544 E3.39898
G1 X125.367 Y136.814 E3.42304
G1 X124.346 Y137.167 E3.45897
G1 X123.754 Y137.34 E3.47948
G1 X122.745 Y137.584 E3.51401
G1 X122.053 Y137.717 E3.53745
G1 X121.002 Y137.867 E3.57276
G1 X120.318 Y137.931 E3.59561
G1 X119.259 Y137.979 E3.63086
G1 X118.616 Y137.977 E3.65225
G1 X117.536 Y137.92 E3.68822
G1 X116.829 Y137.848 E3.71186
G1 X115.779 Y137.69 E3.74717
G1 X115.121 Y137.558 E3.7695
G1 X114.764 Y137.48 E3.78165
G1 X113.688 Y137.227 E3.81841
G1 X111.169 Y136.67 E3.90422
G1 X108.663 Y136.19 E3.98908
G1 X106.203 Y135.791 E4.07197
G1 X103.693 Y135.457 E4.15619
G1 X101.169 Y135.193 E4.2406
G1 X99.076 Y135.029 E4.31043
G1 X98.311 Y134.978 E4.33593
G1 X97.914 Y134.944 E4.34918
G1 X97.242 Y134.875 E4.37165
G1 X96.204 Y134.718 E4.40656
G1 X95.785 Y134.634 E4.42078
G1 X94.585 Y134.323 E4.46201
G1 X94.289 Y134.228 E4.47235
G1 X93.443 Y133.917 E4.50233
G1 X93.059 Y133.758 E4.51615
G1 X92.093 Y133.302 E4.55168
G1 X91.851 Y133.173 E4.5608
G1 X90.928 Y132.622 E4.59655
G1 X90.518 Y132.349 E4.61294
G1 X89.668 Y131.722 E4.64807
G1 X89.393 Y131.498 E4.65986
G1 X88.642 Y130.826 E4.69338
G1 X88.395 Y130.584 E4.70488
G1 X87.645 Y129.771 E4.74167
G1 X87.354 Y129.422 E4.75679
G1 X86.713 Y128.575 E4.79212
G1 X86.533 Y128.311 E4.80274
G1 X85.992 Y127.431 E4.8371
G1 X85.775 Y127.038 E4.85203
G1 X85.302 Y126.072 E4.88781
G1 X85.125 Y125.661 E4.90269
G1 X84.686 Y124.452 E4.94547
G1 X84.596 Y124.15 E4.95595
G1 X84.384 Y123.323 E4.98435
G1 X84.322 Y123.035 E4.99414
G1 X84.149 Y121.987 E5.02947
G1 X84.096 Y121.53 E5.04477
G1 X84.025 Y120.49 E5.07945
G1 X84.015 Y120.006 E5.09555
G1 X84.024 Y119.298 E5.1191
G1 X84.033 Y119.101 E5.12566
G1 X84.106 Y116.538 E5.21094
G1 X84.106 Y114.013 E5.29492
G1 X84.036 Y111.49 E5.37887
G1 X83.892 Y108.948 E5.46355
G1 X83.685 Y106.508 E5.545
G1 X83.271 Y103.008 E5.66222
G1 X83.151 Y102.136 E5.69149
G1 X83.097 Y101.672 E5.70703
G1 X83.076 Y101.449 E5.71448
G1 X83.031 Y100.655 E5.74093
G1 X83.019 Y100.099 E5.75943
G1 X83.049 Y99.014 E5.79553
G1 X83.091 Y98.471 E5.81364
G1 X83.22 Y97.439 E5.84823
G1 X83.288 Y97.047 E5.86147
G1 X83.456 Y96.251 E5.88853
G1 X83.534 Y95.94 E5.89919
G1 X83.69 Y95.381 E5.91849
G1 X83.718 Y95.29 E5.92166
G1 X83.973 Y94.557 E5.94747
G1 X84.19 Y93.996 E5.96748
G1 X84.6 Y93.065 E6.00131
G1 X84.791 Y92.681 E6.01558
G1 X85.328 Y91.725 E6.05205
G1 X85.599 Y91.294 E6.06898
G1 X86.197 Y90.436 E6.10377
G1 X86.489 Y90.057 E6.11968
G1 X87.193 Y89.23 E6.1558
G1 X87.53 Y88.872 E6.17215
G0 F6000 X87.822 Y89.146
G1 F1200 X88.513 Y88.476 E6.20417
G1 X88.845 Y88.182 E6.21892
G1 X89.674 Y87.519 E6.25422
G1 X90.111 Y87.204 E6.27214
G1 X90.974 Y86.643 E6.30637
G1 X91.35 Y86.424 E6.32085
G1 X92.276 Y85.945 E6.35552
G1 X92.722 Y85.741 E6.37183
G1 X93.664 Y85.363 E6.40559
G1 X94.161 Y85.191 E6.42309
G1 X95.129 Y84.907 E6.45664
G1 X95.636 Y84.784 E6.47399
G1 X96.709 Y84.581 E6.51031
G1 X97.033 Y84.537 E6.52119
G1 X98.012 Y84.45 E6.55388
G1 X98.699 Y84.421 E6.57675
G1 X98.913 Y84.415 E6.58387
G1 X101.659 Y84.355 E6.67522
G1 X104.167 Y84.227 E6.75875
G1 X106.722 Y84.024 E6.84399
G1 X109.231 Y83.753 E6.92793
G1 X111.707 Y83.415 E7.01105
G1 X114.231 Y82.997 E7.09614
G1 X115.239 Y82.803 E7.13028
G1 X115.682 Y82.723 E7.14525
G1 X116.069 Y82.661 E7.15829
G1 X116.855 Y82.55 E7.18469
G1 X117.868 Y82.456 E7.21853
G1 X118.568 Y82.425 E7.24183
G1 X119.594 Y82.43 E7.27596
G1 X120.259 Y82.465 E7.29811
G1 X121.27 Y82.567 E7.3319
G1 X121.925 Y82.665 E7.35393
G1 X122.946 Y82.869 E7.38856
G1 X123.621 Y83.039 E7.41171
G1 X124.579 Y83.329 E7.445
G1 X125.207 Y83.552 E7.46717
G1 X126.176 Y83.951 E7.50202
G1 X126.777 Y84.234 E7.52412
G1 X127.659 Y84.701 E7.55731
G1 X128.237 Y85.043 E7.57965
G1 X129.101 Y85.613 E7.61408
G1 X129.676 Y86.034 E7.63778
G1 X130.496 Y86.7 E7.67291
G1 X130.966 Y87.122 E7.69392
G1 X131.674 Y87.821 E7.72701
G1 X132.14 Y88.326 E7.74987
G1 X132.789 Y89.1 E7.78346
G1 X133.207 Y89.65 E7.80644
G1 X133.797 Y90.51 E7.84113
G1 X134.147 Y91.079 E7.86335
G1 X134.646 Y91.989 E7.89787
G1 X134.937 Y92.586 E7.91996
G1 X135.328 Y93.493 E7.95281
G1 X135.565 Y94.122 E7.97516
G1 X135.882 Y95.105 E8.00952
G1 X136.069 Y95.8 E8.03345
G1 X136.235 Y96.516 E8.0579
G1 X136.292 Y96.807 E8.06776
G1 X136.397 Y97.441 E8.08914
G1 X136.461 Y97.92 E8.10521
G1 X136.536 Y98.702 E8.13134
G1 X136.559 Y99.119 E8.14523
G1 X136.577 Y99.533 E8.15901
G1 X136.586 Y100.113 E8.1783
G1 X136.585 Y100.201 E8.18123
G1 X136.563 Y100.778 E8.20044
G1 X136.469 Y102.204 E8.24797
G1 X136.452 Y102.421 E8.25521
G1 X136.355 Y103.542 E8.29263
G1 X136.207 Y106.125 E8.37868
G1 X136.134 Y108.609 E8.46134
G1 X136.131 Y111.155 E8.54602
G1 X136.2 Y113.675 E8.62986
G1 X136.34 Y116.208 E8.71424
G1 X136.418 Y117.12 E8.74469
G1 X136.536 Y118.678 E8.79665
G1 X136.559 Y119.119 E8.81134
G1 X136.577 Y119.533 E8.82512
G1 X136.586 Y120.113 E8.84442
G1 X136.585 Y120.201 E8.84734
G1 X136.563 Y120.781 E8.86665
G1 X136.516 Y121.491 E8.89031
G1 X136.451 Y122.152 E8.91241
G1 X136.396 Y122.555 E8.92593
G1 X136.349 Y122.858 E8.93613
G1 X136.206 Y123.602 E8.96133
G1 X136.065 Y124.217 E8.98232
G1 X135.804 Y125.155 E9.0147
G1 X135.582 Y125.831 E9.03836
G1 X135.213 Y126.794 E9.07266
G1 X134.956 Y127.378 E9.09389
G1 X134.498 Y128.295 E9.12798
G1 X134.158 Y128.901 E9.15109
G1 X133.604 Y129.784 E9.18576
G1 X133.224 Y130.328 E9.20783
G1 X132.619 Y131.113 E9.24079
G1 X132.179 Y131.632 E9.26343
G1 X131.458 Y132.401 E9.29849
G1 X130.96 Y132.882 E9.32151
G1 X130.2 Y133.55 E9.35517
G1 X129.699 Y133.949 E9.37647
G1 X128.874 Y134.543 E9.41028
G1 X128.282 Y134.928 E9.43377
G1 X127.394 Y135.446 E9.46796
G1 X126.823 Y135.743 E9.48937
G1 X125.889 Y136.173 E9.52357
G1 X125.218 Y136.443 E9.54763
G1 X124.234 Y136.783 E9.58225
G1 X123.642 Y136.956 E9.60277
G1 X122.67 Y137.191 E9.63603
G1 X121.978 Y137.324 E9.65946
G1 X120.964 Y137.469 E9.69353
G1 X120.28 Y137.533 E9.71638
G1 X119.26 Y137.579 E9.75034
G1 X118.617 Y137.577 E9.77173
G1 X117.576 Y137.522 E9.8064
G1 X116.869 Y137.45 E9.83004
G1 X115.858 Y137.298 E9.86404
G1 X115.2 Y137.166 E9.88636
G1 X114.856 Y137.091 E9.89807
G1 X113.802 Y136.843 E9.93408
G1 X111.225 Y136.274 E10.02186
G1 X108.731 Y135.796 E10.10632
G1 X106.249 Y135.393 E10.18995
G1 X103.752 Y135.061 E10.27374
G1 X101.244 Y134.798 E10.35761
G1 X99.052 Y134.626 E10.43074
G1 X98.337 Y134.579 E10.45457
G1 X97.955 Y134.547 E10.46732
G1 X97.283 Y134.478 E10.48979
G1 X96.282 Y134.326 E10.52346
G1 X95.863 Y134.242 E10.53768
G1 X94.708 Y133.942 E10.57737
G1 X94.412 Y133.847 E10.58771
G1 X93.596 Y133.548 E10.61661
G1 X93.212 Y133.389 E10.63044
G1 X92.281 Y132.949 E10.66469
G1 X92.039 Y132.82 E10.67381
G1 X91.15 Y132.289 E10.70825
G1 X90.74 Y132.016 E10.72463
G1 X89.921 Y131.412 E10.75848
G1 X89.646 Y131.188 E10.77027
G1 X88.922 Y130.541 E10.80257
G1 X88.675 Y130.299 E10.81407
G1 X87.952 Y129.515 E10.84954
G1 X87.661 Y129.166 E10.86466
G1 X87.044 Y128.349 E10.89871
G1 X86.864 Y128.085 E10.90933
G1 X86.343 Y127.238 E10.94241
G1 X86.126 Y126.845 E10.95734
G1 X85.669 Y125.914 E10.99183
G1 X85.492 Y125.503 E11.00672
G1 X85.07 Y124.337 E11.04796
G1 X84.98 Y124.035 E11.05844
G1 X84.775 Y123.239 E11.08578
G1 X84.713 Y122.951 E11.09558
G1 X84.547 Y121.941 E11.12962
G1 X84.494 Y121.484 E11.14493
G1 X84.425 Y120.482 E11.17833
G1 X84.415 Y119.998 E11.19443
G1 X84.423 Y119.315 E11.21715
G1 X84.431 Y119.134 E11.22318
G1 X84.506 Y116.514 E11.31035
G1 X84.506 Y114.002 E11.3939
G1 X84.435 Y111.455 E11.47865
G1 X84.294 Y108.961 E11.56173
G1 X84.081 Y106.458 E11.64528
G1 X83.667 Y102.955 E11.7626
G1 X83.547 Y102.081 E11.79195
G1 X83.496 Y101.635 E11.80688
G1 X83.475 Y101.412 E11.81433
G1 X83.43 Y100.647 E11.83982
G1 X83.418 Y100.091 E11.85831
G1 X83.448 Y99.045 E11.89312
G1 X83.49 Y98.502 E11.91123
G1 X83.614 Y97.507 E11.94458
G1 X83.682 Y97.115 E11.95781
G1 X83.844 Y96.348 E11.98389
G1 X83.922 Y96.037 E11.99455
G1 X84.073 Y95.499 E12.01314
G1 X84.101 Y95.408 E12.0163
G1 X84.346 Y94.701 E12.04119
G1 X84.563 Y94.14 E12.0612
G1 X84.958 Y93.243 E12.0938
G1 X85.149 Y92.859 E12.10806
G1 X85.666 Y91.938 E12.14319
G1 X85.937 Y91.507 E12.16012
G1 X86.514 Y90.68 E12.19366
G1 X86.806 Y90.301 E12.20957
G1 X87.485 Y89.504 E12.2444
G1 X87.822 Y89.146 E12.26075
G0 F6000 X88.113 Y89.421
G1 F1200 X88.778 Y88.776 E12.29156
G1 X89.11 Y88.482 E12.30631
G1 X89.908 Y87.844 E12.34029
G1 X90.345 Y87.529 E12.35821
G1 X91.175 Y86.989 E12.39115
G1 X91.551 Y86.77 E12.40562
G1 X92.442 Y86.308 E12.439
G1 X92.888 Y86.104 E12.45531
G1 X93.795 Y85.741 E12.48781
G1 X94.292 Y85.569 E12.5053
G1 X95.223 Y85.296 E12.53757
G1 X95.73 Y85.173 E12.55492
G1 X96.762 Y84.978 E12.58985
G1 X97.086 Y84.934 E12.60073
G1 X98.029 Y84.85 E12.63221
G1 X98.716 Y84.821 E12.65508
G1 X98.921 Y84.814 E12.66191
G1 X101.69 Y84.753 E12.75403
G1 X104.219 Y84.624 E12.83825
G1 X106.761 Y84.422 E12.92306
G1 X109.262 Y84.153 E13.00673
G1 X111.785 Y83.808 E13.09142
G1 X114.301 Y83.391 E13.17625
G1 X115.445 Y83.172 E13.21499
G1 X115.752 Y83.117 E13.22536
G1 X116.125 Y83.057 E13.23793
G1 X116.911 Y82.946 E13.26433
G1 X117.886 Y82.856 E13.2969
G1 X118.586 Y82.825 E13.3202
G1 X119.573 Y82.829 E13.35303
G1 X120.238 Y82.864 E13.37518
G1 X121.211 Y82.962 E13.4077
G1 X121.866 Y83.06 E13.42973
G1 X122.848 Y83.257 E13.46304
G1 X123.523 Y83.427 E13.4862
G1 X124.445 Y83.706 E13.51823
G1 X125.073 Y83.929 E13.5404
G1 X126.005 Y84.313 E13.57393
G1 X126.606 Y84.596 E13.59602
G1 X127.455 Y85.046 E13.62798
G1 X128.033 Y85.388 E13.65032
G1 X128.865 Y85.936 E13.68345
G1 X129.44 Y86.357 E13.70716
G1 X130.229 Y86.997 E13.74095
G1 X130.699 Y87.419 E13.76195
G1 X131.38 Y88.092 E13.7938
G1 X131.846 Y88.597 E13.81665
G1 X132.471 Y89.342 E13.849
G1 X132.889 Y89.892 E13.87197
G1 X133.456 Y90.72 E13.90535
G1 X133.806 Y91.289 E13.92757
G1 X134.287 Y92.164 E13.96078
G1 X134.578 Y92.761 E13.98287
G1 X134.954 Y93.634 E14.01448
G1 X135.191 Y94.263 E14.03684
G1 X135.496 Y95.209 E14.0699
G1 X135.683 Y95.904 E14.09384
G1 X135.843 Y96.593 E14.11736
G1 X135.9 Y96.884 E14.12723
G1 X136 Y97.494 E14.14779
G1 X136.064 Y97.973 E14.16386
G1 X136.136 Y98.725 E14.18899
G1 X136.159 Y99.136 E14.20268
G1 X136.177 Y99.55 E14.21646
G1 X136.186 Y100.109 E14.23505
G1 X136.185 Y100.197 E14.23798
G1 X136.164 Y100.752 E14.25645
G1 X136.07 Y102.178 E14.30399
G1 X136.054 Y102.387 E14.31096
G1 X135.953 Y103.554 E14.34992
G1 X135.809 Y106.055 E14.43324
G1 X135.734 Y108.631 E14.51895
G1 X135.731 Y111.165 E14.60323
G1 X135.8 Y113.707 E14.68781
G1 X135.938 Y116.198 E14.77079
G1 X136.019 Y117.151 E14.8026
G1 X136.137 Y118.709 E14.85457
G1 X136.159 Y119.136 E14.86879
G1 X136.177 Y119.55 E14.88257
G1 X136.186 Y120.109 E14.90117
G1 X136.185 Y120.197 E14.9041
G1 X136.164 Y120.755 E14.92267
G1 X136.117 Y121.465 E14.94633
G1 X136.055 Y122.101 E14.96759
G1 X136.037 Y122.24 E14.97225
G1 X136 Y122.493 E14.98075
G1 X135.953 Y122.796 E14.99095
G1 X135.816 Y123.512 E15.0152
G1 X135.675 Y124.127 E15.03618
G1 X135.424 Y125.03 E15.06736
G1 X135.202 Y125.706 E15.09102
G1 X134.847 Y126.632 E15.12401
G1 X134.59 Y127.216 E15.14523
G1 X134.15 Y128.099 E15.17804
G1 X133.81 Y128.705 E15.20115
G1 X133.276 Y129.555 E15.23454
G1 X132.896 Y130.099 E15.25661
G1 X132.314 Y130.854 E15.28832
G1 X131.874 Y131.373 E15.31095
G1 X131.18 Y132.114 E15.34471
G1 X130.682 Y132.595 E15.36774
G1 X129.95 Y133.237 E15.40013
G1 X129.449 Y133.636 E15.42143
G1 X128.656 Y134.208 E15.45395
G1 X128.064 Y134.593 E15.47744
G1 X127.21 Y135.091 E15.51032
G1 X126.639 Y135.388 E15.53172
G1 X125.74 Y135.802 E15.56464
G1 X125.069 Y136.072 E15.5887
G1 X124.122 Y136.4 E15.62203
G1 X123.53 Y136.573 E15.64255
G1 X122.594 Y136.799 E15.67457
G1 X121.902 Y136.932 E15.69801
G1 X120.927 Y137.071 E15.73077
G1 X120.243 Y137.135 E15.75362
G1 X119.261 Y137.179 E15.78631
G1 X118.618 Y137.177 E15.8077
G1 X117.617 Y137.125 E15.84103
G1 X116.91 Y137.053 E15.86467
G1 X115.937 Y136.906 E15.8974
G1 X115.279 Y136.774 E15.91972
G1 X114.947 Y136.702 E15.93102
G1 X113.832 Y136.439 E15.96912
G1 X111.308 Y135.882 E16.05509
G1 X108.805 Y135.403 E16.13985
G1 X106.329 Y135.001 E16.22328
G1 X103.775 Y134.661 E16.30898
G1 X101.281 Y134.4 E16.39238
G1 X99.104 Y134.229 E16.46501
