;FLAVOR:Marlin
;TIME:773
;Filament used: 0.276678m
;Layer height: 0.2
;MINX:94.125
;MINY:94.114
;MINZ:0.2
;MAXX:125.891
;MAXY:125.881
;MAXZ:18
;Generated with Cura_SteamEngine master
M140 S60
M105
M190 S60
M104 S200
M105
M109 S200
M82 ;absolute extrusion mode
; Ender 3 Custom Start G-code
G92 E0 ; Reset Extruder
G28 ; Home all axes
G1 Z2.0 F3000 ; Move Z Axis up little to prevent scratching of Heat Bed
G1 X0.1 Y20 Z0.3 F5000.0 ; Move to start position
G1 X0.1 Y200.0 Z0.3 F1500.0 E15 ; Draw the first line
G1 X0.4 Y200.0 Z0.3 F5000.0 ; Move to side a little
G1 X0.4 Y20 Z0.3 F1500.0 E30 ; Draw the second line
G92 E0 ; Reset Extruder
G1 Z2.0 F3000 ; Move Z Axis up little to prevent scratching of Heat Bed
G1 X5 Y20 Z0.3 F5000.0 ; Move over to prevent blob squish
G92 E0
G92 E0
G1 F1500 E-6.5
;LAYER_COUNT:90
;LAYER:0
M107
G0 F6000 X99.024 Y98.516 Z0.2
;TYPE:SKIRT
G1 F1500 E0
G1 F1200 X99.276 Y98.282 E0.01144
G1 X99.927 Y97.724 E0.03996
G1 X100.376 Y97.368 E0.05901
G1 X101.318 Y96.698 E0.09746
G1 X101.627 Y96.502 E0.10963
G1 X102.469 Y96.019 E0.14192
G1 X102.885 Y95.804 E0.15749
G1 X103.846 Y95.364 E0.19265
G1 X104.373 Y95.153 E0.21153
G1 X105.358 Y94.812 E0.2462
G1 X105.766 Y94.692 E0.26034
G1 X106.45 Y94.514 E0.28385
G1 X106.654 Y94.468 E0.2908
G1 X107.379 Y94.33 E0.31535
G1 X107.597 Y94.296 E0.32269
G1 X108.293 Y94.21 E0.34601
G1 X108.885 Y94.156 E0.36579
G1 X110.128 Y94.114 E0.40715
G1 X110.489 Y94.122 E0.41916
G1 X111.373 Y94.177 E0.44862
G1 X111.829 Y94.224 E0.46387
G1 X112.867 Y94.381 E0.49878
G1 X113.355 Y94.479 E0.51534
G1 X114.383 Y94.738 E0.5506
G1 X114.851 Y94.88 E0.56687
G1 X115.862 Y95.242 E0.60258
G1 X116.314 Y95.429 E0.61885
G1 X117.271 Y95.879 E0.65402
G1 X117.717 Y96.116 E0.67082
G1 X118.74 Y96.734 E0.71057
G1 X119.065 Y96.955 E0.72365
G1 X119.798 Y97.499 E0.75401
G1 X120.154 Y97.787 E0.76924
G1 X120.936 Y98.483 E0.80406
G1 X121.288 Y98.828 E0.82045
G1 X122.031 Y99.633 E0.85689
G1 X122.34 Y100.003 E0.87292
G1 X122.975 Y100.842 E0.90792
G1 X123.248 Y101.241 E0.924
G1 X123.81 Y102.154 E0.95965
G1 X124.081 Y102.647 E0.97836
G1 X124.608 Y103.747 E1.01893
G1 X124.729 Y104.04 E1.02948
G1 X125.041 Y104.895 E1.05975
G1 X125.191 Y105.365 E1.07616
G1 X125.451 Y106.329 E1.10937
G1 X125.58 Y106.911 E1.12919
G1 X125.776 Y108.098 E1.16921
G1 X125.814 Y108.463 E1.18141
G1 X125.841 Y108.761 E1.19137
G1 X125.877 Y109.311 E1.2097
G1 X125.883 Y109.46 E1.21466
G1 X125.891 Y110.067 E1.23485
G1 X125.888 Y110.268 E1.24153
G1 X125.858 Y110.932 E1.26364
G1 X125.822 Y111.409 E1.27955
G1 X125.693 Y112.452 E1.31451
G1 X125.591 Y113.043 E1.33445
G1 X125.312 Y114.248 E1.37559
G1 X125.222 Y114.557 E1.3863
G1 X124.924 Y115.44 E1.41729
G1 X124.74 Y115.917 E1.4343
G1 X124.325 Y116.858 E1.4685
G1 X124.119 Y117.272 E1.48388
G1 X123.595 Y118.208 E1.51956
G1 X123.324 Y118.641 E1.53655
G1 X122.714 Y119.519 E1.57211
G1 X122.375 Y119.959 E1.59058
G1 X121.57 Y120.89 E1.63152
G1 X121.339 Y121.129 E1.64257
G1 X120.678 Y121.758 E1.67292
G1 X120.315 Y122.076 E1.68897
G1 X119.486 Y122.735 E1.7242
G1 X119.056 Y123.044 E1.74181
G1 X118.171 Y123.618 E1.77689
G1 X117.769 Y123.852 E1.79236
G1 X116.804 Y124.351 E1.8285
G1 X116.309 Y124.577 E1.8466
G1 X115.197 Y125.014 E1.88633
G1 X114.901 Y125.112 E1.8967
G1 X114.028 Y125.361 E1.9269
G1 X113.486 Y125.492 E1.94544
G1 X112.417 Y125.695 E1.98164
G1 X111.928 Y125.763 E1.99806
G1 X110.886 Y125.858 E2.03286
G1 X110.398 Y125.879 E2.0491
G1 X109.516 Y125.881 E2.07844
G1 X109.301 Y125.873 E2.08559
G1 X108.739 Y125.838 E2.10432
G1 X108.581 Y125.824 E2.1096
G1 X107.892 Y125.741 E2.13268
G1 X107.394 Y125.665 E2.14944
G1 X106.36 Y125.456 E2.18452
G1 X105.877 Y125.334 E2.20109
G1 X104.884 Y125.033 E2.2356
G1 X104.482 Y124.89 E2.24979
G1 X103.473 Y124.473 E2.28611
G1 X102.971 Y124.236 E2.30457
G1 X102.053 Y123.748 E2.33915
G1 X101.652 Y123.51 E2.35466
G1 X100.951 Y123.058 E2.3824
G1 X100.777 Y122.936 E2.38947
G1 X100.28 Y122.566 E2.41008
G1 X100.138 Y122.454 E2.41609
G1 X99.586 Y121.989 E2.4401
G1 X99.232 Y121.67 E2.45595
G1 X98.513 Y120.959 E2.48958
G1 X98.165 Y120.582 E2.50664
G1 X97.489 Y119.776 E2.54163
G1 X97.217 Y119.418 E2.55659
G1 X96.609 Y118.529 E2.59241
G1 X96.348 Y118.105 E2.60897
G1 X95.822 Y117.148 E2.64529
G1 X95.629 Y116.751 E2.65997
G1 X95.229 Y115.823 E2.69358
G1 X95.025 Y115.282 E2.71281
G1 X94.668 Y114.155 E2.75213
G1 X94.593 Y113.865 E2.76209
G1 X94.391 Y112.907 E2.79466
G1 X94.299 Y112.351 E2.8134
G1 X94.176 Y111.297 E2.8487
G1 X94.146 Y110.853 E2.8635
G1 X94.125 Y109.803 E2.89843
G1 X94.139 Y109.304 E2.91503
G1 X94.221 Y108.239 E2.95056
G1 X94.277 Y107.794 E2.96548
G1 X94.46 Y106.75 E3.00073
G1 X94.567 Y106.275 E3.01692
G1 X94.836 Y105.294 E3.05076
G1 X94.975 Y104.866 E3.06572
G1 X95.366 Y103.84 E3.10224
G1 X95.554 Y103.412 E3.11779
G1 X96.033 Y102.452 E3.15347
G1 X96.294 Y101.987 E3.17121
G1 X96.867 Y101.074 E3.20706
G1 X97.103 Y100.736 E3.22077
G1 X97.735 Y99.915 E3.25523
G1 X98.122 Y99.459 E3.27512
G1 X99.024 Y98.516 E3.31853
G0 F6000 X99.296 Y98.809
G1 F1200 X99.548 Y98.575 E3.32996
G1 X100.175 Y98.037 E3.35744
G1 X100.624 Y97.681 E3.3765
G1 X101.532 Y97.036 E3.41355
G1 X101.841 Y96.84 E3.42572
G1 X102.652 Y96.374 E3.45683
G1 X103.068 Y96.159 E3.4724
G1 X103.995 Y95.735 E3.5063
G1 X104.522 Y95.524 E3.52519
G1 X105.471 Y95.196 E3.55858
G1 X105.879 Y95.076 E3.57273
G1 X106.538 Y94.905 E3.59537
G1 X106.742 Y94.859 E3.60233
G1 X107.441 Y94.726 E3.62599
G1 X107.659 Y94.692 E3.63333
G1 X108.329 Y94.609 E3.65579
G1 X108.921 Y94.555 E3.67556
G1 X110.119 Y94.514 E3.71543
G1 X110.48 Y94.522 E3.72744
G1 X111.332 Y94.575 E3.75583
G1 X111.788 Y94.622 E3.77108
G1 X112.788 Y94.773 E3.80471
G1 X113.276 Y94.871 E3.82127
G1 X114.267 Y95.121 E3.85526
G1 X114.735 Y95.263 E3.87153
G1 X115.709 Y95.611 E3.90593
G1 X116.161 Y95.798 E3.9222
G1 X117.083 Y96.233 E3.95611
G1 X117.529 Y96.47 E3.9729
G1 X118.515 Y97.065 E4.01121
G1 X118.84 Y97.286 E4.02428
G1 X119.547 Y97.81 E4.05355
G1 X119.903 Y98.098 E4.06878
G1 X120.656 Y98.769 E4.10232
G1 X121.008 Y99.114 E4.11872
G1 X121.724 Y99.889 E4.15381
G1 X122.033 Y100.259 E4.16984
G1 X122.645 Y101.068 E4.20358
G1 X122.918 Y101.467 E4.21966
G1 X123.459 Y102.347 E4.25402
G1 X123.73 Y102.84 E4.27273
G1 X124.238 Y103.9 E4.31183
G1 X124.359 Y104.193 E4.32237
G1 X124.66 Y105.016 E4.35152
G1 X124.81 Y105.486 E4.36793
G1 X125.061 Y106.415 E4.39993
G1 X125.19 Y106.997 E4.41976
G1 X125.378 Y108.141 E4.45832
G1 X125.416 Y108.5 E4.47033
G1 X125.443 Y108.798 E4.48028
G1 X125.477 Y109.328 E4.49794
G1 X125.483 Y109.477 E4.5029
G1 X125.491 Y110.061 E4.52233
G1 X125.488 Y110.262 E4.52901
G1 X125.459 Y110.902 E4.55032
G1 X125.423 Y111.379 E4.56623
G1 X125.299 Y112.384 E4.59991
G1 X125.197 Y112.975 E4.61986
G1 X124.928 Y114.136 E4.6595
G1 X124.838 Y114.445 E4.6702
G1 X124.551 Y115.296 E4.70007
G1 X124.367 Y115.773 E4.71708
G1 X123.967 Y116.68 E4.75005
G1 X123.761 Y117.094 E4.76543
G1 X123.256 Y117.996 E4.79981
G1 X122.985 Y118.429 E4.8168
G1 X122.397 Y119.274 E4.85104
G1 X122.058 Y119.714 E4.86951
G1 X121.283 Y120.612 E4.90897
G1 X121.052 Y120.851 E4.92002
G1 X120.415 Y121.457 E4.94927
G1 X120.052 Y121.775 E4.96532
G1 X119.253 Y122.41 E4.99926
G1 X118.823 Y122.719 E5.01687
G1 X117.97 Y123.272 E5.05068
G1 X117.568 Y123.506 E5.06616
G1 X116.637 Y123.988 E5.10102
G1 X116.142 Y124.214 E5.11912
G1 X115.072 Y124.634 E5.15735
G1 X114.776 Y124.732 E5.16773
G1 X113.934 Y124.972 E5.19685
G1 X113.392 Y125.103 E5.21539
G1 X112.362 Y125.299 E5.25026
G1 X111.873 Y125.367 E5.26669
G1 X110.869 Y125.458 E5.30022
G1 X110.381 Y125.479 E5.31646
G1 X109.531 Y125.482 E5.34473
G1 X109.316 Y125.474 E5.35189
G1 X108.774 Y125.44 E5.36995
G1 X108.616 Y125.426 E5.37523
G1 X107.953 Y125.346 E5.39744
G1 X107.455 Y125.27 E5.41419
G1 X106.458 Y125.068 E5.44803
G1 X105.975 Y124.946 E5.4646
G1 X105.018 Y124.656 E5.49786
G1 X104.616 Y124.513 E5.51205
G1 X103.644 Y124.111 E5.54703
G1 X103.142 Y123.874 E5.5655
G1 X102.257 Y123.404 E5.59882
G1 X101.856 Y123.166 E5.61433
G1 X101.181 Y122.73 E5.64106
G1 X101.007 Y122.608 E5.64813
G1 X100.528 Y122.252 E5.66798
G1 X100.386 Y122.14 E5.67399
G1 X99.854 Y121.691 E5.69715
G1 X99.5 Y121.372 E5.713
G1 X98.807 Y120.688 E5.74538
G1 X98.459 Y120.311 E5.76245
G1 X97.808 Y119.534 E5.79616
G1 X97.536 Y119.176 E5.81112
G1 X96.949 Y118.32 E5.84564
G1 X96.688 Y117.896 E5.8622
G1 X96.182 Y116.974 E5.89718
G1 X95.989 Y116.577 E5.91186
G1 X95.604 Y115.682 E5.94427
G1 X95.4 Y115.141 E5.9635
G1 X95.056 Y114.055 E6.00139
G1 X94.981 Y113.765 E6.01135
G1 X94.785 Y112.841 E6.04276
G1 X94.693 Y112.285 E6.06151
G1 X94.575 Y111.27 E6.09549
G1 X94.545 Y110.826 E6.1103
G1 X94.525 Y109.814 E6.14396
G1 X94.539 Y109.315 E6.16056
G1 X94.618 Y108.289 E6.19479
G1 X94.674 Y107.844 E6.20971
G1 X94.85 Y106.838 E6.24368
G1 X94.957 Y106.363 E6.25987
G1 X95.216 Y105.418 E6.29246
G1 X95.355 Y104.99 E6.30743
G1 X95.732 Y104.001 E6.34263
G1 X95.92 Y103.573 E6.35818
G1 X96.382 Y102.648 E6.39257
G1 X96.643 Y102.183 E6.4103
G1 X97.195 Y101.303 E6.44485
G1 X97.431 Y100.965 E6.45857
G1 X98.04 Y100.174 E6.49177
G1 X98.427 Y99.718 E6.51166
G1 X99.296 Y98.809 E6.55349
G0 F6000 X99.568 Y99.103
G1 F1200 X99.82 Y98.869 E6.56493
G1 X100.424 Y98.35 E6.59141
G1 X100.873 Y97.994 E6.61047
G1 X101.747 Y97.374 E6.64611
G1 X102.056 Y97.178 E6.65828
G1 X102.836 Y96.73 E6.6882
G1 X103.252 Y96.515 E6.70377
G1 X104.144 Y96.107 E6.7364
G1 X104.671 Y95.896 E6.75528
G1 X105.584 Y95.579 E6.78742
G1 X105.992 Y95.459 E6.80157
G1 X106.626 Y95.295 E6.82335
G1 X106.83 Y95.249 E6.83031
G1 X107.502 Y95.121 E6.85306
G1 X107.72 Y95.087 E6.8604
G1 X108.365 Y95.007 E6.88201
G1 X108.957 Y94.953 E6.90179
G1 X110.11 Y94.914 E6.94016
G1 X110.471 Y94.922 E6.95217
G1 X111.291 Y94.973 E6.97949
G1 X111.747 Y95.02 E6.99474
G1 X112.709 Y95.166 E7.0271
G1 X113.197 Y95.264 E7.04366
G1 X114.151 Y95.503 E7.07637
G1 X114.619 Y95.645 E7.09263
G1 X115.556 Y95.981 E7.12574
G1 X116.008 Y96.168 E7.14201
G1 X116.895 Y96.586 E7.17462
G1 X117.341 Y96.823 E7.19142
G1 X118.291 Y97.395 E7.22831
G1 X118.616 Y97.616 E7.24138
G1 X119.295 Y98.121 E7.26952
G1 X119.651 Y98.409 E7.28475
G1 X120.376 Y99.054 E7.31703
G1 X120.728 Y99.399 E7.33342
G1 X121.417 Y100.146 E7.36722
G1 X121.726 Y100.516 E7.38325
G1 X122.315 Y101.294 E7.41571
G1 X122.588 Y101.693 E7.43179
G1 X123.109 Y102.54 E7.46486
G1 X123.38 Y103.033 E7.48358
G1 X123.869 Y104.053 E7.5212
G1 X123.99 Y104.346 E7.53174
G1 X124.279 Y105.138 E7.55978
G1 X124.429 Y105.608 E7.57619
G1 X124.67 Y106.502 E7.60699
G1 X124.799 Y107.084 E7.62681
G1 X124.981 Y108.185 E7.66393
G1 X124.999 Y108.35 E7.66945
G1 X125.044 Y108.834 E7.68562
G1 X125.078 Y109.344 E7.70262
G1 X125.084 Y109.493 E7.70758
G1 X125.091 Y110.055 E7.72627
G1 X125.088 Y110.256 E7.73296
G1 X125.06 Y110.872 E7.75347
G1 X125.024 Y111.349 E7.76938
G1 X124.904 Y112.316 E7.80179
G1 X124.802 Y112.907 E7.82173
G1 X124.544 Y114.024 E7.85986
G1 X124.454 Y114.333 E7.87057
G1 X124.178 Y115.152 E7.89931
G1 X123.994 Y115.629 E7.91632
G1 X123.609 Y116.502 E7.94805
G1 X123.403 Y116.916 E7.96343
G1 X122.917 Y117.783 E7.99649
G1 X122.646 Y118.216 E8.01348
G1 X122.08 Y119.03 E8.04646
G1 X121.741 Y119.47 E8.06493
G1 X120.995 Y120.334 E8.1029
G1 X120.764 Y120.573 E8.11395
G1 X120.151 Y121.156 E8.14209
G1 X119.788 Y121.474 E8.15814
G1 X119.019 Y122.085 E8.19081
G1 X118.589 Y122.394 E8.20842
G1 X117.768 Y122.926 E8.24096
G1 X117.366 Y123.16 E8.25643
G1 X116.471 Y123.624 E8.28996
G1 X115.976 Y123.85 E8.30806
G1 X114.946 Y124.254 E8.34486
G1 X114.65 Y124.352 E8.35523
G1 X113.84 Y124.584 E8.38325
G1 X113.298 Y124.715 E8.4018
G1 X112.307 Y124.903 E8.43535
G1 X111.818 Y124.971 E8.45177
G1 X110.852 Y125.059 E8.48403
G1 X110.364 Y125.08 E8.50027
G1 X109.546 Y125.082 E8.52748
G1 X109.331 Y125.074 E8.53464
G1 X108.81 Y125.041 E8.552
G1 X108.652 Y125.027 E8.55728
G1 X108.013 Y124.95 E8.57868
G1 X107.515 Y124.874 E8.59544
G1 X106.556 Y124.68 E8.62798
G1 X106.073 Y124.558 E8.64455
G1 X105.152 Y124.279 E8.67656
G1 X104.75 Y124.136 E8.69075
G1 X103.814 Y123.75 E8.72442
G1 X103.312 Y123.513 E8.74289
G1 X102.461 Y123.06 E8.77495
G1 X102.06 Y122.822 E8.79046
G1 X101.41 Y122.403 E8.81618
G1 X101.236 Y122.281 E8.82325
G1 X100.775 Y121.938 E8.84236
G1 X100.633 Y121.826 E8.84838
G1 X100.122 Y121.394 E8.87063
G1 X99.768 Y121.075 E8.88648
G1 X99.101 Y120.416 E8.91767
G1 X98.753 Y120.039 E8.93473
G1 X98.126 Y119.292 E8.96717
G1 X97.854 Y118.934 E8.98212
G1 X97.29 Y118.11 E9.01534
G1 X97.029 Y117.686 E9.0319
G1 X96.542 Y116.799 E9.06555
G1 X96.349 Y116.402 E9.08023
G1 X95.978 Y115.541 E9.11142
G1 X95.774 Y115 E9.13065
G1 X95.443 Y113.955 E9.16711
G1 X95.368 Y113.665 E9.17707
G1 X95.18 Y112.776 E9.20729
G1 X95.088 Y112.22 E9.22603
G1 X94.974 Y111.243 E9.25875
G1 X94.944 Y110.799 E9.27355
G1 X94.925 Y109.825 E9.30595
G1 X94.939 Y109.326 E9.32256
G1 X95.015 Y108.338 E9.35551
G1 X95.071 Y107.893 E9.37043
G1 X95.24 Y106.925 E9.40311
G1 X95.347 Y106.45 E9.41931
G1 X95.597 Y105.541 E9.45067
G1 X95.736 Y105.113 E9.46563
G1 X96.098 Y104.162 E9.49948
G1 X96.286 Y103.734 E9.51502
G1 X96.73 Y102.844 E9.54811
G1 X96.991 Y102.379 E9.56584
G1 X97.523 Y101.532 E9.59911
G1 X97.759 Y101.194 E9.61282
G1 X98.345 Y100.433 E9.64477
G1 X98.732 Y99.977 E9.66466
G1 X99.568 Y99.103 E9.70488
G1 F1500 E3.20488
;MESH:spindle_drive.stl
G0 F6000 X105.397 Y106.883
G0 X106.831 Y107.921
G0 X106.563 Y110
G0 X106.706 Y110.984
G0 X107.126 Y111.885
G0 X107.789 Y112.632
G0 X108.473 Y113.055
G0 X109.921 Y113.599
;TYPE:WALL-INNER
G1 F1500 E9.70488
G1 F1200 X110.27 Y113.59 E9.7165
G1 X110.615 Y113.548 E9.72806
G1 X110.954 Y113.472 E9.73961
G1 X111.287 Y113.364 E9.75125
G1 X111.605 Y113.223 E9.76282
G1 X111.907 Y113.055 E9.77432
G1 X112.193 Y112.858 E9.78587
G1 X112.456 Y112.636 E9.79732
G1 X112.698 Y112.387 E9.80886
G1 X112.916 Y112.117 E9.82041
G1 X113.107 Y111.825 E9.83201
G1 X113.268 Y111.517 E9.84357
G1 X113.4 Y111.195 E9.85515
G1 X113.474 Y110.943 E9.86388
G1 X113.489 Y110.913 E9.865
G1 X113.565 Y110.518 E9.87838
G1 X113.588 Y110.274 E9.88653
G1 X113.599 Y110.238 E9.88778
G1 X113.599 Y109.827 E9.90145
G1 X113.567 Y109.488 E9.91277
G1 X113.499 Y109.139 E9.9246
G1 X113.403 Y108.81 E9.936
G1 X113.267 Y108.482 E9.94781
G1 X113.108 Y108.175 E9.95931
G1 X112.916 Y107.883 E9.97093
G1 X112.697 Y107.612 E9.98252
G1 X112.45 Y107.359 E9.99428
G1 X112.183 Y107.135 E10.00587
G1 X111.897 Y106.939 E10.0174
G1 X111.593 Y106.77 E10.02897
G1 X111.274 Y106.631 E10.04055
G1 X110.942 Y106.524 E10.05215
G1 X110.603 Y106.45 E10.06369
G1 X110.258 Y106.409 E10.07524
G1 X109.91 Y106.401 E10.08682
G1 X109.562 Y106.427 E10.09843
G1 X109.219 Y106.486 E10.11
G1 X108.885 Y106.578 E10.12153
G1 X108.56 Y106.702 E10.1331
G1 X108.248 Y106.856 E10.14467
G1 X107.953 Y107.04 E10.15623
G1 X107.677 Y107.252 E10.16781
G1 X107.426 Y107.484 E10.17918
G1 X107.196 Y107.745 E10.19075
G1 X106.991 Y108.026 E10.20232
G1 X106.814 Y108.327 E10.21393
G1 X106.668 Y108.643 E10.22551
G1 X106.552 Y108.97 E10.23705
G1 X106.469 Y109.31 E10.24869
G1 X106.431 Y109.575 E10.25759
G1 X106.422 Y109.607 E10.2587
G1 X106.403 Y109.999 E10.27175
G1 X106.418 Y110.34 E10.2831
G1 X106.467 Y110.684 E10.29466
G1 X106.552 Y111.03 E10.30651
G1 X106.668 Y111.357 E10.31805
G1 X106.814 Y111.673 E10.32963
G1 X106.991 Y111.974 E10.34124
G1 X107.196 Y112.255 E10.35281
G1 X107.431 Y112.52 E10.36459
G1 X107.685 Y112.756 E10.37612
G1 X107.963 Y112.967 E10.38773
G1 X108.259 Y113.149 E10.39929
G1 X108.57 Y113.303 E10.41083
G1 X108.896 Y113.426 E10.42242
G1 X109.232 Y113.517 E10.434
G1 X109.575 Y113.575 E10.44557
G1 X109.921 Y113.599 E10.4571
G0 F6000 X109.93 Y113.199
;TYPE:WALL-OUTER
G1 F1200 X110.24 Y113.191 E10.46742
G1 X110.547 Y113.153 E10.47771
G1 X110.849 Y113.086 E10.488
G1 X111.144 Y112.99 E10.49831
G1 X111.426 Y112.865 E10.50857
G1 X111.696 Y112.715 E10.51885
G1 X111.95 Y112.54 E10.52911
G1 X112.183 Y112.343 E10.53925
G1 X112.398 Y112.122 E10.54951
G1 X112.592 Y111.881 E10.5598
G1 X112.762 Y111.622 E10.5701
G1 X112.905 Y111.348 E10.58038
G1 X113.022 Y111.062 E10.59066
G1 X113.1 Y110.797 E10.59985
G1 X113.107 Y110.783 E10.60037
G1 X113.169 Y110.461 E10.61127
G1 X113.194 Y110.193 E10.62023
G1 X113.199 Y110.177 E10.62078
