;FLAVOR:Marlin
;TIME:6758
;Filament used: 3.78424m
;Layer height: 0.2
;MINX:22.036
;MINY:24.006
;MINZ:0.2
;MAXX:197.964
;MAXY:195.993
;MAXZ:5
;Generated with Cura_SteamEngine master
M140 S60
M105
M190 S60
M104 S200
M105
M109 S200
M82 ;absolute extrusion mode
; Ender 3 Custom Start G-code
G92 E0 ; Reset Extruder
G28 ; Home all axes
G1 Z2.0 F3000 ; Move Z Axis up little to prevent scratching of Heat Bed
G1 X0.1 Y20 Z0.3 F5000.0 ; Move to start position
G1 X0.1 Y200.0 Z0.3 F1500.0 E15 ; Draw the first line
G1 X0.4 Y200.0 Z0.3 F5000.0 ; Move to side a little
G1 X0.4 Y20 Z0.3 F1500.0 E30 ; Draw the second line
G92 E0 ; Reset Extruder
G1 Z2.0 F3000 ; Move Z Axis up little to prevent scratching of Heat Bed
G1 X5 Y20 Z0.3 F5000.0 ; Move over to prevent blob squish
G92 E0
G92 E0
G1 F1500 E-6.5
;LAYER_COUNT:25
;LAYER:0
M107
G0 F6000 X50.563 Y47.898 Z0.2
;TYPE:SKIRT
G1 F1500 E0
G1 F1200 X51.061 Y47.401 E0.0234
G1 X51.555 Y46.939 E0.0459
G1 X52.426 Y46.173 E0.08448
G1 X52.597 Y46.025 E0.092
G1 X56.442 Y42.781 E0.25932
G1 X58.345 Y41.13 E0.34311
G1 X60.244 Y39.384 E0.42891
G1 X62.009 Y37.668 E0.51079
G1 X63.125 Y36.521 E0.56402
G1 X63.165 Y36.483 E0.56585
G1 X63.866 Y35.76 E0.59935
G1 X64.154 Y35.475 E0.61282
G1 X64.587 Y35.06 E0.63277
G1 X65.387 Y34.364 E0.66804
G1 X65.562 Y34.226 E0.67545
G1 X66.398 Y33.627 E0.70966
G1 X66.735 Y33.409 E0.72301
G1 X67.601 Y32.903 E0.75637
G1 X67.683 Y32.86 E0.75945
G1 X68.717 Y32.385 E0.79729
G1 X69.073 Y32.243 E0.81004
G1 X70.109 Y31.888 E0.84646
G1 X70.523 Y31.769 E0.86079
G1 X71.076 Y31.626 E0.87979
G1 X71.257 Y31.584 E0.88597
G1 X71.557 Y31.518 E0.89619
G1 X72.943 Y31.237 E0.94322
G1 X75.402 Y30.666 E1.02719
G1 X77.837 Y30.027 E1.11092
G1 X80.256 Y29.32 E1.19474
G1 X81.623 Y28.887 E1.24243
G1 X86.212 Y27.395 E1.40293
G1 X86.895 Y27.183 E1.42671
G1 X87.55 Y27.003 E1.44931
G1 X88.711 Y26.722 E1.48904
G1 X88.926 Y26.672 E1.49638
G1 X94.286 Y25.488 E1.67895
G1 X95.003 Y25.339 E1.70331
G1 X95.68 Y25.221 E1.72616
G1 X96.821 Y25.059 E1.76449
G1 X97.041 Y25.03 E1.77187
G1 X102.527 Y24.364 E1.95568
G1 X103.226 Y24.288 E1.97906
G1 X103.928 Y24.234 E2.00248
G1 X105.095 Y24.183 E2.04133
G1 X105.306 Y24.176 E2.04835
G1 X106.149 Y24.155 E2.0764
G1 X108.753 Y24.056 E2.16307
G1 X108.993 Y24.043 E2.17107
G1 X109.529 Y24.02 E2.18891
G1 X109.842 Y24.011 E2.19933
G1 X110.119 Y24.007 E2.20854
G1 X110.369 Y24.006 E2.21686
G1 X110.864 Y24.011 E2.23332
G1 X111.795 Y24.03 E2.26429
G1 X112.155 Y24.044 E2.27627
G1 X113.377 Y24.109 E2.31698
G1 X113.59 Y24.122 E2.32407
G1 X119.277 Y24.536 E2.51372
G1 X119.831 Y24.584 E2.53222
G1 X120.513 Y24.665 E2.55506
G1 X121.653 Y24.836 E2.5934
G1 X121.873 Y24.871 E2.60081
G1 X127.33 Y25.803 E2.78494
G1 X128.036 Y25.933 E2.80882
G1 X128.708 Y26.08 E2.8317
G1 X129.834 Y26.363 E2.87031
G1 X130.042 Y26.417 E2.87746
G1 X135.42 Y27.881 E3.06284
G1 X135.588 Y27.928 E3.06864
G1 X136.065 Y28.066 E3.08516
G1 X136.694 Y28.269 E3.10714
G1 X137.813 Y28.667 E3.14665
G1 X138.03 Y28.747 E3.15434
G1 X139.92 Y29.464 E3.22157
G1 X142.421 Y30.372 E3.31007
G1 X144.773 Y31.152 E3.39248
G1 X147.2 Y31.881 E3.47677
G1 X149.622 Y32.535 E3.56021
G1 X150.814 Y32.821 E3.60098
G1 X151.457 Y32.986 E3.62306
G1 X151.753 Y33.066 E3.63326
G1 X152.16 Y33.183 E3.64734
G1 X153.259 Y33.563 E3.68602
G1 X153.424 Y33.63 E3.69194
G1 X154.3 Y34.031 E3.72399
G1 X154.589 Y34.179 E3.73479
G1 X155.499 Y34.701 E3.76968
G1 X155.862 Y34.933 E3.78401
G1 X156.926 Y35.707 E3.82777
G1 X157.05 Y35.809 E3.83311
G1 X157.674 Y36.363 E3.86086
G1 X157.915 Y36.594 E3.87197
G1 X158.297 Y36.978 E3.88998
G1 X158.418 Y37.106 E3.89584
G1 X158.598 Y37.301 E3.90467
G1 X160.139 Y39.011 E3.98123
G1 X161.864 Y40.821 E4.06439
G1 X163.634 Y42.574 E4.14725
G1 X166.19 Y44.945 E4.2632
G1 X166.411 Y45.142 E4.27305
G1 X166.588 Y45.303 E4.28101
G1 X170.641 Y49.073 E4.46511
G1 X170.768 Y49.193 E4.47093
G1 X171.17 Y49.579 E4.48946
G1 X171.636 Y50.054 E4.51159
G1 X172.411 Y50.894 E4.54961
G1 X172.558 Y51.057 E4.55691
G1 X176.242 Y55.214 E4.74165
G1 X176.353 Y55.341 E4.74726
G1 X176.701 Y55.746 E4.76502
G1 X177.124 Y56.269 E4.78739
G1 X177.845 Y57.22 E4.82709
G1 X177.979 Y57.401 E4.83458
G1 X181.21 Y61.849 E5.01743
G1 X181.619 Y62.426 E5.04095
G1 X182.01 Y63.018 E5.06455
G1 X183.061 Y64.728 E5.13131
G1 X183.159 Y64.873 E5.13713
G1 X183.587 Y65.574 E5.16445
G1 X183.607 Y65.611 E5.16585
G1 X184.162 Y66.499 E5.20067
G1 X184.353 Y66.817 E5.21301
G1 X184.921 Y67.799 E5.25074
G1 X185.193 Y68.285 E5.26927
G1 X185.389 Y68.646 E5.28293
G1 X185.65 Y69.12 E5.30093
G1 X185.982 Y69.742 E5.32438
G1 X186.156 Y70.082 E5.33708
G1 X186.7 Y71.195 E5.37829
G1 X186.792 Y71.388 E5.3854
G1 X189.147 Y76.454 E5.57121
G1 X189.224 Y76.623 E5.57739
G1 X189.436 Y77.1 E5.59475
G1 X189.681 Y77.7 E5.6163
G1 X190.098 Y78.81 E5.65574
G1 X190.178 Y79.028 E5.66346
G1 X192.006 Y84.225 E5.8467
G1 X192.059 Y84.379 E5.85211
G1 X192.237 Y84.91 E5.87074
G1 X192.432 Y85.558 E5.89325
G1 X192.733 Y86.681 E5.93192
G1 X192.788 Y86.895 E5.93927
G1 X194.147 Y92.408 E6.12812
G1 X194.272 Y92.946 E6.14649
G1 X194.407 Y93.623 E6.16945
G1 X194.776 Y95.833 E6.24397
G1 X194.964 Y97.004 E6.28342
G1 X195.435 Y99.482 E6.36731
G1 X195.981 Y101.97 E6.45203
G1 X196.571 Y104.342 E6.53333
G1 X197.074 Y106.14 E6.59543
G1 X197.097 Y106.24 E6.59884
G1 X197.366 Y107.186 E6.63155
G1 X197.457 Y107.528 E6.64332
G1 X197.596 Y108.085 E6.66242
G1 X197.8 Y109.108 E6.69711
G1 X197.846 Y109.413 E6.70737
G1 X197.957 Y110.542 E6.7451
G1 X197.963 Y110.671 E6.7494
G1 X197.964 Y111.678 E6.78289
G1 X197.947 Y112.055 E6.79544
G1 X197.845 Y113.129 E6.83133
G1 X197.799 Y113.448 E6.84205
G1 X197.597 Y114.491 E6.87738
G1 X197.507 Y114.859 E6.88998
G1 X197.333 Y115.489 E6.91172
G1 X197.246 Y115.771 E6.92154
G1 X197.171 Y116.004 E6.92968
G1 X196.856 Y116.95 E6.96284
G1 X196.127 Y119.367 E7.04681
G1 X195.469 Y121.792 E7.13038
G1 X194.884 Y124.217 E7.21335
G1 X194.689 Y125.154 E7.24518
G1 X194.65 Y125.335 E7.25134
G1 X194.095 Y127.797 E7.33528
G1 X194.044 Y128.012 E7.34263
G1 X192.671 Y133.575 E7.53321
G1 X192.543 Y134.065 E7.55005
G1 X192.349 Y134.724 E7.5729
G1 X191.987 Y135.824 E7.61142
G1 X191.914 Y136.036 E7.61887
G1 X190.033 Y141.379 E7.80727
G1 X189.838 Y141.912 E7.82615
G1 X189.572 Y142.573 E7.84985
G1 X189.115 Y143.609 E7.88751
G1 X189.026 Y143.806 E7.8947
G1 X186.68 Y148.853 E8.07981
G1 X186.391 Y149.456 E8.10205
G1 X186.063 Y150.086 E8.12568
G1 X185.838 Y150.486 E8.14094
G1 X184.871 Y152.265 E8.20829
G1 X184.752 Y152.478 E8.2164
G1 X183.961 Y153.859 E8.26934
G1 X183.845 Y154.058 E8.277
G1 X183.632 Y154.41 E8.29068
G1 X182.51 Y156.218 E8.36145
G1 X182.505 Y156.215 E8.36165
G1 X182.401 Y156.392 E8.36847
G1 X182.121 Y156.825 E8.38563
G1 X181.908 Y157.143 E8.39836
G1 X181.176 Y158.193 E8.44093
G1 X181.053 Y158.365 E8.44796
G1 X177.711 Y162.966 E8.6371
G1 X177.375 Y163.415 E8.65575
G1 X176.949 Y163.949 E8.67847
G1 X176.183 Y164.85 E8.71781
G1 X176.035 Y165.02 E8.7253
G1 X172.256 Y169.284 E8.91481
G1 X171.899 Y169.676 E8.93244
G1 X171.415 Y170.174 E8.95554
G1 X170.614 Y170.949 E8.99261
G1 X170.456 Y171.099 E8.99985
G1 X166.369 Y174.9 E9.18549
G1 X165.848 Y175.372 E9.20887
G1 X165.455 Y175.71 E9.22611
G1 X163.358 Y177.431 E9.31634
G1 X161.435 Y179.101 E9.40105
G1 X159.608 Y180.781 E9.4836
G1 X157.713 Y182.625 E9.57155
G1 X156.825 Y183.528 E9.61367
G1 X156.146 Y184.227 E9.64608
G1 X155.879 Y184.493 E9.65862
G1 X155.432 Y184.923 E9.67925
G1 X154.613 Y185.637 E9.71538
G1 X154.434 Y185.778 E9.72296
G1 X153.602 Y186.373 E9.75698
G1 X153.265 Y186.591 E9.77033
G1 X152.399 Y187.097 E9.80369
G1 X152.317 Y187.14 E9.80677
G1 X151.283 Y187.615 E9.84462
G1 X150.927 Y187.757 E9.85737
G1 X149.881 Y188.115 E9.89414
G1 X149.469 Y188.233 E9.90839
G1 X148.857 Y188.389 E9.9294
G1 X148.373 Y188.498 E9.9459
G1 X148.142 Y188.548 E9.95376
G1 X147.446 Y188.689 E9.97738
G1 X144.979 Y189.263 E10.06162
G1 X142.55 Y189.902 E10.14516
G1 X140.149 Y190.605 E10.22837
G1 X137.706 Y191.396 E10.31378
G1 X137.197 Y191.574 E10.33171
G1 X136.927 Y191.664 E10.34118
G1 X136.548 Y191.782 E10.35438
G1 X135.302 Y192.148 E10.39758
G1 X135.092 Y192.208 E10.40484
G1 X129.748 Y193.663 E10.58905
G1 X129.068 Y193.838 E10.61241
G1 X128.422 Y193.983 E10.63443
G1 X127.269 Y194.205 E10.67348
G1 X127.041 Y194.246 E10.68118
G1 X121.443 Y195.201 E10.87006
G1 X120.906 Y195.285 E10.88814
G1 X120.221 Y195.37 E10.9111
G1 X119.023 Y195.481 E10.95112
G1 X118.804 Y195.499 E10.95843
G1 X113.213 Y195.904 E11.14487
G1 X112.454 Y195.949 E11.17016
G1 X112.096 Y195.964 E11.18208
G1 X111.788 Y195.97 E11.19232
G1 X111.375 Y195.972 E11.20606
G1 X109.862 Y195.993 E11.25639
G1 X109.528 Y195.993 E11.2675
G1 X108.49 Y195.976 E11.30202
G1 X107.664 Y195.95 E11.32951
G1 X107.364 Y195.937 E11.3395
G1 X107.006 Y195.916 E11.35143
G1 X105.076 Y195.822 E11.41569
G1 X104.33 Y195.793 E11.44052
G1 X103.654 Y195.746 E11.46306
G1 X102.451 Y195.625 E11.50328
G1 X102.226 Y195.6 E11.51081
G1 X96.776 Y194.938 E11.69341
G1 X96.042 Y194.839 E11.71804
G1 X95.372 Y194.726 E11.74064
G1 X94.228 Y194.497 E11.77944
G1 X94.014 Y194.452 E11.78672
G1 X88.46 Y193.224 E11.97591
G1 X87.924 Y193.097 E11.99423
G1 X87.275 Y192.922 E12.01658
G1 X86.141 Y192.579 E12.05599
G1 X85.927 Y192.512 E12.06345
G1 X80.546 Y190.763 E12.25164
G1 X79.845 Y190.524 E12.27627
G1 X79.548 Y190.417 E12.28677
G1 X79.019 Y190.219 E12.30555
G1 X76.593 Y189.353 E12.39123
G1 X74.203 Y188.576 E12.47482
G1 X71.752 Y187.854 E12.5598
G1 X69.338 Y187.217 E12.64284
G1 X69.119 Y187.163 E12.65034
G1 X68.544 Y187.015 E12.67009
G1 X68.247 Y186.934 E12.68033
G1 X67.84 Y186.817 E12.69441
G1 X66.731 Y186.433 E12.73345
G1 X66.564 Y186.365 E12.73945
G1 X65.698 Y185.968 E12.77113
G1 X65.409 Y185.82 E12.78193
G1 X64.488 Y185.29 E12.81727
G1 X64.126 Y185.058 E12.83157
G1 X63.066 Y184.286 E12.87519
G1 X62.941 Y184.183 E12.88058
G1 X62.317 Y183.629 E12.90833
G1 X62.066 Y183.388 E12.9199
G1 X61.736 Y183.056 E12.93547
G1 X61.452 Y182.753 E12.94928
G1 X59.776 Y180.896 E13.03248
G1 X58.042 Y179.079 E13.11602
G1 X56.26 Y177.316 E13.1994
G1 X54.42 Y175.594 E13.28321
G1 X52.724 Y174.104 E13.3583
G1 X52.584 Y173.97 E13.36475
G1 X51.848 Y173.332 E13.39714
G1 X51.332 Y172.855 E13.42051
G1 X50.501 Y172.036 E13.45932
G1 X50.351 Y171.885 E13.4664
G1 X46.354 Y167.789 E13.65675
G1 X46.003 Y167.419 E13.67371
G1 X45.545 Y166.905 E13.69661
G1 X44.804 Y166.019 E13.73503
G1 X44.666 Y165.851 E13.74226
G1 X41.065 Y161.367 E13.93353
G1 X40.761 Y160.977 E13.94998
G1 X40.356 Y160.421 E13.97286
G1 X39.693 Y159.451 E14.01194
G1 X39.574 Y159.274 E14.01903
G1 X36.532 Y154.633 E14.2036
G1 X36.439 Y154.489 E14.2093
G1 X36.059 Y153.889 E14.23292
G1 X35.904 Y153.636 E14.24279
G1 X35.842 Y153.532 E14.24682
G1 X35.707 Y153.299 E14.25577
G1 X35.559 Y153.036 E14.26581
G1 X35.107 Y152.253 E14.29588
G1 X35.011 Y152.083 E14.30237
G1 X34.706 Y151.53 E14.32338
G1 X34.416 Y150.99 E14.34376
G1 X34.266 Y150.701 E14.35459
G1 X33.775 Y149.718 E14.39114
G1 X33.487 Y149.122 E14.41316
G1 X32.668 Y147.524 E14.47288
G1 X32.509 Y147.218 E14.48435
G1 X32.253 Y146.712 E14.50321
G1 X31.967 Y146.101 E14.52565
G1 X31.497 Y145.011 E14.56513
G1 X31.41 Y144.803 E14.57263
G1 X29.261 Y139.522 E14.76226
G1 X29.074 Y139.044 E14.77933
G1 X28.841 Y138.387 E14.80252
G1 X28.493 Y137.299 E14.84051
G1 X28.429 Y137.093 E14.84769
G1 X26.826 Y131.717 E15.03427
G1 X26.621 Y131.001 E15.05904
G1 X26.547 Y130.729 E15.06842
G1 X26.452 Y130.342 E15.08167
G1 X26.387 Y130.054 E15.09149
G1 X26.322 Y129.744 E15.10203
G1 X25.125 Y123.626 E15.30937
G1 X24.818 Y121.957 E15.36581
G1 X24.327 Y119.492 E15.44941
G1 X23.765 Y117.034 E15.53327
G1 X22.879 Y113.675 E15.64881
G1 X22.632 Y112.807 E15.67883
G1 X22.535 Y112.441 E15.69142
G1 X22.401 Y111.901 E15.70993
G1 X22.198 Y110.882 E15.74449
G1 X22.152 Y110.575 E15.75481
G1 X22.043 Y109.464 E15.79194
G1 X22.037 Y109.337 E15.79617
G1 X22.036 Y108.322 E15.82993
G1 X22.053 Y107.945 E15.84248
G1 X22.155 Y106.871 E15.87836
G1 X22.201 Y106.552 E15.88908
G1 X22.4 Y105.519 E15.92407
G1 X22.485 Y105.17 E15.93602
G1 X22.733 Y104.309 E15.96582
G1 X23.342 Y102.474 E16.03013
G1 X24.083 Y100.014 E16.11558
G1 X24.741 Y97.584 E16.19931
G1 X25.314 Y95.204 E16.28073
G1 X25.87 Y92.561 E16.37056
G1 X26.296 Y90.389 E16.44418
G1 X26.412 Y89.848 E16.46258
G1 X26.57 Y89.208 E16.48451
G1 X26.838 Y88.244 E16.51779
G1 X26.895 Y88.045 E16.52467
G1 X28.529 Y82.569 E16.71474
G1 X28.584 Y82.39 E16.72097
G1 X28.739 Y81.901 E16.73803
G1 X28.961 Y81.27 E16.76028
G1 X29.339 Y80.289 E16.79524
G1 X29.415 Y80.097 E16.80211
G1 X31.527 Y74.908 E16.98845
G1 X31.59 Y74.756 E16.99392
G1 X31.801 Y74.259 E17.01188
G1 X32.084 Y73.646 E17.03433
G1 X32.619 Y72.574 E17.07418
G1 X32.722 Y72.372 E17.08172
G1 X34.458 Y69.066 E17.20592
G1 X35.216 Y67.582 E17.26134
G1 X35.273 Y67.474 E17.26541
G1 X35.468 Y67.12 E17.27885
G1 X35.894 Y66.38 E17.30725
G1 X36 Y66.2 E17.3142
G1 X36.385 Y65.561 E17.33901
G1 X36.751 Y64.973 E17.36204
G1 X36.919 Y64.712 E17.37237
G1 X37.283 Y64.163 E17.39428
G1 X38.46 Y62.426 E17.46406
G1 X39.735 Y60.48 E17.54144
G1 X40.125 Y59.901 E17.56466
G1 X40.526 Y59.346 E17.58744
G1 X41.247 Y58.41 E17.62673
G1 X41.385 Y58.234 E17.63417
G1 X44.859 Y53.909 E17.81868
G1 X45.289 Y53.388 E17.84115
G1 X45.728 Y52.89 E17.86323
G1 X46.548 Y52.014 E17.90314
G1 X46.708 Y51.847 E17.91083
G1 X50.563 Y47.898 E18.09438
G0 F6000 X50.849 Y48.177
G1 F1200 X51.343 Y47.684 E18.11759
G1 X51.819 Y47.239 E18.13927
G1 X52.69 Y46.473 E18.17785
G1 X52.855 Y46.331 E18.18509
G1 X56.679 Y43.105 E18.35149
G1 X58.632 Y41.41 E18.4375
G1 X60.475 Y39.717 E18.52073
G1 X62.328 Y37.914 E18.60672
G1 X63.412 Y36.8 E18.65842
G1 X63.452 Y36.762 E18.66026
G1 X64.153 Y36.039 E18.69375
G1 X64.43 Y35.763 E18.70676
G1 X64.863 Y35.348 E18.72671
G1 X65.634 Y34.678 E18.76068
G1 X65.809 Y34.54 E18.76809
G1 X66.616 Y33.963 E18.80109
G1 X66.953 Y33.745 E18.81444
G1 X67.787 Y33.257 E18.84658
G1 X67.869 Y33.214 E18.84966
G1 X68.865 Y32.756 E18.88612
G1 X69.221 Y32.614 E18.89886
G1 X70.22 Y32.273 E18.93397
G1 X70.634 Y32.154 E18.9483
G1 X71.166 Y32.015 E18.96659
G1 X71.347 Y31.973 E18.97277
G1 X71.637 Y31.91 E18.98264
G1 X73.034 Y31.627 E19.03005
G1 X75.489 Y31.057 E19.11387
G1 X77.945 Y30.412 E19.19833
G1 X80.403 Y29.694 E19.2835
G1 X81.667 Y29.293 E19.32761
G1 X86.336 Y27.775 E19.4909
G1 X87.013 Y27.565 E19.51447
G1 X87.644 Y27.391 E19.53625
G1 X88.805 Y27.11 E19.57598
G1 X94.373 Y25.879 E19.76564
G1 X94.517 Y25.848 E19.77054
G1 X95.084 Y25.731 E19.78979
G1 X95.736 Y25.617 E19.81181
G1 X96.877 Y25.455 E19.85014
G1 X97.09 Y25.427 E19.85728
G1 X102.714 Y24.745 E20.04571
G1 X103.269 Y24.685 E20.06428
G1 X103.945 Y24.634 E20.08682
G1 X105.112 Y24.583 E20.12568
G1 X105.316 Y24.576 E20.13247
G1 X106.173 Y24.555 E20.16098
G1 X108.747 Y24.457 E20.24665
G1 X109.011 Y24.443 E20.25544
G1 X109.547 Y24.42 E20.27329
G1 X109.848 Y24.411 E20.2833
G1 X110.125 Y24.407 E20.29252
G1 X110.366 Y24.406 E20.30053
G1 X110.856 Y24.411 E20.31683
G1 X111.787 Y24.43 E20.3478
G1 X112.134 Y24.443 E20.35935
G1 X113.356 Y24.508 E20.40005
G1 X113.561 Y24.521 E20.40689
G1 X119.095 Y24.923 E20.59143
G1 X119.796 Y24.983 E20.61483
G1 X120.453 Y25.06 E20.63684
G1 X121.593 Y25.231 E20.67518
G1 X121.806 Y25.265 E20.68235
G1 X127.263 Y26.197 E20.86648
G1 X127.963 Y26.326 E20.89015
G1 X128.611 Y26.468 E20.91222
G1 X129.737 Y26.751 E20.95083
G1 X129.937 Y26.803 E20.95771
G1 X135.315 Y28.267 E21.14309
G1 X135.954 Y28.451 E21.1652
G1 X136.56 Y28.646 E21.18638
G1 X137.679 Y29.044 E21.22588
G1 X137.888 Y29.121 E21.23329
G1 X139.789 Y29.842 E21.30091
G1 X142.264 Y30.741 E21.38849
G1 X144.669 Y31.538 E21.47276
G1 X147.086 Y32.264 E21.5567
G1 X149.53 Y32.924 E21.6409
G1 X150.721 Y33.21 E21.68164
G1 X151.357 Y33.373 E21.70347
G1 X151.643 Y33.451 E21.71333
G1 X152.05 Y33.568 E21.72742
G1 X153.109 Y33.934 E21.76469
G1 X153.274 Y34.001 E21.77061
G1 X154.118 Y34.387 E21.80148
G1 X154.407 Y34.535 E21.81228
G1 X155.283 Y35.038 E21.84587
G1 X155.646 Y35.27 E21.8602
G1 X156.672 Y36.016 E21.90239
G1 X156.796 Y36.118 E21.90773
G1 X157.397 Y36.652 E21.93447
G1 X157.638 Y36.883 E21.94558
G1 X158.006 Y37.253 E21.96293
G1 X158.127 Y37.381 E21.96879
