;FLAVOR:Marlin
;TIME:6751
;Filament used: 3.78386m
;Layer height: 0.2
;MINX:22.032
;MINY:24.01
;MINZ:0.2
;MAXX:197.968
;MAXY:195.992
;MAXZ:5
;Generated with Cura_SteamEngine master
M140 S60
M105
M190 S60
M104 S200
M105
M109 S200
M82 ;absolute extrusion mode
; Ender 3 Custom Start G-code
G92 E0 ; Reset Extruder
G28 ; Home all axes
G1 Z2.0 F3000 ; Move Z Axis up little to prevent scratching of Heat Bed
G1 X0.1 Y20 Z0.3 F5000.0 ; Move to start position
G1 X0.1 Y200.0 Z0.3 F1500.0 E15 ; Draw the first line
G1 X0.4 Y200.0 Z0.3 F5000.0 ; Move to side a little
G1 X0.4 Y20 Z0.3 F1500.0 E30 ; Draw the second line
G92 E0 ; Reset Extruder
G1 Z2.0 F3000 ; Move Z Axis up little to prevent scratching of Heat Bed
G1 X5 Y20 Z0.3 F5000.0 ; Move over to prevent blob squish
G92 E0
G92 E0
G1 F1500 E-6.5
;LAYER_COUNT:25
;LAYER:0
M107
G0 F6000 X48.585 Y49.826 Z0.2
;TYPE:SKIRT
G1 F1500 E0
G1 F1200 X49.386 Y49.051 E0.03707
G1 X49.544 Y48.901 E0.04432
G1 X53.748 Y44.992 E0.23525
G1 X54.244 Y44.544 E0.25748
G1 X56.121 Y42.798 E0.34274
G1 X57.923 Y41.025 E0.42682
G1 X59.643 Y39.236 E0.50936
G1 X60.732 Y38.049 E0.56294
G1 X61.295 Y37.425 E0.5909
G1 X61.565 Y37.137 E0.60403
G1 X61.958 Y36.732 E0.6228
G1 X62.732 Y36.007 E0.65807
G1 X62.984 Y35.793 E0.66906
G1 X63.805 Y35.16 E0.70354
G1 X64.067 Y34.977 E0.71417
G1 X65.068 Y34.355 E0.75337
G1 X65.179 Y34.294 E0.75758
G1 X66.038 Y33.869 E0.78946
G1 X66.462 Y33.682 E0.80487
G1 X67.58 Y33.26 E0.84462
G1 X67.919 Y33.157 E0.8564
G1 X68.131 Y33.096 E0.86374
G1 X68.421 Y33.017 E0.87374
G1 X69.048 Y32.856 E0.89527
G1 X70.426 Y32.525 E0.9424
G1 X72.849 Y31.869 E1.02589
G1 X75.238 Y31.149 E1.10888
G1 X77.64 Y30.351 E1.19307
G1 X80.036 Y29.48 E1.27786
G1 X82.238 Y28.645 E1.35619
G1 X82.4 Y28.585 E1.36193
G1 X82.934 Y28.392 E1.38082
G1 X83.568 Y28.184 E1.40301
G1 X84.693 Y27.853 E1.44202
G1 X84.908 Y27.792 E1.44945
G1 X90.252 Y26.337 E1.63366
G1 X90.932 Y26.162 E1.65702
G1 X91.578 Y26.017 E1.67904
G1 X92.731 Y25.795 E1.71809
G1 X92.959 Y25.754 E1.72579
G1 X98.557 Y24.799 E1.91467
G1 X99.094 Y24.715 E1.93275
G1 X99.779 Y24.63 E1.95571
G1 X100.977 Y24.519 E1.99573
G1 X101.196 Y24.501 E2.00304
G1 X106.787 Y24.096 E2.18948
G1 X107.546 Y24.051 E2.21477
G1 X107.872 Y24.037 E2.22562
G1 X108.143 Y24.029 E2.23464
G1 X108.388 Y24.024 E2.24279
G1 X109.319 Y24.012 E2.27376
G1 X109.936 Y24.01 E2.29428
G1 X110.206 Y24.012 E2.30326
G1 X110.63 Y24.027 E2.31737
G1 X110.949 Y24.044 E2.328
G1 X113.715 Y24.152 E2.42006
G1 X115.023 Y24.184 E2.46358
G1 X115.674 Y24.208 E2.48525
G1 X116.37 Y24.256 E2.50845
G1 X117.563 Y24.377 E2.54833
G1 X117.779 Y24.401 E2.55556
G1 X123.224 Y25.062 E2.73799
G1 X123.958 Y25.161 E2.76263
G1 X124.628 Y25.274 E2.78523
G1 X125.772 Y25.503 E2.82403
G1 X125.986 Y25.548 E2.8313
G1 X131.54 Y26.776 E3.02049
G1 X132.076 Y26.903 E3.03881
G1 X132.72 Y27.077 E3.061
G1 X133.869 Y27.424 E3.10092
G1 X134.09 Y27.493 E3.10862
G1 X138.308 Y28.864 E3.25614
G1 X140.839 Y29.647 E3.34426
G1 X143.244 Y30.318 E3.4273
G1 X145.629 Y30.911 E3.50904
G1 X147.399 Y31.286 E3.56922
G1 X147.483 Y31.307 E3.5721
G1 X148.7 Y31.575 E3.61355
G1 X149.064 Y31.662 E3.62599
G1 X149.466 Y31.765 E3.6398
G1 X150.385 Y32.044 E3.67174
G1 X150.732 Y32.166 E3.68397
G1 X151.586 Y32.507 E3.71456
G1 X151.664 Y32.542 E3.7174
G1 X152.797 Y33.132 E3.75989
G1 X153.159 Y33.348 E3.77391
G1 X154.025 Y33.922 E3.80847
G1 X154.317 Y34.136 E3.82051
G1 X155.12 Y34.784 E3.85483
G1 X155.299 Y34.943 E3.86279
G1 X155.955 Y35.576 E3.89311
G1 X157.306 Y36.993 E3.95823
G1 X159.084 Y38.754 E4.04146
G1 X160.901 Y40.455 E4.12424
G1 X163.512 Y42.742 E4.23969
G1 X167.698 Y46.275 E4.42188
G1 X168.143 Y46.66 E4.44145
G1 X168.667 Y47.145 E4.46519
G1 X169.499 Y47.965 E4.50405
G1 X169.649 Y48.115 E4.5111
G1 X173.647 Y52.212 E4.7015
G1 X173.997 Y52.581 E4.71842
G1 X174.453 Y53.093 E4.74122
G1 X175.195 Y53.98 E4.77968
G1 X175.334 Y54.149 E4.78696
G1 X178.835 Y58.507 E4.97289
G1 X178.941 Y58.641 E4.97857
G1 X179.239 Y59.024 E4.99471
G1 X179.636 Y59.568 E5.01711
G1 X180.318 Y60.565 E5.05729
G1 X180.44 Y60.747 E5.06457
G1 X181.455 Y62.295 E5.12614
G1 X182.396 Y63.703 E5.18247
G1 X182.995 Y64.583 E5.21787
G1 X183.17 Y64.848 E5.22844
G1 X183.378 Y65.173 E5.24127
G1 X183.525 Y65.409 E5.25052
G1 X183.746 Y65.775 E5.26474
G1 X184.109 Y66.383 E5.28829
G1 X184.324 Y66.747 E5.30235
G1 X184.474 Y67.009 E5.31239
G1 X184.566 Y67.175 E5.3187
G1 X184.751 Y67.522 E5.33178
G1 X185.078 Y68.166 E5.35581
G1 X185.627 Y69.227 E5.39554
G1 X187.494 Y72.786 E5.52921
G1 X187.746 Y73.283 E5.54775
G1 X188.038 Y73.908 E5.57069
G1 X188.5 Y74.981 E5.60955
G1 X188.586 Y75.185 E5.61691
G1 X190.722 Y80.436 E5.80545
G1 X190.922 Y80.946 E5.82367
G1 X191.156 Y81.605 E5.84693
G1 X191.514 Y82.722 E5.88595
G1 X191.58 Y82.935 E5.89336
G1 X193.164 Y88.249 E6.07779
G1 X193.389 Y89.037 E6.10505
G1 X193.535 Y89.602 E6.12446
G1 X193.611 Y89.934 E6.13579
G1 X193.683 Y90.277 E6.14744
G1 X194.096 Y92.39 E6.21905
G1 X194.65 Y95.025 E6.30861
G1 X195.225 Y97.421 E6.39056
G1 X195.888 Y99.877 E6.47517
G1 X196.611 Y102.281 E6.55867
G1 X196.838 Y102.96 E6.58248
G1 X196.868 Y103.066 E6.58614
G1 X197.209 Y104.12 E6.62299
G1 X197.322 Y104.492 E6.63592
G1 X197.473 Y105.022 E6.65425
G1 X197.71 Y106.035 E6.68885
G1 X197.757 Y106.289 E6.69744
G1 X197.897 Y107.31 E6.73172
G1 X197.925 Y107.623 E6.74217
G1 X197.968 Y108.74 E6.77935
G1 X197.964 Y109.06 E6.79
G1 X197.903 Y110.089 E6.82428
G1 X197.869 Y110.408 E6.83495
G1 X197.666 Y111.644 E6.87661
G1 X197.617 Y111.863 E6.88408
G1 X197.5 Y112.335 E6.90025
G1 X197.418 Y112.638 E6.91069
G1 X197.355 Y112.862 E6.91843
G1 X196.957 Y114.218 E6.96543
G1 X196.313 Y116.664 E7.04956
G1 X195.748 Y119.082 E7.13215
G1 X195.02 Y122.778 E7.25744
G1 X194.857 Y123.712 E7.28897
G1 X194.816 Y123.934 E7.29648
G1 X193.746 Y129.401 E7.48177
G1 X193.709 Y129.582 E7.48791
G1 X193.59 Y130.14 E7.50689
G1 X193.43 Y130.792 E7.52922
G1 X193.162 Y131.756 E7.56249
G1 X193.105 Y131.955 E7.56938
G1 X191.471 Y137.431 E7.75945
G1 X191.416 Y137.61 E7.76568
G1 X191.261 Y138.099 E7.78274
G1 X191.039 Y138.73 E7.80499
G1 X190.661 Y139.711 E7.83995
G1 X190.585 Y139.903 E7.84682
G1 X188.473 Y145.092 E8.03316
G1 X188.41 Y145.244 E8.03863
G1 X188.199 Y145.741 E8.05659
G1 X187.914 Y146.359 E8.07922
G1 X186.242 Y149.704 E8.2036
G1 X185.626 Y150.913 E8.24873
G1 X185.507 Y151.139 E8.25723
G1 X185.323 Y151.479 E8.27008
G1 X184.821 Y152.384 E8.30451
G1 X184.37 Y153.17 E8.33465
G1 X184.107 Y153.604 E8.35152
G1 X183.397 Y154.735 E8.39594
G1 X183.279 Y154.92 E8.40324
G1 X180.271 Y159.512 E8.58582
G1 X179.879 Y160.094 E8.60916
G1 X179.473 Y160.657 E8.63224
G1 X178.764 Y161.577 E8.67088
G1 X178.627 Y161.751 E8.67824
G1 X175.141 Y166.091 E8.86339
G1 X174.711 Y166.612 E8.88586
G1 X174.272 Y167.11 E8.90794
G1 X173.452 Y167.986 E8.94785
G1 X173.292 Y168.153 E8.95554
G1 X169.437 Y172.102 E9.13909
G1 X168.939 Y172.599 E9.16249
G1 X168.441 Y173.065 E9.18518
G1 X166.876 Y174.44 E9.25446
G1 X166.751 Y174.56 E9.26023
G1 X166.203 Y175.035 E9.28435
G1 X164.322 Y176.764 E9.36933
G1 X162.564 Y178.474 E9.4509
G1 X160.801 Y180.288 E9.53503
G1 X159.355 Y181.862 E9.60612
G1 X159.282 Y181.935 E9.60955
G1 X158.692 Y182.588 E9.63882
G1 X158.438 Y182.86 E9.6512
G1 X158.058 Y183.253 E9.66938
G1 X157.257 Y184.003 E9.70588
G1 X157.003 Y184.218 E9.71695
G1 X156.204 Y184.834 E9.7505
G1 X155.944 Y185.016 E9.76106
G1 X154.927 Y185.648 E9.80089
G1 X154.814 Y185.71 E9.80517
G1 X153.962 Y186.131 E9.83678
G1 X153.538 Y186.318 E9.85219
G1 X152.42 Y186.74 E9.89194
G1 X152.101 Y186.837 E9.90303
G1 X151.894 Y186.897 E9.9102
G1 X151.574 Y186.985 E9.92124
G1 X150.56 Y187.246 E9.95606
G1 X150.069 Y187.365 E9.97286
G1 X147.618 Y188.031 E10.05734
G1 X145.199 Y188.762 E10.14139
G1 X142.82 Y189.555 E10.2248
G1 X141.293 Y190.116 E10.2789
G1 X141.108 Y190.182 E10.28544
G1 X139.262 Y190.823 E10.35043
G1 X139.053 Y190.894 E10.35777
G1 X133.787 Y192.605 E10.54193
G1 X133.118 Y192.813 E10.56524
G1 X132.456 Y192.996 E10.58808
G1 X131.294 Y193.278 E10.62785
G1 X131.071 Y193.329 E10.63546
G1 X125.568 Y194.543 E10.82289
G1 X125.002 Y194.66 E10.84211
G1 X124.32 Y194.779 E10.86514
G1 X123.178 Y194.941 E10.9035
G1 X122.959 Y194.97 E10.91085
G1 X117.473 Y195.636 E11.09465
G1 X116.762 Y195.713 E11.11844
G1 X116.074 Y195.765 E11.14139
G1 X115.004 Y195.812 E11.17701
G1 X114.063 Y195.867 E11.20836
G1 X113.853 Y195.87 E11.21535
G1 X112.432 Y195.948 E11.26268
G1 X112.143 Y195.96 E11.2723
G1 X111.789 Y195.97 E11.28408
G1 X110.699 Y195.988 E11.32034
G1 X109.577 Y195.992 E11.35766
G1 X109.342 Y195.99 E11.36547
G1 X108.274 Y195.971 E11.401
G1 X107.894 Y195.958 E11.41365
G1 X106.617 Y195.891 E11.45618
G1 X106.396 Y195.877 E11.46354
G1 X100.723 Y195.464 E11.65273
G1 X100.169 Y195.416 E11.67122
G1 X99.487 Y195.335 E11.69407
G1 X98.347 Y195.164 E11.73241
G1 X98.127 Y195.129 E11.73982
G1 X92.67 Y194.197 E11.92395
G1 X91.964 Y194.067 E11.94782
G1 X91.292 Y193.92 E11.9707
G1 X90.162 Y193.636 E12.00945
G1 X89.954 Y193.582 E12.0166
G1 X84.58 Y192.119 E12.20185
G1 X83.842 Y191.907 E12.22739
G1 X83.344 Y191.751 E12.24474
G1 X81.244 Y191.036 E12.31853
G1 X78.877 Y190.303 E12.40094
G1 X76.433 Y189.622 E12.48533
G1 X74.025 Y189.022 E12.56787
G1 X72.601 Y188.721 E12.61627
G1 X72.339 Y188.654 E12.62527
G1 X71.297 Y188.424 E12.66076
G1 X70.942 Y188.339 E12.6729
G1 X70.539 Y188.236 E12.68674
G1 X69.597 Y187.95 E12.71948
G1 X69.249 Y187.827 E12.73176
G1 X68.412 Y187.492 E12.76174
G1 X68.334 Y187.457 E12.76458
G1 X67.197 Y186.865 E12.80722
G1 X66.837 Y186.65 E12.82117
G1 X65.969 Y186.075 E12.8558
G1 X65.676 Y185.86 E12.86788
G1 X64.873 Y185.21 E12.90224
G1 X64.692 Y185.049 E12.9103
G1 X64.173 Y184.556 E12.93411
G1 X63.892 Y184.269 E12.94747
G1 X62.912 Y183.241 E12.99471
G1 X61.133 Y181.478 E13.07801
G1 X59.295 Y179.757 E13.16176
G1 X57.401 Y178.082 E13.24585
G1 X55.473 Y176.472 E13.3294
G1 X54.956 Y176.058 E13.35143
G1 X54.5 Y175.672 E13.3713
G1 X53.601 Y174.869 E13.41139
G1 X53.438 Y174.721 E13.41871
G1 X49.36 Y170.929 E13.60393
G1 X48.83 Y170.421 E13.62834
G1 X48.364 Y169.946 E13.65048
G1 X47.589 Y169.106 E13.68849
G1 X47.442 Y168.943 E13.69579
G1 X43.758 Y164.786 E13.88053
G1 X43.647 Y164.659 E13.88614
G1 X43.299 Y164.254 E13.9039
G1 X42.876 Y163.731 E13.92627
G1 X42.155 Y162.78 E13.96597
G1 X42.021 Y162.599 E13.97346
G1 X38.79 Y158.151 E14.15631
G1 X38.361 Y157.545 E14.18101
G1 X37.998 Y156.996 E14.2029
G1 X37.709 Y156.53 E14.22113
G1 X36.239 Y154.193 E14.31296
G1 X36.119 Y153.997 E14.3206
G1 X35.89 Y153.614 E14.33545
G1 X35.561 Y153.047 E14.35725
G1 X35.416 Y152.79 E14.36706
G1 X34.762 Y151.59 E14.41252
G1 X34.095 Y150.392 E14.45812
G1 X33.826 Y149.878 E14.47742
G1 X33.294 Y148.792 E14.51764
G1 X33.197 Y148.589 E14.52512
G1 X30.776 Y143.377 E14.71627
G1 X30.564 Y142.9 E14.73363
G1 X30.319 Y142.3 E14.75518
G1 X29.902 Y141.19 E14.79462
G1 X29.822 Y140.972 E14.80234
G1 X27.994 Y135.775 E14.98558
G1 X27.941 Y135.621 E14.99099
G1 X27.763 Y135.09 E15.00962
G1 X27.568 Y134.442 E15.03213
G1 X27.267 Y133.319 E15.0708
G1 X27.212 Y133.105 E15.07815
G1 X25.888 Y127.737 E15.26204
G1 X25.849 Y127.574 E15.26761
G1 X25.686 Y126.867 E15.29174
G1 X25.63 Y126.611 E15.30046
G1 X25.589 Y126.411 E15.30725
G1 X25.032 Y123.846 E15.39455
G1 X24.445 Y121.466 E15.47608
G1 X23.757 Y118.984 E15.56175
G1 X22.997 Y116.518 E15.64757
G1 X22.791 Y115.879 E15.6699
G1 X22.687 Y115.537 E15.68179
G1 X22.533 Y115.001 E15.70034
G1 X22.28 Y113.916 E15.7374
G1 X22.234 Y113.661 E15.74602
G1 X22.103 Y112.694 E15.77847
G1 X22.075 Y112.383 E15.78886
G1 X22.032 Y111.26 E15.82624
G1 X22.036 Y110.94 E15.83688
G1 X22.097 Y109.911 E15.87116
G1 X22.131 Y109.592 E15.88184
G1 X22.341 Y108.326 E15.92452
G1 X22.397 Y108.079 E15.93294
G1 X22.517 Y107.6 E15.94937
G1 X22.616 Y107.245 E15.96162
G1 X23.097 Y105.609 E16.01834
G1 X23.74 Y103.167 E16.10233
G1 X24.313 Y100.706 E16.18637
G1 X24.794 Y98.357 E16.26612
G1 X25.328 Y95.165 E16.37376
G1 X25.353 Y95.045 E16.37784
G1 X25.519 Y94.011 E16.41267
G1 X25.651 Y93.328 E16.43581
G1 X25.906 Y92.199 E16.4743
G1 X25.956 Y91.988 E16.48152
G1 X27.329 Y86.425 E16.6721
G1 X27.457 Y85.935 E16.68894
G1 X27.651 Y85.276 E16.71179
G1 X28.013 Y84.176 E16.7503
G1 X28.086 Y83.964 E16.75776
G1 X29.967 Y78.621 E16.94616
G1 X30.162 Y78.088 E16.96504
G1 X30.428 Y77.427 E16.98874
G1 X30.885 Y76.391 E17.0264
G1 X30.974 Y76.194 E17.03359
G1 X33.32 Y71.147 E17.2187
G1 X33.69 Y70.376 E17.24714
G1 X33.947 Y69.875 E17.26587
G1 X34.525 Y68.817 E17.30597
G1 X34.786 Y68.326 E17.32446
G1 X34.876 Y68.16 E17.33075
G1 X35.069 Y67.812 E17.34398
G1 X35.518 Y67.027 E17.37406
G1 X35.683 Y66.749 E17.38481
G1 X36.08 Y66.103 E17.41003
G1 X36.852 Y64.881 E17.45811
G1 X37.204 Y64.293 E17.4809
G1 X37.782 Y63.339 E17.518
G1 X38.171 Y62.742 E17.5417
G1 X38.828 Y61.801 E17.57987
G1 X38.947 Y61.633 E17.58672
G1 X42.196 Y57.16 E17.77059
G1 X42.625 Y56.585 E17.79445
G1 X43.051 Y56.051 E17.81718
G1 X43.817 Y55.15 E17.85651
G1 X43.965 Y54.98 E17.86401
G1 X47.744 Y50.716 E18.05351
G1 X48.101 Y50.324 E18.07114
G1 X48.585 Y49.826 E18.09424
G0 F6000 X48.863 Y50.113
G1 F1200 X49.664 Y49.338 E18.13131
G1 X49.816 Y49.194 E18.13827
G1 X54.016 Y45.289 E18.32902
G1 X54.501 Y44.851 E18.35075
G1 X56.402 Y43.083 E18.4371
G1 X58.191 Y41.323 E18.52057
G1 X59.943 Y39.5 E18.60466
G1 X60.968 Y38.383 E18.65509
G1 X61.591 Y37.693 E18.68601
G1 X61.852 Y37.415 E18.69869
G1 X62.245 Y37.01 E18.71746
G1 X62.991 Y36.312 E18.75144
G1 X63.243 Y36.098 E18.76244
G1 X64.034 Y35.488 E18.79566
G1 X64.296 Y35.305 E18.80629
G1 X65.261 Y34.705 E18.84408
G1 X65.372 Y34.644 E18.84829
G1 X66.2 Y34.235 E18.87901
G1 X66.624 Y34.048 E18.89442
G1 X67.701 Y33.642 E18.93271
G1 X68.03 Y33.541 E18.94415
G1 X68.242 Y33.48 E18.95149
G1 X68.521 Y33.404 E18.96111
G1 X69.141 Y33.245 E18.9824
G1 X70.518 Y32.914 E19.0295
G1 X72.974 Y32.249 E19.11413
G1 X75.365 Y31.529 E19.19718
G1 X77.766 Y30.731 E19.28133
G1 X80.167 Y29.858 E19.36631
G1 X82.536 Y28.961 E19.45056
G1 X83.07 Y28.768 E19.46944
G1 X83.681 Y28.568 E19.49083
G1 X84.806 Y28.237 E19.52983
G1 X85.013 Y28.178 E19.53699
G1 X90.357 Y26.723 E19.7212
G1 X91.031 Y26.55 E19.74435
G1 X91.654 Y26.41 E19.76558
G1 X92.807 Y26.188 E19.80464
G1 X93.027 Y26.148 E19.81207
G1 X98.619 Y25.194 E20.00075
G1 X99.156 Y25.11 E20.01883
G1 X99.816 Y25.028 E20.04095
G1 X101.014 Y24.917 E20.08097
G1 X101.225 Y24.9 E20.08801
G1 X106.671 Y24.505 E20.26962
G1 X107.57 Y24.451 E20.29957
G1 X107.884 Y24.437 E20.31003
G1 X108.155 Y24.429 E20.31904
G1 X108.391 Y24.424 E20.32689
G1 X109.321 Y24.412 E20.35783
G1 X109.938 Y24.41 E20.37835
G1 X110.2 Y24.412 E20.38706
G1 X110.608 Y24.426 E20.40064
G1 X110.978 Y24.446 E20.41297
G1 X113.687 Y24.552 E20.50314
G1 X115.014 Y24.584 E20.54729
G1 X115.659 Y24.608 E20.56875
G1 X116.33 Y24.654 E20.59112
G1 X117.523 Y24.775 E20.63101
G1 X117.73 Y24.798 E20.63793
G1 X123.175 Y25.459 E20.82037
G1 X123.904 Y25.558 E20.84483
G1 X124.55 Y25.666 E20.86662
G1 X125.694 Y25.895 E20.90542
G1 X125.9 Y25.939 E20.91243
G1 X131.291 Y27.13 E21.09606
G1 X131.984 Y27.293 E21.11974
G1 X132.605 Y27.46 E21.14113
G1 X133.754 Y27.807 E21.18105
G1 X133.966 Y27.873 E21.18843
G1 X138.257 Y29.268 E21.3385
G1 X140.686 Y30.02 E21.42307
G1 X143.145 Y30.706 E21.50798
G1 X145.54 Y31.301 E21.59006
G1 X147.316 Y31.677 E21.65044
G1 X147.397 Y31.698 E21.65323
G1 X148.614 Y31.966 E21.69467
G1 X148.965 Y32.05 E21.70668
G1 X149.367 Y32.153 E21.72048
G1 X150.252 Y32.421 E21.75124
G1 X150.599 Y32.543 E21.76347
G1 X151.423 Y32.872 E21.79298
G1 X151.501 Y32.907 E21.79582
G1 X152.592 Y33.475 E21.83673
G1 X152.954 Y33.691 E21.85075
G1 X153.789 Y34.244 E21.88406
G1 X154.081 Y34.458 E21.8961
G1 X154.855 Y35.083 E21.92919
G1 X155.034 Y35.242 E21.93716
G1 X155.666 Y35.852 E21.96637
G1 X157.018 Y37.27 E22.03154
G1 X158.812 Y39.047 E22.11552
G1 X160.646 Y40.764 E22.19908
G1 X163.246 Y43.041 E22.31403
G1 X167.337 Y46.493 E22.49207
G1 X167.881 Y46.963 E22.51598
G1 X168.387 Y47.429 E22.53886
G1 X169.219 Y48.249 E22.57771
G1 X169.363 Y48.395 E22.58453
G1 X173.357 Y52.487 E22.77472
G1 X173.707 Y52.856 E22.79163
G1 X174.146 Y53.35 E22.81361
G1 X175.022 Y54.399 E22.85907
G1 X178.523 Y58.757 E23.04499
