;FLAVOR:Marlin
;TIME:14522
;Filament used: 8.41529m
;Layer height: 0.2
;MINX:52.801
;MINY:71.5
;MINZ:0.2
;MAXX:167.045
;MAXY:144.546
;MAXZ:30
;Generated with Cura_SteamEngine master
M140 S60
M105
M190 S60
M104 S200
M105
M109 S200
M82 ;absolute extrusion mode
; Ender 3 Custom Start G-code
G92 E0 ; Reset Extruder
G28 ; Home all axes
G1 Z2.0 F3000 ; Move Z Axis up little to prevent scratching of Heat Bed
G1 X0.1 Y20 Z0.3 F5000.0 ; Move to start position
G1 X0.1 Y200.0 Z0.3 F1500.0 E15 ; Draw the first line
G1 X0.4 Y200.0 Z0.3 F5000.0 ; Move to side a little
G1 X0.4 Y20 Z0.3 F1500.0 E30 ; Draw the second line
G92 E0 ; Reset Extruder
G1 Z2.0 F3000 ; Move Z Axis up little to prevent scratching of Heat Bed
G1 X5 Y20 Z0.3 F5000.0 ; Move over to prevent blob squish
G92 E0
G92 E0
G1 F1500 E-6.5
;LAYER_COUNT:150
;LAYER:0
M107
G0 F6000 X57.44 Y75.998 Z0.2
;TYPE:SKIRT
G1 F1500 E0
G1 F1200 X58.227 Y75.488 E0.03119
G1 X59.055 Y75.047 E0.06239
G1 X59.917 Y74.678 E0.09358
G1 X60.808 Y74.384 E0.12479
G1 X61.72 Y74.166 E0.15597
G1 X62.647 Y74.028 E0.18715
G1 X63.461 Y73.972 E0.21428
G1 X63.713 Y73.964 E0.22267
G1 X64.062 Y73.958 E0.23428
G1 X87.164 Y73.958 E1.00265
G1 X89.772 Y73.921 E1.08941
G1 X92.293 Y73.814 E1.17333
G1 X94.788 Y73.637 E1.25652
G1 X97.288 Y73.389 E1.34008
G1 X99.781 Y73.07 E1.42367
G1 X102.274 Y72.679 E1.50761
G1 X104.752 Y72.218 E1.59144
G1 X106.328 Y71.878 E1.64506
G1 X107.092 Y71.724 E1.67098
G1 X108.018 Y71.579 E1.70216
G1 X108.947 Y71.513 E1.73314
G1 X109.267 Y71.504 E1.74378
G1 X109.576 Y71.5 E1.75406
G1 X110.215 Y71.501 E1.77531
G1 X110.916 Y71.511 E1.79863
G1 X111.852 Y71.564 E1.82981
G1 X112.752 Y71.692 E1.86005
G1 X113.111 Y71.763 E1.87222
G1 X113.996 Y71.953 E1.90233
G1 X116.499 Y72.455 E1.98723
G1 X118.987 Y72.882 E2.0712
G1 X121.499 Y73.239 E2.15558
G1 X123.979 Y73.52 E2.2386
G1 X126.524 Y73.736 E2.32355
G1 X128.948 Y73.874 E2.4043
G1 X132.908 Y73.957 E2.53604
G1 X155.496 Y73.958 E3.28732
G1 X156.194 Y73.968 E3.31054
G1 X157.13 Y74.022 E3.34172
G1 X158.058 Y74.154 E3.3729
G1 X158.972 Y74.366 E3.4041
G1 X159.864 Y74.655 E3.43529
G1 X160.729 Y75.018 E3.46649
G1 X161.559 Y75.454 E3.49767
G1 X162.35 Y75.959 E3.52889
G1 X163.094 Y76.53 E3.56008
G1 X163.787 Y77.162 E3.59128
G1 X164.424 Y77.85 E3.62246
G1 X164.999 Y78.591 E3.65366
G1 X165.51 Y79.377 E3.68484
G1 X165.952 Y80.205 E3.71606
G1 X166.321 Y81.067 E3.74724
G1 X166.616 Y81.957 E3.77843
G1 X166.834 Y82.869 E3.80962
G1 X166.974 Y83.797 E3.84083
G1 X167.031 Y84.652 E3.86933
G1 X167.04 Y84.966 E3.87978
G1 X167.045 Y85.281 E3.89026
G1 X167.044 Y132.942 E5.47547
G1 X167.035 Y133.672 E5.49975
G1 X166.984 Y134.608 E5.53093
G1 X166.853 Y135.537 E5.56213
G1 X166.643 Y136.451 E5.59332
G1 X166.356 Y137.344 E5.62452
G1 X165.994 Y138.209 E5.65571
G1 X165.56 Y139.04 E5.68689
G1 X165.056 Y139.832 E5.71811
G1 X164.487 Y140.577 E5.74929
G1 X163.857 Y141.271 E5.78047
G1 X163.169 Y141.909 E5.81168
G1 X162.43 Y142.487 E5.84288
G1 X161.645 Y142.999 E5.87405
G1 X160.818 Y143.442 E5.90526
G1 X159.957 Y143.814 E5.93645
G1 X159.067 Y144.11 E5.96765
G1 X158.155 Y144.33 E5.99885
G1 X157.228 Y144.471 E6.03004
G1 X156.344 Y144.532 E6.05951
G1 X156.023 Y144.541 E6.07019
G1 X155.715 Y144.545 E6.08044
G1 X64.501 Y144.546 E9.11423
G1 X64.339 Y144.545 E9.11961
G1 X63.661 Y144.535 E9.14217
G1 X62.724 Y144.481 E9.17338
G1 X61.796 Y144.348 E9.20456
G1 X60.883 Y144.136 E9.23574
G1 X59.99 Y143.847 E9.26696
G1 X59.126 Y143.483 E9.29814
G1 X58.296 Y143.046 E9.32934
G1 X57.506 Y142.541 E9.36052
G1 X56.762 Y141.97 E9.39172
G1 X56.069 Y141.338 E9.42291
G1 X55.432 Y140.649 E9.45412
G1 X54.857 Y139.909 E9.48529
G1 X54.347 Y139.122 E9.51648
G1 X53.905 Y138.294 E9.5477
G1 X53.536 Y137.432 E9.57888
G1 X53.242 Y136.542 E9.61006
G1 X53.024 Y135.629 E9.64128
G1 X52.885 Y134.702 E9.67246
G1 X52.825 Y133.764 E9.70372
G1 X52.803 Y132.702 E9.73905
G1 X52.801 Y132.474 E9.74663
G1 X52.801 Y85.466 E11.31012
G1 X52.811 Y84.801 E11.33224
G1 X52.865 Y83.864 E11.36346
G1 X52.999 Y82.936 E11.39465
G1 X53.211 Y82.022 E11.42585
G1 X53.5 Y81.13 E11.45704
G1 X53.865 Y80.266 E11.48824
G1 X54.301 Y79.436 E11.51942
G1 X54.807 Y78.646 E11.55062
G1 X55.378 Y77.902 E11.58182
G1 X56.01 Y77.209 E11.61301
G1 X56.699 Y76.573 E11.6442
G1 X57.44 Y75.998 E11.67539
G0 F6000 X57.824 Y76.218
G1 F1200 X58.606 Y75.731 E11.70603
G1 X59.427 Y75.315 E11.73665
G1 X60.281 Y74.971 E11.76727
G1 X61.161 Y74.702 E11.79787
G1 X62.062 Y74.511 E11.82851
G1 X62.976 Y74.399 E11.85913
G1 X63.474 Y74.371 E11.87572
G1 X63.726 Y74.363 E11.88411
G1 X64.062 Y74.358 E11.89529
G1 X87.17 Y74.358 E12.66386
G1 X89.795 Y74.321 E12.75118
G1 X92.303 Y74.214 E12.83467
G1 X94.823 Y74.036 E12.91869
G1 X97.338 Y73.787 E13.00275
G1 X99.827 Y73.468 E13.08621
G1 X102.379 Y73.067 E13.17214
G1 X104.805 Y72.616 E13.25421
G1 X106.413 Y72.269 E13.30892
G1 X107.171 Y72.116 E13.33464
G1 X108.08 Y71.974 E13.36524
G1 X108.958 Y71.913 E13.39451
G1 X109.278 Y71.904 E13.40516
G1 X109.576 Y71.9 E13.41507
G1 X110.058 Y71.9 E13.4311
G1 X110.91 Y71.911 E13.45944
G1 X111.829 Y71.964 E13.49006
G1 X112.679 Y72.085 E13.51862
G1 X113.027 Y72.154 E13.53042
G1 X113.912 Y72.344 E13.56052
G1 X116.424 Y72.848 E13.64574
G1 X118.929 Y73.278 E13.73027
G1 X121.469 Y73.639 E13.8156
G1 X123.936 Y73.919 E13.89818
G1 X126.468 Y74.133 E13.9827
G1 X128.945 Y74.274 E14.06522
G1 X132.899 Y74.357 E14.19676
G1 X155.49 Y74.358 E14.94813
G1 X156.188 Y74.368 E14.97135
G1 X157.107 Y74.421 E15.00197
G1 X158.018 Y74.554 E15.03259
G1 X158.914 Y74.765 E15.06321
G1 X159.788 Y75.053 E15.09381
G1 X160.635 Y75.416 E15.12446
G1 X161.446 Y75.851 E15.15507
G1 X162.216 Y76.355 E15.18568
G1 X162.94 Y76.924 E15.21631
G1 X163.612 Y77.554 E15.24695
G1 X164.227 Y78.239 E15.27756
G1 X164.78 Y78.975 E15.30818
G1 X165.267 Y79.756 E15.3388
G1 X165.684 Y80.577 E15.36942
G1 X166.029 Y81.431 E15.40006
G1 X166.298 Y82.311 E15.43066
G1 X166.49 Y83.212 E15.4613
G1 X166.603 Y84.125 E15.4919
G1 X166.632 Y84.663 E15.50982
G1 X166.641 Y84.977 E15.52027
G1 X166.645 Y85.281 E15.53038
G1 X166.644 Y132.937 E17.11543
G1 X166.635 Y133.667 E17.13971
G1 X166.584 Y134.586 E17.17032
G1 X166.453 Y135.497 E17.20093
G1 X166.244 Y136.394 E17.23157
G1 X165.957 Y137.269 E17.26219
G1 X165.596 Y138.115 E17.29279
G1 X165.162 Y138.928 E17.32344
G1 X164.66 Y139.699 E17.35404
G1 X164.093 Y140.424 E17.38465
G1 X163.465 Y141.097 E17.41527
G1 X162.78 Y141.714 E17.44593
G1 X162.045 Y142.268 E17.47654
G1 X161.265 Y142.756 E17.50714
G1 X160.445 Y143.175 E17.53777
G1 X159.592 Y143.522 E17.5684
G1 X158.712 Y143.793 E17.59903
G1 X157.812 Y143.986 E17.62964
G1 X156.899 Y144.101 E17.66025
G1 X156.333 Y144.132 E17.6791
G1 X156.012 Y144.141 E17.68978
G1 X155.715 Y144.145 E17.69966
G1 X64.501 Y144.146 E20.73345
G1 X64.345 Y144.145 E20.73864
G1 X63.667 Y144.135 E20.76119
G1 X62.748 Y144.081 E20.79181
G1 X61.837 Y143.948 E20.82243
G1 X60.941 Y143.737 E20.85305
G1 X60.066 Y143.448 E20.8837
G1 X59.22 Y143.085 E20.91432
G1 X58.409 Y142.649 E20.94494
G1 X57.639 Y142.145 E20.97555
G1 X56.915 Y141.576 E21.00618
G1 X56.244 Y140.946 E21.03679
G1 X55.629 Y140.261 E21.06741
G1 X55.077 Y139.524 E21.09803
G1 X54.59 Y138.743 E21.12865
G1 X54.173 Y137.922 E21.15927
G1 X53.829 Y137.068 E21.18989
G1 X53.56 Y136.188 E21.2205
G1 X53.369 Y135.287 E21.25113
G1 X53.256 Y134.373 E21.28177
G1 X53.225 Y133.756 E21.30231
G1 X53.203 Y132.694 E21.33764
G1 X53.201 Y132.474 E21.34496
G1 X53.201 Y85.472 E22.90825
G1 X53.211 Y84.807 E22.93037
G1 X53.265 Y83.888 E22.96099
G1 X53.398 Y82.977 E22.99161
G1 X53.61 Y82.081 E23.02224
G1 X53.899 Y81.206 E23.05289
G1 X54.263 Y80.361 E23.08349
G1 X54.698 Y79.55 E23.1141
G1 X55.203 Y78.779 E23.14475
G1 X55.772 Y78.056 E23.17535
G1 X56.402 Y77.384 E23.20599
G1 X57.088 Y76.77 E23.23661
G1 X57.824 Y76.218 E23.26721
G0 F6000 X58.207 Y76.442
G1 F1200 X58.983 Y75.98 E23.29725
G1 X59.797 Y75.589 E23.32728
G1 X60.642 Y75.27 E23.35732
G1 X61.512 Y75.028 E23.38736
G1 X62.4 Y74.864 E23.41739
G1 X63.486 Y74.771 E23.45365
G1 X63.738 Y74.763 E23.46203
G1 X64.062 Y74.758 E23.47281
G1 X87.176 Y74.758 E24.24158
G1 X89.782 Y74.721 E24.32827
G1 X92.347 Y74.612 E24.41366
G1 X94.854 Y74.434 E24.49725
G1 X97.395 Y74.183 E24.58218
G1 X99.903 Y73.862 E24.66627
G1 X102.408 Y73.468 E24.75061
G1 X104.89 Y73.007 E24.83458
G1 X106.641 Y72.63 E24.89415
G1 X107.249 Y72.508 E24.91478
G1 X108.142 Y72.37 E24.94483
G1 X108.969 Y72.313 E24.9724
G1 X109.289 Y72.304 E24.98305
G1 X109.576 Y72.3 E24.9926
G1 X110.058 Y72.3 E25.00863
G1 X110.904 Y72.311 E25.03677
G1 X111.806 Y72.364 E25.06682
G1 X112.607 Y72.479 E25.09373
G1 X112.943 Y72.545 E25.10512
G1 X113.827 Y72.735 E25.1352
G1 X116.377 Y73.247 E25.2217
G1 X118.882 Y73.676 E25.30623
G1 X121.364 Y74.029 E25.38961
G1 X123.929 Y74.32 E25.47547
G1 X126.41 Y74.53 E25.55829
G1 X128.943 Y74.674 E25.64267
G1 X132.891 Y74.757 E25.77401
G1 X155.484 Y74.758 E26.52546
G1 X156.182 Y74.768 E26.54868
G1 X157.084 Y74.821 E26.57873
G1 X157.977 Y74.953 E26.60875
G1 X158.855 Y75.164 E26.63879
G1 X159.711 Y75.452 E26.66882
G1 X160.538 Y75.814 E26.69885
G1 X161.33 Y76.249 E26.7289
G1 X162.081 Y76.751 E26.75895
G1 X162.784 Y77.318 E26.78899
G1 X163.434 Y77.945 E26.81903
G1 X164.026 Y78.627 E26.84906
G1 X164.556 Y79.358 E26.87909
G1 X165.018 Y80.134 E26.90913
G1 X165.411 Y80.947 E26.93917
G1 X165.729 Y81.792 E26.9692
G1 X165.972 Y82.662 E26.99924
G1 X166.137 Y83.55 E27.02928
G1 X166.232 Y84.675 E27.06683
G1 X166.241 Y84.989 E27.07728
G1 X166.245 Y85.281 E27.08699
G1 X166.244 Y132.932 E28.67187
G1 X166.235 Y133.662 E28.69615
G1 X166.184 Y134.563 E28.72617
G1 X166.053 Y135.457 E28.75622
G1 X165.844 Y136.336 E28.78627
G1 X165.558 Y137.192 E28.81629
G1 X165.197 Y138.02 E28.84633
G1 X164.765 Y138.813 E28.87637
G1 X164.264 Y139.564 E28.90639
G1 X163.699 Y140.268 E28.93642
G1 X163.073 Y140.92 E28.96648
G1 X162.392 Y141.513 E28.99651
G1 X161.662 Y142.044 E29.02654
G1 X160.887 Y142.509 E29.0566
G1 X160.074 Y142.902 E29.08663
G1 X159.23 Y143.223 E29.11666
G1 X158.361 Y143.468 E29.14669
G1 X157.473 Y143.634 E29.17674
G1 X156.322 Y143.732 E29.21516
G1 X156.001 Y143.741 E29.22584
G1 X155.715 Y143.745 E29.23536
G1 X64.501 Y143.746 E32.26915
G1 X63.673 Y143.735 E32.29669
G1 X62.771 Y143.682 E32.32674
G1 X61.878 Y143.549 E32.35677
G1 X61 Y143.337 E32.38681
G1 X60.144 Y143.049 E32.41685
G1 X59.317 Y142.687 E32.44688
G1 X58.525 Y142.252 E32.47693
G1 X57.775 Y141.749 E32.50696
G1 X57.072 Y141.182 E32.537
G1 X56.422 Y140.555 E32.56704
G1 X55.83 Y139.873 E32.59708
G1 X55.301 Y139.141 E32.62712
G1 X54.839 Y138.365 E32.65716
G1 X54.447 Y137.552 E32.68717
G1 X54.128 Y136.707 E32.71722
G1 X53.886 Y135.837 E32.74725
G1 X53.721 Y134.949 E32.77729
G1 X53.625 Y133.747 E32.8174
G1 X53.603 Y132.685 E32.85273
G1 X53.601 Y132.474 E32.85975
G1 X53.601 Y85.478 E34.42284
G1 X53.611 Y84.813 E34.44496
G1 X53.665 Y83.911 E34.47501
G1 X53.798 Y83.018 E34.50504
G1 X54.009 Y82.14 E34.53508
G1 X54.298 Y81.284 E34.56513
G1 X54.661 Y80.457 E34.59516
G1 X55.095 Y79.666 E34.62517
G1 X55.598 Y78.915 E34.65524
G1 X56.166 Y78.213 E34.68527
G1 X56.793 Y77.563 E34.71531
G1 X57.475 Y76.971 E34.74535
G1 X58.207 Y76.442 E34.77538
G1 F1500 E28.27538
;MESH:base.stl
G0 F6000 X64.121 Y84.291
G0 X64.12 Y85.276
G0 X64.583 Y132.764
G0 X68.758 Y132.764
G0 X68.758 Y129.018
G0 X72.07 Y129.472
G0 X72.341 Y132.6
;TYPE:WALL-INNER
G1 F1500 E34.77538
G1 F1200 X72.342 Y129.399 E34.88185
G1 X72.342 Y129.2 E34.88847
G1 X72.143 Y129.2 E34.89275
G1 X68.94 Y129.2 E34.99928
G1 X68.94 Y132.6 E35.11237
G1 X72.341 Y132.6 E35.22549
G0 F6000 X71.941 Y132.2
;TYPE:WALL-OUTER
G1 F1200 X71.942 Y129.6 E35.31196
G1 X69.34 Y129.6 E35.39851
G1 X69.34 Y132.2 E35.48498
G1 X71.941 Y132.2 E35.57149
G0 F6000 X71.941 Y132.4
G0 X72.523 Y132.764
G0 X86.583 Y132.764
G0 X90.166 Y132.6
;TYPE:WALL-INNER
G1 F1200 X90.166 Y129.2 E35.68458
G1 X86.765 Y129.2 E35.79769
G1 X86.765 Y132.6 E35.91078
G1 X90.166 Y132.6 E36.0239
G0 F6000 X89.766 Y132.2
;TYPE:WALL-OUTER
G1 F1200 X89.766 Y129.6 E36.11037
G1 X87.165 Y129.6 E36.19688
G1 X87.165 Y132.2 E36.28336
G1 X89.766 Y132.2 E36.36987
G1 F1500 E29.86987
G0 F6000 X89.966 Y132.2
G0 X107.4 Y132.736
G0 X107.401 Y134.21
G0 X108.653 Y103.847
G0 X107.4 Y105.29
G0 X107.4 Y105.1
;TYPE:WALL-INNER
G1 F1500 E36.36987
G1 F1200 X112.6 Y105.1 E36.54282
G1 X112.6 Y99.9 E36.71577
G1 X107.4 Y99.9 E36.88873
G1 X107.4 Y105.1 E37.06168
G0 F6000 X107.8 Y104.7
;TYPE:WALL-OUTER
G1 F1200 X112.2 Y104.7 E37.20802
G1 X112.2 Y100.3 E37.35437
G1 X107.8 Y100.3 E37.50071
G1 X107.8 Y104.7 E37.64706
G1 F1500 E31.14706
G0 F6000 X107.6 Y104.7
G0 X107.23 Y103.173
G0 X108.665 Y103.173
G0 X71.088 Y88.847
G0 X71.116 Y90.27
G0 X72.341 Y90.1
;TYPE:WALL-INNER
G1 F1500 E37.64706
G1 F1200 X72.342 Y86.899 E37.75352
G1 X72.342 Y86.7 E37.76014
G1 X72.143 Y86.7 E37.76442
G1 X68.94 Y86.7 E37.87096
G1 X68.94 Y90.1 E37.98404
G1 X72.341 Y90.1 E38.09716
G0 F6000 X71.941 Y89.7
;TYPE:WALL-OUTER
G1 F1200 X71.942 Y87.1 E38.18363
G1 X69.34 Y87.1 E38.27018
G1 X69.34 Y89.7 E38.35665
G1 X71.941 Y89.7 E38.44316
G1 F1500 E31.94316
G0 F6000 X71.941 Y89.9
G0 X72.532 Y89.594
G0 X71.088 Y88.847
G0 X87.653 Y90.853
G0 X86.19 Y89.594
G0 X87.023 Y89.594
G0 X87.037 Y89.828
G0 X89.894 Y89.828
G0 X90.166 Y89.6
;TYPE:WALL-INNER
G1 F1500 E38.44316
G1 F1200 X90.166 Y86.7 E38.53962
G1 X86.765 Y86.7 E38.65274
G1 X86.765 Y89.6 E38.74919
G1 X86.4 Y89.6 E38.76133
G1 X86.4 Y95.8 E38.96754
G1 X99.4 Y95.8 E39.39992
G1 X99.4 Y96.3 E39.41655
G1 X120.6 Y96.3 E40.12167
G1 X120.6 Y95.8 E40.1383
G1 X132.6 Y95.8 E40.53742
G1 X132.6 Y89.6 E40.74363
G1 X132.235 Y89.6 E40.75577
G1 X132.235 Y86.7 E40.85223
G1 X128.834 Y86.7 E40.96535
G1 X128.834 Y89.6 E41.0618
G1 X120.6 Y89.6 E41.33566
G1 X120.6 Y89.1 E41.35229
G1 X123.8 Y89.1 E41.45873
G1 X123.8 Y85.8 E41.56848
G1 X120.5 Y85.8 E41.67824
G1 X120.5 Y87.1 E41.72148
G1 X99.4 Y87.1 E42.42327
G1 X99.4 Y85.878 E42.46391
G1 X99.4 Y85.8 E42.46651
G1 X96.1 Y85.8 E42.57627
G1 X96.1 Y89.1 E42.68603
G1 X99.4 Y89.1 E42.79578
G1 X99.4 Y89.6 E42.81241
G1 X90.166 Y89.6 E43.11954
G0 F6000 X89.766 Y89.7
;TYPE:WALL-OUTER
G1 F1200 X89.766 Y87.1 E43.20601
G1 X87.165 Y87.1 E43.29252
G1 X87.165 Y89.7 E43.379
G1 X89.766 Y89.7 E43.46551
G1 F1500 E36.96551
G0 F6000 X89.966 Y89.7
G0 X99.218 Y89.418
G0 X99.2 Y88.7
G0 X99 Y88.7
G1 F1500 E43.46551
G1 F1200 X99 Y86.2 E43.54866
G1 X96.5 Y86.2 E43.63181
G1 X96.5 Y88.7 E43.71496
G1 X99 Y88.7 E43.79811
G1 F1500 E37.29811
G0 F6000 X99.2 Y88.7
G0 X99.272 Y89.86
G0 X86.672 Y89.872
G0 X86.672 Y95.528
G0 X99.63 Y95.57
G0 X99.8 Y95.4
G1 F1500 E43.79811
G1 F1200 X99.8 Y95.9 E43.81474
G1 X120.2 Y95.9 E44.49325
G1 X120.2 Y95.4 E44.50988
G1 X132.2 Y95.4 E44.909
G1 X132.2 Y90 E45.0886
G1 X120.2 Y90 E45.48773
G1 X120.2 Y87.5 E45.57088
G1 X99.8 Y87.5 E46.24938
G1 X99.8 Y90 E46.33253
G1 X86.8 Y90 E46.76492
G1 X86.8 Y95.4 E46.94452
G1 X99.8 Y95.4 E47.3769
G1 F1500 E40.8769
G0 F6000 X99.63 Y95.57
G0 X99.672 Y96.028
G0 X120.328 Y96.028
G0 X132.328 Y95.528
G0 X132.328 Y89.872
G0 X120.328 Y89.872
G0 X120.7 Y88.7
G0 X120.9 Y88.7
G1 F1500 E47.3769
G1 F1200 X123.4 Y88.7 E47.46005
G1 X123.4 Y86.2 E47.5432
G1 X120.9 Y86.2 E47.62635
G1 X120.9 Y88.7 E47.7095
G1 F1500 E41.2095
G0 F6000 X120.7 Y88.7
G0 X120.782 Y89.418
G0 X129.034 Y89.7
G0 X129.234 Y89.7
G1 F1500 E47.7095
G1 F1200 X131.835 Y89.7 E47.79601
G1 X131.835 Y87.1 E47.88249
G1 X129.234 Y87.1 E47.969
G1 X129.234 Y89.7 E48.05548
G1 F1500 E41.55548
G0 F6000 X129.034 Y89.7
G0 X129.106 Y89.828
G0 X130.939 Y89.801
G0 X132.81 Y89.901
G0 X131.347 Y90.853
G0 X147.911 Y88.847
G0 X146.468 Y89.906
G0 X146.658 Y89.901
;TYPE:WALL-INNER
G1 F1500 E48.05548
G1 F1200 X146.658 Y90.1 E48.06209
G1 X146.857 Y90.1 E48.06638
G1 X150.06 Y90.1 E48.17291
G1 X150.06 Y86.7 E48.28599
G1 X146.659 Y86.7 E48.39911
G1 X146.658 Y89.901 E48.50558
G0 F6000 X147.058 Y89.7
;TYPE:WALL-OUTER
G1 F1200 X149.66 Y89.7 E48.59212
G1 X149.66 Y87.1 E48.6786
G1 X147.059 Y87.1 E48.76511
G1 X147.058 Y89.7 E48.85158
G1 F1500 E42.35158
G0 F6000 X146.859 Y89.699
G0 X146.658 Y90.29
G0 X147.911 Y88.847
G0 X147.912 Y130.453
G0 X146.658 Y128.99
G0 X146.658 Y132.401
;TYPE:WALL-INNER
G1 F1500 E48.85158
G1 F1200 X146.658 Y132.6 E48.8582
G1 X146.857 Y132.6 E48.86248
