;FLAVOR:Marlin
;TIME:2435
;Filament used: 1.35901m
;Layer height: 0.2
;MINX:80.912
;MINY:67.5
;MINZ:0.2
;MAXX:139.087
;MAXY:152.504
;MAXZ:3.4
;Generated with Cura_SteamEngine master
M140 S60
M105
M190 S60
M104 S200
M105
M109 S200
M82 ;absolute extrusion mode
; Ender 3 Custom Start G-code
G92 E0 ; Reset Extruder
G28 ; Home all axes
G1 Z2.0 F3000 ; Move Z Axis up little to prevent scratching of Heat Bed
G1 X0.1 Y20 Z0.3 F5000.0 ; Move to start position
G1 X0.1 Y200.0 Z0.3 F1500.0 E15 ; Draw the first line
G1 X0.4 Y200.0 Z0.3 F5000.0 ; Move to side a little
G1 X0.4 Y20 Z0.3 F1500.0 E30 ; Draw the second line
G92 E0 ; Reset Extruder
G1 Z2.0 F3000 ; Move Z Axis up little to prevent scratching of Heat Bed
G1 X5 Y20 Z0.3 F5000.0 ; Move over to prevent blob squish
G92 E0
G92 E0
G1 F1500 E-6.5
;LAYER_COUNT:17
;LAYER:0
M107
G0 F6000 X83.49 Y71.445 Z0.2
;TYPE:SKIRT
G1 F1500 E0
G1 F1200 X84.122 Y70.752 E0.03119
G1 X84.811 Y70.116 E0.06238
G1 X85.552 Y69.541 E0.09358
G1 X86.339 Y69.031 E0.12477
G1 X87.167 Y68.59 E0.15597
G1 X88.029 Y68.221 E0.18716
G1 X88.92 Y67.927 E0.21836
G1 X89.832 Y67.709 E0.24955
G1 X90.759 Y67.571 E0.28072
G1 X91.613 Y67.513 E0.30919
G1 X91.933 Y67.504 E0.31984
G1 X92.242 Y67.5 E0.33012
G1 X92.507 Y67.501 E0.33893
G1 X93.552 Y67.516 E0.37369
G1 X96.191 Y67.516 E0.46147
G1 X96.882 Y67.502 E0.48445
G1 X97.296 Y67.5 E0.49822
G1 X97.507 Y67.501 E0.50524
G1 X98.552 Y67.516 E0.54
G1 X101.191 Y67.516 E0.62778
G1 X101.882 Y67.502 E0.65076
G1 X102.296 Y67.5 E0.66453
G1 X102.507 Y67.501 E0.67155
G1 X103.552 Y67.516 E0.70631
G1 X106.191 Y67.516 E0.79409
G1 X106.882 Y67.502 E0.81707
G1 X107.296 Y67.5 E0.83084
G1 X107.507 Y67.501 E0.83786
G1 X108.552 Y67.516 E0.87262
G1 X111.191 Y67.516 E0.96039
G1 X111.882 Y67.502 E0.98338
G1 X112.296 Y67.5 E0.99715
G1 X112.507 Y67.501 E1.00417
G1 X113.552 Y67.516 E1.03893
G1 X116.191 Y67.516 E1.1267
G1 X116.882 Y67.502 E1.14969
G1 X117.296 Y67.5 E1.16346
G1 X117.507 Y67.501 E1.17048
G1 X118.552 Y67.516 E1.20524
G1 X121.191 Y67.516 E1.29301
G1 X121.882 Y67.502 E1.316
G1 X122.296 Y67.5 E1.32977
G1 X122.507 Y67.501 E1.33679
G1 X123.552 Y67.516 E1.37155
G1 X126.191 Y67.516 E1.45932
G1 X126.886 Y67.502 E1.48244
G1 X127.331 Y67.5 E1.49724
G1 X127.538 Y67.501 E1.50413
G1 X128.236 Y67.511 E1.52735
G1 X129.172 Y67.565 E1.55853
G1 X130.1 Y67.697 E1.58971
G1 X131.014 Y67.909 E1.62091
G1 X131.906 Y68.198 E1.6521
G1 X132.771 Y68.561 E1.6833
G1 X133.601 Y68.997 E1.71448
G1 X134.392 Y69.502 E1.7457
G1 X135.136 Y70.073 E1.77689
G1 X135.829 Y70.705 E1.80808
G1 X136.466 Y71.393 E1.83927
G1 X137.041 Y72.134 E1.87046
G1 X137.552 Y72.92 E1.90165
G1 X137.994 Y73.748 E1.93286
G1 X138.363 Y74.61 E1.96405
G1 X138.658 Y75.5 E1.99524
G1 X138.876 Y76.412 E2.02642
G1 X139.016 Y77.34 E2.05764
G1 X139.074 Y78.201 E2.08634
G1 X139.083 Y78.521 E2.09699
G1 X139.087 Y78.83 E2.10727
G1 X139.087 Y105.932 E3.00868
G1 X139.071 Y106.987 E3.04378
G1 X139.007 Y109.264 E3.11954
G1 X139.007 Y111.829 E3.20485
G1 X139.035 Y113.14 E3.24846
G1 X139.046 Y113.513 E3.26088
G1 X139.051 Y113.837 E3.27165
G1 X139.051 Y140.913 E4.17221
G1 X139.041 Y141.641 E4.19642
G1 X138.988 Y142.577 E4.2276
G1 X138.856 Y143.506 E4.25881
G1 X138.645 Y144.42 E4.29001
G1 X138.357 Y145.312 E4.32119
G1 X137.993 Y146.177 E4.3524
G1 X137.558 Y147.008 E4.3836
G1 X137.053 Y147.798 E4.41478
G1 X136.483 Y148.543 E4.44598
G1 X135.852 Y149.236 E4.47715
G1 X135.164 Y149.873 E4.50834
G1 X134.424 Y150.45 E4.53955
G1 X133.637 Y150.961 E4.57076
G1 X132.81 Y151.403 E4.60195
G1 X131.948 Y151.773 E4.63315
G1 X131.058 Y152.068 E4.66433
G1 X130.146 Y152.287 E4.69553
G1 X129.219 Y152.427 E4.72671
G1 X128.358 Y152.485 E4.75541
G1 X127.822 Y152.499 E4.77324
G1 X127.458 Y152.499 E4.78535
G1 X126.434 Y152.485 E4.81941
G1 X123.862 Y152.504 E4.90496
G1 X123.56 Y152.493 E4.91501
G1 X122.696 Y152.5 E4.94375
G1 X122.458 Y152.499 E4.95167
G1 X121.431 Y152.485 E4.98583
G1 X118.858 Y152.503 E5.07141
G1 X118.586 Y152.493 E5.08046
G1 X117.696 Y152.5 E5.11006
G1 X117.458 Y152.499 E5.11798
G1 X116.431 Y152.485 E5.15214
G1 X113.858 Y152.503 E5.23772
G1 X113.586 Y152.493 E5.24677
G1 X112.696 Y152.5 E5.27638
G1 X112.458 Y152.499 E5.28429
G1 X111.431 Y152.485 E5.31845
G1 X108.858 Y152.503 E5.40403
G1 X108.586 Y152.493 E5.41309
G1 X107.696 Y152.5 E5.44269
G1 X107.458 Y152.499 E5.4506
G1 X106.431 Y152.485 E5.48477
G1 X103.858 Y152.503 E5.57035
G1 X103.586 Y152.493 E5.5794
G1 X102.696 Y152.5 E5.609
G1 X102.458 Y152.499 E5.61692
G1 X101.431 Y152.485 E5.65108
G1 X98.858 Y152.503 E5.73666
G1 X98.586 Y152.493 E5.74571
G1 X97.696 Y152.5 E5.77531
G1 X97.458 Y152.499 E5.78323
G1 X96.431 Y152.485 E5.81739
G1 X93.858 Y152.503 E5.90297
G1 X93.588 Y152.493 E5.91196
G1 X92.734 Y152.5 E5.94036
G1 X92.489 Y152.499 E5.94851
G1 X91.794 Y152.489 E5.97163
G1 X90.857 Y152.435 E6.00285
G1 X89.929 Y152.302 E6.03403
G1 X89.015 Y152.091 E6.06523
G1 X88.123 Y151.802 E6.09641
G1 X87.258 Y151.438 E6.12763
G1 X86.428 Y151.002 E6.15881
G1 X85.638 Y150.497 E6.19
G1 X84.894 Y149.927 E6.22117
G1 X84.201 Y149.295 E6.25236
G1 X83.564 Y148.606 E6.28357
G1 X82.988 Y147.866 E6.31476
G1 X82.478 Y147.079 E6.34595
G1 X82.036 Y146.252 E6.37714
G1 X81.666 Y145.39 E6.40834
G1 X81.372 Y144.499 E6.43955
G1 X81.154 Y143.587 E6.47074
G1 X81.014 Y142.66 E6.50192
G1 X80.956 Y141.788 E6.53099
G1 X80.947 Y141.456 E6.54203
G1 X80.943 Y141.158 E6.55194
G1 X80.944 Y114.051 E7.45353
G1 X80.969 Y112.29 E7.5121
G1 X80.982 Y111.809 E7.52811
G1 X80.986 Y109.235 E7.61372
G1 X80.955 Y107.795 E7.66162
G1 X80.917 Y106.507 E7.70448
G1 X80.912 Y106.183 E7.71526
G1 X80.913 Y79.009 E8.61907
G1 X80.923 Y78.344 E8.64119
G1 X80.977 Y77.407 E8.67241
G1 X81.111 Y76.479 E8.70359
G1 X81.323 Y75.565 E8.7348
G1 X81.612 Y74.673 E8.76599
G1 X81.977 Y73.809 E8.79718
G1 X82.413 Y72.979 E8.82837
G1 X82.919 Y72.189 E8.85957
G1 X83.49 Y71.445 E8.89076
G0 F6000 X83.884 Y71.599
G1 F1200 X84.514 Y70.927 E8.9214
G1 X85.2 Y70.313 E8.95202
G1 X85.936 Y69.761 E8.98262
G1 X86.718 Y69.274 E9.01326
G1 X87.539 Y68.858 E9.04387
G1 X88.393 Y68.514 E9.07449
G1 X89.273 Y68.245 E9.1051
G1 X90.174 Y68.054 E9.13573
G1 X91.088 Y67.942 E9.16636
G1 X91.624 Y67.913 E9.18421
G1 X91.944 Y67.904 E9.19486
G1 X92.242 Y67.9 E9.20477
G1 X92.501 Y67.901 E9.21339
G1 X93.546 Y67.916 E9.24815
G1 X96.2 Y67.916 E9.33642
G1 X96.884 Y67.902 E9.35918
G1 X97.298 Y67.9 E9.37294
G1 X97.501 Y67.901 E9.3797
G1 X98.546 Y67.916 E9.41446
G1 X101.2 Y67.916 E9.50273
G1 X101.884 Y67.902 E9.52548
G1 X102.298 Y67.9 E9.53925
G1 X102.501 Y67.901 E9.54601
G1 X103.546 Y67.916 E9.58077
G1 X106.2 Y67.916 E9.66904
G1 X106.884 Y67.902 E9.69179
G1 X107.298 Y67.9 E9.70556
G1 X107.501 Y67.901 E9.71232
G1 X108.546 Y67.916 E9.74708
G1 X111.2 Y67.916 E9.83535
G1 X111.884 Y67.902 E9.8581
G1 X112.298 Y67.9 E9.87187
G1 X112.501 Y67.901 E9.87862
G1 X113.546 Y67.916 E9.91339
G1 X116.2 Y67.916 E10.00166
G1 X116.884 Y67.902 E10.02441
G1 X117.298 Y67.9 E10.03818
G1 X117.501 Y67.901 E10.04493
G1 X118.546 Y67.916 E10.07969
G1 X121.2 Y67.916 E10.16797
G1 X121.884 Y67.902 E10.19072
G1 X122.298 Y67.9 E10.20449
G1 X122.501 Y67.901 E10.21124
G1 X123.546 Y67.916 E10.246
G1 X126.2 Y67.916 E10.33428
G1 X126.887 Y67.902 E10.35713
G1 X127.332 Y67.9 E10.37193
G1 X127.532 Y67.901 E10.37858
G1 X128.23 Y67.911 E10.4018
G1 X129.149 Y67.964 E10.43242
G1 X130.06 Y68.097 E10.46304
G1 X130.956 Y68.308 E10.49366
G1 X131.83 Y68.596 E10.52426
G1 X132.677 Y68.959 E10.55491
G1 X133.488 Y69.394 E10.58552
G1 X134.258 Y69.898 E10.61613
G1 X134.982 Y70.467 E10.64676
G1 X135.654 Y71.097 E10.67739
G1 X136.269 Y71.782 E10.70801
G1 X136.822 Y72.518 E10.73863
G1 X137.309 Y73.299 E10.76924
G1 X137.726 Y74.12 E10.79987
G1 X138.071 Y74.974 E10.83051
G1 X138.34 Y75.854 E10.86111
G1 X138.532 Y76.755 E10.89175
G1 X138.645 Y77.668 E10.92235
G1 X138.674 Y78.212 E10.94047
G1 X138.683 Y78.532 E10.95112
G1 X138.687 Y78.83 E10.96103
G1 X138.687 Y105.926 E11.86225
G1 X138.671 Y106.976 E11.89717
G1 X138.607 Y109.253 E11.97294
G1 X138.607 Y111.791 E12.05735
G1 X138.638 Y113.237 E12.10546
G1 X138.646 Y113.525 E12.11504
G1 X138.651 Y113.837 E12.12542
G1 X138.651 Y140.908 E13.0258
G1 X138.641 Y141.636 E13.05002
G1 X138.588 Y142.555 E13.08063
G1 X138.456 Y143.466 E13.11125
G1 X138.245 Y144.362 E13.14187
G1 X137.958 Y145.237 E13.17249
G1 X137.595 Y146.083 E13.20311
G1 X137.161 Y146.895 E13.23374
G1 X136.657 Y147.665 E13.26435
G1 X136.089 Y148.39 E13.29498
G1 X135.46 Y149.062 E13.32559
G1 X134.775 Y149.677 E13.35621
G1 X134.039 Y150.23 E13.38683
G1 X133.258 Y150.718 E13.41746
G1 X132.438 Y151.136 E13.44807
G1 X131.584 Y151.481 E13.47871
G1 X130.704 Y151.75 E13.50931
G1 X129.804 Y151.943 E13.53993
G1 X128.89 Y152.056 E13.57056
G1 X128.347 Y152.086 E13.58865
G1 X128.034 Y152.095 E13.59906
G1 X127.701 Y152.1 E13.61014
G1 X127.464 Y152.099 E13.61802
G1 X126.437 Y152.085 E13.65218
G1 X123.859 Y152.104 E13.73793
G1 X123.561 Y152.093 E13.74785
G1 X122.693 Y152.1 E13.77672
G1 X122.464 Y152.099 E13.78433
G1 X121.434 Y152.085 E13.8186
G1 X118.855 Y152.103 E13.90438
G1 X118.587 Y152.093 E13.9133
G1 X117.693 Y152.1 E13.94303
G1 X117.464 Y152.099 E13.95065
G1 X116.434 Y152.085 E13.98491
G1 X113.855 Y152.103 E14.07069
G1 X113.587 Y152.093 E14.07961
G1 X112.693 Y152.1 E14.10934
G1 X112.464 Y152.099 E14.11696
G1 X111.434 Y152.085 E14.15122
G1 X108.855 Y152.103 E14.237
G1 X108.587 Y152.093 E14.24592
G1 X107.693 Y152.1 E14.27566
G1 X107.464 Y152.099 E14.28327
G1 X106.434 Y152.085 E14.31754
G1 X103.855 Y152.103 E14.40331
G1 X103.587 Y152.093 E14.41223
G1 X102.693 Y152.1 E14.44197
G1 X102.464 Y152.099 E14.44959
G1 X101.434 Y152.085 E14.48385
G1 X98.855 Y152.103 E14.56963
G1 X98.587 Y152.093 E14.57855
G1 X97.693 Y152.1 E14.60828
G1 X97.464 Y152.099 E14.6159
G1 X96.434 Y152.085 E14.65016
G1 X93.855 Y152.103 E14.73594
G1 X93.589 Y152.093 E14.74479
G1 X92.731 Y152.1 E14.77333
G1 X92.494 Y152.099 E14.78122
G1 X91.799 Y152.089 E14.80433
G1 X90.88 Y152.036 E14.83495
G1 X89.969 Y151.903 E14.86557
G1 X89.073 Y151.692 E14.89619
G1 X88.199 Y151.403 E14.92681
G1 X87.353 Y151.04 E14.95742
G1 X86.542 Y150.605 E14.98803
G1 X85.771 Y150.101 E15.01867
G1 X85.047 Y149.533 E15.04928
G1 X84.375 Y148.903 E15.07991
G1 X83.761 Y148.218 E15.11051
G1 X83.208 Y147.481 E15.14116
G1 X82.721 Y146.7 E15.17177
G1 X82.304 Y145.879 E15.20239
G1 X81.959 Y145.026 E15.233
G1 X81.69 Y144.145 E15.26364
G1 X81.498 Y143.245 E15.29424
G1 X81.385 Y142.331 E15.32488
G1 X81.356 Y141.777 E15.34333
G1 X81.347 Y141.445 E15.35437
G1 X81.343 Y141.158 E15.36392
G1 X81.344 Y114.057 E16.2653
G1 X81.369 Y112.296 E16.32388
G1 X81.382 Y111.822 E16.33965
G1 X81.386 Y109.27 E16.42453
G1 X81.352 Y107.699 E16.47679
G1 X81.317 Y106.496 E16.51682
G1 X81.312 Y106.183 E16.52724
G1 X81.313 Y79.015 E17.43085
G1 X81.323 Y78.35 E17.45297
G1 X81.377 Y77.431 E17.48359
G1 X81.51 Y76.52 E17.51421
G1 X81.722 Y75.624 E17.54483
G1 X82.011 Y74.749 E17.57548
G1 X82.375 Y73.904 E17.60608
G1 X82.81 Y73.093 E17.63669
G1 X83.315 Y72.322 E17.66735
G1 X83.884 Y71.599 E17.69795
G0 F6000 X84.278 Y71.756
G1 F1200 X84.905 Y71.106 E17.72798
G1 X85.587 Y70.514 E17.75802
G1 X86.319 Y69.985 E17.78806
G1 X87.095 Y69.523 E17.8181
G1 X87.909 Y69.132 E17.84813
G1 X88.754 Y68.813 E17.87817
G1 X89.624 Y68.571 E17.90821
G1 X90.512 Y68.407 E17.93824
G1 X91.635 Y68.313 E17.97572
G1 X91.955 Y68.304 E17.98637
G1 X92.242 Y68.3 E17.99592
G1 X92.349 Y68.3 E17.99948
G1 X93.54 Y68.316 E18.03909
G1 X96.163 Y68.316 E18.12634
G1 X96.713 Y68.304 E18.14463
G1 X97.3 Y68.3 E18.16416
G1 X97.495 Y68.301 E18.17064
G1 X98.54 Y68.316 E18.2054
G1 X101.163 Y68.316 E18.29264
G1 X101.713 Y68.304 E18.31094
G1 X102.3 Y68.3 E18.33047
G1 X102.495 Y68.301 E18.33695
G1 X103.54 Y68.316 E18.37171
G1 X106.163 Y68.316 E18.45895
G1 X106.713 Y68.304 E18.47725
G1 X107.3 Y68.3 E18.49678
G1 X107.495 Y68.301 E18.50326
G1 X108.54 Y68.316 E18.53802
G1 X111.163 Y68.316 E18.62526
G1 X111.713 Y68.304 E18.64356
G1 X112.3 Y68.3 E18.66308
G1 X112.495 Y68.301 E18.66957
G1 X113.54 Y68.316 E18.70433
G1 X116.163 Y68.316 E18.79157
G1 X116.713 Y68.304 E18.80987
G1 X117.3 Y68.3 E18.82939
G1 X117.495 Y68.301 E18.83588
G1 X118.54 Y68.316 E18.87064
G1 X121.163 Y68.316 E18.95788
G1 X121.713 Y68.304 E18.97618
G1 X122.3 Y68.3 E18.9957
G1 X122.495 Y68.301 E19.00219
G1 X123.54 Y68.316 E19.03695
G1 X126.163 Y68.316 E19.12419
G1 X126.713 Y68.304 E19.14249
G1 X127.334 Y68.3 E19.16314
G1 X127.526 Y68.301 E19.16953
G1 X128.224 Y68.311 E19.19275
G1 X129.126 Y68.364 E19.2228
G1 X130.019 Y68.496 E19.25282
G1 X130.897 Y68.707 E19.28286
G1 X131.753 Y68.995 E19.3129
G1 X132.58 Y69.357 E19.34292
G1 X133.372 Y69.792 E19.37298
G1 X134.123 Y70.294 E19.40302
G1 X134.826 Y70.861 E19.43306
G1 X135.476 Y71.488 E19.4631
G1 X136.068 Y72.17 E19.49313
G1 X136.598 Y72.901 E19.52317
G1 X137.06 Y73.677 E19.5532
G1 X137.453 Y74.49 E19.58324
G1 X137.771 Y75.335 E19.61327
G1 X138.014 Y76.205 E19.64331
G1 X138.179 Y77.093 E19.67335
G1 X138.274 Y78.223 E19.71107
G1 X138.283 Y78.543 E19.72172
G1 X138.287 Y78.83 E19.73126
G1 X138.287 Y105.921 E20.63231
G1 X138.271 Y106.965 E20.66704
G1 X138.207 Y109.242 E20.7428
G1 X138.207 Y111.799 E20.82785
G1 X138.236 Y113.163 E20.87323
G1 X138.247 Y113.536 E20.88564
G1 X138.251 Y113.837 E20.89565
G1 X138.251 Y140.902 E21.79584
G1 X138.241 Y141.63 E21.82005
G1 X138.189 Y142.532 E21.8501
G1 X138.057 Y143.425 E21.88013
G1 X137.846 Y144.303 E21.91016
G1 X137.559 Y145.16 E21.94022
G1 X137.197 Y145.987 E21.97025
G1 X136.764 Y146.779 E22.00027
G1 X136.261 Y147.53 E22.03033
G1 X135.695 Y148.233 E22.06035
G1 X135.069 Y148.884 E22.09039
G1 X134.387 Y149.476 E22.12042
G1 X133.656 Y150.006 E22.15046
G1 X132.88 Y150.469 E22.18051
G1 X132.067 Y150.862 E22.21054
G1 X131.222 Y151.181 E22.24059
G1 X130.353 Y151.425 E22.27061
G1 X129.465 Y151.59 E22.30065
G1 X128.335 Y151.686 E22.33837
G1 X128.022 Y151.695 E22.34878
G1 X127.697 Y151.7 E22.35959
G1 X127.469 Y151.699 E22.36718
G1 X126.439 Y151.685 E22.40144
G1 X123.856 Y151.704 E22.48735
G1 X123.57 Y151.693 E22.49687
G1 X122.69 Y151.7 E22.52614
G1 X122.469 Y151.699 E22.53349
G1 X121.436 Y151.685 E22.56785
G1 X118.852 Y151.703 E22.6538
G1 X118.589 Y151.693 E22.66255
G1 X117.69 Y151.7 E22.69245
G1 X117.469 Y151.699 E22.6998
G1 X116.436 Y151.685 E22.73416
G1 X113.852 Y151.703 E22.82011
G1 X113.589 Y151.693 E22.82886
G1 X112.69 Y151.7 E22.85877
G1 X112.469 Y151.699 E22.86612
G1 X111.436 Y151.685 E22.90048
G1 X108.852 Y151.703 E22.98642
G1 X108.589 Y151.693 E22.99518
G1 X107.69 Y151.7 E23.02508
G1 X107.469 Y151.699 E23.03243
G1 X106.436 Y151.685 E23.06679
G1 X103.852 Y151.703 E23.15274
G1 X103.589 Y151.693 E23.16149
G1 X102.69 Y151.7 E23.19139
G1 X102.469 Y151.699 E23.19874
G1 X101.436 Y151.685 E23.2331
G1 X98.852 Y151.703 E23.31905
G1 X98.589 Y151.693 E23.3278
G1 X97.69 Y151.7 E23.3577
G1 X97.469 Y151.699 E23.36506
G1 X96.436 Y151.685 E23.39942
G1 X93.852 Y151.703 E23.48536
G1 X93.591 Y151.693 E23.49405
G1 X92.728 Y151.7 E23.52275
G1 X92.5 Y151.699 E23.53034
G1 X91.805 Y151.689 E23.55346
G1 X90.904 Y151.636 E23.58348
G1 X90.01 Y151.503 E23.61354
G1 X89.132 Y151.293 E23.64356
G1 X88.276 Y151.005 E23.6736
G1 X87.449 Y150.642 E23.70364
G1 X86.657 Y150.208 E23.73368
G1 X85.907 Y149.706 E23.7637
G1 X85.204 Y149.139 E23.79374
G1 X84.554 Y148.512 E23.82377
G1 X83.962 Y147.83 E23.85381
G1 X83.432 Y147.098 E23.88387
G1 X82.969 Y146.323 E23.91389
G1 X82.577 Y145.509 E23.94394
G1 X82.258 Y144.664 E23.97399
G1 X82.016 Y143.794 E24.00402
G1 X81.851 Y142.906 E24.03406
G1 X81.756 Y141.766 E24.07211
G1 X81.747 Y141.434 E24.08316
G1 X81.743 Y141.158 E24.09234
G1 X81.744 Y114.062 E24.99355
G1 X81.772 Y112.145 E25.05732
G1 X81.782 Y111.799 E25.06883
G1 X81.786 Y109.261 E25.15325
G1 X81.752 Y107.69 E25.20551
G1 X81.716 Y106.484 E25.24564
G1 X81.712 Y106.183 E25.25565
G1 X81.713 Y79.021 E26.15906
G1 X81.723 Y78.356 E26.18118
G1 X81.777 Y77.454 E26.21124
G1 X81.91 Y76.561 E26.24127
G1 X82.121 Y75.683 E26.2713
G1 X82.41 Y74.827 E26.30135
G1 X82.773 Y74 E26.33139
G1 X83.207 Y73.209 E26.3614
G1 X83.71 Y72.458 E26.39146
G1 X84.278 Y71.756 E26.4215
G1 F1500 E19.9215
;MESH:connectors.stl
G0 F6000 X98.74 Y77.847
G0 X101.259 Y107.153
