;FLAVOR:Marlin
;TIME:10549
;Filament used: 4.89534m
;Layer height: 0.2
;MINX:84.425
;MINY:67
;MINZ:0.2
;MAXX:156.642
;MAXY:168
;MAXZ:87.2
;Generated with Cura_SteamEngine master
M140 S60
M105
M190 S60
M104 S200
M105
M109 S200
M82 ;absolute extrusion mode
; Ender 3 Custom Start G-code
G92 E0 ; Reset Extruder
G28 ; Home all axes
G1 Z2.0 F3000 ; Move Z Axis up little to prevent scratching of Heat Bed
G1 X0.1 Y20 Z0.3 F5000.0 ; Move to start position
G1 X0.1 Y200.0 Z0.3 F1500.0 E15 ; Draw the first line
G1 X0.4 Y200.0 Z0.3 F5000.0 ; Move to side a little
G1 X0.4 Y20 Z0.3 F1500.0 E30 ; Draw the second line
G92 E0 ; Reset Extruder
G1 Z2.0 F3000 ; Move Z Axis up little to prevent scratching of Heat Bed
G1 X5 Y20 Z0.3 F5000.0 ; Move over to prevent blob squish
G92 E0
G92 E0
G1 F1500 E-6.5
;LAYER_COUNT:436
;LAYER:0
M107
G0 F6000 X108.383 Y67.811 Z0.2
;TYPE:SKIRT
G1 F1500 E0
G1 F1200 X109.285 Y67.864 E0.03005
G1 X110.178 Y67.996 E0.06008
G1 X111.057 Y68.207 E0.09014
G1 X111.913 Y68.495 E0.12018
G1 X112.74 Y68.857 E0.15021
G1 X113.532 Y69.291 E0.18025
G1 X114.183 Y69.722 E0.20621
G1 X116.418 Y71.325 E0.29769
G1 X118.515 Y72.741 E0.38185
G1 X120.66 Y74.104 E0.46638
G1 X122.819 Y75.39 E0.54996
G1 X125.078 Y76.652 E0.63602
G1 X127.313 Y77.818 E0.71987
G1 X129.594 Y78.927 E0.80423
G1 X131.919 Y79.978 E0.88909
G1 X134.285 Y80.969 E0.97441
G1 X136.616 Y81.864 E1.05746
G1 X137.439 Y82.158 E1.08652
G1 X139.093 Y82.781 E1.14531
G1 X140.143 Y83.245 E1.18349
G1 X140.923 Y83.644 E1.21263
G1 X141.359 Y83.881 E1.22914
G1 X141.547 Y83.989 E1.23635
G1 X142.257 Y84.436 E1.26425
G1 X142.489 Y84.596 E1.27363
G1 X142.834 Y84.845 E1.28778
G1 X143.239 Y85.15 E1.30464
G1 X143.958 Y85.745 E1.33568
G1 X144.499 Y86.236 E1.35998
G1 X144.923 Y86.64 E1.37946
G1 X145.486 Y87.235 E1.4067
G1 X145.679 Y87.456 E1.41646
G1 X145.965 Y87.798 E1.43129
G1 X146.267 Y88.176 E1.44738
G1 X146.817 Y88.934 E1.47853
G1 X147.266 Y89.616 E1.50569
G1 X147.882 Y90.687 E1.54678
G1 X148.269 Y91.466 E1.57571
G1 X148.749 Y92.599 E1.61664
G1 X149.033 Y93.401 E1.64494
G1 X149.177 Y93.838 E1.66024
G1 X149.243 Y94.055 E1.66778
G1 X149.453 Y94.865 E1.69562
G1 X149.516 Y95.156 E1.70552
G1 X149.604 Y95.61 E1.7209
G1 X149.696 Y96.153 E1.73922
G1 X149.776 Y96.724 E1.75839
G1 X149.885 Y97.7 E1.79106
G1 X150.206 Y100.252 E1.87661
G1 X150.597 Y102.779 E1.96166
G1 X151.055 Y105.267 E2.0458
G1 X151.585 Y107.755 E2.1304
G1 X152.185 Y110.223 E2.21488
G1 X152.848 Y112.654 E2.29869
G1 X153.598 Y115.122 E2.38448
G1 X154.393 Y117.493 E2.46766
G1 X154.881 Y118.826 E2.51487
G1 X155.144 Y119.57 E2.54112
G1 X155.355 Y120.239 E2.56445
G1 X155.435 Y120.527 E2.57439
G1 X155.638 Y121.407 E2.60443
G1 X155.769 Y122.379 E2.63705
G1 X155.809 Y122.842 E2.65251
G1 X155.843 Y124.016 E2.69157
G1 X155.836 Y124.257 E2.69959
G1 X155.77 Y125.158 E2.72964
G1 X155.606 Y126.133 E2.76252
G1 X155.258 Y127.73 E2.81688
G1 X154.721 Y130.279 E2.90352
G1 X154.267 Y132.772 E2.98781
G1 X154.141 Y133.524 E3.01317
G1 X154.016 Y134.147 E3.0343
G1 X153.97 Y134.345 E3.04106
G1 X153.657 Y135.423 E3.0784
G1 X153.575 Y135.656 E3.08661
G1 X153.237 Y136.494 E3.11667
G1 X152.833 Y137.288 E3.1463
G1 X152.581 Y137.734 E3.16333
G1 X152.103 Y138.5 E3.19336
G1 X151.543 Y139.238 E3.22418
G1 X151.37 Y139.446 E3.23318
G1 X150.512 Y140.358 E3.27482
G1 X150.314 Y140.544 E3.28386
G1 X149.629 Y141.133 E3.31391
G1 X148.916 Y141.644 E3.34308
G1 X147.314 Y142.69 E3.40672
G1 X146.873 Y142.966 E3.42402
G1 X144.763 Y144.37 E3.50832
G1 X143.559 Y145.226 E3.55745
G1 X142.401 Y146.03 E3.60434
G1 X141.541 Y146.566 E3.63804
G1 X141.309 Y146.695 E3.64687
G1 X140.297 Y147.186 E3.68428
G1 X139.182 Y147.654 E3.7245
G1 X136.738 Y148.719 E3.81317
G1 X134.456 Y149.791 E3.89703
G1 X132.186 Y150.936 E3.98159
G1 X129.935 Y152.153 E4.0667
G1 X127.742 Y153.42 E4.15094
G1 X125.587 Y154.749 E4.23515
G1 X123.481 Y156.129 E4.31889
G1 X121.363 Y157.607 E4.40479
G1 X119.354 Y159.093 E4.48791
G1 X117.321 Y160.689 E4.57387
G1 X115.296 Y162.373 E4.66147
G1 X114.885 Y162.726 E4.67949
G1 X114.174 Y163.283 E4.70953
G1 X113.512 Y163.718 E4.73588
G1 X113.177 Y163.92 E4.74889
G1 X110.89 Y165.329 E4.83823
G1 X110.461 Y165.601 E4.85513
G1 X109.677 Y166.051 E4.88519
G1 X108.858 Y166.429 E4.91519
G1 X108.007 Y166.734 E4.94526
G1 X107.134 Y166.962 E4.97527
G1 X106.243 Y167.112 E5.00532
G1 X105.315 Y167.184 E5.03628
G1 X104.965 Y167.195 E5.04793
G1 X104.645 Y167.2 E5.05857
G1 X99.234 Y167.199 E5.23854
G1 X98.535 Y167.189 E5.26179
G1 X97.634 Y167.136 E5.29181
G1 X96.74 Y167.004 E5.32187
G1 X95.862 Y166.793 E5.3519
G1 X95.006 Y166.505 E5.38194
G1 X94.179 Y166.143 E5.41197
G1 X93.367 Y165.696 E5.4428
G1 X92.515 Y165.174 E5.47603
G1 X91.727 Y164.673 E5.50709
G1 X90.98 Y164.227 E5.53603
G1 X90.095 Y163.683 E5.57058
G1 X89.347 Y163.176 E5.60063
G1 X88.647 Y162.605 E5.63068
G1 X88 Y161.975 E5.66071
G1 X87.412 Y161.29 E5.69074
G1 X86.886 Y160.556 E5.72077
G1 X86.428 Y159.777 E5.75083
G1 X86.04 Y158.962 E5.78085
G1 X85.726 Y158.115 E5.8109
G1 X85.488 Y157.244 E5.84093
G1 X85.327 Y156.355 E5.87098
G1 X85.241 Y155.307 E5.90595
G1 X85.226 Y154.668 E5.92721
G1 X85.225 Y103.4 E7.63239
G1 X85.227 Y78.521 E8.45987
G1 X85.237 Y77.856 E8.48199
G1 X85.291 Y76.954 E8.51204
G1 X85.424 Y76.061 E8.54207
G1 X85.635 Y75.183 E8.57211
G1 X85.924 Y74.327 E8.60216
G1 X86.287 Y73.5 E8.6322
G1 X86.721 Y72.709 E8.6622
G1 X87.224 Y71.958 E8.69227
G1 X87.792 Y71.256 E8.7223
G1 X88.419 Y70.606 E8.75234
G1 X89.101 Y70.014 E8.78238
G1 X89.833 Y69.485 E8.81242
G1 X90.609 Y69.023 E8.84245
G1 X91.423 Y68.632 E8.87249
G1 X92.268 Y68.313 E8.90253
G1 X93.138 Y68.071 E8.93256
G1 X94.026 Y67.907 E8.9626
G1 X95.153 Y67.813 E9.00021
G1 X95.76 Y67.8 E9.02041
G1 X107.682 Y67.801 E9.41693
G1 X108.383 Y67.811 E9.44025
G0 F6000 X108.389 Y67.411
G1 F1200 X109.308 Y67.464 E9.47087
G1 X110.219 Y67.597 E9.50149
G1 X111.115 Y67.808 E9.53211
G1 X111.99 Y68.096 E9.56274
G1 X112.836 Y68.459 E9.59336
G1 X113.647 Y68.894 E9.62397
G1 X114.416 Y69.397 E9.65454
G1 X116.629 Y70.984 E9.74511
G1 X118.732 Y72.405 E9.82953
G1 X120.874 Y73.765 E9.91392
G1 X123.039 Y75.055 E9.99774
G1 X125.251 Y76.291 E10.08202
G1 X127.494 Y77.461 E10.16616
G1 X129.784 Y78.574 E10.25084
G1 X132.059 Y79.603 E10.33389
G1 X134.417 Y80.59 E10.41891
G1 X136.777 Y81.497 E10.503
G1 X137.58 Y81.783 E10.53135
G1 X139.234 Y82.406 E10.59014
G1 X140.325 Y82.889 E10.62982
G1 X141.105 Y83.288 E10.65896
G1 X141.558 Y83.534 E10.67611
G1 X141.746 Y83.642 E10.68332
G1 X142.484 Y84.107 E10.71233
G1 X142.716 Y84.267 E10.72171
G1 X143.075 Y84.526 E10.73643
G1 X143.48 Y84.831 E10.75329
G1 X144.227 Y85.449 E10.78554
G1 X144.768 Y85.94 E10.80984
G1 X145.202 Y86.354 E10.82979
G1 X145.787 Y86.972 E10.85809
G1 X145.98 Y87.193 E10.86785
G1 X146.277 Y87.549 E10.88327
G1 X146.579 Y87.927 E10.89936
G1 X147.152 Y88.714 E10.93174
G1 X147.601 Y89.396 E10.9589
G1 X148.24 Y90.509 E11.00158
G1 X148.627 Y91.288 E11.03051
G1 X149.126 Y92.466 E11.07306
G1 X149.41 Y93.268 E11.10136
G1 X149.625 Y93.939 E11.1248
G1 X149.844 Y94.78 E11.1537
G1 X149.907 Y95.071 E11.1636
G1 X149.998 Y95.543 E11.17959
G1 X150.09 Y96.086 E11.19791
G1 X150.173 Y96.68 E11.21786
G1 X150.276 Y97.603 E11.24875
G1 X150.604 Y100.212 E11.33621
G1 X150.992 Y102.717 E11.42052
G1 X151.444 Y105.176 E11.50367
G1 X151.98 Y107.691 E11.5892
G1 X152.563 Y110.087 E11.67122
G1 X153.243 Y112.579 E11.75713
G1 X153.973 Y114.984 E11.84073
G1 X154.771 Y117.365 E11.92425
G1 X155.258 Y118.692 E11.97126
G1 X155.521 Y119.436 E11.99751
G1 X155.74 Y120.132 E12.02178
G1 X155.82 Y120.42 E12.03172
G1 X156.028 Y121.317 E12.06235
G1 X156.168 Y122.345 E12.09685
G1 X156.208 Y122.808 E12.11231
G1 X156.243 Y124.028 E12.1529
G1 X156.236 Y124.269 E12.16092
G1 X156.169 Y125.187 E12.19154
G1 X155.997 Y126.218 E12.2263
G1 X155.649 Y127.815 E12.28066
G1 X155.112 Y130.362 E12.36724
G1 X154.66 Y132.845 E12.45118
G1 X154.535 Y133.59 E12.47631
G1 X154.406 Y134.238 E12.49828
G1 X154.36 Y134.436 E12.50504
G1 X154.034 Y135.556 E12.54384
G1 X153.952 Y135.789 E12.55206
G1 X153.609 Y136.643 E12.58267
G1 X153.182 Y137.484 E12.61404
G1 X152.93 Y137.93 E12.63108
G1 X152.442 Y138.712 E12.66173
G1 X151.851 Y139.494 E12.69434
G1 X151.678 Y139.702 E12.70333
G1 X150.786 Y140.65 E12.74663
G1 X150.588 Y140.836 E12.75566
G1 X149.89 Y141.436 E12.78628
G1 X149.135 Y141.979 E12.81721
G1 X147.526 Y143.029 E12.88111
G1 X147.102 Y143.295 E12.89776
G1 X144.988 Y144.701 E12.9822
G1 X143.787 Y145.554 E13.0312
G1 X142.629 Y146.358 E13.07809
G1 X141.735 Y146.915 E13.11312
G1 X141.503 Y147.044 E13.12195
G1 X140.452 Y147.555 E13.16082
G1 X139.287 Y148.044 E13.20284
G1 X136.918 Y149.076 E13.28879
G1 X134.627 Y150.152 E13.37297
G1 X132.378 Y151.287 E13.45676
G1 X130.134 Y152.5 E13.5416
G1 X127.958 Y153.758 E13.6252
G1 X125.794 Y155.092 E13.70975
G1 X123.7 Y156.465 E13.79303
G1 X121.608 Y157.924 E13.87786
G1 X119.572 Y159.43 E13.96209
G1 X117.6 Y160.978 E14.04548
G1 X115.564 Y162.672 E14.13357
G1 X115.146 Y163.03 E14.15187
G1 X114.422 Y163.598 E14.18248
G1 X113.719 Y164.061 E14.21048
G1 X113.301 Y164.313 E14.22671
G1 X111.129 Y165.651 E14.31156
G1 X110.675 Y165.939 E14.32944
G1 X109.877 Y166.398 E14.36006
G1 X109.042 Y166.786 E14.39068
G1 X108.177 Y167.1 E14.42129
G1 X107.287 Y167.338 E14.45193
G1 X106.381 Y167.498 E14.48253
G1 X105.328 Y167.584 E14.51767
G1 X104.978 Y167.595 E14.52932
G1 X104.645 Y167.6 E14.5404
G1 X99.228 Y167.599 E14.72057
G1 X98.529 Y167.589 E14.74382
G1 X97.61 Y167.536 E14.77443
G1 X96.699 Y167.403 E14.80506
G1 X95.803 Y167.192 E14.83567
G1 X94.929 Y166.904 E14.86628
G1 X94.083 Y166.541 E14.8969
G1 X93.158 Y166.038 E14.93192
G1 X92.3 Y165.512 E14.96539
G1 X91.513 Y165.011 E14.99642
G1 X90.77 Y164.567 E15.02521
G1 X89.885 Y164.023 E15.05976
G1 X89.122 Y163.508 E15.09038
G1 X88.407 Y162.928 E15.121
G1 X87.745 Y162.288 E15.15162
G1 X87.141 Y161.593 E15.18225
G1 X86.6 Y160.848 E15.21287
G1 X86.125 Y160.06 E15.24348
G1 X85.721 Y159.233 E15.27409
G1 X85.39 Y158.374 E15.30471
G1 X85.134 Y157.489 E15.33535
G1 X84.956 Y156.586 E15.36596
G1 X84.841 Y155.319 E15.40827
G1 X84.831 Y154.994 E15.41909
G1 X84.826 Y154.668 E15.42993
G1 X84.825 Y103.4 E17.13511
G1 X84.827 Y78.515 E17.96279
G1 X84.837 Y77.85 E17.98491
G1 X84.891 Y76.931 E18.01553
G1 X85.024 Y76.02 E18.04615
G1 X85.236 Y75.124 E18.07678
G1 X85.525 Y74.249 E18.10743
G1 X85.889 Y73.404 E18.13803
G1 X86.324 Y72.593 E18.16864
G1 X86.829 Y71.822 E18.19929
G1 X87.398 Y71.099 E18.22989
G1 X88.028 Y70.427 E18.26053
G1 X88.714 Y69.813 E18.29115
G1 X89.45 Y69.261 E18.32175
G1 X90.232 Y68.774 E18.35239
G1 X91.053 Y68.358 E18.383
G1 X91.907 Y68.014 E18.41362
G1 X92.787 Y67.745 E18.44423
G1 X93.688 Y67.554 E18.47486
G1 X94.602 Y67.442 E18.50549
G1 X95.142 Y67.413 E18.52348
G1 X95.76 Y67.4 E18.54404
G1 X107.688 Y67.401 E18.94076
G1 X108.389 Y67.411 E18.96408
G0 F6000 X108.395 Y67.011
G1 F1200 X109.331 Y67.064 E18.99526
G1 X110.26 Y67.197 E19.02647
G1 X111.173 Y67.409 E19.05765
G1 X112.066 Y67.697 E19.08886
G1 X112.93 Y68.061 E19.12004
G1 X113.761 Y68.497 E19.15125
G1 X114.649 Y69.072 E19.18644
G1 X116.864 Y70.661 E19.27711
G1 X118.94 Y72.063 E19.36042
G1 X121.072 Y73.417 E19.44443
G1 X123.26 Y74.721 E19.52914
G1 X125.425 Y75.93 E19.61162
G1 X127.676 Y77.104 E19.69606
G1 X129.945 Y78.208 E19.77999
G1 X132.243 Y79.246 E19.86385
G1 X134.578 Y80.224 E19.94805
G1 X136.905 Y81.118 E20.03096
G1 X137.721 Y81.409 E20.05978
G1 X139.375 Y82.032 E20.11856
G1 X140.508 Y82.533 E20.15977
G1 X141.288 Y82.932 E20.18891
G1 X141.757 Y83.187 E20.20666
G1 X141.945 Y83.295 E20.21387
G1 X142.711 Y83.778 E20.24399
G1 X142.943 Y83.938 E20.25337
G1 X143.315 Y84.206 E20.26862
G1 X143.72 Y84.511 E20.28548
G1 X144.496 Y85.153 E20.31898
G1 X145.037 Y85.644 E20.34328
G1 X145.481 Y86.067 E20.36367
G1 X146.088 Y86.708 E20.39303
G1 X146.281 Y86.929 E20.40279
G1 X146.59 Y87.299 E20.41883
G1 X146.892 Y87.677 E20.43492
G1 X147.486 Y88.494 E20.46852
G1 X147.935 Y89.176 E20.49567
G1 X148.598 Y90.331 E20.53997
G1 X148.985 Y91.11 E20.5689
G1 X149.503 Y92.332 E20.61304
G1 X149.787 Y93.134 E20.64134
G1 X149.942 Y93.605 E20.65783
G1 X150.008 Y93.822 E20.66538
G1 X150.235 Y94.695 E20.69538
G1 X150.298 Y94.986 E20.70528
G1 X150.392 Y95.476 E20.72188
G1 X150.484 Y96.019 E20.74019
G1 X150.571 Y96.635 E20.76089
G1 X150.677 Y97.584 E20.79265
G1 X151.003 Y100.172 E20.8794
G1 X151.381 Y102.615 E20.96162
G1 X151.844 Y105.133 E21.04678
G1 X152.365 Y107.577 E21.12989
G1 X152.954 Y110.001 E21.21286
G1 X153.626 Y112.463 E21.29774
G1 X154.35 Y114.846 E21.38058
G1 X155.161 Y117.268 E21.46553
G1 X155.635 Y118.559 E21.51127
G1 X155.898 Y119.303 E21.53752
G1 X156.126 Y120.025 E21.5627
G1 X156.206 Y120.313 E21.57264
G1 X156.418 Y121.226 E21.60382
G1 X156.566 Y122.31 E21.64021
G1 X156.606 Y122.773 E21.65566
G1 X156.642 Y124.039 E21.69779
G1 X156.635 Y124.28 E21.70581
G1 X156.568 Y125.216 E21.73702
G1 X156.388 Y126.303 E21.77366
G1 X156.04 Y127.9 E21.82803
G1 X155.506 Y130.437 E21.91426
G1 X155.054 Y132.917 E21.9981
G1 X154.93 Y133.656 E22.02302
G1 X154.796 Y134.328 E22.04581
G1 X154.75 Y134.526 E22.05257
G1 X154.411 Y135.689 E22.09287
G1 X154.329 Y135.922 E22.10108
G1 X153.98 Y136.792 E22.13226
G1 X153.53 Y137.681 E22.1654
G1 X153.278 Y138.127 E22.18244
G1 X152.782 Y138.923 E22.21363
G1 X152.158 Y139.75 E22.24809
G1 X151.985 Y139.958 E22.25709
G1 X151.059 Y140.941 E22.302
G1 X150.861 Y141.127 E22.31104
G1 X150.151 Y141.74 E22.34224
G1 X149.354 Y142.314 E22.37491
G1 X147.739 Y143.368 E22.43905
G1 X147.314 Y143.634 E22.45572
G1 X145.212 Y145.033 E22.53971
G1 X144.015 Y145.883 E22.58853
G1 X142.857 Y146.687 E22.63542
G1 X141.93 Y147.265 E22.67176
G1 X141.698 Y147.394 E22.68059
G1 X140.606 Y147.924 E22.72096
G1 X139.478 Y148.397 E22.76164
G1 X137.069 Y149.447 E22.84904
G1 X134.813 Y150.507 E22.93195
G1 X132.527 Y151.661 E23.01712
G1 X130.372 Y152.825 E23.09858
G1 X128.136 Y154.117 E23.18448
G1 X126.044 Y155.407 E23.26622
G1 X123.903 Y156.811 E23.35138
G1 X121.853 Y158.241 E23.43451
G1 X119.811 Y159.751 E23.51898
G1 X117.836 Y161.302 E23.6025
G1 X115.836 Y162.965 E23.68901
G1 X115.406 Y163.334 E23.70786
G1 X114.669 Y163.913 E23.73903
G1 X113.925 Y164.403 E23.76866
G1 X113.597 Y164.601 E23.78141
G1 X111.261 Y166.04 E23.87266
G1 X110.889 Y166.276 E23.88731
G1 X110.077 Y166.745 E23.9185
G1 X109.227 Y167.142 E23.9497
G1 X108.347 Y167.466 E23.98089
G1 X107.442 Y167.713 E24.0121
G1 X106.52 Y167.883 E24.04328
G1 X105.341 Y167.984 E24.08264
G1 X104.991 Y167.995 E24.09428
G1 X104.645 Y168 E24.10579
G1 X99.223 Y167.999 E24.28613
G1 X98.524 Y167.989 E24.30938
G1 X97.587 Y167.935 E24.3406
G1 X96.659 Y167.803 E24.37177
G1 X95.745 Y167.591 E24.40298
G1 X94.853 Y167.302 E24.43416
G1 X93.988 Y166.939 E24.46537
G1 X92.95 Y166.379 E24.50459
G1 X92.086 Y165.849 E24.53831
G1 X91.315 Y165.358 E24.56871
G1 X90.561 Y164.908 E24.59791
G1 X89.676 Y164.364 E24.63246
G1 X88.898 Y163.839 E24.66368
G1 X88.169 Y163.25 E24.69485
G1 X87.492 Y162.601 E24.72605
G1 X86.872 Y161.897 E24.75725
G1 X86.315 Y161.142 E24.78845
G1 X85.825 Y160.343 E24.81963
G1 X85.404 Y159.505 E24.85082
G1 X85.056 Y158.634 E24.88201
G1 X84.784 Y157.736 E24.91322
G1 X84.589 Y156.819 E24.9444
G1 X84.473 Y155.888 E24.97561
G1 X84.441 Y155.331 E24.99416
G1 X84.431 Y155.006 E25.00498
G1 X84.426 Y154.668 E25.01622
G1 X84.425 Y103.4 E26.7214
G1 X84.427 Y78.509 E27.54928
G1 X84.437 Y77.844 E27.5714
G1 X84.491 Y76.907 E27.60262
G1 X84.625 Y75.979 E27.6338
G1 X84.837 Y75.065 E27.66501
G1 X85.126 Y74.173 E27.6962
G1 X85.491 Y73.309 E27.72739
G1 X85.927 Y72.479 E27.75858
G1 X86.433 Y71.689 E27.78978
G1 X87.004 Y70.945 E27.82097
G1 X87.636 Y70.252 E27.85217
G1 X88.325 Y69.616 E27.88335
G1 X89.066 Y69.041 E27.91455
G1 X89.853 Y68.531 E27.94574
G1 X90.681 Y68.09 E27.97694
G1 X91.543 Y67.721 E28.00813
G1 X92.434 Y67.427 E28.03934
G1 X93.346 Y67.209 E28.07052
G1 X94.273 Y67.071 E28.1017
G1 X95.131 Y67.013 E28.1303
G1 X95.76 Y67 E28.15122
G1 X107.694 Y67.001 E28.54815
G1 X108.395 Y67.011 E28.57147
G1 F1500 E22.07147
;MESH:20160204_Toothpaste_Roller_print_Rev_C_fixed.stl
G0 F6000 X103.625 Y77.335
G0 X103.625 Y79.208
G0 X103.435 Y153.598
;TYPE:WALL-INNER
G1 F1500 E28.57147
