;FLAVOR:Marlin
;TIME:4331
;Filament used: 2.84399m
;Layer height: 0.2
;MINX:61.368
;MINY:64.101
;MINZ:0.2
;MAXX:173.632
;MAXY:170.899
;MAXZ:6
;Generated with Cura_SteamEngine master
M140 S60
M105
M190 S60
M104 S200
M105
M109 S200
M82 ;absolute extrusion mode
; Ender 3 Custom Start G-code
G92 E0 ; Reset Extruder
G28 ; Home all axes
G1 Z2.0 F3000 ; Move Z Axis up little to prevent scratching of Heat Bed
G1 X0.1 Y20 Z0.3 F5000.0 ; Move to start position
G1 X0.1 Y200.0 Z0.3 F1500.0 E15 ; Draw the first line
G1 X0.4 Y200.0 Z0.3 F5000.0 ; Move to side a little
G1 X0.4 Y20 Z0.3 F1500.0 E30 ; Draw the second line
G92 E0 ; Reset Extruder
G1 Z2.0 F3000 ; Move Z Axis up little to prevent scratching of Heat Bed
G1 X5 Y20 Z0.3 F5000.0 ; Move over to prevent blob squish
G92 E0
G92 E0
G1 F1500 E-6.5
;LAYER_COUNT:30
;LAYER:0
M107
G0 F9000 X117.028 Y64.91 Z0.2
;TYPE:SKIRT
G1 F1500 E0
G1 F3000 X117.929 Y64.962 E0.03002
G1 X118.823 Y65.094 E0.06007
G1 X119.3 Y65.198 E0.07631
G1 X120.405 Y65.469 E0.11415
G1 X121.017 Y65.629 E0.13519
G1 X123.541 Y66.212 E0.22135
G1 X126.028 Y66.714 E0.30574
G1 X128.491 Y67.136 E0.38885
G1 X131.026 Y67.499 E0.47403
G1 X133.529 Y67.785 E0.55782
G1 X136.102 Y68.006 E0.64371
G1 X138.596 Y68.149 E0.7268
G1 X139.425 Y68.174 E0.75438
G1 X140.512 Y68.221 E0.79057
G1 X141.411 Y68.299 E0.82058
G1 X142.3 Y68.458 E0.85062
G1 X143.172 Y68.694 E0.88067
G1 X144.019 Y69.006 E0.91069
G1 X144.836 Y69.392 E0.94074
G1 X145.615 Y69.849 E0.97078
G1 X146.35 Y70.373 E1.00081
G1 X147.037 Y70.96 E1.03086
G1 X147.815 Y71.773 E1.06829
G1 X148.511 Y72.586 E1.10388
G1 X148.98 Y73.149 E1.12825
G1 X150.683 Y75.082 E1.21394
G1 X152.413 Y76.939 E1.29835
G1 X154.151 Y78.7 E1.38064
G1 X155.934 Y80.384 E1.46222
G1 X156.774 Y81.189 E1.50091
G1 X157.398 Y81.842 E1.53095
G1 X157.962 Y82.548 E1.56101
G1 X158.442 Y83.27 E1.58985
G1 X159.105 Y84.368 E1.63251
G1 X162.474 Y90.199 E1.85649
G1 X162.814 Y90.808 E1.87969
G1 X163.219 Y91.615 E1.90972
G1 X163.551 Y92.455 E1.93976
G1 X163.698 Y92.916 E1.95585
G1 X164.12 Y94.362 E2.00595
G1 X164.401 Y95.35 E2.04012
G1 X165.175 Y97.808 E2.12583
G1 X165.999 Y100.185 E2.2095
G1 X166.889 Y102.539 E2.29321
G1 X167.867 Y104.92 E2.37882
G1 X168.897 Y107.238 E2.46319
G1 X169.994 Y109.53 E2.5477
G1 X171.173 Y111.823 E2.63346
G1 X171.403 Y112.249 E2.64956
G1 X171.676 Y112.771 E2.66915
G1 X172.058 Y113.589 E2.69918
G1 X172.367 Y114.438 E2.72923
G1 X172.6 Y115.31 E2.75925
G1 X172.754 Y116.2 E2.78929
G1 X172.829 Y117.1 E2.81933
G1 X172.824 Y118.003 E2.84936
G1 X172.74 Y118.902 E2.87939
G1 X172.576 Y119.79 E2.90943
G1 X172.266 Y120.863 E2.94658
G1 X171.879 Y121.967 E2.98549
G1 X171.604 Y122.716 E3.01202
G1 X170.804 Y125.1 E3.09566
G1 X170.061 Y127.54 E3.1805
G1 X169.395 Y129.973 E3.26439
G1 X168.847 Y132.283 E3.34336
G1 X168.587 Y133.346 E3.37975
G1 X168.334 Y134.213 E3.40979
G1 X168.005 Y135.054 E3.43983
G1 X167.622 Y135.827 E3.46852
G1 X166.987 Y136.981 E3.51233
G1 X163.632 Y142.794 E3.73556
G1 X163.281 Y143.382 E3.75834
G1 X162.784 Y144.136 E3.78838
G1 X162.223 Y144.844 E3.81842
G1 X161.865 Y145.235 E3.83605
G1 X160.828 Y146.31 E3.88573
G1 X159.083 Y148.172 E3.97061
G1 X157.388 Y150.085 E4.05562
G1 X155.763 Y152.028 E4.13986
G1 X154.176 Y154.038 E4.22504
G1 X152.67 Y156.06 E4.3089
G1 X151.197 Y158.161 E4.39424
G1 X149.814 Y160.254 E4.47768
G1 X149.369 Y160.974 E4.50583
G1 X148.69 Y162.043 E4.54795
G1 X148.173 Y162.783 E4.57798
G1 X147.592 Y163.474 E4.608
G1 X146.952 Y164.112 E4.63806
G1 X146.258 Y164.69 E4.6681
G1 X145.516 Y165.205 E4.69814
G1 X144.731 Y165.652 E4.72819
G1 X143.91 Y166.028 E4.75822
G1 X143.059 Y166.329 E4.78824
G1 X142.102 Y166.572 E4.82108
G1 X140.829 Y166.825 E4.86425
G1 X140.052 Y166.959 E4.89048
G1 X137.598 Y167.456 E4.97375
G1 X135.124 Y168.029 E5.05822
G1 X132.682 Y168.669 E5.14218
G1 X130.537 Y169.311 E5.21665
G1 X129.275 Y169.679 E5.26037
G1 X128.398 Y169.893 E5.2904
G1 X127.505 Y170.029 E5.32044
G1 X126.706 Y170.083 E5.34708
G1 X126.068 Y170.097 E5.3683
G1 X118.633 Y170.099 E5.61559
G1 X117.971 Y170.09 E5.63761
G1 X117.07 Y170.038 E5.66763
G1 X116.176 Y169.906 E5.69769
G1 X115.696 Y169.801 E5.71403
G1 X114.595 Y169.531 E5.75173
G1 X113.983 Y169.371 E5.77277
G1 X111.459 Y168.788 E5.85893
G1 X108.972 Y168.286 E5.94332
G1 X106.509 Y167.864 E6.02643
G1 X103.974 Y167.501 E6.11161
G1 X101.471 Y167.215 E6.1954
G1 X98.898 Y166.994 E6.28129
G1 X96.404 Y166.851 E6.36438
G1 X95.575 Y166.826 E6.39196
G1 X94.488 Y166.779 E6.42815
G1 X93.589 Y166.701 E6.45817
G1 X92.7 Y166.542 E6.4882
G1 X91.828 Y166.306 E6.51825
G1 X90.981 Y165.994 E6.54827
G1 X90.164 Y165.608 E6.57832
G1 X89.385 Y165.151 E6.60836
G1 X88.65 Y164.627 E6.63839
G1 X87.963 Y164.04 E6.66844
G1 X87.181 Y163.223 E6.70606
G1 X86.443 Y162.359 E6.74385
G1 X86.024 Y161.855 E6.76565
G1 X84.317 Y159.918 E6.85152
G1 X82.586 Y158.061 E6.93596
G1 X80.849 Y156.3 E7.01823
G1 X79.066 Y154.616 E7.0998
G1 X78.226 Y153.811 E7.13849
G1 X77.602 Y153.158 E7.16854
G1 X77.038 Y152.452 E7.19859
G1 X76.558 Y151.73 E7.22743
G1 X75.895 Y150.632 E7.27009
G1 X72.535 Y144.817 E7.49346
G1 X72.193 Y144.207 E7.51672
G1 X71.787 Y143.401 E7.54674
G1 X71.453 Y142.561 E7.5768
G1 X71.297 Y142.072 E7.59387
G1 X70.88 Y140.638 E7.64355
G1 X70.599 Y139.65 E7.67771
G1 X69.825 Y137.192 E7.76342
G1 X69.001 Y134.815 E7.8471
G1 X68.111 Y132.461 E7.9308
G1 X67.122 Y130.053 E8.01738
G1 X66.108 Y127.772 E8.10041
G1 X65.014 Y125.485 E8.18473
G1 X63.827 Y123.177 E8.27105
G1 X63.594 Y122.744 E8.2874
G1 X63.321 Y122.221 E8.30702
G1 X62.939 Y121.403 E8.33705
G1 X62.631 Y120.554 E8.36709
G1 X62.399 Y119.681 E8.39713
G1 X62.245 Y118.791 E8.42718
G1 X62.17 Y117.891 E8.45721
G1 X62.176 Y116.988 E8.48725
G1 X62.261 Y116.089 E8.51728
G1 X62.426 Y115.201 E8.54732
G1 X62.735 Y114.133 E8.5843
G1 X63.121 Y113.033 E8.62308
G1 X63.396 Y112.284 E8.64961
G1 X64.196 Y109.9 E8.73325
G1 X64.939 Y107.46 E8.81808
G1 X65.605 Y105.027 E8.90198
G1 X66.153 Y102.717 E8.98095
G1 X66.413 Y101.654 E9.01734
G1 X66.666 Y100.787 E9.04738
G1 X66.995 Y99.946 E9.07742
G1 X67.378 Y99.173 E9.10611
G1 X68.013 Y98.019 E9.14992
G1 X71.368 Y92.206 E9.37315
G1 X71.719 Y91.618 E9.39593
G1 X72.216 Y90.864 E9.42597
G1 X72.777 Y90.156 E9.45601
G1 X73.135 Y89.765 E9.47364
G1 X74.172 Y88.69 E9.52332
G1 X75.917 Y86.828 E9.6082
G1 X77.615 Y84.912 E9.69335
G1 X79.237 Y82.972 E9.77745
G1 X80.824 Y80.962 E9.86263
G1 X82.33 Y78.94 E9.94649
G1 X83.814 Y76.823 E10.03248
G1 X85.176 Y74.76 E10.1147
G1 X85.643 Y74.007 E10.14417
G1 X86.313 Y72.953 E10.18571
G1 X86.831 Y72.213 E10.21575
G1 X87.412 Y71.522 E10.24578
G1 X88.052 Y70.885 E10.27581
G1 X88.746 Y70.307 E10.30585
G1 X89.488 Y69.792 E10.33589
G1 X90.273 Y69.346 E10.36592
G1 X91.094 Y68.97 E10.39596
G1 X91.946 Y68.669 E10.42601
G1 X92.907 Y68.426 E10.45898
G1 X94.171 Y68.175 E10.50184
G1 X94.948 Y68.041 E10.52806
G1 X97.402 Y67.544 E10.61134
G1 X99.876 Y66.971 E10.69581
G1 X102.318 Y66.331 E10.77977
G1 X104.463 Y65.689 E10.85424
G1 X105.725 Y65.321 E10.89796
G1 X106.602 Y65.107 E10.92799
G1 X107.495 Y64.971 E10.95803
G1 X108.318 Y64.916 E10.98547
G1 X108.924 Y64.904 E11.00563
G1 X116.367 Y64.901 E11.25318
G1 X117.028 Y64.91 E11.27517
G0 F9000 X117.033 Y64.51
G1 F3000 X117.952 Y64.562 E11.30578
G1 X118.864 Y64.695 E11.33644
G1 X119.395 Y64.809 E11.3545
G1 X120.507 Y65.082 E11.39258
G1 X121.112 Y65.24 E11.41338
G1 X123.604 Y65.815 E11.49844
G1 X126.103 Y66.32 E11.58324
G1 X128.579 Y66.744 E11.66679
G1 X131.061 Y67.1 E11.75019
G1 X133.608 Y67.391 E11.83545
G1 X136.088 Y67.604 E11.91824
G1 X138.631 Y67.75 E12.00296
G1 X139.442 Y67.774 E12.02995
G1 X140.529 Y67.821 E12.06613
G1 X141.446 Y67.901 E12.09675
G1 X142.353 Y68.06 E12.12738
G1 X143.243 Y68.297 E12.15801
G1 X144.108 Y68.61 E12.18861
G1 X144.943 Y68.997 E12.21922
G1 X145.742 Y69.456 E12.24986
G1 X146.498 Y69.981 E12.28048
G1 X147.205 Y70.571 E12.3111
G1 X148.119 Y71.513 E12.35476
G1 X148.818 Y72.33 E12.39052
G1 X149.286 Y72.892 E12.41485
G1 X150.975 Y74.809 E12.49982
G1 X152.691 Y76.65 E12.58353
G1 X154.428 Y78.41 E12.66577
G1 X156.211 Y80.095 E12.74737
G1 X157.051 Y80.9 E12.78607
G1 X157.688 Y81.565 E12.81669
G1 X158.264 Y82.283 E12.84731
G1 X158.785 Y83.063 E12.87851
G1 X159.451 Y84.168 E12.92142
G1 X162.823 Y90.004 E13.1456
G1 X163.163 Y90.613 E13.1688
G1 X163.577 Y91.435 E13.19941
G1 X163.917 Y92.291 E13.23004
G1 X164.082 Y92.803 E13.24793
G1 X164.505 Y94.253 E13.29817
G1 X164.791 Y95.259 E13.33296
G1 X165.548 Y97.662 E13.41675
G1 X166.379 Y100.061 E13.50119
G1 X167.262 Y102.395 E13.58419
G1 X168.238 Y104.772 E13.66966
G1 X169.252 Y107.053 E13.75268
G1 X170.359 Y109.368 E13.83803
G1 X171.522 Y111.628 E13.92257
G1 X171.757 Y112.064 E13.93904
G1 X172.03 Y112.586 E13.95863
G1 X172.421 Y113.419 E13.98924
G1 X172.738 Y114.284 E14.01988
G1 X172.979 Y115.172 E14.05048
G1 X173.141 Y116.078 E14.0811
G1 X173.225 Y116.995 E14.11172
G1 X173.229 Y117.916 E14.14236
G1 X173.153 Y118.833 E14.17296
G1 X172.997 Y119.741 E14.2036
G1 X172.644 Y120.995 E14.24693
G1 X172.254 Y122.105 E14.28606
G1 X171.982 Y122.845 E14.31229
G1 X171.179 Y125.238 E14.39624
G1 X170.443 Y127.657 E14.48034
G1 X169.787 Y130.054 E14.56299
G1 X169.235 Y132.378 E14.64244
G1 X168.975 Y133.441 E14.67884
G1 X168.718 Y134.325 E14.70946
G1 X168.385 Y135.184 E14.7401
G1 X167.973 Y136.02 E14.7711
G1 X167.334 Y137.181 E14.81517
G1 X163.976 Y142.999 E15.0386
G1 X163.625 Y143.587 E15.06138
G1 X163.119 Y144.356 E15.09199
G1 X162.548 Y145.079 E15.12264
G1 X162.153 Y145.512 E15.14213
G1 X161.159 Y146.543 E15.18976
G1 X159.357 Y148.465 E15.27739
G1 X157.695 Y150.34 E15.36073
G1 X156.083 Y152.269 E15.44434
G1 X154.495 Y154.279 E15.52954
G1 X152.974 Y156.323 E15.61428
G1 X151.553 Y158.348 E15.69656
G1 X150.151 Y160.471 E15.78118
G1 X149.707 Y161.188 E15.80923
G1 X149.028 Y162.257 E15.85135
G1 X148.501 Y163.012 E15.88197
G1 X147.91 Y163.719 E15.91262
G1 X147.261 Y164.371 E15.94322
G1 X146.557 Y164.965 E15.97386
G1 X145.805 Y165.495 E16.00446
G1 X145.009 Y165.958 E16.03508
G1 X144.176 Y166.351 E16.06572
G1 X143.312 Y166.669 E16.09634
G1 X142.181 Y166.964 E16.13521
G1 X140.897 Y167.219 E16.17875
G1 X140.135 Y167.351 E16.20448
G1 X137.663 Y167.851 E16.28836
G1 X135.235 Y168.414 E16.37126
G1 X132.788 Y169.055 E16.45539
G1 X130.649 Y169.695 E16.52965
G1 X129.387 Y170.063 E16.57337
G1 X128.493 Y170.282 E16.60399
G1 X127.583 Y170.423 E16.63462
G1 X126.718 Y170.483 E16.66346
G1 X126.068 Y170.497 E16.68508
G1 X118.628 Y170.499 E16.93253
G1 X117.966 Y170.49 E16.95455
G1 X117.047 Y170.438 E16.98517
G1 X116.136 Y170.305 E17.01579
G1 X115.602 Y170.19 E17.03396
G1 X114.493 Y169.918 E17.07194
G1 X113.888 Y169.76 E17.09274
G1 X111.396 Y169.185 E17.1778
G1 X108.897 Y168.68 E17.26259
G1 X106.421 Y168.256 E17.34615
G1 X103.939 Y167.9 E17.42954
G1 X101.392 Y167.609 E17.51481
G1 X98.912 Y167.396 E17.5976
G1 X96.369 Y167.25 E17.68231
G1 X95.558 Y167.226 E17.7093
G1 X94.471 Y167.179 E17.74549
G1 X93.554 Y167.099 E17.7761
G1 X92.647 Y166.94 E17.80673
G1 X91.757 Y166.703 E17.83736
G1 X90.892 Y166.39 E17.86796
G1 X90.057 Y166.003 E17.89857
G1 X89.258 Y165.544 E17.92922
G1 X88.502 Y165.019 E17.95983
G1 X87.795 Y164.429 E17.99046
G1 X86.877 Y163.483 E18.0343
G1 X86.135 Y162.615 E18.07228
G1 X85.7 Y162.092 E18.09491
G1 X84.041 Y160.209 E18.17838
G1 X82.291 Y158.332 E18.26373
G1 X80.572 Y156.59 E18.34513
G1 X78.789 Y154.905 E18.42672
G1 X77.949 Y154.1 E18.46542
G1 X77.312 Y153.435 E18.49605
G1 X76.736 Y152.717 E18.52666
G1 X76.215 Y151.937 E18.55786
G1 X75.549 Y150.832 E18.60077
G1 X72.186 Y145.013 E18.82431
G1 X71.844 Y144.403 E18.84757
G1 X71.429 Y143.581 E18.8782
G1 X71.087 Y142.726 E18.90883
G1 X70.913 Y142.184 E18.92776
G1 X70.495 Y140.747 E18.97753
G1 X70.209 Y139.741 E19.01232
G1 X69.452 Y137.338 E19.09612
G1 X68.621 Y134.939 E19.18056
G1 X67.738 Y132.605 E19.26356
G1 X66.766 Y130.239 E19.34863
G1 X65.74 Y127.928 E19.43273
G1 X64.642 Y125.634 E19.51732
G1 X63.478 Y123.372 E19.60193
G1 X63.239 Y122.929 E19.61867
G1 X62.966 Y122.406 E19.6383
G1 X62.576 Y121.572 E19.66892
G1 X62.26 Y120.708 E19.69952
G1 X62.02 Y119.819 E19.73014
G1 X61.857 Y118.913 E19.76076
G1 X61.775 Y117.996 E19.79138
G1 X61.772 Y117.075 E19.82201
G1 X61.848 Y116.158 E19.85262
G1 X62.005 Y115.25 E19.88327
G1 X62.358 Y114.001 E19.92644
G1 X62.746 Y112.895 E19.96542
G1 X63.018 Y112.155 E19.99164
G1 X63.821 Y109.762 E20.0756
G1 X64.557 Y107.343 E20.15969
G1 X65.213 Y104.946 E20.24235
G1 X65.765 Y102.622 E20.3218
G1 X66.025 Y101.559 E20.35819
G1 X66.282 Y100.675 E20.38881
G1 X66.615 Y99.816 E20.41946
G1 X67.027 Y98.98 E20.45045
G1 X67.666 Y97.819 E20.49453
G1 X71.024 Y92.001 E20.71796
G1 X71.375 Y91.413 E20.74073
G1 X71.881 Y90.644 E20.77135
G1 X72.452 Y89.921 E20.80199
G1 X72.847 Y89.488 E20.82149
G1 X73.841 Y88.457 E20.86912
G1 X75.643 Y86.535 E20.95675
G1 X77.305 Y84.66 E21.04008
G1 X78.917 Y82.731 E21.1237
G1 X80.505 Y80.721 E21.2089
G1 X82.026 Y78.677 E21.29364
G1 X83.447 Y76.652 E21.37592
G1 X84.855 Y74.52 E21.4609
G1 X85.305 Y73.793 E21.48933
G1 X85.975 Y72.739 E21.53087
G1 X86.503 Y71.984 E21.56152
G1 X87.093 Y71.278 E21.59212
G1 X87.743 Y70.625 E21.62276
G1 X88.447 Y70.032 E21.65338
G1 X89.2 Y69.502 E21.684
G1 X89.995 Y69.039 E21.7146
G1 X90.828 Y68.647 E21.74522
G1 X91.692 Y68.329 E21.77584
G1 X92.828 Y68.034 E21.81488
G1 X94.103 Y67.781 E21.85811
G1 X94.865 Y67.649 E21.88384
G1 X97.337 Y67.149 E21.96772
G1 X99.765 Y66.586 E22.05062
G1 X102.212 Y65.945 E22.13475
G1 X104.351 Y65.305 E22.20901
G1 X105.613 Y64.937 E22.25273
G1 X106.507 Y64.718 E22.28335
G1 X107.417 Y64.577 E22.31398
G1 X108.308 Y64.517 E22.34368
G1 X108.924 Y64.504 E22.36417
G1 X116.372 Y64.501 E22.61189
G1 X117.033 Y64.51 E22.63388
G0 F9000 X117.039 Y64.11
G1 F3000 X117.975 Y64.163 E22.66506
G1 X118.904 Y64.295 E22.69627
G1 X119.489 Y64.421 E22.71617
G1 X120.608 Y64.695 E22.75449
G1 X121.237 Y64.86 E22.77612
G1 X123.659 Y65.419 E22.85879
G1 X126.179 Y65.927 E22.94429
G1 X128.637 Y66.348 E23.02724
G1 X131.126 Y66.705 E23.11087
G1 X133.616 Y66.989 E23.19422
G1 X136.144 Y67.206 E23.27861
G1 X138.631 Y67.349 E23.36147
G1 X139.459 Y67.374 E23.38902
G1 X140.546 Y67.421 E23.42521
G1 X141.481 Y67.502 E23.45642
G1 X142.405 Y67.661 E23.48761
G1 X143.312 Y67.899 E23.5188
G1 X144.196 Y68.214 E23.55001
G1 X145.049 Y68.602 E23.58118
G1 X145.867 Y69.062 E23.61239
G1 X146.642 Y69.589 E23.64356
G1 X147.37 Y70.181 E23.67477
G1 X148.044 Y70.833 E23.70596
G1 X148.423 Y71.252 E23.72475
G1 X149.125 Y72.074 E23.7607
G1 X149.577 Y72.617 E23.7842
G1 X151.268 Y74.535 E23.86925
G1 X152.986 Y76.379 E23.95307
G1 X154.719 Y78.135 E24.03513
G1 X156.488 Y79.806 E24.11607
G1 X157.328 Y80.611 E24.15477
G1 X157.977 Y81.288 E24.18596
G1 X158.566 Y82.018 E24.21716
G1 X159.127 Y82.856 E24.2507
G1 X159.797 Y83.968 E24.29388
G1 X163.173 Y89.809 E24.51826
G1 X163.513 Y90.418 E24.54146
G1 X163.934 Y91.255 E24.57262
G1 X164.283 Y92.126 E24.60383
G1 X164.465 Y92.691 E24.62358
G1 X164.89 Y94.143 E24.6739
G1 X165.172 Y95.133 E24.70813
G1 X165.935 Y97.558 E24.79269
G1 X166.755 Y99.924 E24.87597
G1 X167.635 Y102.249 E24.95866
G1 X168.597 Y104.594 E25.04296
G1 X169.634 Y106.926 E25.12784
G1 X170.704 Y109.163 E25.21032
G1 X171.872 Y111.433 E25.29523
G1 X172.111 Y111.878 E25.31203
G1 X172.384 Y112.4 E25.33162
G1 X172.783 Y113.249 E25.36282
G1 X173.108 Y114.129 E25.39402
G1 X173.357 Y115.033 E25.42521
G1 X173.528 Y115.955 E25.4564
G1 X173.62 Y116.889 E25.48762
G1 X173.632 Y117.826 E25.51878
G1 X173.564 Y118.762 E25.55
G1 X173.417 Y119.688 E25.58118
G1 X173.191 Y120.598 E25.61237
G1 X173.021 Y121.127 E25.63085
G1 X172.63 Y122.243 E25.67018
G1 X172.35 Y123.004 E25.69715
G1 X171.568 Y125.334 E25.77889
G1 X170.826 Y127.774 E25.86372
G1 X170.172 Y130.162 E25.94607
G1 X169.624 Y132.473 E26.02506
G1 X169.364 Y133.536 E26.06146
G1 X169.103 Y134.437 E26.09266
G1 X168.765 Y135.312 E26.12386
G1 X168.324 Y136.212 E26.15719
G1 X167.68 Y137.381 E26.20158
G1 X164.319 Y143.204 E26.4252
G1 X163.968 Y143.792 E26.44798
G1 X163.454 Y144.576 E26.47916
G1 X162.874 Y145.314 E26.51038
G1 X162.441 Y145.79 E26.53178
G1 X161.422 Y146.846 E26.58059
G1 X159.664 Y148.722 E26.6661
G1 X158.002 Y150.597 E26.74944
G1 X156.373 Y152.546 E26.83392
