;FLAVOR:Marlin
;TIME:9940
;Filament used: 5.67541m
;Layer height: 0.2
;MINX:22.958
;MINY:33.749
;MINZ:0.2
;MAXX:219.691
;MAXY:203.764
;MAXZ:6
;Generated with Cura_SteamEngine master
M140 S60
M105
M190 S60
M104 S200
M105
M109 S200
M82 ;absolute extrusion mode
; Ender 3 Custom Start G-code
G92 E0 ; Reset Extruder
G28 ; Home all axes
G1 Z2.0 F3000 ; Move Z Axis up little to prevent scratching of Heat Bed
G1 X0.1 Y20 Z0.3 F5000.0 ; Move to start position
G1 X0.1 Y200.0 Z0.3 F1500.0 E15 ; Draw the first line
G1 X0.4 Y200.0 Z0.3 F5000.0 ; Move to side a little
G1 X0.4 Y20 Z0.3 F1500.0 E30 ; Draw the second line
G92 E0 ; Reset Extruder
G1 Z2.0 F3000 ; Move Z Axis up little to prevent scratching of Heat Bed
G1 X5 Y20 Z0.3 F5000.0 ; Move over to prevent blob squish
G92 E0
G92 E0
G1 F1500 E-6.5
;LAYER_COUNT:30
;LAYER:0
M107
G0 F9000 X101.804 Y34.56 Z0.2
;TYPE:SKIRT
G1 F1500 E0
G1 F3000 X102.706 Y34.613 E0.03005
G1 X103.599 Y34.745 E0.06008
G1 X104.478 Y34.956 E0.09014
G1 X105.334 Y35.244 E0.12018
G1 X106.161 Y35.606 E0.15021
G1 X106.953 Y36.04 E0.18025
G1 X107.703 Y36.543 E0.21028
G1 X108.406 Y37.11 E0.24032
G1 X109.056 Y37.736 E0.27033
G1 X109.649 Y38.418 E0.30039
G1 X110.178 Y39.15 E0.33043
G1 X110.418 Y39.532 E0.34544
G1 X110.853 Y40.264 E0.37376
G1 X120.389 Y56.781 E1.0081
G1 X121.766 Y59.089 E1.09749
G1 X123.128 Y61.233 E1.18197
G1 X124.555 Y63.346 E1.26678
G1 X126.019 Y65.383 E1.35021
G1 X127.584 Y67.439 E1.43615
G1 X129.164 Y69.397 E1.51983
G1 X130.812 Y71.324 E1.60416
G1 X132.508 Y73.196 E1.68818
G1 X134.278 Y75.044 E1.77329
G1 X136.096 Y76.838 E1.85824
G1 X137.956 Y78.57 E1.94277
G1 X139.832 Y80.221 E2.02589
G1 X141.802 Y81.86 E2.11113
G1 X143.812 Y83.436 E2.19608
G1 X145.827 Y84.929 E2.27949
G1 X147.93 Y86.393 E2.36471
G1 X150.06 Y87.791 E2.44946
G1 X152.208 Y89.114 E2.53336
G1 X154.409 Y90.387 E2.61793
G1 X156.638 Y91.592 E2.70221
G1 X158.915 Y92.741 E2.78704
G1 X161.191 Y93.81 E2.87067
G1 X163.552 Y94.838 E2.95632
G1 X165.934 Y95.798 E3.04174
G1 X168.27 Y96.66 E3.12455
G1 X170.673 Y97.472 E3.20892
G1 X173.126 Y98.224 E3.29425
G1 X175.563 Y98.897 E3.37834
G1 X178.015 Y99.5 E3.46232
G1 X180.529 Y100.044 E3.54788
G1 X183.008 Y100.505 E3.63174
G1 X185.559 Y100.907 E3.71763
G1 X187.465 Y101.161 E3.78159
G1 X188.354 Y101.32 E3.81163
G1 X189.225 Y101.557 E3.84165
G1 X190.072 Y101.87 E3.87168
G1 X190.888 Y102.257 E3.90172
G1 X191.667 Y102.714 E3.93176
G1 X192.402 Y103.239 E3.9618
G1 X193.088 Y103.827 E3.99185
G1 X193.719 Y104.472 E4.02186
G1 X194.29 Y105.172 E4.05191
G1 X194.751 Y105.844 E4.07901
G1 X195.14 Y106.463 E4.10333
G1 X195.338 Y106.79 E4.11604
G1 X217.277 Y144.795 E5.57559
G1 X217.592 Y145.358 E5.59705
G1 X217.998 Y146.164 E5.62707
G1 X218.331 Y147.004 E5.65712
G1 X218.588 Y147.87 E5.68716
G1 X218.767 Y148.755 E5.7172
G1 X218.868 Y149.652 E5.74722
G1 X218.889 Y150.555 E5.77726
G1 X218.829 Y151.456 E5.80729
G1 X218.691 Y152.349 E5.83735
G1 X218.389 Y153.498 E5.87686
G1 X218.083 Y154.437 E5.90971
G1 X217.954 Y154.809 E5.92281
G1 X217.704 Y155.486 E5.94681
G1 X216.907 Y157.853 E6.02988
G1 X216.158 Y160.306 E6.11518
G1 X215.49 Y162.735 E6.19897
G1 X214.964 Y164.949 E6.27466
G1 X214.656 Y166.208 E6.31777
G1 X214.403 Y167.075 E6.34781
G1 X214.074 Y167.916 E6.37784
G1 X213.687 Y168.696 E6.4068
G1 X213.034 Y169.88 E6.45178
G1 X209.698 Y175.665 E6.67389
G1 X209.352 Y176.245 E6.69635
G1 X208.855 Y176.999 E6.72639
G1 X208.294 Y177.706 E6.7564
G1 X207.931 Y178.103 E6.7743
G1 X206.932 Y179.138 E6.82214
G1 X205.124 Y181.066 E6.91005
G1 X203.466 Y182.938 E6.99322
G1 X201.815 Y184.911 E7.07879
G1 X200.257 Y186.883 E7.16238
G1 X198.737 Y188.926 E7.24707
G1 X197.291 Y190.989 E7.33087
G1 X195.872 Y193.136 E7.41646
G1 X195.438 Y193.839 E7.44394
G1 X194.755 Y194.913 E7.48627
G1 X194.237 Y195.652 E7.51629
G1 X193.656 Y196.344 E7.54634
G1 X193.016 Y196.981 E7.57638
G1 X192.322 Y197.558 E7.60639
G1 X191.579 Y198.073 E7.63646
G1 X190.794 Y198.519 E7.66649
G1 X189.973 Y198.895 E7.69652
G1 X189.122 Y199.196 E7.72655
G1 X188.17 Y199.437 E7.75921
G1 X186.897 Y199.69 E7.80238
G1 X186.12 Y199.824 E7.8286
G1 X183.666 Y200.321 E7.91188
G1 X181.192 Y200.894 E7.99634
G1 X178.75 Y201.534 E8.08031
G1 X176.605 Y202.176 E8.15478
G1 X175.343 Y202.544 E8.1985
G1 X174.466 Y202.758 E8.22853
G1 X173.573 Y202.894 E8.25857
G1 X172.774 Y202.948 E8.28521
G1 X172.136 Y202.962 E8.30643
G1 X164.701 Y202.964 E8.55372
G1 X164.039 Y202.955 E8.57574
G1 X163.138 Y202.903 E8.60576
G1 X162.244 Y202.771 E8.63581
G1 X161.764 Y202.666 E8.65216
G1 X160.663 Y202.396 E8.68986
G1 X160.051 Y202.236 E8.7109
G1 X157.527 Y201.653 E8.79706
G1 X155.04 Y201.151 E8.88145
G1 X152.577 Y200.729 E8.96456
G1 X150.042 Y200.366 E9.04973
G1 X147.539 Y200.08 E9.13352
G1 X144.966 Y199.859 E9.21942
G1 X142.472 Y199.716 E9.30251
G1 X141.643 Y199.691 E9.33009
G1 X140.556 Y199.644 E9.36628
G1 X139.657 Y199.566 E9.39629
G1 X138.768 Y199.407 E9.42633
G1 X137.896 Y199.171 E9.45637
G1 X137.049 Y198.859 E9.4864
G1 X136.232 Y198.473 E9.51645
G1 X135.453 Y198.016 E9.54649
G1 X134.718 Y197.492 E9.57651
G1 X134.031 Y196.905 E9.60657
G1 X133.249 Y196.088 E9.64418
G1 X132.511 Y195.224 E9.68197
G1 X132.092 Y194.72 E9.70377
G1 X130.385 Y192.783 E9.78965
G1 X128.654 Y190.926 E9.87408
G1 X126.917 Y189.165 E9.95635
G1 X125.134 Y187.482 E10.0379
G1 X124.296 Y186.679 E10.0765
G1 X123.672 Y186.026 E10.10654
G1 X123.109 Y185.32 E10.13658
G1 X122.631 Y184.602 E10.16527
G1 X121.944 Y183.465 E10.20945
G1 X117.354 Y175.527 E10.51443
G1 X116.021 Y173.37 E10.59877
G1 X114.633 Y171.256 E10.68288
G1 X113.168 Y169.159 E10.76796
G1 X111.658 Y167.121 E10.85232
G1 X110.093 Y165.13 E10.93655
G1 X108.462 Y163.172 E11.02131
G1 X106.811 Y161.3 E11.10433
G1 X105.044 Y159.407 E11.19046
G1 X103.265 Y157.606 E11.27465
G1 X101.445 Y155.864 E11.35845
G1 X99.539 Y154.142 E11.44388
G1 X97.627 Y152.51 E11.52749
G1 X95.616 Y150.888 E11.61342
G1 X93.637 Y149.384 E11.6961
G1 X91.552 Y147.89 E11.78141
G1 X89.446 Y146.47 E11.86589
G1 X87.288 Y145.101 E11.95089
G1 X85.128 Y143.816 E12.03448
G1 X82.916 Y142.582 E12.11873
G1 X80.655 Y141.403 E12.20354
G1 X78.359 Y140.289 E12.28842
G1 X76.042 Y139.244 E12.37296
G1 X73.685 Y138.258 E12.45793
G1 X71.34 Y137.359 E12.54146
G1 X68.92 Y136.505 E12.62682
G1 X66.533 Y135.739 E12.7102
G1 X64.102 Y135.034 E12.79439
G1 X61.597 Y134.383 E12.88047
G1 X59.117 Y133.812 E12.96511
G1 X56.695 Y133.329 E13.04725
G1 X55.418 Y133.109 E13.09035
G1 X54.67 Y132.971 E13.11565
G1 X53.79 Y132.768 E13.14569
G1 X52.932 Y132.488 E13.17571
G1 X52.101 Y132.133 E13.20576
G1 X51.306 Y131.706 E13.23578
G1 X50.551 Y131.21 E13.26582
G1 X49.843 Y130.65 E13.29585
G1 X49.187 Y130.029 E13.32589
G1 X48.769 Y129.57 E13.34654
G1 X48.039 Y128.715 E13.38393
G1 X47.622 Y128.213 E13.40564
G1 X45.974 Y126.34 E13.48862
G1 X44.235 Y124.472 E13.5735
G1 X42.45 Y122.662 E13.65805
G1 X40.567 Y120.857 E13.74481
G1 X40.025 Y120.358 E13.76931
G1 X39.388 Y119.718 E13.79934
G1 X38.81 Y119.024 E13.82938
G1 X38.303 Y118.292 E13.859
G1 X37.667 Y117.283 E13.89867
G1 X37.464 Y116.947 E13.91173
G1 X34.129 Y111.174 E14.13347
G1 X33.788 Y110.567 E14.15663
G1 X33.381 Y109.761 E14.18666
G1 X33.047 Y108.922 E14.2167
G1 X32.889 Y108.426 E14.23401
G1 X32.465 Y106.971 E14.28442
G1 X32.211 Y106.075 E14.31539
G1 X31.443 Y103.627 E14.40073
G1 X30.61 Y101.213 E14.48566
G1 X29.715 Y98.839 E14.57005
G1 X28.767 Y96.529 E14.6531
G1 X27.717 Y94.161 E14.73925
G1 X26.643 Y91.91 E14.82221
G1 X25.458 Y89.601 E14.90853
G1 X25.211 Y89.144 E14.9258
G1 X24.91 Y88.567 E14.94745
G1 X24.528 Y87.748 E14.97751
G1 X24.22 Y86.899 E15.00755
G1 X23.988 Y86.026 E15.03759
G1 X23.835 Y85.136 E15.06763
G1 X23.76 Y84.236 E15.09766
G1 X23.766 Y83.333 E15.1277
G1 X23.852 Y82.434 E15.15773
G1 X24.016 Y81.546 E15.18777
G1 X24.259 Y80.676 E15.21781
G1 X24.578 Y79.831 E15.24785
G1 X25.05 Y78.872 E15.2834
G1 X25.461 Y78.139 E15.31136
G1 X47.428 Y40.092 E16.77258
G1 X47.754 Y39.545 E16.79376
G1 X48.25 Y38.791 E16.82378
G1 X48.811 Y38.083 E16.85382
G1 X49.433 Y37.428 E16.88386
G1 X50.11 Y36.83 E16.91391
G1 X50.837 Y36.294 E16.94395
G1 X51.609 Y35.825 E16.97399
G1 X52.419 Y35.426 E17.00402
G1 X53.261 Y35.1 E17.03405
G1 X54.129 Y34.85 E17.0641
G1 X55.015 Y34.678 E17.09412
G1 X56.251 Y34.57 E17.13538
G1 X57.208 Y34.549 E17.16722
G1 X101.103 Y34.55 E18.62717
G1 X101.804 Y34.56 E18.65049
G0 F9000 X101.81 Y34.16
G1 F3000 X102.729 Y34.213 E18.68111
G1 X103.64 Y34.346 E18.71173
G1 X104.536 Y34.557 E18.74235
G1 X105.411 Y34.845 E18.77298
G1 X106.257 Y35.208 E18.8036
G1 X107.068 Y35.643 E18.83421
G1 X107.839 Y36.147 E18.86485
G1 X108.563 Y36.716 E18.89548
G1 X109.235 Y37.345 E18.92609
G1 X109.85 Y38.03 E18.95671
G1 X110.403 Y38.766 E18.98733
G1 X110.762 Y39.327 E19.00948
G1 X111.2 Y40.064 E19.038
G1 X120.792 Y56.678 E19.67606
G1 X122.094 Y58.86 E19.76057
G1 X123.475 Y61.033 E19.84621
G1 X124.867 Y63.095 E19.92896
G1 X126.346 Y65.154 E20.01328
G1 X127.898 Y67.192 E20.09848
G1 X129.464 Y69.132 E20.1814
G1 X131.113 Y71.061 E20.26581
G1 X132.792 Y72.915 E20.349
G1 X134.565 Y74.765 E20.43423
G1 X136.384 Y76.56 E20.51922
G1 X138.209 Y78.259 E20.60216
G1 X140.11 Y79.932 E20.68638
G1 X142.059 Y81.554 E20.77072
G1 X144.028 Y83.099 E20.85396
G1 X146.071 Y84.611 E20.9385
G1 X148.157 Y86.064 E21.02305
G1 X150.259 Y87.444 E21.10668
G1 X152.423 Y88.776 E21.1912
G1 X154.609 Y90.04 E21.27519
G1 X156.83 Y91.241 E21.35916
G1 X159.086 Y92.38 E21.44322
G1 X161.384 Y93.459 E21.52766
G1 X163.681 Y94.459 E21.61098
G1 X166.084 Y95.428 E21.69716
G1 X168.388 Y96.277 E21.77883
G1 X170.813 Y97.097 E21.86397
G1 X173.212 Y97.832 E21.94742
G1 X175.66 Y98.508 E22.03189
G1 X178.123 Y99.114 E22.11625
G1 X180.615 Y99.654 E22.20106
G1 X183.066 Y100.109 E22.28398
G1 X185.594 Y100.507 E22.36909
G1 X187.518 Y100.764 E22.43365
G1 X188.424 Y100.926 E22.46426
G1 X189.313 Y101.165 E22.49488
G1 X190.178 Y101.481 E22.52551
G1 X191.012 Y101.87 E22.55612
G1 X191.809 Y102.33 E22.58673
G1 X192.564 Y102.858 E22.61737
G1 X193.269 Y103.45 E22.64799
G1 X193.921 Y104.1 E22.67861
G1 X194.514 Y104.804 E22.70923
G1 X195.09 Y105.631 E22.74275
G1 X195.479 Y106.25 E22.76706
G1 X195.684 Y106.59 E22.78027
G1 X217.627 Y144.599 E24.24
G1 X217.942 Y145.162 E24.26145
G1 X218.356 Y145.985 E24.29209
G1 X218.697 Y146.84 E24.32271
G1 X218.963 Y147.721 E24.35332
G1 X219.151 Y148.622 E24.38393
G1 X219.261 Y149.536 E24.41455
G1 X219.29 Y150.456 E24.44517
G1 X219.24 Y151.376 E24.47581
G1 X219.11 Y152.287 E24.50642
G1 X218.769 Y153.622 E24.55224
G1 X218.463 Y154.561 E24.58509
G1 X218.329 Y154.947 E24.59868
G1 X218.094 Y155.584 E24.62126
G1 X217.278 Y158.007 E24.7063
G1 X216.54 Y160.424 E24.79035
G1 X215.88 Y162.823 E24.87311
G1 X215.352 Y165.044 E24.94904
G1 X215.044 Y166.303 E24.99215
G1 X214.787 Y167.187 E25.02277
G1 X214.454 Y168.045 E25.05338
G1 X214.038 Y168.888 E25.08465
G1 X213.381 Y170.08 E25.12992
G1 X210.041 Y175.87 E25.35224
G1 X209.695 Y176.45 E25.3747
G1 X209.19 Y177.219 E25.4053
G1 X208.619 Y177.942 E25.43594
G1 X208.219 Y178.381 E25.45569
G1 X207.193 Y179.444 E25.50483
G1 X205.433 Y181.32 E25.59039
G1 X203.756 Y183.213 E25.6745
G1 X202.135 Y185.152 E25.75856
G1 X200.577 Y187.125 E25.84218
G1 X199.07 Y189.149 E25.92611
G1 X197.602 Y191.242 E26.01113
G1 X196.223 Y193.329 E26.09433
G1 X195.776 Y194.053 E26.12263
G1 X195.093 Y195.127 E26.16497
G1 X194.565 Y195.882 E26.19561
G1 X193.974 Y196.588 E26.22623
G1 X193.325 Y197.24 E26.25683
G1 X192.621 Y197.833 E26.28744
G1 X191.868 Y198.363 E26.31807
G1 X191.072 Y198.826 E26.3487
G1 X190.239 Y199.218 E26.37932
G1 X189.375 Y199.536 E26.40994
G1 X188.249 Y199.829 E26.44864
G1 X186.965 Y200.084 E26.49218
G1 X186.203 Y200.216 E26.5179
G1 X183.731 Y200.716 E26.60178
G1 X181.303 Y201.279 E26.68468
G1 X178.856 Y201.92 E26.76882
G1 X176.717 Y202.56 E26.84308
G1 X175.455 Y202.928 E26.8868
G1 X174.561 Y203.147 E26.91741
G1 X173.651 Y203.288 E26.94804
G1 X172.786 Y203.348 E26.97688
G1 X172.136 Y203.362 E26.9985
G1 X164.696 Y203.364 E27.24596
G1 X164.034 Y203.355 E27.26798
G1 X163.115 Y203.303 E27.29859
G1 X162.204 Y203.17 E27.32922
G1 X161.67 Y203.055 E27.34738
G1 X160.561 Y202.783 E27.38536
G1 X159.956 Y202.625 E27.40616
G1 X157.464 Y202.05 E27.49122
G1 X154.965 Y201.545 E27.57602
G1 X152.489 Y201.121 E27.65957
G1 X150.007 Y200.765 E27.74297
G1 X147.46 Y200.474 E27.82823
G1 X144.98 Y200.261 E27.91102
G1 X142.437 Y200.115 E27.99574
G1 X141.626 Y200.091 E28.02272
G1 X140.539 Y200.044 E28.05891
G1 X139.622 Y199.964 E28.08953
G1 X138.715 Y199.805 E28.12015
G1 X137.825 Y199.568 E28.15079
G1 X136.96 Y199.255 E28.18138
G1 X136.125 Y198.868 E28.21199
G1 X135.326 Y198.409 E28.24264
G1 X134.57 Y197.884 E28.27325
G1 X133.863 Y197.294 E28.30388
G1 X132.945 Y196.348 E28.34773
G1 X132.203 Y195.48 E28.38571
G1 X131.768 Y194.957 E28.40833
G1 X130.109 Y193.074 E28.4918
G1 X128.359 Y191.197 E28.57715
G1 X126.64 Y189.455 E28.65855
G1 X124.857 Y187.77 E28.74015
G1 X124.019 Y186.967 E28.77875
G1 X123.383 Y186.302 E28.80936
G1 X122.806 Y185.584 E28.83999
G1 X122.289 Y184.809 E28.87098
G1 X121.598 Y183.665 E28.91543
G1 X117.025 Y175.757 E29.21926
G1 X115.674 Y173.569 E29.30479
G1 X114.303 Y171.483 E29.38781
G1 X112.851 Y169.404 E29.47216
G1 X111.337 Y167.361 E29.55673
G1 X109.786 Y165.388 E29.6402
G1 X108.153 Y163.427 E29.72508
G1 X106.485 Y161.537 E29.80892
G1 X104.768 Y159.695 E29.89268
G1 X103.005 Y157.911 E29.9761
G1 X101.146 Y156.133 E30.06165
G1 X99.297 Y154.461 E30.14457
G1 X97.359 Y152.807 E30.22931
G1 X95.39 Y151.219 E30.31344
G1 X93.384 Y149.695 E30.39723
G1 X91.317 Y148.214 E30.48181
G1 X89.254 Y146.822 E30.56458
G1 X87.075 Y145.44 E30.6504
G1 X84.935 Y144.167 E30.73322
G1 X82.688 Y142.914 E30.81879
G1 X80.474 Y141.759 E30.90185
G1 X78.198 Y140.655 E30.98598
G1 X75.889 Y139.614 E31.07022
G1 X73.525 Y138.625 E31.15546
G1 X71.212 Y137.738 E31.23785
G1 X68.802 Y136.887 E31.32286
G1 X66.414 Y136.121 E31.40627
G1 X63.986 Y135.417 E31.49035
G1 X61.521 Y134.776 E31.57506
G1 X59.053 Y134.207 E31.6593
G1 X56.578 Y133.714 E31.74324
G1 X55.346 Y133.502 E31.78482
G1 X54.598 Y133.364 E31.81011
G1 X53.701 Y133.158 E31.84073
G1 X52.825 Y132.875 E31.87134
G1 X51.976 Y132.516 E31.902
G1 X51.163 Y132.086 E31.93259
G1 X50.389 Y131.586 E31.96324
G1 X49.662 Y131.022 E31.99384
G1 X48.987 Y130.396 E32.02446
G1 X48.465 Y129.829 E32.0501
G1 X47.732 Y128.97 E32.08765
G1 X47.348 Y128.508 E32.10764
G1 X45.663 Y126.592 E32.1925
G1 X43.958 Y124.761 E32.27571
G1 X42.154 Y122.931 E32.36118
G1 X40.328 Y121.181 E32.4453
G1 X39.754 Y120.653 E32.47124
G1 X39.104 Y120 E32.50189
G1 X38.513 Y119.294 E32.53251
G1 X37.965 Y118.505 E32.56446
G1 X37.329 Y117.496 E32.60413
G1 X37.118 Y117.147 E32.6177
G1 X33.78 Y111.37 E32.83961
G1 X33.439 Y110.763 E32.86277
G1 X33.024 Y109.941 E32.89339
G1 X32.681 Y109.087 E32.924
G1 X32.505 Y108.538 E32.94318
G1 X32.08 Y107.081 E32.99366
G1 X31.818 Y106.157 E33.0256
G1 X31.07 Y103.772 E33.10874
G1 X30.24 Y101.368 E33.19332
G1 X29.335 Y98.965 E33.27873
G1 X28.402 Y96.694 E33.36039
G1 X27.354 Y94.331 E33.44636
G1 X26.277 Y92.073 E33.52957
G1 X25.1 Y89.779 E33.61533
G1 X24.856 Y89.329 E33.63235
G1 X24.555 Y88.752 E33.654
G1 X24.165 Y87.918 E33.68462
G1 X23.849 Y87.053 E33.71525
G1 X23.609 Y86.164 E33.74588
G1 X23.447 Y85.258 E33.77649
G1 X23.364 Y84.341 E33.80711
G1 X23.362 Y83.42 E33.83775
G1 X23.439 Y82.503 E33.86835
G1 X23.595 Y81.596 E33.89896
G1 X23.83 Y80.705 E33.92961
G1 X24.141 Y79.839 E33.96021
G1 X24.701 Y78.677 E34.00312
G1 X25.114 Y77.939 E34.03124
G1 X47.084 Y39.887 E35.49266
G1 X47.41 Y39.34 E35.51384
G1 X47.916 Y38.571 E35.54446
G1 X48.486 Y37.848 E35.57508
G1 X49.116 Y37.177 E35.60569
G1 X49.803 Y36.564 E35.63632
G1 X50.54 Y36.012 E35.66694
G1 X51.322 Y35.527 E35.69755
G1 X52.144 Y35.111 E35.72819
G1 X52.998 Y34.768 E35.7588
G1 X53.879 Y34.5 E35.78943
G1 X54.78 Y34.31 E35.82005
G1 X55.694 Y34.199 E35.85068
G1 X56.24 Y34.171 E35.86886
G1 X57.208 Y34.149 E35.90106
G1 X101.109 Y34.15 E37.36122
G1 X101.81 Y34.16 E37.38454
G0 F9000 X101.816 Y33.76
G1 F3000 X102.752 Y33.813 E37.41572
G1 X103.681 Y33.946 E37.44693
G1 X104.594 Y34.158 E37.4781
G1 X105.487 Y34.446 E37.50931
G1 X106.351 Y34.81 E37.5405
G1 X107.182 Y35.246 E37.57171
