;FLAVOR:Marlin
;TIME:18333
;Filament used: 11.318m
;Layer height: 0.2
;MINX:3.361
;MINY:6.886
;MINZ:0.2
;MAXX:215.137
;MAXY:210.158
;MAXZ:6
;Generated with Cura_SteamEngine master
M140 S60
M105
M190 S60
M104 S200
M105
M109 S200
M82 ;absolute extrusion mode
; Ender 3 Custom Start G-code
G92 E0 ; Reset Extruder
G28 ; Home all axes
G1 Z2.0 F3000 ; Move Z Axis up little to prevent scratching of Heat Bed
G1 X0.1 Y20 Z0.3 F5000.0 ; Move to start position
G1 X0.1 Y200.0 Z0.3 F1500.0 E15 ; Draw the first line
G1 X0.4 Y200.0 Z0.3 F5000.0 ; Move to side a little
G1 X0.4 Y20 Z0.3 F1500.0 E30 ; Draw the second line
G92 E0 ; Reset Extruder
G1 Z2.0 F3000 ; Move Z Axis up little to prevent scratching of Heat Bed
G1 X5 Y20 Z0.3 F5000.0 ; Move over to prevent blob squish
G92 E0
G92 E0
G1 F1500 E-6.5
;LAYER_COUNT:30
;LAYER:0
M107
G0 F6000 X27.349 Y12.824 Z0.2
;TYPE:SKIRT
G1 F1500 E0
G1 F1200 X27.676 Y12.275 E0.02125
G1 X28.333 Y11.296 E0.06047
G1 X28.927 Y10.57 E0.09167
G1 X29.581 Y9.898 E0.12286
G1 X30.29 Y9.284 E0.15405
G1 X31.048 Y8.732 E0.18524
G1 X31.851 Y8.247 E0.21644
G1 X32.692 Y7.832 E0.24763
G1 X33.566 Y7.491 E0.27884
G1 X34.465 Y7.224 E0.31003
G1 X35.384 Y7.036 E0.34123
G1 X36.315 Y6.926 E0.37241
G1 X36.973 Y6.897 E0.39431
G1 X37.659 Y6.887 E0.41713
G1 X81.569 Y6.886 E1.87758
G1 X81.726 Y6.887 E1.88281
G1 X82.426 Y6.897 E1.90609
G1 X83.738 Y6.994 E1.94985
G1 X84.661 Y7.158 E1.98103
G1 X85.207 Y7.293 E1.99973
G1 X86.252 Y7.581 E2.03579
G1 X86.586 Y7.678 E2.04735
G1 X88.983 Y8.307 E2.12978
G1 X91.437 Y8.878 E2.21358
G1 X93.959 Y9.389 E2.29917
G1 X96.406 Y9.813 E2.38177
G1 X98.903 Y10.173 E2.46568
G1 X101.39 Y10.461 E2.54895
G1 X103.937 Y10.683 E2.63398
G1 X106.417 Y10.827 E2.7166
G1 X108.941 Y10.903 E2.80059
G1 X111.469 Y10.908 E2.88467
G1 X113.985 Y10.842 E2.96838
G1 X116.484 Y10.705 E3.05163
G1 X118.986 Y10.497 E3.13513
G1 X121.516 Y10.214 E3.2198
G1 X123.981 Y9.869 E3.30259
G1 X126.488 Y9.443 E3.38717
G1 X128.927 Y8.959 E3.46987
G1 X131.445 Y8.384 E3.55578
G1 X133.158 Y7.939 E3.61464
G1 X133.797 Y7.782 E3.63653
G1 X134.717 Y7.597 E3.66774
G1 X135.649 Y7.491 E3.69894
G1 X136.248 Y7.465 E3.71888
G1 X136.943 Y7.454 E3.742
G1 X180.867 Y7.453 E5.20291
G1 X181.024 Y7.454 E5.20814
G1 X181.725 Y7.464 E5.23145
G1 X182.661 Y7.517 E5.26264
G1 X183.59 Y7.65 E5.29385
G1 X184.503 Y7.862 E5.32502
G1 X185.396 Y8.15 E5.35623
G1 X186.26 Y8.514 E5.38741
G1 X187.091 Y8.95 E5.41863
G1 X187.881 Y9.455 E5.44981
G1 X188.625 Y10.025 E5.48099
G1 X189.318 Y10.657 E5.51218
G1 X189.955 Y11.346 E5.54339
G1 X190.531 Y12.086 E5.57458
G1 X191.014 Y12.826 E5.60397
G1 X191.381 Y13.441 E5.62779
G1 X213.333 Y51.463 E7.08804
G1 X213.733 Y52.175 E7.11521
G1 X214.157 Y53.012 E7.14641
G1 X214.507 Y53.882 E7.1776
G1 X214.782 Y54.779 E7.20881
G1 X214.979 Y55.696 E7.24
G1 X215.098 Y56.626 E7.27119
G1 X215.137 Y57.563 E7.30238
G1 X215.096 Y58.5 E7.33357
G1 X214.975 Y59.43 E7.36477
G1 X214.776 Y60.347 E7.39598
G1 X214.513 Y61.204 E7.42579
G1 X214.111 Y62.344 E7.466
G1 X213.876 Y62.985 E7.48871
G1 X213.077 Y65.361 E7.57208
G1 X212.338 Y67.784 E7.65633
G1 X211.689 Y70.151 E7.73797
G1 X211.13 Y72.502 E7.81834
G1 X210.851 Y73.639 E7.85728
G1 X210.604 Y74.497 E7.88698
G1 X210.373 Y75.13 E7.90939
G1 X210.268 Y75.393 E7.91881
G1 X209.462 Y77.327 E7.98849
G1 X208.543 Y79.72 E8.07375
G1 X207.707 Y82.093 E8.15743
G1 X206.938 Y84.489 E8.24113
G1 X206.247 Y86.875 E8.32375
G1 X205.609 Y89.335 E8.40828
G1 X205.051 Y91.758 E8.49097
G1 X204.554 Y94.247 E8.57539
G1 X204.128 Y96.747 E8.65974
G1 X203.778 Y99.216 E8.74268
G1 X203.493 Y101.742 E8.82723
G1 X203.282 Y104.243 E8.91071
G1 X203.143 Y106.744 E8.99402
G1 X203.073 Y109.276 E9.07827
G1 X203.075 Y111.801 E9.16225
G1 X203.147 Y114.288 E9.245
G1 X203.292 Y116.805 E9.32886
G1 X203.51 Y119.347 E9.41371
G1 X203.792 Y121.806 E9.49604
G1 X204.151 Y124.316 E9.58037
G1 X204.579 Y126.807 E9.66444
G1 X205.071 Y129.246 E9.74719
G1 X205.64 Y131.712 E9.83137
G1 X206.274 Y134.143 E9.91493
G1 X206.984 Y136.578 E9.99929
G1 X207.752 Y138.961 E10.08256
G1 X208.59 Y141.328 E10.16607
G1 X209.505 Y143.698 E10.25057
G1 X210.467 Y145.992 E10.33331
G1 X211.504 Y148.284 E10.41698
G1 X213.283 Y151.871 E10.55015
G1 X213.664 Y152.728 E10.58134
G1 X213.97 Y153.615 E10.61255
G1 X214.2 Y154.524 E10.64374
G1 X214.351 Y155.45 E10.67494
G1 X214.423 Y156.385 E10.70613
G1 X214.415 Y157.323 E10.73733
G1 X214.327 Y158.256 E10.7685
G1 X214.159 Y159.179 E10.79971
G1 X213.802 Y160.421 E10.84269
G1 X213.497 Y161.285 E10.87316
G1 X213.206 Y162.076 E10.9012
G1 X212.407 Y164.44 E10.98419
G1 X211.675 Y166.823 E11.06711
G1 X210.993 Y169.299 E11.15253
G1 X210.387 Y171.765 E11.23699
G1 X210.224 Y172.495 E11.26186
G1 X210.124 Y172.908 E11.276
G1 X210.086 Y173.052 E11.28095
G1 X209.808 Y173.947 E11.31212
G1 X209.455 Y174.816 E11.34332
G1 X209.148 Y175.436 E11.36633
G1 X208.981 Y175.748 E11.3781
G1 X208.81 Y176.056 E11.38982
G1 X205.215 Y182.284 E11.62899
G1 X204.757 Y183.053 E11.65876
G1 X204.243 Y183.837 E11.68994
G1 X203.663 Y184.574 E11.72114
G1 X203.229 Y185.051 E11.74258
G1 X202.217 Y186.1 E11.79106
G1 X200.469 Y187.963 E11.87603
G1 X198.792 Y189.855 E11.96012
G1 X197.177 Y191.786 E12.04385
G1 X195.626 Y193.748 E12.12703
G1 X194.121 Y195.768 E12.21082
G1 X192.664 Y197.845 E12.2952
G1 X191.28 Y199.94 E12.37871
G1 X190.848 Y200.638 E12.40601
G1 X190.146 Y201.744 E12.44958
G1 X189.61 Y202.513 E12.48076
G1 X189.011 Y203.235 E12.51196
G1 X188.352 Y203.902 E12.54315
G1 X187.639 Y204.511 E12.57434
G1 X186.876 Y205.057 E12.60554
G1 X186.07 Y205.536 E12.63673
G1 X185.226 Y205.945 E12.66792
G1 X184.35 Y206.28 E12.69911
G1 X183.449 Y206.54 E12.7303
G1 X182.879 Y206.662 E12.74969
G1 X181.819 Y206.86 E12.78556
G1 X181.008 Y207 E12.81293
G1 X178.578 Y207.492 E12.89539
G1 X176.114 Y208.062 E12.97951
G1 X173.702 Y208.693 E13.06243
G1 X171.563 Y209.334 E13.1367
G1 X170.352 Y209.686 E13.17865
G1 X169.441 Y209.909 E13.20984
G1 X168.804 Y210.017 E13.23133
G1 X168.625 Y210.042 E13.23734
G1 X167.264 Y210.147 E13.28274
G1 X166.579 Y210.157 E13.30553
G1 X159.597 Y210.158 E13.53775
G1 X159.44 Y210.157 E13.54297
G1 X158.739 Y210.147 E13.56629
G1 X157.34 Y210.037 E13.61297
G1 X157.319 Y210.034 E13.61367
G1 X156.255 Y209.828 E13.64972
G1 X155.114 Y209.548 E13.68879
G1 X154.427 Y209.37 E13.7124
G1 X151.965 Y208.804 E13.79642
G1 X149.536 Y208.318 E13.87881
G1 X147.03 Y207.891 E13.96336
G1 X144.528 Y207.536 E14.04741
G1 X142.052 Y207.256 E14.13029
G1 X139.536 Y207.043 E14.21427
G1 X137.025 Y206.903 E14.29792
G1 X136.357 Y206.884 E14.32014
G1 X135.242 Y206.837 E14.35726
G1 X134.307 Y206.757 E14.38847
G1 X133.383 Y206.598 E14.41966
G1 X132.543 Y206.375 E14.44856
G1 X132.542 Y206.378 E14.44867
G1 X129.986 Y205.635 E14.5372
G1 X127.533 Y204.997 E14.6215
G1 X125.09 Y204.433 E14.70489
G1 X122.606 Y203.934 E14.78916
G1 X120.132 Y203.51 E14.87265
G1 X117.633 Y203.154 E14.9566
G1 X115.143 Y202.871 E15.03995
G1 X112.643 Y202.658 E15.12341
G1 X110.11 Y202.513 E15.20779
G1 X107.625 Y202.442 E15.29048
G1 X105.101 Y202.442 E15.37443
G1 X102.577 Y202.513 E15.45841
G1 X100.055 Y202.655 E15.54242
G1 X97.55 Y202.867 E15.62604
G1 X95.06 Y203.15 E15.70939
G1 X92.527 Y203.51 E15.79448
G1 X90.076 Y203.929 E15.87719
G1 X87.645 Y204.415 E15.95964
G1 X85.002 Y205.024 E16.04985
G1 X84.671 Y205.105 E16.06118
G1 X84.092 Y205.23 E16.08089
G1 X83.078 Y205.42 E16.1152
G1 X82.308 Y205.553 E16.14119
G1 X79.844 Y206.047 E16.22477
G1 X77.388 Y206.616 E16.30862
G1 X74.914 Y207.261 E16.39366
G1 X72.49 Y207.967 E16.47763
G1 X71.865 Y208.164 E16.49943
G1 X70.561 Y208.488 E16.54412
G1 X70.301 Y208.536 E16.55291
G1 X69.372 Y208.667 E16.58412
G1 X68.465 Y208.718 E16.61433
G1 X67.78 Y208.728 E16.63712
G1 X60.799 Y208.729 E16.8693
G1 X60.642 Y208.728 E16.87453
G1 X59.941 Y208.718 E16.89784
G1 X58.542 Y208.608 E16.94452
G1 X58.521 Y208.605 E16.94522
G1 X57.457 Y208.399 E16.98127
G1 X56.316 Y208.119 E17.02035
G1 X55.629 Y207.941 E17.04395
G1 X53.167 Y207.375 E17.12797
G1 X50.738 Y206.889 E17.21036
G1 X48.232 Y206.462 E17.29491
G1 X45.73 Y206.107 E17.37896
G1 X43.254 Y205.827 E17.46184
G1 X40.738 Y205.614 E17.54582
G1 X38.223 Y205.474 E17.6296
G1 X37.545 Y205.455 E17.65216
G1 X37.377 Y205.449 E17.65775
G1 X36.448 Y205.409 E17.68868
G1 X35.513 Y205.329 E17.71989
G1 X34.589 Y205.169 E17.75108
G1 X33.682 Y204.931 E17.78227
G1 X32.798 Y204.617 E17.81347
G1 X31.945 Y204.229 E17.84464
G1 X31.127 Y203.769 E17.87585
G1 X30.352 Y203.242 E17.90702
G1 X29.624 Y202.65 E17.93823
G1 X28.949 Y201.999 E17.96942
G1 X28.561 Y201.568 E17.98871
G1 X27.78 Y200.653 E18.02872
G1 X27.385 Y200.179 E18.04925
G1 X25.709 Y198.278 E18.13354
G1 X23.991 Y196.434 E18.21736
G1 X22.254 Y194.676 E18.29956
G1 X20.458 Y192.98 E18.38172
G1 X19.634 Y192.19 E18.41969
G1 X18.986 Y191.513 E18.45086
G1 X18.351 Y190.72 E18.48465
G1 X18.319 Y190.676 E18.48646
G1 X17.849 Y189.975 E18.51453
G1 X17.679 Y189.699 E18.52531
G1 X17.518 Y189.429 E18.53576
G1 X13.848 Y183.07 E18.77996
G1 X13.481 Y182.414 E18.80496
G1 X13.059 Y181.576 E18.83617
G1 X12.709 Y180.706 E18.86736
G1 X12.52 Y180.12 E18.88784
G1 X12.111 Y178.713 E18.93657
G1 X11.869 Y177.857 E18.96616
G1 X11.097 Y175.39 E19.05214
G1 X10.299 Y173.073 E19.13364
G1 X9.391 Y170.66 E19.21939
G1 X8.445 Y168.348 E19.30248
G1 X7.439 Y166.077 E19.38509
G1 X6.336 Y163.763 E19.47035
G1 X5.194 Y161.53 E19.55377
G1 X4.974 Y161.127 E19.56904
G1 X4.869 Y160.93 E19.57647
G1 X4.59 Y160.392 E19.59662
G1 X4.194 Y159.542 E19.62781
G1 X3.872 Y158.661 E19.65901
G1 X3.626 Y157.756 E19.6902
G1 X3.458 Y156.833 E19.72141
G1 X3.37 Y155.899 E19.75261
G1 X3.361 Y154.962 E19.78378
G1 X3.432 Y154.026 E19.815
G1 X3.583 Y153.101 E19.84617
G1 X3.812 Y152.191 E19.87738
G1 X4.117 Y151.305 E19.90854
G1 X4.497 Y150.447 E19.93976
G1 X4.757 Y149.953 E19.95832
G1 X4.884 Y149.726 E19.96697
G1 X6.098 Y147.477 E20.05198
G1 X7.223 Y145.242 E20.1352
G1 X8.304 Y142.935 E20.21994
G1 X9.3 Y140.642 E20.30309
G1 X10.239 Y138.304 E20.38689
G1 X11.113 Y135.934 E20.4709
G1 X11.912 Y133.564 E20.55409
G1 X12.65 Y131.149 E20.63808
G1 X13.318 Y128.722 E20.7218
G1 X13.906 Y126.323 E20.80396
G1 X14.444 Y123.825 E20.88894
G1 X14.908 Y121.331 E20.97332
G1 X15.295 Y118.855 E21.05667
G1 X15.615 Y116.349 E21.1407
G1 X15.86 Y113.877 E21.22332
G1 X16.04 Y111.33 E21.30824
G1 X16.146 Y108.833 E21.39137
G1 X16.181 Y106.309 E21.47533
G1 X16.144 Y103.786 E21.55925
G1 X16.037 Y101.264 E21.64321
G1 X15.861 Y98.782 E21.72597
G1 X15.609 Y96.252 E21.81053
G1 X15.294 Y93.793 E21.89299
G1 X14.9 Y91.285 E21.97743
G1 X14.438 Y88.8 E22.06149
G1 X13.897 Y86.292 E22.14683
G1 X13.309 Y83.9 E22.22875
G1 X12.606 Y81.352 E22.31667
G1 X12.346 Y80.454 E22.34776
G1 X12.326 Y80.395 E22.34983
G1 X12.025 Y79.336 E22.38645
G1 X11.271 Y76.941 E22.46996
G1 X10.435 Y74.53 E22.55484
G1 X9.53 Y72.141 E22.63981
G1 X8.596 Y69.872 E22.72142
G1 X7.568 Y67.559 E22.8056
G1 X6.468 Y65.262 E22.89031
G1 X5.323 Y63.039 E22.97348
G1 X5.067 Y62.564 E22.99143
G1 X4.809 Y62.069 E23.00999
G1 X4.412 Y61.22 E23.04117
G1 X4.088 Y60.34 E23.07236
G1 X3.84 Y59.435 E23.10357
G1 X3.671 Y58.513 E23.13474
G1 X3.58 Y57.579 E23.16595
G1 X3.569 Y56.641 E23.19715
G1 X3.639 Y55.706 E23.22834
G1 X3.787 Y54.78 E23.25953
G1 X4.014 Y53.87 E23.29072
G1 X4.318 Y52.983 E23.32191
G1 X4.696 Y52.124 E23.35312
G1 X4.963 Y51.617 E23.37218
G1 X5.374 Y50.884 E23.40013
G1 X27.349 Y12.824 E24.86186
G0 F6000 X27.62 Y13.153
G1 F1200 X28.02 Y12.48 E24.8879
G1 X28.653 Y11.536 E24.92571
G1 X29.237 Y10.824 E24.95633
G1 X29.88 Y10.166 E24.98693
G1 X30.578 Y9.565 E25.01757
G1 X31.326 Y9.028 E25.0482
G1 X32.117 Y8.558 E25.0788
G1 X32.947 Y8.158 E25.10944
G1 X33.807 Y7.831 E25.14004
G1 X34.693 Y7.581 E25.17066
G1 X35.598 Y7.408 E25.20131
G1 X36.513 Y7.314 E25.2319
G1 X36.978 Y7.297 E25.24738
G1 X37.664 Y7.287 E25.2702
G1 X81.569 Y7.286 E26.73048
G1 X82.42 Y7.297 E26.75879
G1 X83.685 Y7.391 E26.80098
G1 X84.591 Y7.552 E26.83159
G1 X85.1 Y7.679 E26.84903
G1 X86.145 Y7.967 E26.88509
G1 X86.445 Y8.054 E26.89548
G1 X88.937 Y8.708 E26.98117
G1 X91.331 Y9.264 E27.06291
G1 X93.883 Y9.781 E27.14952
G1 X96.352 Y10.209 E27.23286
G1 X98.837 Y10.568 E27.31637
G1 X101.381 Y10.862 E27.40155
G1 X103.877 Y11.079 E27.48488
G1 X106.418 Y11.228 E27.56954
G1 X108.928 Y11.303 E27.65306
G1 X111.479 Y11.308 E27.7379
G1 X113.982 Y11.242 E27.82118
G1 X116.502 Y11.104 E27.90512
G1 X119.065 Y10.891 E27.99066
G1 X121.545 Y10.614 E28.07366
G1 X124.033 Y10.265 E28.15722
G1 X126.561 Y9.836 E28.24251
G1 X129.03 Y9.346 E28.32623
G1 X131.53 Y8.775 E28.41152
G1 X133.254 Y8.327 E28.47076
G1 X133.893 Y8.17 E28.49265
G1 X134.796 Y7.99 E28.52327
G1 X135.711 Y7.888 E28.55389
G1 X136.254 Y7.865 E28.57197
G1 X136.949 Y7.854 E28.59509
G1 X180.867 Y7.853 E30.05581
G1 X181.719 Y7.864 E30.08415
G1 X182.638 Y7.917 E30.11477
G1 X183.549 Y8.05 E30.14539
G1 X184.445 Y8.261 E30.176
G1 X185.32 Y8.549 E30.20664
G1 X186.166 Y8.912 E30.23726
G1 X186.977 Y9.347 E30.26787
G1 X187.748 Y9.851 E30.29851
G1 X188.472 Y10.42 E30.32913
G1 X189.144 Y11.049 E30.35975
G1 X189.759 Y11.734 E30.39037
G1 X190.312 Y12.47 E30.42098
G1 X190.67 Y13.031 E30.44312
G1 X191.115 Y13.778 E30.47204
G1 X212.987 Y51.663 E31.92702
G1 X213.384 Y52.371 E31.95401
G1 X213.799 Y53.193 E31.98464
G1 X214.141 Y54.048 E32.01527
G1 X214.407 Y54.929 E32.04588
G1 X214.596 Y55.83 E32.0765
G1 X214.706 Y56.744 E32.10712
G1 X214.736 Y57.664 E32.13773
G1 X214.687 Y58.584 E32.16837
G1 X214.557 Y59.495 E32.19898
G1 X214.349 Y60.392 E32.22961
G1 X214.136 Y61.072 E32.25331
G1 X213.784 Y62.072 E32.28857
G1 X213.508 Y62.825 E32.31524
G1 X212.694 Y65.245 E32.40016
G1 X211.956 Y67.666 E32.48434
G1 X211.296 Y70.07 E32.56726
G1 X210.742 Y72.407 E32.64714
G1 X210.463 Y73.544 E32.68608
G1 X210.224 Y74.37 E32.71468
G1 X210.001 Y74.981 E32.73631
G1 X209.835 Y75.394 E32.75112
G1 X209.081 Y77.201 E32.81624
G1 X208.175 Y79.561 E32.90032
G1 X207.324 Y81.975 E32.98545
G1 X206.559 Y84.361 E33.06879
G1 X205.861 Y86.769 E33.15218
G1 X205.215 Y89.259 E33.23774
G1 X204.664 Y91.655 E33.31951
G1 X204.161 Y94.173 E33.40491
G1 X203.731 Y96.696 E33.49004
G1 X203.378 Y99.186 E33.57369
G1 X203.095 Y101.7 E33.65783
G1 X202.885 Y104.186 E33.74081
G1 X202.743 Y106.747 E33.82612
G1 X202.673 Y109.265 E33.9099
G1 X202.675 Y111.778 E33.99348
G1 X202.749 Y114.32 E34.07807
G1 X202.895 Y116.863 E34.16279
G1 X203.109 Y119.36 E34.24614
G1 X203.397 Y121.873 E34.33027
G1 X203.754 Y124.369 E34.41413
G1 X204.186 Y126.882 E34.49894
G1 X204.682 Y129.343 E34.58244
G1 X205.249 Y131.798 E34.66624
G1 X205.889 Y134.251 E34.75056
G1 X206.595 Y136.676 E34.83457
G1 X207.381 Y139.112 E34.9197
G1 X208.223 Y141.489 E35.00357
G1 X209.127 Y143.831 E35.08707
G1 X210.105 Y146.163 E35.17118
G1 X211.133 Y148.436 E35.25415
G1 X212.925 Y152.049 E35.38829
G1 X213.298 Y152.89 E35.41889
G1 X213.596 Y153.761 E35.44951
G1 X213.818 Y154.655 E35.48014
G1 X213.961 Y155.564 E35.51075
G1 X214.025 Y156.483 E35.54139
G1 X214.009 Y157.403 E35.57199
G1 X213.914 Y158.319 E35.60262
G1 X213.739 Y159.223 E35.63325
G1 X213.424 Y160.287 E35.67016
G1 X213.068 Y161.295 E35.70571
G1 X212.827 Y161.946 E35.7288
G1 X212.028 Y164.309 E35.81176
G1 X211.286 Y166.727 E35.89589
G1 X210.611 Y169.178 E35.98044
G1 X209.999 Y171.668 E36.06573
G1 X209.834 Y172.408 E36.09094
G1 X209.737 Y172.806 E36.10457
G1 X209.699 Y172.95 E36.10952
G1 X209.426 Y173.829 E36.14014
G1 X209.077 Y174.681 E36.17076
G1 X208.795 Y175.247 E36.19179
G1 X208.628 Y175.559 E36.20356
G1 X208.463 Y175.856 E36.21486
G1 X204.789 Y182.219 E36.45924
G1 X204.414 Y182.847 E36.48357
G1 X203.908 Y183.617 E36.51421
G1 X203.337 Y184.339 E36.54483
G1 X202.941 Y184.773 E36.56437
G1 X202 Y185.748 E36.60944
G1 X200.146 Y187.724 E36.69956
G1 X198.503 Y189.578 E36.78195
G1 X196.855 Y191.548 E36.86738
G1 X195.307 Y193.507 E36.95042
G1 X193.789 Y195.545 E37.03495
G1 X192.335 Y197.617 E37.11914
G1 X190.957 Y199.701 E37.20223
G1 X190.582 Y200.309 E37.22599
G1 X189.808 Y201.529 E37.27405
G1 X189.282 Y202.285 E37.30468
G1 X188.692 Y202.991 E37.33528
G1 X188.042 Y203.644 E37.36592
G1 X187.339 Y204.238 E37.39654
G1 X186.587 Y204.768 E37.42713
G1 X185.791 Y205.232 E37.45778
G1 X184.958 Y205.624 E37.4884
G1 X184.095 Y205.943 E37.519
