;FLAVOR:Marlin
;TIME:6306
;Filament used: 2.54673m
;Layer height: 0.2
;MINX:91.941
;MINY:93.063
;MINZ:0.2
;MAXX:128.059
;MAXY:125.862
;MAXZ:100
;Generated with Cura_SteamEngine master
M140 S60
M105
M190 S60
M104 S200
M105
M109 S200
M82 ;absolute extrusion mode
; Ender 3 Custom Start G-code
G92 E0 ; Reset Extruder
G28 ; Home all axes
G1 Z2.0 F3000 ; Move Z Axis up little to prevent scratching of Heat Bed
G1 X0.1 Y20 Z0.3 F5000.0 ; Move to start position
G1 X0.1 Y200.0 Z0.3 F1500.0 E15 ; Draw the first line
G1 X0.4 Y200.0 Z0.3 F5000.0 ; Move to side a little
G1 X0.4 Y20 Z0.3 F1500.0 E30 ; Draw the second line
G92 E0 ; Reset Extruder
G1 Z2.0 F3000 ; Move Z Axis up little to prevent scratching of Heat Bed
G1 X5 Y20 Z0.3 F5000.0 ; Move over to prevent blob squish
G92 E0
G92 E0
G1 F1500 E-6.5
;LAYER_COUNT:500
;LAYER:0
M107
G0 F6000 X97.652 Y96.543 Z0.2
;TYPE:SKIRT
G1 F1500 E0
G1 F1200 X98.329 Y95.894 E0.03119
G1 X99.059 Y95.305 E0.06239
G1 X99.837 Y94.78 E0.09361
G1 X100.656 Y94.324 E0.12478
G1 X101.511 Y93.939 E0.15597
G1 X102.539 Y93.586 E0.19212
G1 X102.788 Y93.514 E0.20074
G1 X103.7 Y93.292 E0.23196
G1 X104.627 Y93.149 E0.26316
G1 X105.643 Y93.083 E0.29702
G1 X106.77 Y93.064 E0.33451
G1 X113.435 Y93.063 E0.55619
G1 X114.286 Y93.074 E0.5845
G1 X115.223 Y93.128 E0.61572
G1 X116.151 Y93.261 E0.6469
G1 X116.823 Y93.408 E0.66978
G1 X117.092 Y93.476 E0.679
G1 X117.991 Y93.745 E0.71021
G1 X118.863 Y94.089 E0.74139
G1 X119.703 Y94.506 E0.77258
G1 X120.505 Y94.993 E0.80379
G1 X121.262 Y95.547 E0.83499
G1 X122.152 Y96.341 E0.87466
G1 X122.328 Y96.516 E0.88292
G1 X122.964 Y97.205 E0.9141
G1 X123.641 Y98.091 E0.95119
G1 X123.882 Y98.442 E0.96535
G1 X125.404 Y100.594 E1.05302
G1 X125.85 Y101.205 E1.07818
G1 X126.37 Y101.986 E1.10939
G1 X126.821 Y102.808 E1.14057
G1 X127.201 Y103.665 E1.17175
G1 X127.517 Y104.588 E1.2042
G1 X127.596 Y104.857 E1.21352
G1 X127.822 Y105.768 E1.24474
G1 X127.969 Y106.694 E1.27593
G1 X128.04 Y107.751 E1.31116
G1 X128.059 Y108.856 E1.34792
G1 X128.059 Y110.455 E1.4011
G1 X128.05 Y111.078 E1.42183
G1 X127.996 Y112.014 E1.45301
G1 X127.863 Y112.943 E1.48422
G1 X127.72 Y113.595 E1.50642
G1 X127.645 Y113.894 E1.51668
G1 X127.379 Y114.793 E1.54786
G1 X127.036 Y115.667 E1.57909
G1 X126.621 Y116.507 E1.61025
G1 X125.94 Y117.593 E1.65288
G1 X125.268 Y118.536 E1.6914
G1 X124.815 Y119.154 E1.71688
G1 X123.925 Y120.441 E1.76893
G1 X123.576 Y120.932 E1.78896
G1 X123 Y121.673 E1.82018
G1 X122.554 Y122.168 E1.84234
G1 X122.347 Y122.384 E1.85229
G1 X121.67 Y123.033 E1.88348
G1 X120.94 Y123.622 E1.91468
G1 X120.162 Y124.146 E1.94588
G1 X119.343 Y124.602 E1.97706
G1 X118.488 Y124.987 E2.00824
G1 X117.461 Y125.34 E2.04436
G1 X117.212 Y125.412 E2.05298
G1 X116.3 Y125.634 E2.0842
G1 X115.373 Y125.777 E2.1154
G1 X114.357 Y125.843 E2.14926
G1 X113.23 Y125.862 E2.18675
G1 X106.395 Y125.862 E2.41409
G1 X105.726 Y125.852 E2.43634
G1 X104.789 Y125.798 E2.46756
G1 X103.861 Y125.664 E2.49874
G1 X103.222 Y125.525 E2.52049
G1 X102.946 Y125.456 E2.52995
G1 X102.047 Y125.19 E2.56114
G1 X101.173 Y124.848 E2.59235
G1 X100.332 Y124.433 E2.62354
G1 X99.529 Y123.948 E2.65475
G1 X98.771 Y123.396 E2.68593
G1 X97.978 Y122.702 E2.72098
G1 X97.781 Y122.512 E2.73009
G1 X97.134 Y121.832 E2.7613
G1 X96.347 Y120.818 E2.804
G1 X96.088 Y120.441 E2.81921
G1 X94.596 Y118.332 E2.90513
G1 X94.15 Y117.721 E2.93029
G1 X93.63 Y116.94 E2.9615
G1 X93.179 Y116.118 E2.99269
G1 X92.799 Y115.261 E3.02387
G1 X92.477 Y114.317 E3.05704
G1 X92.398 Y114.046 E3.06643
G1 X92.174 Y113.135 E3.09763
G1 X92.028 Y112.208 E3.12884
G1 X91.96 Y111.167 E3.16354
G1 X91.941 Y110.042 E3.20096
G1 X91.941 Y108.471 E3.25322
G1 X91.95 Y107.848 E3.27394
G1 X92.004 Y106.912 E3.30512
G1 X92.137 Y105.983 E3.33634
G1 X92.28 Y105.331 E3.35854
G1 X92.355 Y105.032 E3.36879
G1 X92.621 Y104.133 E3.39997
G1 X92.964 Y103.259 E3.4312
G1 X93.379 Y102.419 E3.46236
G1 X94.06 Y101.333 E3.505
G1 X94.732 Y100.39 E3.54351
G1 X95.185 Y99.772 E3.569
G1 X96.173 Y98.346 E3.6267
G1 X96.431 Y97.984 E3.64148
G1 X97.008 Y97.244 E3.67269
G1 X97.446 Y96.758 E3.69445
G1 X97.652 Y96.543 E3.70436
G0 F6000 X97.941 Y96.82
G1 F1200 X98.606 Y96.183 E3.73498
G1 X99.324 Y95.607 E3.7656
G1 X100.09 Y95.095 E3.79624
G1 X100.896 Y94.651 E3.82685
G1 X101.739 Y94.279 E3.8575
G1 X102.651 Y93.97 E3.88952
G1 X102.9 Y93.898 E3.89814
G1 X103.794 Y93.681 E3.92874
G1 X104.704 Y93.542 E3.95936
G1 X105.65 Y93.483 E3.99089
G1 X106.77 Y93.464 E4.02814
G1 X113.435 Y93.463 E4.24982
G1 X114.281 Y93.474 E4.27796
G1 X115.2 Y93.527 E4.30858
G1 X116.111 Y93.66 E4.3392
G1 X116.725 Y93.796 E4.36012
G1 X116.994 Y93.864 E4.36934
G1 X117.876 Y94.128 E4.39997
G1 X118.731 Y94.468 E4.43057
G1 X119.554 Y94.881 E4.4612
G1 X120.339 Y95.363 E4.49183
G1 X121.078 Y95.912 E4.52245
G1 X121.87 Y96.624 E4.55787
G1 X122.046 Y96.799 E4.56613
G1 X122.67 Y97.476 E4.59675
G1 X123.312 Y98.318 E4.63197
G1 X123.547 Y98.66 E4.64577
G1 X125.099 Y100.854 E4.73516
G1 X125.527 Y101.441 E4.75932
G1 X126.036 Y102.208 E4.78994
G1 X126.478 Y103.016 E4.82057
G1 X126.847 Y103.859 E4.85117
G1 X127.133 Y104.701 E4.88075
G1 X127.212 Y104.97 E4.89008
G1 X127.433 Y105.864 E4.92071
G1 X127.576 Y106.773 E4.95131
G1 X127.64 Y107.758 E4.98414
G1 X127.659 Y108.857 E5.0207
G1 X127.659 Y110.449 E5.07365
G1 X127.65 Y111.072 E5.09437
G1 X127.597 Y111.991 E5.12499
G1 X127.464 Y112.902 E5.15561
G1 X127.332 Y113.498 E5.17591
G1 X127.257 Y113.797 E5.18617
G1 X126.995 Y114.679 E5.21677
G1 X126.657 Y115.536 E5.24741
G1 X126.246 Y116.359 E5.27801
G1 X125.614 Y117.361 E5.31741
G1 X124.946 Y118.3 E5.35574
G1 X124.467 Y118.954 E5.3827
G1 X123.516 Y120.327 E5.43825
G1 X123.25 Y120.701 E5.45351
G1 X122.684 Y121.427 E5.48413
G1 X122.265 Y121.891 E5.50493
G1 X122.058 Y122.107 E5.51488
G1 X121.393 Y122.744 E5.5455
G1 X120.675 Y123.32 E5.57612
G1 X119.91 Y123.832 E5.60674
G1 X119.103 Y124.275 E5.63736
G1 X118.26 Y124.647 E5.668
G1 X117.349 Y124.956 E5.7
G1 X117.1 Y125.028 E5.70862
G1 X116.206 Y125.245 E5.73922
G1 X115.296 Y125.384 E5.76984
G1 X114.35 Y125.443 E5.80136
G1 X113.23 Y125.462 E5.83862
G1 X106.401 Y125.462 E6.06575
G1 X105.732 Y125.452 E6.088
G1 X104.812 Y125.398 E6.11866
G1 X103.902 Y125.265 E6.14924
G1 X103.319 Y125.137 E6.1691
G1 X103.043 Y125.068 E6.17856
G1 X102.16 Y124.806 E6.20919
G1 X101.304 Y124.468 E6.2398
G1 X100.48 Y124.058 E6.27041
G1 X99.695 Y123.577 E6.30104
G1 X98.954 Y123.03 E6.33167
G1 X98.255 Y122.414 E6.36266
G1 X98.058 Y122.224 E6.37176
G1 X97.424 Y121.556 E6.40239
G1 X96.677 Y120.592 E6.44295
G1 X96.453 Y120.265 E6.45614
G1 X94.901 Y118.072 E6.5455
G1 X94.473 Y117.485 E6.56966
G1 X93.964 Y116.718 E6.60027
G1 X93.522 Y115.91 E6.63091
G1 X93.153 Y115.067 E6.66151
G1 X92.861 Y114.205 E6.69178
G1 X92.782 Y113.934 E6.70117
G1 X92.563 Y113.039 E6.73182
G1 X92.422 Y112.129 E6.76245
G1 X92.36 Y111.16 E6.79474
G1 X92.341 Y110.042 E6.83193
G1 X92.341 Y108.477 E6.88398
G1 X92.35 Y107.854 E6.90471
G1 X92.403 Y106.935 E6.93532
G1 X92.536 Y106.024 E6.96595
G1 X92.668 Y105.428 E6.98625
G1 X92.743 Y105.129 E6.9965
G1 X93.005 Y104.247 E7.0271
G1 X93.343 Y103.39 E7.05774
G1 X93.754 Y102.567 E7.08834
G1 X94.386 Y101.565 E7.12774
G1 X95.054 Y100.626 E7.16607
G1 X95.533 Y99.972 E7.19303
G1 X96.499 Y98.578 E7.24944
G1 X96.757 Y98.216 E7.26423
G1 X97.323 Y97.49 E7.29485
G1 X97.735 Y97.035 E7.31526
G1 X97.941 Y96.82 E7.32516
G0 F6000 X98.23 Y97.096
G1 F1200 X98.883 Y96.473 E7.35518
G1 X99.589 Y95.909 E7.38524
G1 X100.341 Y95.41 E7.41525
G1 X101.135 Y94.98 E7.44529
G1 X101.964 Y94.621 E7.47533
G1 X102.762 Y94.354 E7.50332
G1 X103.011 Y94.282 E7.51194
G1 X103.888 Y94.07 E7.54195
G1 X104.782 Y93.936 E7.57202
G1 X105.657 Y93.883 E7.60117
G1 X106.77 Y93.864 E7.6382
G1 X113.435 Y93.863 E7.85988
G1 X114.275 Y93.874 E7.88782
G1 X115.176 Y93.927 E7.91784
G1 X116.07 Y94.06 E7.9479
G1 X116.627 Y94.184 E7.96688
G1 X116.896 Y94.252 E7.97611
G1 X117.761 Y94.512 E8.00615
G1 X118.599 Y94.847 E8.03617
G1 X119.405 Y95.256 E8.06623
G1 X120.171 Y95.733 E8.09624
G1 X120.892 Y96.277 E8.12628
G1 X121.588 Y96.908 E8.15753
G1 X121.764 Y97.083 E8.16578
G1 X122.376 Y97.747 E8.19582
G1 X122.982 Y98.544 E8.22912
G1 X123.235 Y98.912 E8.24397
G1 X124.793 Y101.115 E8.33372
G1 X125.203 Y101.677 E8.35685
G1 X125.703 Y102.429 E8.38689
G1 X126.134 Y103.223 E8.41694
G1 X126.493 Y104.052 E8.44698
G1 X126.75 Y104.814 E8.47373
G1 X126.829 Y105.083 E8.48306
G1 X127.045 Y105.96 E8.5131
G1 X127.182 Y106.852 E8.54311
G1 X127.24 Y107.766 E8.57357
G1 X127.259 Y108.857 E8.60987
G1 X127.259 Y110.443 E8.66262
G1 X127.25 Y111.066 E8.68334
G1 X127.197 Y111.968 E8.71339
G1 X127.064 Y112.861 E8.74342
G1 X126.945 Y113.401 E8.76181
G1 X126.87 Y113.7 E8.77207
G1 X126.611 Y114.565 E8.8021
G1 X126.277 Y115.404 E8.83213
G1 X125.871 Y116.211 E8.86218
G1 X125.288 Y117.129 E8.89835
G1 X124.623 Y118.063 E8.93648
G1 X124.148 Y118.712 E8.96323
G1 X123.19 Y120.095 E9.01919
G1 X122.924 Y120.469 E9.03445
G1 X122.369 Y121.181 E9.06448
G1 X121.976 Y121.614 E9.08393
G1 X121.769 Y121.83 E9.09388
G1 X121.116 Y122.454 E9.12392
G1 X120.41 Y123.018 E9.15397
G1 X119.658 Y123.517 E9.18399
G1 X118.864 Y123.947 E9.21402
G1 X118.035 Y124.305 E9.24406
G1 X117.238 Y124.572 E9.27201
G1 X116.989 Y124.644 E9.28064
G1 X116.112 Y124.856 E9.31064
G1 X115.218 Y124.99 E9.34071
G1 X114.343 Y125.043 E9.36987
G1 X113.23 Y125.062 E9.40689
G1 X106.407 Y125.062 E9.63383
G1 X105.738 Y125.052 E9.65608
G1 X104.836 Y124.998 E9.68613
G1 X103.943 Y124.865 E9.71616
G1 X103.416 Y124.748 E9.73412
G1 X103.14 Y124.679 E9.74358
G1 X102.275 Y124.422 E9.77359
G1 X101.435 Y124.089 E9.80365
G1 X100.628 Y123.683 E9.83369
G1 X99.861 Y123.207 E9.86372
G1 X99.138 Y122.665 E9.89377
G1 X98.533 Y122.126 E9.92072
G1 X98.336 Y121.936 E9.92982
G1 X97.714 Y121.281 E9.95987
G1 X97.007 Y120.366 E9.99833
G1 X96.765 Y120.014 E10.01253
G1 X95.207 Y117.811 E10.10228
G1 X94.797 Y117.249 E10.12542
G1 X94.297 Y116.497 E10.15545
G1 X93.866 Y115.703 E10.1855
G1 X93.507 Y114.874 E10.21555
G1 X93.245 Y114.093 E10.24295
G1 X93.166 Y113.822 E10.25233
G1 X92.951 Y112.944 E10.2824
G1 X92.816 Y112.051 E10.31244
G1 X92.76 Y111.153 E10.34236
G1 X92.741 Y110.041 E10.37935
G1 X92.741 Y108.483 E10.43117
G1 X92.75 Y107.86 E10.4519
G1 X92.803 Y106.958 E10.48195
G1 X92.936 Y106.065 E10.51198
G1 X93.055 Y105.525 E10.53037
G1 X93.13 Y105.226 E10.54062
G1 X93.389 Y104.361 E10.57065
G1 X93.723 Y103.522 E10.60069
G1 X94.129 Y102.715 E10.63074
G1 X94.712 Y101.797 E10.66691
G1 X95.377 Y100.863 E10.70504
G1 X95.84 Y100.231 E10.7311
G1 X96.742 Y98.927 E10.78383
G1 X97.083 Y98.448 E10.80339
G1 X97.639 Y97.737 E10.83341
G1 X98.024 Y97.311 E10.85251
G1 X98.23 Y97.096 E10.86241
G1 F1500 E4.36241
;MESH:Nintendo-Switch-Strap-Holder.stl
G0 F6000 X104.971 Y103.82
G0 X105.769 Y104.615
G0 X106.133 Y105.281
G0 X107.178 Y105.635
G0 X107.532 Y108.244
G0 X103.722 Y108.246
G0 X103.723 Y110.681
G0 X107.532 Y110.681
G0 X107.532 Y113.643
G0 X106.132 Y113.646
G0 X106.133 Y114.081
G0 X114.05 Y114.262
;TYPE:WALL-INNER
G1 F1500 E10.86241
G1 F1200 X113.851 Y114.262 E10.86903
G1 X105.951 Y114.263 E11.13179
G1 X105.95 Y113.464 E11.15836
G1 X107.35 Y113.461 E11.20492
G1 X107.35 Y110.863 E11.29133
G1 X103.541 Y110.863 E11.41802
G1 X103.54 Y108.064 E11.51112
G1 X107.35 Y108.062 E11.63784
G1 X107.35 Y105.463 E11.72428
G1 X105.951 Y105.463 E11.77081
G1 X105.95 Y104.863 E11.79077
G1 X105.95 Y104.664 E11.79739
G1 X106.149 Y104.664 E11.80167
G1 X114.049 Y104.663 E12.06442
G1 X114.05 Y105.462 E12.091
G1 X112.65 Y105.465 E12.13756
G1 X112.65 Y108.063 E12.22397
G1 X116.459 Y108.063 E12.35066
G1 X116.46 Y110.862 E12.44376
G1 X112.65 Y110.864 E12.57048
G1 X112.65 Y113.463 E12.65692
G1 X114.049 Y113.463 E12.70345
G1 X114.05 Y114.063 E12.72341
G1 X114.05 Y114.262 E12.72769
G0 F6000 X114.297 Y114.617
;TYPE:WALL-OUTER
G1 F1200 X114.129 Y114.662 E12.73347
G1 X105.873 Y114.663 E13.00807
G1 X105.702 Y114.616 E13.01397
G1 X105.596 Y114.51 E13.01895
G1 X105.551 Y114.342 E13.02474
G1 X105.55 Y113.386 E13.05654
G1 X105.597 Y113.215 E13.06243
G1 X105.703 Y113.109 E13.06742
G1 X105.871 Y113.064 E13.07321
G1 X106.95 Y113.062 E13.10909
G1 X106.95 Y111.263 E13.16893
G1 X103.463 Y111.263 E13.28491
G1 X103.292 Y111.216 E13.2908
G1 X103.186 Y111.11 E13.29579
G1 X103.141 Y110.942 E13.30157
G1 X103.14 Y107.986 E13.39989
G1 X103.187 Y107.815 E13.40579
G1 X103.293 Y107.709 E13.41078
G1 X103.461 Y107.664 E13.41656
G1 X106.95 Y107.662 E13.53261
G1 X106.95 Y105.863 E13.59244
G1 X105.873 Y105.863 E13.62826
G1 X105.702 Y105.816 E13.63416
G1 X105.596 Y105.71 E13.63915
G1 X105.551 Y105.542 E13.64493
G1 X105.55 Y104.586 E13.67673
G1 X105.597 Y104.415 E13.68263
G1 X105.703 Y104.309 E13.68761
G1 X105.871 Y104.264 E13.6934
G1 X114.124 Y104.263 E13.96789
G1 X114.297 Y104.309 E13.97385
G1 X114.404 Y104.416 E13.97888
G1 X114.449 Y104.584 E13.98466
G1 X114.45 Y105.54 E14.01646
G1 X114.403 Y105.711 E14.02236
G1 X114.297 Y105.817 E14.02734
G1 X114.129 Y105.862 E14.03313
G1 X113.05 Y105.864 E14.06902
G1 X113.05 Y107.663 E14.12885
G1 X116.537 Y107.663 E14.24483
G1 X116.708 Y107.71 E14.25073
G1 X116.814 Y107.816 E14.25571
G1 X116.859 Y107.984 E14.2615
G1 X116.86 Y110.94 E14.35982
G1 X116.813 Y111.111 E14.36571
G1 X116.707 Y111.217 E14.3707
G1 X116.539 Y111.262 E14.37649
G1 X113.05 Y111.264 E14.49253
G1 X113.05 Y113.063 E14.55236
G1 X114.127 Y113.063 E14.58819
G1 X114.298 Y113.11 E14.59408
G1 X114.404 Y113.216 E14.59907
G1 X114.449 Y113.384 E14.60486
G1 X114.45 Y114.34 E14.63665
G1 X114.403 Y114.511 E14.64255
G1 X114.297 Y114.617 E14.64754
G0 F6000 X114.009 Y114.235
G0 X113.66 Y113.872
;TYPE:SKIN
G1 F1200 X106.341 Y113.873 E14.89097
G1 X106.34 Y113.854 E14.8916
G1 X107.74 Y113.851 E14.93816
G1 X107.74 Y110.473 E15.05052
G1 X103.931 Y110.473 E15.1772
G1 X103.93 Y108.454 E15.24436
G1 X107.74 Y108.452 E15.37108
G1 X107.74 Y105.073 E15.48346
G1 X106.341 Y105.073 E15.53
G1 X106.34 Y105.054 E15.53063
G1 X113.659 Y105.053 E15.77406
G1 X113.66 Y105.072 E15.77469
G1 X112.26 Y105.075 E15.82126
G1 X112.26 Y108.453 E15.93361
G1 X116.069 Y108.453 E16.0603
G1 X116.07 Y110.472 E16.12745
G1 X112.26 Y110.474 E16.25417
G1 X112.26 Y113.853 E16.36656
G1 X113.659 Y113.853 E16.41309
G1 X113.66 Y113.872 E16.41372
G0 F6000 X113.94 Y113.872
G0 X113.844 Y113.299
G0 X112.822 Y113.291
G0 X112.822 Y111.036
G0 X116.278 Y110.68
G0 X116.277 Y108.245
G0 X115.401 Y108.173
G0 X115.401 Y108.613
G1 F1200 X115.909 Y109.121 E16.43761
G0 F6000 X115.909 Y109.687
G1 F1200 X114.835 Y108.613 E16.48813
G0 F6000 X114.269 Y108.613
G1 F1200 X115.909 Y110.252 E16.56525
G0 F6000 X115.403 Y110.312
G1 F1200 X113.704 Y108.613 E16.64516
G0 F6000 X113.138 Y108.613
G1 F1200 X114.837 Y110.312 E16.72508
G0 F6000 X114.272 Y110.312
G1 F1200 X112.572 Y108.613 E16.80502
G0 F6000 X112.099 Y108.139
G1 F1200 X109.173 Y105.213 E16.94265
G0 F6000 X108.608 Y105.213
G1 F1200 X113.707 Y110.312 E17.18249
G0 F6000 X113.142 Y110.313
G1 F1200 X108.042 Y105.213 E17.42238
G0 F6000 X107.899 Y105.636
G1 F1200 X112.576 Y110.313 E17.64237
G0 F6000 X112.099 Y110.402
G1 F1200 X107.899 Y106.202 E17.83993
G0 F6000 X107.899 Y106.768
G1 F1200 X112.099 Y110.968 E18.03748
G0 F6000 X112.099 Y111.534
G1 F1200 X107.899 Y107.333 E18.23506
G0 F6000 X107.899 Y107.899
G1 F1200 X112.1 Y112.1 E18.43266
G0 F6000 X112.1 Y112.666
G1 F1200 X107.899 Y108.465 E18.63026
G0 F6000 X107.48 Y108.612
G1 F1200 X112.1 Y113.231 E18.84755
G0 F6000 X112.014 Y113.711
G1 F1200 X106.915 Y108.612 E19.08739
G0 F6000 X106.349 Y108.612
G1 F1200 X111.448 Y113.711 E19.32723
G0 F6000 X110.882 Y113.711
G1 F1200 X107.899 Y110.727 E19.46757
G0 F6000 X107.899 Y111.293
G1 F1200 X110.317 Y113.711 E19.5813
G0 F6000 X109.752 Y113.711
G1 F1200 X107.899 Y111.859 E19.66844
G0 F6000 X107.899 Y112.425
G1 F1200 X109.186 Y113.711 E19.72895
G0 F6000 X108.62 Y113.711
G1 F1200 X107.899 Y112.99 E19.76287
G0 F6000 X107.899 Y113.556
G1 F1200 X108.055 Y113.711 E19.77018
G0 F6000 X108.055 Y114.153
G0 X106.133 Y114.081
G0 X106.132 Y113.646
G0 X107.266 Y113.645
G0 X107.483 Y110.753
G0 X107.483 Y110.312
G1 F1200 X105.784 Y108.613 E19.8501
G0 F6000 X105.218 Y108.613
G1 F1200 X106.918 Y110.312 E19.93004
G0 F6000 X106.352 Y110.312
