;FLAVOR:Marlin
;TIME:3306
;Filament used: 1.93151m
;Layer height: 0.2
;MINX:87.333
;MINY:87.349
;MINZ:0.2
;MAXX:147.659
;MAXY:147.648
;MAXZ:25
;Generated with Cura_SteamEngine master
M140 S60
M105
M190 S60
M104 S200
M105
M109 S200
M82 ;absolute extrusion mode
; Ender 3 Custom Start G-code
G92 E0 ; Reset Extruder
G28 ; Home all axes
G1 Z2.0 F3000 ; Move Z Axis up little to prevent scratching of Heat Bed
G1 X0.1 Y20 Z0.3 F5000.0 ; Move to start position
G1 X0.1 Y200.0 Z0.3 F1500.0 E15 ; Draw the first line
G1 X0.4 Y200.0 Z0.3 F5000.0 ; Move to side a little
G1 X0.4 Y20 Z0.3 F1500.0 E30 ; Draw the second line
G92 E0 ; Reset Extruder
G1 Z2.0 F3000 ; Move Z Axis up little to prevent scratching of Heat Bed
G1 X5 Y20 Z0.3 F5000.0 ; Move over to prevent blob squish
G92 E0
G92 E0
G1 F1500 E-6.5
;LAYER_COUNT:125
;LAYER:0
M107
G0 F6000 X121.491 Y88.178 Z0.2
;TYPE:SKIRT
G1 F1500 E0
G1 F1200 X122.805 Y88.323 E0.04397
G1 X123.1 Y88.375 E0.05393
G1 X123.569 Y88.469 E0.06984
G1 X124.272 Y88.629 E0.09382
G1 X125.193 Y88.856 E0.12537
G1 X125.716 Y89 E0.14341
G1 X126.36 Y89.197 E0.16581
G1 X127.047 Y89.418 E0.18982
G1 X127.893 Y89.732 E0.21983
G1 X128.463 Y89.994 E0.24069
G1 X128.807 Y90.165 E0.25347
G1 X129.462 Y90.521 E0.27827
G1 X130.366 Y91.057 E0.31322
G1 X131.127 Y91.521 E0.34287
G1 X134.17 Y93.246 E0.45921
G1 X134.587 Y93.472 E0.47498
G1 X135.103 Y93.772 E0.49483
G1 X135.498 Y94.017 E0.51029
G1 X136.244 Y94.527 E0.54035
G1 X136.858 Y95.026 E0.56667
G1 X137.642 Y95.722 E0.60153
G1 X138.198 Y96.245 E0.62692
G1 X138.596 Y96.638 E0.64553
G1 X138.769 Y96.817 E0.65381
G1 X139.274 Y97.354 E0.67832
G1 X139.747 Y97.874 E0.7017
G1 X140.325 Y98.568 E0.73174
G1 X140.661 Y99.037 E0.75093
G1 X140.878 Y99.359 E0.76385
G1 X141.272 Y99.993 E0.78867
G1 X141.549 Y100.479 E0.80728
G1 X142.473 Y102.149 E0.87076
G1 X144.416 Y105.412 E0.99707
G1 X144.765 Y106.036 E1.02085
G1 X145.171 Y106.843 E1.0509
G1 X145.547 Y107.81 E1.08541
G1 X145.859 Y108.766 E1.11885
G1 X146.067 Y109.456 E1.14282
G1 X146.187 Y109.89 E1.1578
G1 X146.392 Y110.715 E1.18607
G1 X146.571 Y111.525 E1.21366
G1 X146.726 Y112.415 E1.24371
G1 X146.787 Y113.029 E1.26423
G1 X146.814 Y113.423 E1.27737
G1 X146.838 Y114.196 E1.30309
G1 X146.831 Y115.012 E1.33023
G1 X146.8 Y116.441 E1.37777
G1 X146.846 Y120.097 E1.49938
G1 X146.859 Y120.496 E1.51266
G1 X146.845 Y121.478 E1.54532
G1 X146.826 Y121.778 E1.55532
G1 X146.729 Y122.676 E1.58536
G1 X146.639 Y123.18 E1.60239
G1 X146.529 Y123.717 E1.62062
G1 X146.459 Y124.029 E1.63126
G1 X146.343 Y124.517 E1.64794
G1 X146.252 Y124.874 E1.66019
G1 X145.944 Y125.989 E1.69867
G1 X145.842 Y126.333 E1.7106
G1 X145.697 Y126.794 E1.72668
G1 X145.388 Y127.643 E1.75673
G1 X145.159 Y128.154 E1.77535
G1 X144.983 Y128.52 E1.78886
G1 X144.548 Y129.33 E1.81944
G1 X143.101 Y131.753 E1.9133
G1 X141.847 Y133.999 E1.99886
G1 X141.413 Y134.81 E2.02945
G1 X141.289 Y135.029 E2.03783
G1 X140.921 Y135.629 E2.06124
G1 X140.759 Y135.874 E2.071
G1 X140.228 Y136.604 E2.10103
G1 X139.86 Y137.041 E2.12003
G1 X139.394 Y137.563 E2.1433
G1 X139.16 Y137.817 E2.15479
G1 X138.859 Y138.132 E2.16928
G1 X138.636 Y138.358 E2.17984
G1 X137.917 Y139.065 E2.21338
G1 X137.679 Y139.291 E2.2243
G1 X137.359 Y139.586 E2.23877
G1 X136.431 Y140.346 E2.27867
G1 X136.173 Y140.533 E2.28927
G1 X135.207 Y141.153 E2.32744
G1 X133.774 Y141.961 E2.38216
G1 X133.462 Y142.129 E2.39395
G1 X131.255 Y143.402 E2.47869
G1 X130.374 Y143.944 E2.51309
G1 X129.423 Y144.514 E2.54997
G1 X128.898 Y144.808 E2.56998
G1 X128.578 Y144.975 E2.58198
G1 X127.76 Y145.357 E2.61201
G1 X127.035 Y145.625 E2.63772
G1 X126.217 Y145.893 E2.66635
G1 X125.88 Y145.997 E2.67808
G1 X125.207 Y146.187 E2.70134
G1 X124.525 Y146.363 E2.72477
G1 X124.143 Y146.454 E2.73783
G1 X123.49 Y146.596 E2.76005
G1 X122.6 Y146.749 E2.79009
G1 X121.889 Y146.813 E2.81383
G1 X121.475 Y146.836 E2.82762
G1 X120.646 Y146.849 E2.8552
G1 X119.7 Y146.825 E2.88667
G1 X117.161 Y146.795 E2.97113
G1 X114.667 Y146.844 E3.05409
G1 X114.204 Y146.843 E3.06949
G1 X113.466 Y146.824 E3.09405
G1 X112.566 Y146.76 E3.12406
G1 X111.612 Y146.605 E3.1562
G1 X110.74 Y146.42 E3.18585
G1 X110.127 Y146.272 E3.20683
G1 X109.864 Y146.202 E3.21588
G1 X108.89 Y145.926 E3.24955
G1 X108.577 Y145.832 E3.26042
G1 X108.112 Y145.684 E3.27665
G1 X107.265 Y145.372 E3.30667
G1 X106.634 Y145.082 E3.32977
G1 X106.273 Y144.901 E3.3432
G1 X105.654 Y144.563 E3.36666
G1 X105.272 Y144.336 E3.38144
G1 X103.486 Y143.244 E3.45106
G1 X101.273 Y141.974 E3.53593
G1 X100.667 Y141.647 E3.55883
G1 X99.999 Y141.274 E3.58428
G1 X99.445 Y140.941 E3.60578
G1 X99.141 Y140.745 E3.61781
G1 X98.404 Y140.222 E3.64786
G1 X97.82 Y139.732 E3.67322
G1 X97.151 Y139.126 E3.70324
G1 X96.685 Y138.675 E3.72481
G1 X95.783 Y137.747 E3.76785
G1 X95.514 Y137.46 E3.78094
G1 X95.236 Y137.151 E3.79476
G1 X94.495 Y136.223 E3.83426
G1 X94.267 Y135.901 E3.84738
G1 X93.645 Y134.908 E3.88635
G1 X92.969 Y133.674 E3.93315
G1 X91.722 Y131.46 E4.01767
G1 X91.121 Y130.466 E4.0563
G1 X90.403 Y129.241 E4.10353
G1 X90.024 Y128.53 E4.13033
G1 X89.852 Y128.175 E4.14345
G1 X89.494 Y127.346 E4.17348
G1 X89.304 Y126.797 E4.1928
G1 X89.059 Y126.01 E4.22022
G1 X88.914 Y125.503 E4.23776
G1 X88.816 Y125.135 E4.25042
G1 X88.552 Y124.062 E4.28717
G1 X88.473 Y123.712 E4.29911
G1 X88.371 Y123.224 E4.31569
G1 X88.225 Y122.333 E4.34572
G1 X88.173 Y121.747 E4.36529
G1 X88.15 Y121.363 E4.37808
G1 X88.133 Y120.602 E4.4034
G1 X88.141 Y120.136 E4.4189
G1 X88.196 Y118.133 E4.48555
G1 X88.17 Y114.4 E4.60971
G1 X88.176 Y113.968 E4.62408
G1 X88.196 Y113.404 E4.64285
G1 X88.268 Y112.503 E4.67291
G1 X88.418 Y111.619 E4.70273
G1 X88.594 Y110.801 E4.73056
G1 X88.676 Y110.449 E4.74258
G1 X88.89 Y109.616 E4.77119
G1 X89.055 Y109.043 E4.79102
G1 X89.235 Y108.473 E4.8109
G1 X89.462 Y107.79 E4.83484
G1 X89.784 Y106.946 E4.86489
G1 X90.029 Y106.423 E4.8841
G1 X90.194 Y106.095 E4.89631
G1 X90.551 Y105.445 E4.92097
G1 X90.9 Y104.864 E4.94352
G1 X91.672 Y103.613 E4.99241
G1 X93.284 Y100.802 E5.10019
G1 X93.571 Y100.282 E5.11994
G1 X93.891 Y99.741 E5.14085
G1 X94.194 Y99.264 E5.15964
G1 X94.712 Y98.524 E5.18968
G1 X95.269 Y97.858 E5.21856
G1 X95.913 Y97.158 E5.2502
G1 X96.696 Y96.351 E5.2876
G1 X97.105 Y95.957 E5.30649
G1 X97.551 Y95.55 E5.32657
G1 X98.069 Y95.088 E5.34965
G1 X98.769 Y94.517 E5.3797
G1 X99.207 Y94.209 E5.39751
G1 X99.506 Y94.01 E5.40945
G1 X100.153 Y93.613 E5.4347
G1 X100.776 Y93.263 E5.45847
G1 X102.198 Y92.49 E5.5123
G1 X104.417 Y91.202 E5.59764
G1 X105.056 Y90.81 E5.62257
G1 X105.524 Y90.533 E5.64066
G1 X106.031 Y90.252 E5.65994
G1 X106.346 Y90.089 E5.67173
G1 X107.166 Y89.71 E5.70178
G1 X107.891 Y89.444 E5.72747
G1 X108.992 Y89.092 E5.76591
G1 X109.294 Y89.004 E5.77637
G1 X109.639 Y88.91 E5.78827
G1 X110.829 Y88.608 E5.8291
G1 X111.222 Y88.517 E5.84252
G1 X111.821 Y88.39 E5.86288
G1 X112.712 Y88.242 E5.89292
G1 X113.237 Y88.192 E5.91046
G1 X113.484 Y88.175 E5.9187
G1 X114.335 Y88.152 E5.94701
G1 X115.84 Y88.174 E5.99708
G1 X118.491 Y88.188 E6.08525
G1 X119.954 Y88.155 E6.13392
G1 X120.469 Y88.149 E6.15105
G1 X121.045 Y88.158 E6.17021
G1 X121.491 Y88.178 E6.18506
G0 F6000 X121.509 Y87.779
G1 F1200 X122.874 Y87.929 E6.23073
G1 X123.169 Y87.981 E6.2407
G1 X123.657 Y88.079 E6.25725
G1 X124.368 Y88.241 E6.28151
G1 X125.289 Y88.468 E6.31306
G1 X125.832 Y88.617 E6.33178
G1 X126.482 Y88.816 E6.35439
G1 X127.169 Y89.037 E6.3784
G1 X128.032 Y89.357 E6.40901
G1 X128.641 Y89.636 E6.43129
G1 X128.985 Y89.807 E6.44407
G1 X129.666 Y90.177 E6.46984
G1 X130.574 Y90.716 E6.50496
G1 X131.317 Y91.17 E6.53392
G1 X134.399 Y92.916 E6.65174
G1 X134.777 Y93.121 E6.66604
G1 X135.314 Y93.432 E6.68668
G1 X135.709 Y93.677 E6.70214
G1 X136.47 Y94.196 E6.73278
G1 X137.122 Y94.725 E6.7607
G1 X137.653 Y95.192 E6.78422
G1 X137.916 Y95.431 E6.79604
G1 X138.472 Y95.954 E6.82143
G1 X138.88 Y96.356 E6.84048
G1 X139.06 Y96.542 E6.84909
G1 X139.57 Y97.084 E6.87384
G1 X140.043 Y97.604 E6.89722
G1 X140.633 Y98.312 E6.92788
G1 X140.992 Y98.813 E6.94838
G1 X141.209 Y99.135 E6.96129
G1 X141.619 Y99.794 E6.9871
G1 X141.899 Y100.285 E7.0059
G1 X142.816 Y101.942 E7.06889
G1 X144.765 Y105.217 E7.19565
G1 X145.114 Y105.841 E7.21943
G1 X145.528 Y106.663 E7.25004
G1 X145.926 Y107.685 E7.28652
G1 X146.242 Y108.651 E7.32032
G1 X146.45 Y109.341 E7.34429
G1 X146.575 Y109.792 E7.35986
G1 X146.706 Y110.308 E7.37757
G1 X146.782 Y110.629 E7.38854
G1 X146.961 Y111.439 E7.41613
G1 X147.121 Y112.345 E7.44673
G1 X147.186 Y113.001 E7.46865
G1 X147.213 Y113.395 E7.48179
G1 X147.238 Y114.199 E7.50854
G1 X147.231 Y115.02 E7.53585
G1 X147.2 Y116.445 E7.58326
G1 X147.246 Y120.079 E7.70413
G1 X147.259 Y120.483 E7.71758
G1 X147.244 Y121.503 E7.75151
G1 X147.225 Y121.803 E7.76151
G1 X147.127 Y122.718 E7.79211
G1 X147.03 Y123.26 E7.81043
G1 X146.849 Y124.121 E7.83969
G1 X146.733 Y124.609 E7.85637
G1 X146.637 Y124.98 E7.86912
G1 X146.329 Y126.095 E7.90759
G1 X146.224 Y126.453 E7.92
G1 X146.079 Y126.914 E7.93607
G1 X145.765 Y127.78 E7.96671
G1 X145.52 Y128.328 E7.98668
G1 X145.344 Y128.694 E8.00019
G1 X144.891 Y129.535 E8.03196
G1 X143.45 Y131.947 E8.12541
G1 X142.202 Y134.184 E8.2106
G1 X141.761 Y135.007 E8.24166
G1 X141.637 Y135.226 E8.25003
G1 X141.255 Y135.849 E8.27434
G1 X141.093 Y136.094 E8.28411
G1 X140.552 Y136.84 E8.31476
G1 X140.158 Y137.307 E8.33508
G1 X139.692 Y137.829 E8.35835
G1 X139.449 Y138.093 E8.37029
G1 X139.148 Y138.408 E8.38478
G1 X138.916 Y138.643 E8.39576
G1 X137.95 Y139.586 E8.44066
G1 X137.63 Y139.881 E8.45514
G1 X136.666 Y140.67 E8.49657
G1 X136.408 Y140.857 E8.50717
G1 X135.404 Y141.501 E8.54684
G1 X133.963 Y142.313 E8.60185
G1 X133.66 Y142.476 E8.6133
G1 X131.485 Y143.731 E8.69682
G1 X130.579 Y144.287 E8.73217
G1 X129.628 Y144.857 E8.76905
G1 X129.083 Y145.162 E8.78982
G1 X128.763 Y145.329 E8.80183
G1 X127.929 Y145.719 E8.83245
G1 X127.159 Y146.005 E8.85977
G1 X126.341 Y146.273 E8.8884
G1 X125.992 Y146.381 E8.90055
G1 X125.307 Y146.575 E8.92423
G1 X124.625 Y146.751 E8.94765
G1 X124.228 Y146.845 E8.96122
G1 X123.575 Y146.987 E8.98345
G1 X122.668 Y147.143 E9.01406
G1 X121.911 Y147.213 E9.03934
G1 X121.497 Y147.236 E9.05314
G1 X120.636 Y147.248 E9.08178
G1 X119.756 Y147.225 E9.11105
G1 X117.164 Y147.195 E9.19727
G1 X114.675 Y147.244 E9.28007
G1 X114.194 Y147.242 E9.29607
G1 X113.456 Y147.223 E9.32062
G1 X112.538 Y147.16 E9.35123
G1 X111.529 Y146.996 E9.38523
G1 X110.657 Y146.811 E9.41488
G1 X110.029 Y146.66 E9.43636
G1 X109.755 Y146.586 E9.4458
G1 X108.456 Y146.213 E9.49075
G1 X107.991 Y146.065 E9.50698
G1 X107.127 Y145.748 E9.53759
G1 X106.455 Y145.44 E9.56218
G1 X106.094 Y145.259 E9.57561
G1 X105.45 Y144.907 E9.60002
G1 X105.063 Y144.677 E9.61499
G1 X103.284 Y143.589 E9.68435
G1 X101.059 Y142.313 E9.76966
G1 X100.472 Y141.996 E9.79185
G1 X99.804 Y141.623 E9.81729
G1 X99.228 Y141.277 E9.83964
G1 X98.924 Y141.081 E9.85167
G1 X98.173 Y140.549 E9.88228
G1 X97.552 Y140.028 E9.90925
G1 X96.883 Y139.422 E9.93927
G1 X96.398 Y138.954 E9.96168
G1 X95.496 Y138.026 E10.00473
G1 X95.217 Y137.728 E10.01831
G1 X94.939 Y137.419 E10.03213
G1 X94.168 Y136.454 E10.07321
G1 X93.94 Y136.132 E10.08633
G1 X93.295 Y135.1 E10.12681
G1 X92.678 Y133.973 E10.16955
G1 X91.375 Y131.658 E10.2579
G1 X90.776 Y130.668 E10.29639
G1 X90.058 Y129.443 E10.34361
G1 X89.664 Y128.705 E10.37144
G1 X89.492 Y128.35 E10.38456
G1 X89.127 Y127.505 E10.41517
G1 X88.922 Y126.917 E10.43589
G1 X88.675 Y126.12 E10.46364
G1 X88.53 Y125.613 E10.48118
G1 X88.428 Y125.23 E10.49436
G1 X88.164 Y124.157 E10.53111
G1 X88.081 Y123.794 E10.5435
G1 X87.979 Y123.306 E10.56008
G1 X87.83 Y122.397 E10.59072
G1 X87.774 Y121.771 E10.61162
G1 X87.751 Y121.387 E10.62441
G1 X87.733 Y120.596 E10.65073
G1 X87.741 Y120.125 E10.6664
G1 X87.796 Y118.125 E10.73294
G1 X87.77 Y114.402 E10.85677
G1 X87.777 Y113.953 E10.87171
G1 X87.797 Y113.389 E10.89048
G1 X87.869 Y112.472 E10.92107
G1 X88.027 Y111.535 E10.95268
G1 X88.203 Y110.717 E10.98051
G1 X88.289 Y110.352 E10.99298
G1 X88.505 Y109.509 E11.02192
G1 X88.673 Y108.924 E11.04217
G1 X88.855 Y108.347 E11.06229
G1 X89.082 Y107.664 E11.08623
G1 X89.41 Y106.804 E11.11684
G1 X89.672 Y106.243 E11.13744
G1 X89.837 Y105.915 E11.14965
G1 X90.208 Y105.24 E11.17527
G1 X90.559 Y104.654 E11.19798
G1 X91.335 Y103.396 E11.24715
G1 X92.919 Y100.635 E11.35302
G1 X93.22 Y100.089 E11.37375
G1 X93.554 Y99.526 E11.39553
G1 X93.857 Y99.049 E11.41432
G1 X94.383 Y98.294 E11.44493
G1 X94.973 Y97.589 E11.4755
G1 X95.625 Y96.88 E11.50754
G1 X96.416 Y96.065 E11.54531
G1 X96.596 Y95.889 E11.55369
G1 X96.835 Y95.663 E11.56463
G1 X97.284 Y95.251 E11.5849
G1 X97.802 Y94.789 E11.60798
G1 X98.516 Y94.207 E11.63862
G1 X98.985 Y93.876 E11.65771
G1 X99.284 Y93.677 E11.66966
G1 X99.957 Y93.264 E11.69592
G1 X100.585 Y92.912 E11.71987
G1 X101.985 Y92.151 E11.77286
G1 X104.2 Y90.865 E11.85805
G1 X104.852 Y90.466 E11.88348
G1 X105.32 Y90.189 E11.90156
G1 X105.847 Y89.897 E11.9216
G1 X106.162 Y89.734 E11.9334
G1 X106.998 Y89.347 E11.96404
G1 X107.768 Y89.064 E11.99132
G1 X108.881 Y88.708 E12.03019
G1 X109.183 Y88.62 E12.04065
G1 X109.541 Y88.523 E12.05299
G1 X110.731 Y88.221 E12.09382
G1 X111.139 Y88.126 E12.10776
G1 X111.738 Y87.999 E12.12812
G1 X112.647 Y87.847 E12.15878
G1 X113.209 Y87.793 E12.17755
G1 X113.456 Y87.776 E12.18579
G1 X114.341 Y87.752 E12.21523
G1 X115.848 Y87.774 E12.26536
G1 X118.483 Y87.788 E12.353
G1 X119.95 Y87.755 E12.40181
G1 X120.465 Y87.749 E12.41894
G1 X121.063 Y87.759 E12.43883
G1 X121.509 Y87.779 E12.45368
G0 F6000 X121.527 Y87.379
G1 F1200 X122.461 Y87.461 E12.48487
G1 X122.944 Y87.535 E12.50112
G1 X123.239 Y87.587 E12.51108
G1 X123.745 Y87.689 E12.52825
G1 X124.463 Y87.853 E12.55274
G1 X125.384 Y88.08 E12.58429
G1 X125.949 Y88.235 E12.60378
G1 X126.605 Y88.435 E12.62659
G1 X127.292 Y88.656 E12.65059
G1 X128.171 Y88.981 E12.68176
G1 X128.819 Y89.278 E12.70547
G1 X129.163 Y89.449 E12.71825
G1 X129.87 Y89.833 E12.74501
G1 X130.783 Y90.374 E12.78031
G1 X131.544 Y90.839 E12.80997
G1 X134.565 Y92.551 E12.92546
G1 X134.968 Y92.769 E12.9407
G1 X135.525 Y93.092 E12.96211
G1 X135.92 Y93.337 E12.97757
G1 X136.695 Y93.865 E13.00876
G1 X137.386 Y94.425 E13.03835
G1 X137.917 Y94.892 E13.06187
G1 X138.19 Y95.14 E13.07413
G1 X138.746 Y95.663 E13.09952
G1 X139.164 Y96.075 E13.11904
G1 X139.35 Y96.267 E13.12793
G1 X139.866 Y96.815 E13.15297
G1 X140.339 Y97.335 E13.17635
G1 X140.94 Y98.055 E13.20754
G1 X141.324 Y98.59 E13.22945
G1 X141.541 Y98.912 E13.24236
G1 X141.966 Y99.596 E13.26914
G1 X142.249 Y100.091 E13.28811
G1 X143.172 Y101.758 E13.35148
G1 X145.114 Y105.022 E13.47781
G1 X145.463 Y105.646 E13.50159
G1 X145.886 Y106.483 E13.53278
G1 X146.306 Y107.559 E13.5712
G1 X146.625 Y108.535 E13.60535
G1 X146.833 Y109.225 E13.62932
G1 X146.963 Y109.693 E13.64547
G1 X147.094 Y110.209 E13.66318
G1 X147.173 Y110.542 E13.67456
G1 X147.352 Y111.352 E13.70215
G1 X147.515 Y112.276 E13.73336
G1 X147.585 Y112.974 E13.75669
G1 X147.612 Y113.368 E13.76983
G1 X147.638 Y114.202 E13.79758
G1 X147.63 Y115.029 E13.82509
G1 X147.6 Y116.419 E13.87133
G1 X147.646 Y120.061 E13.99247
G1 X147.659 Y120.47 E14.00608
G1 X147.643 Y121.528 E14.04128
G1 X147.624 Y121.828 E14.05128
G1 X147.525 Y122.761 E14.08248
G1 X147.422 Y123.34 E14.10204
G1 X147.238 Y124.214 E14.13175
G1 X147.122 Y124.702 E14.14843
G1 X147.023 Y125.087 E14.16165
G1 X146.715 Y126.202 E14.20013
G1 X146.605 Y126.573 E14.213
G1 X146.46 Y127.034 E14.22907
G1 X146.141 Y127.916 E14.26027
G1 X145.88 Y128.501 E14.28157
G1 X145.704 Y128.867 E14.29508
G1 X145.235 Y129.74 E14.32804
G1 X143.801 Y132.141 E14.42106
G1 X142.547 Y134.387 E14.50661
G1 X142.109 Y135.204 E14.53745
G1 X141.985 Y135.423 E14.54582
G1 X141.589 Y136.07 E14.57105
G1 X141.427 Y136.315 E14.58082
G1 X140.876 Y137.075 E14.61204
G1 X140.457 Y137.574 E14.63371
G1 X139.991 Y138.096 E14.65698
G1 X139.738 Y138.369 E14.66936
G1 X139.437 Y138.684 E14.68385
G1 X139.196 Y138.928 E14.69526
G1 X138.221 Y139.88 E14.74058
G1 X137.901 Y140.175 E14.75506
G1 X136.901 Y140.994 E14.79805
G1 X136.643 Y141.181 E14.80865
G1 X135.601 Y141.849 E14.84982
G1 X134.153 Y142.665 E14.9051
G1 X133.87 Y142.817 E14.91578
G1 X131.663 Y144.09 E15.00052
G1 X130.785 Y144.63 E15.03481
