;FLAVOR:Marlin
;TIME:3375
;Filament used: 2.1513m
;Layer height: 0.2
;MINX:91.5
;MINY:87.684
;MINZ:0.2
;MAXX:143.5
;MAXY:148.58
;MAXZ:26.2
;Generated with Cura_SteamEngine master
M140 S60
M105
M190 S60
M104 S200
M105
M109 S200
M82 ;absolute extrusion mode
; Ender 3 Custom Start G-code
G92 E0 ; Reset Extruder
G28 ; Home all axes
G1 Z2.0 F3000 ; Move Z Axis up little to prevent scratching of Heat Bed
G1 X0.1 Y20 Z0.3 F5000.0 ; Move to start position
G1 X0.1 Y200.0 Z0.3 F1500.0 E15 ; Draw the first line
G1 X0.4 Y200.0 Z0.3 F5000.0 ; Move to side a little
G1 X0.4 Y20 Z0.3 F1500.0 E30 ; Draw the second line
G92 E0 ; Reset Extruder
G1 Z2.0 F3000 ; Move Z Axis up little to prevent scratching of Heat Bed
G1 X5 Y20 Z0.3 F5000.0 ; Move over to prevent blob squish
G92 E0
G92 E0
G1 F1500 E-6.5
;LAYER_COUNT:131
;LAYER:0
M107
G0 F6000 X132.518 Y88.494 Z0.2
;TYPE:SKIRT
G1 F1500 E0
G1 F1200 X133.419 Y88.547 E0.03002
G1 X134.312 Y88.679 E0.06004
G1 X135.191 Y88.89 E0.09011
G1 X136.047 Y89.178 E0.12015
G1 X136.874 Y89.541 E0.15019
G1 X137.666 Y89.975 E0.18023
G1 X138.416 Y90.477 E0.21024
G1 X139.362 Y91.265 E0.25119
G1 X139.481 Y91.377 E0.25663
G1 X140.11 Y92.025 E0.28666
G1 X140.68 Y92.725 E0.31669
G1 X141.186 Y93.474 E0.34675
G1 X141.623 Y94.264 E0.37678
G1 X141.989 Y95.089 E0.4068
G1 X142.281 Y95.944 E0.43685
G1 X142.495 Y96.821 E0.46687
G1 X142.632 Y97.714 E0.49692
G1 X142.688 Y98.607 E0.52668
G1 X142.7 Y99.319 E0.55037
G1 X142.699 Y116.045 E1.10668
G1 X142.689 Y116.743 E1.12989
G1 X142.613 Y117.849 E1.16677
G1 X142.554 Y118.314 E1.18236
G1 X142.256 Y120.402 E1.25251
G1 X141.97 Y122.904 E1.33627
G1 X141.754 Y125.435 E1.42075
G1 X141.578 Y128.705 E1.52967
G1 X141.49 Y129.604 E1.55972
G1 X141.323 Y130.491 E1.58974
G1 X141.077 Y131.36 E1.61977
G1 X140.753 Y132.211 E1.65006
G1 X140.33 Y133.188 E1.68547
G1 X140.183 Y133.512 E1.6973
G1 X139.945 Y134.013 E1.71575
G1 X139.51 Y134.83 E1.74654
G1 X138.923 Y135.822 E1.78488
G1 X138.749 Y136.106 E1.79595
G1 X138.388 Y136.673 E1.81831
G1 X137.877 Y137.404 E1.84797
G1 X137.262 Y138.199 E1.8814
G1 X136.646 Y138.962 E1.91402
G1 X136.011 Y139.677 E1.94583
G1 X135.109 Y140.598 E1.9887
G1 X134.618 Y141.076 E2.01149
G1 X133.945 Y141.675 E2.04146
G1 X132.935 Y142.493 E2.08469
G1 X132.388 Y142.915 E2.10767
G1 X131.692 Y143.407 E2.13601
G1 X130.891 Y143.922 E2.16769
G1 X130.508 Y144.159 E2.18267
G1 X129.965 Y144.486 E2.20375
G1 X129.217 Y144.895 E2.2321
G1 X128.258 Y145.363 E2.2676
G1 X127.375 Y145.768 E2.29991
G1 X126.514 Y146.117 E2.33081
G1 X125.303 Y146.54 E2.37347
G1 X124.66 Y146.748 E2.39595
G1 X123.791 Y146.987 E2.42593
G1 X122.484 Y147.282 E2.47049
G1 X121.876 Y147.405 E2.49112
G1 X120.955 Y147.548 E2.52212
G1 X119.633 Y147.689 E2.56634
G1 X118.961 Y147.745 E2.58877
G1 X118.064 Y147.78 E2.61863
G1 X116.771 Y147.77 E2.66163
G1 X116.089 Y147.749 E2.68433
G1 X115.171 Y147.679 E2.71495
G1 X113.862 Y147.517 E2.75882
G1 X113.191 Y147.418 E2.78138
G1 X112.286 Y147.242 E2.81204
G1 X111.054 Y146.941 E2.85422
G1 X110.385 Y146.762 E2.87726
G1 X109.516 Y146.488 E2.90756
G1 X108.28 Y146.032 E2.95138
G1 X107.655 Y145.785 E2.97373
G1 X106.819 Y145.41 E3.00421
G1 X105.651 Y144.819 E3.04775
G1 X105.046 Y144.494 E3.07059
G1 X104.277 Y144.036 E3.10036
G1 X103.204 Y143.328 E3.14311
G1 X102.626 Y142.927 E3.16651
G1 X101.932 Y142.4 E3.1955
G1 X100.898 Y141.531 E3.24042
G1 X100.403 Y141.096 E3.26234
G1 X99.734 Y140.452 E3.29322
G1 X98.838 Y139.503 E3.33663
G1 X98.405 Y139.024 E3.35811
G1 X97.822 Y138.318 E3.38856
G1 X97.027 Y137.255 E3.43271
G1 X96.65 Y136.726 E3.45432
G1 X96.169 Y135.986 E3.48367
G1 X95.498 Y134.84 E3.52784
G1 X95.156 Y134.221 E3.55136
G1 X94.747 Y133.394 E3.58205
G1 X94.25 Y132.258 E3.62329
G1 X93.976 Y131.594 E3.64718
G1 X93.655 Y130.698 E3.67884
G1 X93.279 Y129.467 E3.72165
G1 X93.095 Y128.815 E3.74418
G1 X92.883 Y127.906 E3.77522
G1 X92.655 Y126.662 E3.81729
G1 X92.548 Y126.001 E3.83956
G1 X92.443 Y125.098 E3.8698
G1 X92.354 Y123.796 E3.9132
G1 X92.312 Y122.836 E3.94516
G1 X92.302 Y122.458 E3.95774
G1 X92.3 Y122.16 E3.96765
G1 X92.301 Y99.338 E4.72671
G1 X92.311 Y98.66 E4.74927
G1 X92.364 Y97.758 E4.77932
G1 X92.497 Y96.865 E4.80935
G1 X92.709 Y95.987 E4.83939
G1 X92.997 Y95.131 E4.86943
G1 X93.359 Y94.304 E4.89945
G1 X93.794 Y93.512 E4.92951
G1 X94.297 Y92.762 E4.95954
G1 X94.864 Y92.059 E4.98958
G1 X95.284 Y91.609 E5.01006
G1 X95.94 Y90.988 E5.0401
G1 X96.647 Y90.427 E5.07012
G1 X97.402 Y89.931 E5.10016
G1 X98.198 Y89.504 E5.13021
G1 X99.028 Y89.148 E5.16025
G1 X99.886 Y88.868 E5.19026
G1 X100.766 Y88.664 E5.22031
G1 X101.661 Y88.539 E5.25037
G1 X102.44 Y88.496 E5.27631
G1 X103.181 Y88.484 E5.30096
G1 X131.822 Y88.484 E6.25357
G1 X132.518 Y88.494 E6.27672
G0 F6000 X132.523 Y88.094
G1 F1200 X133.442 Y88.147 E6.30734
G1 X134.353 Y88.28 E6.33796
G1 X135.25 Y88.491 E6.36861
G1 X136.124 Y88.78 E6.39922
G1 X136.97 Y89.143 E6.42984
G1 X137.781 Y89.578 E6.46045
G1 X138.552 Y90.082 E6.49109
G1 X139.276 Y90.65 E6.52169
G1 X139.755 Y91.086 E6.54324
G1 X140.397 Y91.746 E6.57386
G1 X140.98 Y92.458 E6.60447
G1 X141.499 Y93.219 E6.63511
G1 X141.949 Y94.022 E6.66572
G1 X142.329 Y94.861 E6.69636
G1 X142.634 Y95.729 E6.72696
G1 X142.863 Y96.621 E6.75759
G1 X143.013 Y97.529 E6.78819
G1 X143.088 Y98.599 E6.82387
G1 X143.1 Y99.319 E6.84782
G1 X143.099 Y116.051 E7.40433
G1 X143.089 Y116.749 E7.42755
G1 X143.01 Y117.898 E7.46585
G1 X142.95 Y118.37 E7.48168
G1 X142.656 Y120.432 E7.55095
G1 X142.364 Y122.981 E7.63629
G1 X142.155 Y125.426 E7.71791
G1 X141.978 Y128.727 E7.82786
G1 X141.888 Y129.643 E7.85847
G1 X141.72 Y130.548 E7.88908
G1 X141.474 Y131.435 E7.9197
G1 X141.12 Y132.37 E7.95295
G1 X140.697 Y133.347 E7.98836
G1 X140.545 Y133.683 E8.00063
G1 X140.307 Y134.184 E8.01908
G1 X139.855 Y135.034 E8.0511
G1 X139.268 Y136.026 E8.08943
G1 X139.087 Y136.321 E8.10094
G1 X138.726 Y136.888 E8.1233
G1 X138.194 Y137.647 E8.15413
G1 X137.574 Y138.451 E8.1879
G1 X136.958 Y139.214 E8.22051
G1 X136.298 Y139.957 E8.25357
G1 X135.388 Y140.884 E8.29677
G1 X134.897 Y141.362 E8.31956
G1 X134.197 Y141.986 E8.35075
G1 X133.18 Y142.81 E8.39429
G1 X132.633 Y143.232 E8.41727
G1 X131.909 Y143.743 E8.44674
G1 X131.102 Y144.262 E8.47865
G1 X130.714 Y144.502 E8.49383
G1 X130.171 Y144.829 E8.51491
G1 X129.394 Y145.253 E8.54435
G1 X128.425 Y145.727 E8.58023
G1 X127.542 Y146.132 E8.61254
G1 X126.647 Y146.494 E8.64465
G1 X125.426 Y146.92 E8.68766
G1 X124.783 Y147.128 E8.71014
G1 X123.88 Y147.377 E8.74129
G1 X122.563 Y147.675 E8.7862
G1 X121.955 Y147.798 E8.80684
G1 X120.999 Y147.946 E8.83901
G1 X119.666 Y148.087 E8.8836
G1 X118.994 Y148.143 E8.90602
G1 X118.062 Y148.18 E8.93705
G1 X116.759 Y148.17 E8.98039
G1 X116.077 Y148.149 E9.00308
G1 X115.123 Y148.076 E9.0349
G1 X113.804 Y147.912 E9.07911
G1 X113.133 Y147.813 E9.10167
G1 X112.192 Y147.631 E9.13355
G1 X110.95 Y147.328 E9.17607
G1 X110.281 Y147.149 E9.1991
G1 X109.378 Y146.863 E9.23061
G1 X108.133 Y146.404 E9.27474
G1 X107.508 Y146.157 E9.29709
G1 X106.639 Y145.768 E9.32876
G1 X105.462 Y145.171 E9.37265
G1 X104.857 Y144.846 E9.3955
G1 X104.058 Y144.371 E9.42641
G1 X102.976 Y143.656 E9.46955
G1 X102.398 Y143.255 E9.49294
G1 X101.677 Y142.708 E9.52305
G1 X100.634 Y141.831 E9.56837
G1 X100.139 Y141.396 E9.59029
G1 X99.444 Y140.727 E9.62237
G1 X98.542 Y139.771 E9.66609
G1 X98.109 Y139.292 E9.68756
G1 X97.503 Y138.558 E9.71922
G1 X96.701 Y137.487 E9.76372
G1 X96.324 Y136.958 E9.78533
G1 X95.825 Y136.189 E9.81582
G1 X95.148 Y135.033 E9.86038
G1 X94.806 Y134.414 E9.8839
G1 X94.381 Y133.555 E9.91577
G1 X93.88 Y132.41 E9.95734
G1 X93.606 Y131.746 E9.98123
G1 X93.272 Y130.815 E10.01413
G1 X92.894 Y129.576 E10.05722
G1 X92.71 Y128.924 E10.07975
G1 X92.49 Y127.979 E10.11202
G1 X92.26 Y126.726 E10.15439
G1 X92.153 Y126.065 E10.17666
G1 X92.044 Y125.127 E10.20807
G1 X91.954 Y123.813 E10.25188
G1 X91.912 Y122.853 E10.28384
G1 X91.902 Y122.461 E10.29688
G1 X91.9 Y122.163 E10.30679
G1 X91.901 Y99.332 E11.06615
G1 X91.911 Y98.654 E11.08871
G1 X91.965 Y97.735 E11.11932
G1 X92.098 Y96.824 E11.14995
G1 X92.309 Y95.928 E11.18056
G1 X92.598 Y95.053 E11.21121
G1 X92.961 Y94.207 E11.24183
G1 X93.397 Y93.396 E11.27245
G1 X93.901 Y92.626 E11.30306
G1 X94.47 Y91.902 E11.33369
G1 X94.996 Y91.331 E11.35951
G1 X95.664 Y90.697 E11.39014
G1 X96.384 Y90.124 E11.42075
G1 X97.151 Y89.615 E11.45137
G1 X97.96 Y89.174 E11.48201
G1 X98.803 Y88.806 E11.5126
G1 X99.676 Y88.512 E11.54324
G1 X100.57 Y88.294 E11.57385
G1 X101.481 Y88.156 E11.60449
G1 X102.432 Y88.096 E11.63619
G1 X103.181 Y88.084 E11.6611
G1 X131.827 Y88.084 E12.61387
G1 X132.523 Y88.094 E12.63702
G0 F6000 X132.529 Y87.694
G1 F1200 X133.465 Y87.748 E12.66821
G1 X134.394 Y87.881 E12.69942
G1 X135.307 Y88.092 E12.73059
G1 X136.2 Y88.381 E12.76181
G1 X137.064 Y88.744 E12.79298
G1 X137.895 Y89.18 E12.82419
G1 X138.685 Y89.686 E12.85539
G1 X139.429 Y90.256 E12.88656
G1 X140.029 Y90.795 E12.91339
G1 X140.684 Y91.466 E12.94458
G1 X141.279 Y92.191 E12.97577
G1 X141.811 Y92.964 E13.00698
G1 X142.275 Y93.779 E13.03818
G1 X142.667 Y94.63 E13.06934
G1 X142.986 Y95.513 E13.10057
G1 X143.228 Y96.419 E13.13176
G1 X143.392 Y97.342 E13.16294
G1 X143.488 Y98.591 E13.2046
G1 X143.5 Y99.319 E13.22882
G1 X143.499 Y116.057 E13.78552
G1 X143.489 Y116.755 E13.80874
G1 X143.407 Y117.947 E13.84848
G1 X143.346 Y118.427 E13.86458
G1 X143.05 Y120.502 E13.93429
G1 X142.766 Y122.989 E14.01754
G1 X142.552 Y125.482 E14.10077
G1 X142.377 Y128.748 E14.20955
G1 X142.287 Y129.682 E14.24076
G1 X142.118 Y130.604 E14.27194
G1 X141.87 Y131.509 E14.30315
G1 X141.487 Y132.528 E14.33935
G1 X141.064 Y133.505 E14.37476
G1 X140.906 Y133.855 E14.38754
G1 X140.668 Y134.356 E14.40598
G1 X140.199 Y135.238 E14.43921
G1 X139.612 Y136.23 E14.47755
G1 X139.424 Y136.536 E14.48949
G1 X139.063 Y137.103 E14.51185
G1 X138.512 Y137.891 E14.54383
G1 X137.885 Y138.702 E14.57792
G1 X137.269 Y139.465 E14.61054
G1 X136.584 Y140.236 E14.64484
G1 X135.667 Y141.171 E14.6884
G1 X135.176 Y141.649 E14.71119
G1 X134.45 Y142.296 E14.74354
G1 X133.424 Y143.126 E14.78743
G1 X132.877 Y143.548 E14.81041
G1 X132.126 Y144.079 E14.841
G1 X131.313 Y144.602 E14.87315
G1 X130.921 Y144.844 E14.88847
G1 X130.378 Y145.171 E14.90956
G1 X129.571 Y145.612 E14.94014
G1 X128.592 Y146.09 E14.97638
G1 X127.709 Y146.495 E15.00869
G1 X126.779 Y146.871 E15.04205
G1 X125.55 Y147.301 E15.08536
G1 X124.907 Y147.509 E15.10784
G1 X123.969 Y147.767 E15.14019
G1 X122.642 Y148.067 E15.18544
G1 X122.034 Y148.19 E15.20608
G1 X121.042 Y148.344 E15.23946
G1 X119.7 Y148.486 E15.28435
G1 X119.028 Y148.542 E15.30678
G1 X118.061 Y148.58 E15.33896
G1 X116.746 Y148.57 E15.3827
G1 X116.064 Y148.549 E15.4054
G1 X115.074 Y148.473 E15.43842
G1 X113.745 Y148.308 E15.48296
G1 X113.074 Y148.209 E15.50552
G1 X112.099 Y148.02 E15.53855
G1 X110.847 Y147.714 E15.58142
G1 X110.178 Y147.535 E15.60446
G1 X109.241 Y147.239 E15.63714
G1 X107.986 Y146.776 E15.68163
G1 X107.361 Y146.529 E15.70398
G1 X106.459 Y146.125 E15.73685
G1 X105.272 Y145.523 E15.78112
G1 X104.667 Y145.198 E15.80396
G1 X103.838 Y144.705 E15.83604
G1 X102.748 Y143.985 E15.87949
G1 X102.17 Y143.584 E15.90289
G1 X101.421 Y143.016 E15.93416
G1 X100.37 Y142.132 E15.97983
G1 X99.875 Y141.697 E16.00175
G1 X99.154 Y141.002 E16.03506
G1 X98.245 Y140.039 E16.0791
G1 X97.812 Y139.56 E16.10058
G1 X97.183 Y138.799 E16.13342
G1 X96.375 Y137.719 E16.17828
G1 X95.998 Y137.19 E16.19988
G1 X95.48 Y136.392 E16.23153
G1 X94.798 Y135.227 E16.27643
G1 X94.456 Y134.608 E16.29995
G1 X94.015 Y133.716 E16.33304
G1 X93.511 Y132.563 E16.3749
G1 X93.237 Y131.899 E16.39879
G1 X92.89 Y130.933 E16.43293
G1 X92.509 Y129.685 E16.47633
G1 X92.325 Y129.033 E16.49886
G1 X92.097 Y128.052 E16.53236
G1 X91.865 Y126.79 E16.57503
G1 X91.758 Y126.129 E16.59731
G1 X91.645 Y125.155 E16.62992
G1 X91.555 Y123.831 E16.67406
G1 X91.513 Y122.871 E16.70602
G1 X91.502 Y122.464 E16.71956
G1 X91.5 Y122.166 E16.72947
G1 X91.501 Y99.326 E17.48913
G1 X91.511 Y98.648 E17.51168
G1 X91.565 Y97.711 E17.5429
G1 X91.698 Y96.783 E17.57408
G1 X91.91 Y95.87 E17.60526
G1 X92.199 Y94.977 E17.63647
G1 X92.563 Y94.113 E17.66766
G1 X93 Y93.283 E17.69886
G1 X93.505 Y92.493 E17.73004
G1 X94.076 Y91.749 E17.76123
G1 X94.597 Y91.169 E17.78716
G1 X94.709 Y91.053 E17.79253
G1 X95.388 Y90.407 E17.8237
G1 X96.12 Y89.821 E17.85489
G1 X96.9 Y89.299 E17.8861
G1 X97.721 Y88.846 E17.91729
G1 X98.578 Y88.464 E17.9485
G1 X99.464 Y88.157 E17.97969
G1 X100.373 Y87.926 E18.01088
G1 X101.298 Y87.774 E18.04206
G1 X102.425 Y87.696 E18.07963
G1 X103.181 Y87.684 E18.10478
G1 X131.833 Y87.684 E19.05775
G1 X132.529 Y87.694 E19.0809
G1 F1500 E12.5809
G0 F6000 X103.9 Y100.084
G1 F1500 E19.0809
G1 F1200 X131.1 Y100.083 E19.98558
G1 X131.1 Y100.205 E19.98963
G1 X103.9 Y100.206 E20.89431
G1 X103.9 Y100.084 E20.89837
G0 F6000 X103.5 Y99.684
G1 F1200 X131.5 Y99.683 E21.82965
G1 X131.5 Y100.605 E21.86032
G1 X103.5 Y100.606 E22.7916
G1 X103.5 Y99.684 E22.82227
G0 F6000 X103.1 Y99.284
G1 F1200 X131.9 Y99.283 E23.78016
G1 X131.9 Y101.005 E23.83743
G1 X103.1 Y101.006 E24.79532
G1 X103.1 Y99.284 E24.8526
G0 F6000 X102.7 Y98.884
G1 F1200 X132.3 Y98.883 E25.8371
G1 X132.3 Y101.405 E25.92098
G1 X102.7 Y101.406 E26.90548
G1 X102.7 Y98.884 E26.98936
G1 F1500 E20.48936
G0 F6000 X102.699 Y100.941
G0 X102.7 Y101.806
;TYPE:SUPPORT-INTERFACE
G1 F1500 E26.98936
G1 F1200 X132.3 Y101.805 E27.97386
G1 X132.3 Y102.005 E27.98051
G1 X102.7 Y102.006 E28.96501
G1 X102.7 Y101.806 E28.97167
G1 F1500 E22.47167
;MESH:Ender_3_Z_Axis_Stabilizer.STL
G0 F6000 X103.31 Y103.816
G0 X131.718 Y103.787
G0 X131.726 Y116.287
G0 X130.681 Y117.332
G0 X119.824 Y117.335
G0 X116.223 Y116.974
G0 X112.919 Y119.108
G0 X111.706 Y122.682
G0 X112.738 Y125.239
G0 X113.658 Y126.915
G0 X117.186 Y128.37
G0 X119.822 Y127.877
G0 X129.964 Y127.879
G0 X130.464 Y128.372
G0 X130.011 Y129.38
G0 X129.148 Y130.773
G0 X128.132 Y132.059
G0 X126.984 Y133.21
G0 X125.706 Y134.227
G0 X124.322 Y135.089
G0 X122.831 Y135.794
G0 X121.584 Y136.218
G0 X118.075 Y136.991
;TYPE:WALL-INNER
G1 F1500 E28.97167
G1 F1200 X116.411 Y136.963 E29.02702
G1 X114.789 Y136.747 E29.08144
G1 X113.175 Y136.339 E29.13681
G1 X111.632 Y135.754 E29.1917
G1 X110.161 Y134.993 E29.24678
G1 X108.788 Y134.068 E29.30185
G1 X107.531 Y132.995 E29.35682
G1 X106.403 Y131.779 E29.41198
G1 X105.428 Y130.452 E29.46675
G1 X104.61 Y129.018 E29.52166
G1 X103.956 Y127.488 E29.577
G1 X103.488 Y125.909 E29.63178
G1 X103.199 Y124.274 E29.687
G1 X103.102 Y122.606 E29.74257
G1 X103.1 Y122.447 E29.74786
G1 X103.1 Y103.606 E30.37452
G1 X131.701 Y103.605 E31.32579
G1 X131.9 Y103.605 E31.33241
G1 X131.9 Y103.804 E31.33669
G1 X131.9 Y116.358 E31.75424
G1 X130.753 Y117.505 E31.80819
G1 X130.736 Y117.506 E31.80875
G1 X119.791 Y117.506 E32.17279
G1 X119.062 Y117.225 E32.19877
G1 X118.138 Y117.04 E32.23011
G1 X117.195 Y117.012 E32.26149
G1 X116.262 Y117.141 E32.29282
G1 X115.359 Y117.429 E32.32434
G1 X115.266 Y117.479 E32.32786
G1 X114.526 Y117.859 E32.35552
G1 X113.771 Y118.425 E32.38691
G1 X113.121 Y119.111 E32.41834
G1 X113.062 Y119.201 E32.42192
G1 X112.598 Y119.894 E32.44966
G1 X112.213 Y120.753 E32.48097
G1 X111.977 Y121.666 E32.51233
G1 X111.898 Y122.606 E32.54371
G1 X111.977 Y123.545 E32.57505
G1 X112.213 Y124.458 E32.60641
G1 X112.597 Y125.317 E32.63771
G1 X113.121 Y126.1 E32.66904
G1 X113.196 Y126.181 E32.67272
G1 X113.772 Y126.787 E32.70052
G1 X114.523 Y127.35 E32.73174
G1 X114.621 Y127.402 E32.73543
G1 X115.363 Y127.784 E32.76319
G1 X116.262 Y128.07 E32.79457
G1 X117.195 Y128.199 E32.82589
G1 X118.138 Y128.171 E32.85727
G1 X119.066 Y127.985 E32.88875
G1 X119.164 Y127.946 E32.89226
G1 X119.791 Y127.706 E32.91459
G1 X130.034 Y127.706 E33.25527
G1 X130.678 Y128.331 E33.28512
G1 X130.159 Y129.467 E33.32666
G1 X129.291 Y130.868 E33.38148
G1 X128.261 Y132.172 E33.43675
G1 X127.099 Y133.337 E33.49147
G1 X125.805 Y134.366 E33.54646
G1 X124.4 Y135.241 E33.60151
G1 X122.895 Y135.952 E33.65687
G1 X121.341 Y136.482 E33.71148
G1 X119.715 Y136.831 E33.7668
G1 X118.075 Y136.991 E33.8216
G0 F6000 X118.09 Y137.391
;TYPE:WALL-OUTER
G1 F1200 X116.386 Y137.363 E33.87829
G1 X114.708 Y137.139 E33.93459
G1 X113.056 Y136.722 E33.99126
