;FLAVOR:Marlin
;TIME:10405
;Filament used: 5.36776m
;Layer height: 0.2
;MINX:73.691
;MINY:70.257
;MINZ:0.2
;MAXX:153.375
;MAXY:159.78
;MAXZ:4.8
;Generated with Cura_SteamEngine master
M140 S80
M105
M190 S80
M104 S225
M105
M109 S225
M82 ;absolute extrusion mode
; Ender 3 Custom Start G-code
G92 E0 ; Reset Extruder
G28 ; Home all axes
G1 Z2.0 F3000 ; Move Z Axis up little to prevent scratching of Heat Bed
G1 X0.1 Y20 Z0.3 F5000.0 ; Move to start position
G1 X0.1 Y200.0 Z0.3 F1500.0 E15 ; Draw the first line
G1 X0.4 Y200.0 Z0.3 F5000.0 ; Move to side a little
G1 X0.4 Y20 Z0.3 F1500.0 E30 ; Draw the second line
G92 E0 ; Reset Extruder
G1 Z2.0 F3000 ; Move Z Axis up little to prevent scratching of Heat Bed
G1 X5 Y20 Z0.3 F5000.0 ; Move over to prevent blob squish
G92 E0
G92 E0
G1 F1500 E-6.5
;LAYER_COUNT:24
;LAYER:0
M107
G0 F6000 X76.737 Y90.386 Z0.2
;TYPE:SKIRT
G1 F1500 E0
G1 F1200 X77.619 Y89.794 E0.03816
G1 X78.689 Y89.178 E0.08251
G1 X109.654 Y71.301 E1.36686
G1 X110.357 Y70.941 E1.39523
G1 X111.093 Y70.654 E1.42361
G1 X111.854 Y70.444 E1.45196
G1 X112.632 Y70.311 E1.48032
G1 X113.42 Y70.257 E1.50869
G1 X114.209 Y70.284 E1.53705
G1 X114.992 Y70.39 E1.56543
G1 X115.76 Y70.574 E1.5938
G1 X116.505 Y70.836 E1.62217
G1 X117.442 Y71.294 E1.65963
G1 X118.51 Y71.908 E1.70388
G1 X149.471 Y89.759 E2.98764
G1 X150.134 Y90.187 E3.01599
G1 X150.751 Y90.681 E3.04438
G1 X151.314 Y91.234 E3.07273
G1 X151.819 Y91.841 E3.10109
G1 X152.26 Y92.497 E3.12949
G1 X152.632 Y93.193 E3.15783
G1 X152.932 Y93.924 E3.18622
G1 X153.156 Y94.681 E3.21457
G1 X153.303 Y95.457 E3.24294
G1 X153.375 Y96.522 E3.28129
G1 X153.374 Y97.755 E3.32558
G1 X153.355 Y133.486 E4.60907
G1 X153.315 Y134.275 E4.63745
G1 X153.195 Y135.055 E4.6658
G1 X152.996 Y135.82 E4.69419
G1 X152.722 Y136.56 E4.72254
G1 X152.374 Y137.269 E4.75091
G1 X151.956 Y137.939 E4.77927
G1 X151.473 Y138.563 E4.80762
G1 X150.929 Y139.136 E4.836
G1 X150.329 Y139.65 E4.86438
G1 X149.452 Y140.239 E4.90233
G1 X148.384 Y140.855 E4.94661
G1 X117.411 Y158.736 E6.23129
G1 X116.708 Y159.096 E6.25966
G1 X115.972 Y159.383 E6.28803
G1 X115.211 Y159.593 E6.31639
G1 X114.433 Y159.726 E6.34474
G1 X113.645 Y159.78 E6.37312
G1 X112.856 Y159.753 E6.40147
G1 X112.073 Y159.647 E6.42986
G1 X111.305 Y159.463 E6.45823
G1 X110.56 Y159.201 E6.48659
G1 X109.615 Y158.738 E6.52439
G1 X77.595 Y140.277 E7.85205
G1 X76.932 Y139.849 E7.8804
G1 X76.315 Y139.355 E7.90879
G1 X75.752 Y138.802 E7.93714
G1 X75.247 Y138.195 E7.9655
G1 X74.806 Y137.539 E7.9939
G1 X74.434 Y136.843 E8.02225
G1 X74.134 Y136.112 E8.05063
G1 X73.91 Y135.355 E8.07899
G1 X73.763 Y134.579 E8.10736
G1 X73.691 Y133.516 E8.14563
G1 X73.711 Y96.55 E9.47348
G1 X73.751 Y95.761 E9.50186
G1 X73.871 Y94.981 E9.53021
G1 X74.07 Y94.216 E9.5586
G1 X74.344 Y93.476 E9.58695
G1 X74.692 Y92.767 E9.61532
G1 X75.11 Y92.097 E9.64369
G1 X75.593 Y91.472 E9.67206
G1 X76.138 Y90.9 E9.70044
G1 X76.737 Y90.386 E9.72879
G0 F6000 X77.125 Y90.594
G1 F1200 X77.819 Y90.141 E9.75856
G1 X78.881 Y89.529 E9.80259
G1 X109.854 Y71.647 E11.08728
G1 X110.539 Y71.298 E11.1149
G1 X111.257 Y71.022 E11.14253
G1 X112 Y70.821 E11.17018
G1 X112.759 Y70.699 E11.19779
G1 X113.527 Y70.656 E11.22542
G1 X114.295 Y70.693 E11.25304
G1 X115.055 Y70.81 E11.28066
G1 X115.799 Y71.005 E11.30829
G1 X116.519 Y71.276 E11.33592
G1 X117.242 Y71.641 E11.36502
G1 X118.31 Y72.255 E11.40927
G1 X149.271 Y90.105 E12.69301
G1 X149.917 Y90.523 E12.72065
G1 X150.515 Y91.007 E12.74829
G1 X151.06 Y91.549 E12.7759
G1 X151.546 Y92.145 E12.80352
G1 X151.968 Y92.789 E12.83118
G1 X152.32 Y93.472 E12.85878
G1 X152.6 Y94.189 E12.88643
G1 X152.803 Y94.931 E12.91406
G1 X152.929 Y95.69 E12.9417
G1 X152.975 Y96.522 E12.97163
G1 X152.974 Y97.755 E13.01592
G1 X152.955 Y133.486 E14.29941
G1 X152.915 Y134.254 E14.32704
G1 X152.795 Y135.014 E14.35467
G1 X152.597 Y135.757 E14.38229
G1 X152.322 Y136.476 E14.40995
G1 X151.975 Y137.162 E14.43756
G1 X151.558 Y137.808 E14.46518
G1 X151.077 Y138.408 E14.4928
G1 X150.536 Y138.955 E14.52044
G1 X149.941 Y139.442 E14.54806
G1 X149.252 Y139.892 E14.57762
G1 X148.187 Y140.506 E14.62178
G1 X117.211 Y158.39 E15.9066
G1 X116.526 Y158.739 E15.93421
G1 X115.808 Y159.016 E15.96186
G1 X115.065 Y159.216 E15.9895
G1 X114.306 Y159.338 E16.01711
G1 X113.538 Y159.381 E16.04474
G1 X112.77 Y159.344 E16.07236
G1 X112.009 Y159.227 E16.10002
G1 X111.265 Y159.032 E16.12765
G1 X110.546 Y158.761 E16.15525
G1 X109.815 Y158.392 E16.18466
G1 X77.795 Y139.931 E17.51232
G1 X77.149 Y139.513 E17.53996
G1 X76.551 Y139.03 E17.56757
G1 X76.006 Y138.487 E17.59521
G1 X75.52 Y137.891 E17.62283
G1 X75.098 Y137.247 E17.65049
G1 X74.746 Y136.564 E17.67809
G1 X74.466 Y135.847 E17.70574
G1 X74.263 Y135.105 E17.73337
G1 X74.137 Y134.346 E17.76101
G1 X74.091 Y133.516 E17.79087
G1 X74.111 Y96.55 E19.11872
G1 X74.151 Y95.782 E19.14635
G1 X74.271 Y95.022 E19.17399
G1 X74.469 Y94.279 E19.20161
G1 X74.744 Y93.56 E19.22926
G1 X75.091 Y92.874 E19.25687
G1 X75.508 Y92.228 E19.28449
G1 X75.989 Y91.628 E19.31212
G1 X76.53 Y91.081 E19.33975
G1 X77.125 Y90.594 E19.36737
G0 F6000 X77.512 Y90.808
G1 F1200 X78.019 Y90.487 E19.38893
G1 X79.089 Y89.871 E19.43328
G1 X110.054 Y71.994 E20.71763
G1 X110.721 Y71.655 E20.74451
G1 X111.42 Y71.389 E20.77137
G1 X112.144 Y71.2 E20.79825
G1 X112.884 Y71.088 E20.82513
G1 X113.631 Y71.056 E20.85199
G1 X114.377 Y71.105 E20.87885
G1 X115.115 Y71.232 E20.90574
G1 X115.834 Y71.438 E20.93261
G1 X116.527 Y71.719 E20.95947
G1 X117.043 Y71.987 E20.98036
G1 X118.111 Y72.601 E21.02461
G1 X149.071 Y90.452 E22.30834
G1 X149.699 Y90.859 E22.33522
G1 X150.279 Y91.332 E22.36211
G1 X150.805 Y91.863 E22.38895
G1 X151.272 Y92.448 E22.41584
G1 X151.673 Y93.079 E22.4427
G1 X152.005 Y93.75 E22.46959
G1 X152.264 Y94.452 E22.49647
G1 X152.446 Y95.177 E22.52332
G1 X152.549 Y95.918 E22.55019
G1 X152.575 Y96.522 E22.57191
G1 X152.574 Y97.755 E22.6162
G1 X152.555 Y133.486 E23.89969
G1 X152.515 Y134.233 E23.92656
G1 X152.395 Y134.971 E23.95342
G1 X152.197 Y135.692 E23.98028
G1 X151.923 Y136.389 E24.00718
G1 X151.576 Y137.052 E24.03406
G1 X151.161 Y137.674 E24.06092
G1 X150.682 Y138.248 E24.08777
G1 X150.144 Y138.768 E24.11465
G1 X149.554 Y139.228 E24.14152
G1 X149.052 Y139.546 E24.16287
G1 X147.984 Y140.162 E24.20716
G1 X117.011 Y158.043 E25.49183
G1 X116.344 Y158.382 E25.51871
G1 X115.645 Y158.648 E25.54557
G1 X114.921 Y158.838 E25.57246
G1 X114.181 Y158.949 E25.59934
G1 X113.434 Y158.981 E25.6262
G1 X112.687 Y158.932 E25.65309
G1 X111.95 Y158.805 E25.67995
G1 X111.231 Y158.599 E25.70682
G1 X110.538 Y158.318 E25.73368
G1 X110.015 Y158.045 E25.75487
G1 X77.995 Y139.584 E27.08253
G1 X77.367 Y139.177 E27.10941
G1 X76.787 Y138.704 E27.1363
G1 X76.261 Y138.173 E27.16315
G1 X75.794 Y137.588 E27.19003
G1 X75.393 Y136.957 E27.21689
G1 X75.061 Y136.286 E27.24378
G1 X74.802 Y135.584 E27.27066
G1 X74.62 Y134.859 E27.29751
G1 X74.517 Y134.118 E27.32438
G1 X74.491 Y133.516 E27.34603
G1 X74.511 Y96.55 E28.67388
G1 X74.551 Y95.803 E28.70075
G1 X74.671 Y95.065 E28.72761
G1 X74.869 Y94.343 E28.7545
G1 X75.143 Y93.647 E28.78137
G1 X75.49 Y92.984 E28.80825
G1 X75.905 Y92.362 E28.83511
G1 X76.384 Y91.788 E28.86197
G1 X76.922 Y91.268 E28.88884
G1 X77.512 Y90.808 E28.91572
G0 F6000 X77.313 Y91.461
G1 F1200 X77.898 Y91.031 E28.9418
G1 X78.218 Y90.834 E28.9553
G1 X79.288 Y90.218 E28.99965
G1 X110.254 Y72.34 E30.28405
G1 X110.902 Y72.012 E30.31014
G1 X111.582 Y71.757 E30.33622
G1 X112.286 Y71.579 E30.36231
G1 X113.006 Y71.479 E30.38842
G1 X113.732 Y71.458 E30.41451
G1 X114.456 Y71.518 E30.4406
G1 X115.169 Y71.657 E30.4667
G1 X115.862 Y71.873 E30.49277
G1 X116.844 Y72.334 E30.53174
G1 X117.912 Y72.948 E30.57599
G1 X148.872 Y90.798 E31.8597
G1 X149.48 Y91.195 E31.88579
G1 X150.041 Y91.656 E31.91187
G1 X150.548 Y92.177 E31.93798
G1 X150.995 Y92.749 E31.96406
G1 X151.376 Y93.368 E31.99017
G1 X151.687 Y94.024 E32.01625
G1 X151.923 Y94.711 E32.04234
G1 X152.083 Y95.419 E32.06842
G1 X152.164 Y96.141 E32.09451
G1 X152.175 Y96.521 E32.10817
G1 X152.174 Y97.754 E32.15246
G1 X152.155 Y133.486 E33.43599
G1 X152.115 Y134.211 E33.46207
G1 X151.995 Y134.927 E33.48815
G1 X151.797 Y135.626 E33.51424
G1 X151.524 Y136.299 E33.54033
G1 X151.178 Y136.938 E33.56643
G1 X150.764 Y137.535 E33.59253
G1 X150.287 Y138.083 E33.61863
G1 X149.753 Y138.575 E33.64471
G1 X149.168 Y139.005 E33.67079
G1 X148.853 Y139.199 E33.68408
G1 X147.785 Y139.815 E33.72837
G1 X116.811 Y157.697 E35.01309
G1 X116.163 Y158.025 E35.03918
G1 X115.483 Y158.28 E35.06526
G1 X114.778 Y158.458 E35.09138
G1 X114.059 Y158.558 E35.11746
G1 X113.333 Y158.579 E35.14355
G1 X112.609 Y158.519 E35.16964
G1 X111.896 Y158.38 E35.19574
G1 X111.203 Y158.164 E35.22181
G1 X110.537 Y157.873 E35.24792
G1 X110.214 Y157.699 E35.2611
G1 X78.194 Y139.238 E36.58876
G1 X77.586 Y138.841 E36.61484
G1 X77.025 Y138.38 E36.64093
G1 X76.518 Y137.859 E36.66704
G1 X76.071 Y137.287 E36.69312
G1 X75.69 Y136.668 E36.71923
G1 X75.379 Y136.012 E36.7453
G1 X75.143 Y135.325 E36.7714
G1 X74.983 Y134.617 E36.79747
G1 X74.902 Y133.895 E36.82357
G1 X74.891 Y133.516 E36.83719
G1 X74.911 Y96.55 E38.16504
G1 X74.951 Y95.825 E38.19112
G1 X75.071 Y95.109 E38.2172
G1 X75.269 Y94.41 E38.2433
G1 X75.542 Y93.737 E38.26939
G1 X75.888 Y93.098 E38.29549
G1 X76.302 Y92.501 E38.32159
G1 X76.779 Y91.953 E38.34768
G1 X77.313 Y91.461 E38.37377
G0 F6000 X77.703 Y91.661
G1 F1200 X78.418 Y91.181 E38.4047
G1 X79.488 Y90.565 E38.44905
G1 X110.454 Y72.687 E39.73345
G1 X111.083 Y72.37 E39.75875
G1 X111.743 Y72.126 E39.78403
G1 X112.427 Y71.959 E39.80932
G1 X113.126 Y71.871 E39.83463
G1 X113.829 Y71.862 E39.85988
G1 X114.53 Y71.933 E39.88519
G1 X115.218 Y72.083 E39.91049
G1 X115.884 Y72.31 E39.93576
G1 X116.644 Y72.681 E39.96614
G1 X117.712 Y73.295 E40.01039
G1 X148.672 Y91.145 E41.2941
G1 X149.261 Y91.53 E41.31938
G1 X149.802 Y91.98 E41.34466
G1 X150.289 Y92.489 E41.36996
G1 X150.715 Y93.049 E41.39524
G1 X151.075 Y93.654 E41.42052
G1 X151.364 Y94.296 E41.44581
G1 X151.578 Y94.967 E41.47111
G1 X151.715 Y95.657 E41.49638
G1 X151.775 Y96.521 E41.52749
G1 X151.774 Y97.754 E41.57178
G1 X151.755 Y133.485 E42.85528
G1 X151.715 Y134.188 E42.88057
G1 X151.595 Y134.882 E42.90587
G1 X151.397 Y135.558 E42.93117
G1 X151.124 Y136.206 E42.95643
G1 X150.78 Y136.82 E42.98171
G1 X150.367 Y137.391 E43.00702
G1 X149.893 Y137.911 E43.0323
G1 X149.363 Y138.375 E43.0576
G1 X148.653 Y138.853 E43.08835
G1 X147.585 Y139.469 E43.13263
G1 X116.611 Y157.35 E44.41734
G1 X115.982 Y157.667 E44.44264
G1 X115.322 Y157.911 E44.46792
G1 X114.638 Y158.078 E44.49321
G1 X113.939 Y158.166 E44.51851
G1 X113.235 Y158.175 E44.5438
G1 X112.535 Y158.104 E44.56908
G1 X111.847 Y157.954 E44.59437
G1 X111.181 Y157.726 E44.61966
G1 X110.414 Y157.352 E44.65031
G1 X78.394 Y138.891 E45.97797
G1 X77.805 Y138.506 E46.00325
G1 X77.264 Y138.056 E46.02853
G1 X76.777 Y137.547 E46.05383
G1 X76.351 Y136.987 E46.0791
G1 X75.991 Y136.382 E46.10439
G1 X75.702 Y135.74 E46.12968
G1 X75.488 Y135.069 E46.15498
G1 X75.351 Y134.379 E46.18025
G1 X75.291 Y133.517 E46.21129
G1 X75.311 Y96.551 E47.53914
G1 X75.351 Y95.848 E47.56444
G1 X75.471 Y95.154 E47.58974
G1 X75.669 Y94.478 E47.61504
G1 X75.942 Y93.829 E47.64033
G1 X76.286 Y93.216 E47.66558
G1 X76.699 Y92.645 E47.69089
G1 X77.173 Y92.125 E47.71617
G1 X77.703 Y91.661 E47.74147
G0 F6000 X78.091 Y91.869
G1 F1200 X78.617 Y91.527 E47.76401
G1 X79.687 Y90.911 E47.80836
G1 X110.654 Y73.033 E49.09279
G1 X111.263 Y72.728 E49.11726
G1 X111.903 Y72.496 E49.14171
G1 X112.566 Y72.341 E49.16617
G1 X113.242 Y72.264 E49.19061
G1 X113.923 Y72.268 E49.21507
G1 X114.599 Y72.351 E49.23954
G1 X115.26 Y72.513 E49.26398
G1 X115.898 Y72.751 E49.28844
G1 X116.445 Y73.028 E49.31047
G1 X117.513 Y73.642 E49.35472
G1 X148.472 Y91.491 E50.63838
G1 X149.041 Y91.865 E50.66284
G1 X149.562 Y92.304 E50.68731
G1 X150.028 Y92.8 E50.71176
G1 X150.433 Y93.347 E50.73621
G1 X150.771 Y93.939 E50.7607
G1 X151.037 Y94.565 E50.78513
G1 X151.228 Y95.219 E50.8096
G1 X151.341 Y95.89 E50.83404
G1 X151.375 Y96.521 E50.85674
G1 X151.374 Y97.754 E50.90103
G1 X151.355 Y133.485 E52.18452
G1 X151.315 Y134.165 E52.20899
G1 X151.195 Y134.835 E52.23344
G1 X150.998 Y135.487 E52.25791
G1 X150.725 Y136.111 E52.28238
G1 X150.381 Y136.698 E52.30682
G1 X149.971 Y137.242 E52.33128
G1 X149.5 Y137.734 E52.35575
G1 X148.975 Y138.167 E52.3802
G1 X148.453 Y138.506 E52.40255
G1 X147.385 Y139.122 E52.44684
G1 X116.411 Y157.004 E53.73156
G1 X115.802 Y157.309 E53.75603
G1 X115.162 Y157.541 E53.78048
G1 X114.499 Y157.696 E53.80494
G1 X113.822 Y157.773 E53.82942
G1 X113.142 Y157.769 E53.85384
G1 X112.466 Y157.686 E53.87831
G1 X111.804 Y157.524 E53.90279
G1 X111.167 Y157.286 E53.92722
G1 X110.614 Y157.006 E53.94948
G1 X78.594 Y138.545 E55.27714
G1 X78.025 Y138.171 E55.3016
G1 X77.504 Y137.732 E55.32607
G1 X77.038 Y137.236 E55.35052
G1 X76.633 Y136.689 E55.37497
G1 X76.295 Y136.097 E55.39946
G1 X76.029 Y135.471 E55.42389
G1 X75.838 Y134.817 E55.44836
G1 X75.725 Y134.146 E55.4728
G1 X75.691 Y133.517 E55.49543
G1 X75.711 Y96.551 E56.82328
G1 X75.751 Y95.871 E56.84775
G1 X75.871 Y95.201 E56.8722
G1 X76.068 Y94.549 E56.89667
G1 X76.341 Y93.925 E56.92114
G1 X76.685 Y93.337 E56.94561
G1 X77.095 Y92.794 E56.97005
G1 X77.566 Y92.302 E56.99451
G1 X78.091 Y91.869 E57.01896
G0 F6000 X77.958 Y92.488
G1 F1200 X78.478 Y92.086 E57.04257
G1 X78.817 Y91.874 E57.05693
G1 X79.881 Y91.261 E57.10104
G1 X110.854 Y73.379 E58.38573
G1 X111.442 Y73.086 E58.40933
G1 X112.061 Y72.866 E58.43293
G1 X112.702 Y72.724 E58.45651
G1 X113.356 Y72.66 E58.48011
G1 X114.013 Y72.676 E58.50372
G1 X114.663 Y72.771 E58.52732
G1 X115.296 Y72.945 E58.5509
G1 X115.904 Y73.194 E58.5745
G1 X116.245 Y73.375 E58.58837
G1 X117.313 Y73.989 E58.63262
G1 X148.272 Y91.838 E59.91628
G1 X148.82 Y92.2 E59.93987
G1 X149.32 Y92.626 E59.96347
G1 X149.765 Y93.11 E59.98709
G1 X150.148 Y93.644 E60.01069
G1 X150.463 Y94.22 E60.03427
G1 X150.705 Y94.831 E60.05788
G1 X150.872 Y95.466 E60.08147
G1 X150.96 Y96.117 E60.10506
G1 X150.975 Y96.52 E60.11955
G1 X150.974 Y97.753 E60.16384
G1 X150.955 Y133.485 E61.44737
G1 X150.915 Y134.141 E61.47098
G1 X150.795 Y134.787 E61.49458
G1 X150.598 Y135.413 E61.51815
G1 X150.326 Y136.011 E61.54175
G1 X149.984 Y136.572 E61.56535
G1 X149.576 Y137.087 E61.58895
G1 X149.108 Y137.548 E61.61255
G1 X148.588 Y137.95 E61.63616
G1 X148.253 Y138.16 E61.65036
G1 X147.185 Y138.776 E61.69465
G1 X116.211 Y156.658 E62.97937
G1 X115.623 Y156.951 E63.00297
G1 X115.004 Y157.171 E63.02657
G1 X114.363 Y157.313 E63.05015
G1 X113.709 Y157.377 E63.07376
G1 X113.052 Y157.361 E63.09736
G1 X112.402 Y157.266 E63.12096
G1 X111.768 Y157.092 E63.14458
G1 X111.161 Y156.843 E63.16814
G1 X110.814 Y156.659 E63.18225
G1 X78.794 Y138.198 E64.50991
G1 X78.246 Y137.836 E64.5335
G1 X77.746 Y137.41 E64.5571
G1 X77.301 Y136.926 E64.58072
G1 X76.918 Y136.392 E64.60432
G1 X76.603 Y135.816 E64.6279
G1 X76.361 Y135.205 E64.65151
G1 X76.194 Y134.57 E64.6751
G1 X76.106 Y133.919 E64.69869
G1 X76.091 Y133.517 E64.71314
G1 X76.111 Y96.551 E66.041
G1 X76.151 Y95.895 E66.06461
G1 X76.271 Y95.249 E66.08821
G1 X76.468 Y94.623 E66.11178
G1 X76.74 Y94.025 E66.13538
G1 X77.082 Y93.464 E66.15898
G1 X77.49 Y92.949 E66.18258
G1 X77.958 Y92.488 E66.20618
G0 F6000 X78.349 Y92.681
G1 F1200 X79.016 Y92.221 E66.23528
G1 X80.086 Y91.605 E66.27963
G1 X111.054 Y73.726 E67.56412
G1 X111.62 Y73.445 E67.58681
G1 X112.218 Y73.238 E67.60955
G1 X112.836 Y73.108 E67.63223
G1 X113.466 Y73.057 E67.65493
G1 X114.098 Y73.086 E67.67766
G1 X114.721 Y73.194 E67.70037
G1 X115.325 Y73.38 E67.72308
G1 X116.046 Y73.721 E67.75172
G1 X117.114 Y74.335 E67.79598
G1 X148.072 Y92.184 E69.07961
G1 X148.599 Y92.534 E69.10233
G1 X149.077 Y92.947 E69.12502
G1 X149.5 Y93.418 E69.14777
G1 X149.859 Y93.938 E69.17046
G1 X150.15 Y94.499 E69.19316
G1 X150.368 Y95.092 E69.21586
G1 X150.509 Y95.708 E69.23856
G1 X150.575 Y96.52 E69.26782
G1 X150.574 Y97.753 E69.31211
G1 X150.555 Y133.485 E70.59564
G1 X150.515 Y134.116 E70.61835
G1 X150.395 Y134.736 E70.64104
G1 X150.198 Y135.337 E70.66376
G1 X149.927 Y135.908 E70.68646
G1 X149.586 Y136.44 E70.70916
G1 X149.181 Y136.925 E70.73185
