;FLAVOR:Marlin
;TIME:13660
;Filament used: 8.80047m
;Layer height: 0.2
;MINX:30.999
;MINY:69
;MINZ:0.2
;MAXX:188.999
;MAXY:151
;MAXZ:5
;Generated with Cura_SteamEngine master
M140 S60
M105
M190 S60
M104 S200
M105
M109 S200
M82 ;absolute extrusion mode
; Ender 3 Custom Start G-code
G92 E0 ; Reset Extruder
G28 ; Home all axes
G1 Z2.0 F3000 ; Move Z Axis up little to prevent scratching of Heat Bed
G1 X0.1 Y20 Z0.3 F5000.0 ; Move to start position
G1 X0.1 Y200.0 Z0.3 F1500.0 E15 ; Draw the first line
G1 X0.4 Y200.0 Z0.3 F5000.0 ; Move to side a little
G1 X0.4 Y20 Z0.3 F1500.0 E30 ; Draw the second line
G92 E0 ; Reset Extruder
G1 Z2.0 F3000 ; Move Z Axis up little to prevent scratching of Heat Bed
G1 X5 Y20 Z0.3 F5000.0 ; Move over to prevent blob squish
G92 E0
G92 E0
G1 F1500 E-6.5
;LAYER_COUNT:25
;LAYER:0
M107
G0 F6000 X38.742 Y70.898 Z0.2
;TYPE:SKIRT
G1 F1500 E0
G1 F1200 X39.087 Y70.714 E0.013
G1 X39.474 Y70.516 E0.02746
G1 X40.326 Y70.125 E0.05864
G1 X41.141 Y69.829 E0.08748
G1 X41.467 Y69.725 E0.09886
G1 X41.768 Y69.634 E0.10932
G1 X42.178 Y69.516 E0.12351
G1 X43.089 Y69.295 E0.15469
G1 X43.93 Y69.163 E0.18301
G1 X44.294 Y69.12 E0.1952
G1 X44.707 Y69.079 E0.209
G1 X44.932 Y69.061 E0.21651
G1 X45.575 Y69.028 E0.23792
G1 X46.797 Y69.002 E0.27857
G1 X47.031 Y69 E0.28636
G1 X100.286 Y69 E2.05763
G1 X102.296 Y69.027 E2.12449
G1 X102.467 Y69.031 E2.13017
G1 X105.012 Y69.037 E2.21482
G1 X106.702 Y69.002 E2.27104
G1 X106.928 Y69 E2.27856
G1 X173.462 Y69.002 E4.49149
G1 X174.164 Y69.012 E4.51484
G1 X174.776 Y69.038 E4.53521
G1 X175.033 Y69.056 E4.54378
G1 X175.525 Y69.102 E4.56022
G1 X176.045 Y69.162 E4.57763
G1 X176.971 Y69.309 E4.60881
G1 X177.758 Y69.499 E4.63574
G1 X178.05 Y69.581 E4.64583
G1 X178.412 Y69.689 E4.65839
G1 X178.855 Y69.83 E4.67386
G1 X179.736 Y70.152 E4.70505
G1 X180.514 Y70.512 E4.73357
G1 X180.824 Y70.67 E4.74514
G1 X181.173 Y70.855 E4.75828
G1 X181.558 Y71.069 E4.77293
G1 X182.358 Y71.56 E4.80415
G1 X183.042 Y72.06 E4.83233
G1 X183.335 Y72.292 E4.84476
G1 X183.61 Y72.517 E4.85658
G1 X183.895 Y72.758 E4.86899
G1 X184.317 Y73.133 E4.88777
G1 X185.215 Y74.075 E4.93105
G1 X185.453 Y74.356 E4.9433
G1 X185.656 Y74.603 E4.95393
G1 X185.909 Y74.92 E4.96742
G1 X186.463 Y75.678 E4.99865
G1 X186.804 Y76.223 E5.02003
G1 X187.001 Y76.569 E5.03328
G1 X187.122 Y76.79 E5.04166
G1 X187.24 Y77.012 E5.05002
G1 X187.453 Y77.423 E5.06541
G1 X187.849 Y78.273 E5.0966
G1 X188.169 Y79.147 E5.12756
G1 X188.268 Y79.458 E5.13842
G1 X188.36 Y79.763 E5.14901
G1 X188.485 Y80.199 E5.1641
G1 X188.705 Y81.111 E5.1953
G1 X188.803 Y81.693 E5.21493
G1 X188.828 Y81.87 E5.22088
G1 X188.892 Y82.429 E5.23959
G1 X188.934 Y82.899 E5.25528
G1 X188.972 Y83.523 E5.27608
G1 X188.982 Y83.918 E5.28922
G1 X188.986 Y84.318 E5.30252
G1 X188.999 Y135.475 E7.00401
G1 X188.992 Y136.008 E7.02174
G1 X188.961 Y136.704 E7.04491
G1 X188.904 Y137.448 E7.06973
G1 X188.865 Y137.859 E7.08346
G1 X188.846 Y138.025 E7.08902
G1 X188.699 Y138.951 E7.1202
G1 X188.495 Y139.792 E7.14899
G1 X188.38 Y140.195 E7.16293
G1 X188.27 Y140.557 E7.17551
G1 X188.156 Y140.91 E7.18785
G1 X187.83 Y141.79 E7.21906
G1 X187.464 Y142.572 E7.24778
G1 X187.3 Y142.89 E7.25968
G1 X187.152 Y143.168 E7.27015
G1 X186.947 Y143.539 E7.28425
G1 X186.459 Y144.34 E7.31545
G1 X185.933 Y145.06 E7.3451
G1 X185.717 Y145.332 E7.35666
G1 X185.504 Y145.592 E7.36784
G1 X185.22 Y145.928 E7.38247
G1 X184.585 Y146.618 E7.41366
G1 X183.923 Y147.226 E7.44355
G1 X183.67 Y147.44 E7.45457
G1 X183.438 Y147.631 E7.46457
G1 X183.093 Y147.907 E7.47926
G1 X182.336 Y148.461 E7.51046
G1 X181.563 Y148.933 E7.54059
G1 X181.248 Y149.108 E7.55257
G1 X180.948 Y149.268 E7.56388
G1 X180.568 Y149.464 E7.5781
G1 X179.717 Y149.858 E7.60929
G1 X178.882 Y150.164 E7.63887
G1 X178.548 Y150.271 E7.65054
G1 X178.234 Y150.366 E7.66145
G1 X177.824 Y150.484 E7.67564
G1 X176.913 Y150.705 E7.70682
G1 X176.072 Y150.837 E7.73513
G1 X175.708 Y150.88 E7.74732
G1 X175.295 Y150.921 E7.76113
G1 X175.07 Y150.939 E7.76863
G1 X174.427 Y150.972 E7.79005
G1 X173.205 Y150.998 E7.8307
G1 X172.971 Y151 E7.83848
G1 X107.083 Y150.999 E10.02993
G1 X105.015 Y150.968 E10.09872
G1 X102.476 Y150.964 E10.18317
G1 X100.863 Y150.998 E10.23683
G1 X100.633 Y151 E10.24448
G1 X46.538 Y150.998 E12.04368
G1 X46.03 Y150.991 E12.06058
G1 X45.322 Y150.958 E12.08415
G1 X44.468 Y150.891 E12.11265
G1 X43.374 Y150.75 E12.14933
G1 X43.169 Y150.713 E12.15626
G1 X42.081 Y150.459 E12.19342
G1 X41.869 Y150.398 E12.20076
G1 X41.57 Y150.307 E12.21115
G1 X41.134 Y150.168 E12.22638
G1 X40.253 Y149.846 E12.25757
G1 X39.48 Y149.488 E12.28591
G1 X39.17 Y149.33 E12.29748
G1 X38.821 Y149.145 E12.31062
G1 X38.436 Y148.931 E12.32527
G1 X37.636 Y148.44 E12.35649
G1 X36.915 Y147.911 E12.38623
G1 X36.587 Y147.649 E12.40019
G1 X36.358 Y147.461 E12.41005
G1 X36.089 Y147.234 E12.42175
G1 X35.399 Y146.599 E12.45294
G1 X34.98 Y146.156 E12.47322
G1 X34.724 Y145.862 E12.48619
G1 X34.54 Y145.643 E12.4957
G1 X34.365 Y145.43 E12.50487
G1 X34.084 Y145.078 E12.51985
G1 X33.531 Y144.32 E12.55106
G1 X33.216 Y143.819 E12.57074
G1 X32.992 Y143.431 E12.58564
G1 X32.77 Y143.019 E12.60121
G1 X32.549 Y142.594 E12.61714
G1 X32.152 Y141.744 E12.64835
G1 X31.815 Y140.82 E12.68106
G1 X31.703 Y140.464 E12.69347
G1 X31.616 Y140.174 E12.70354
G1 X31.505 Y139.784 E12.71703
G1 X31.287 Y138.872 E12.74822
G1 X31.191 Y138.296 E12.76764
G1 X31.137 Y137.873 E12.78182
G1 X31.113 Y137.653 E12.78918
G1 X31.089 Y137.404 E12.7975
G1 X31.05 Y136.951 E12.81262
G1 X31.013 Y136.312 E12.83391
G1 X31.003 Y135.952 E12.84589
G1 X30.999 Y135.647 E12.85604
G1 X31 Y84.549 E14.55556
G1 X31.01 Y83.852 E14.57875
G1 X31.035 Y83.249 E14.59882
G1 X31.054 Y82.975 E14.60796
G1 X31.098 Y82.494 E14.62402
G1 X31.157 Y81.975 E14.64139
G1 X31.303 Y81.048 E14.67261
G1 X31.463 Y80.364 E14.69597
G1 X31.55 Y80.05 E14.70681
G1 X31.616 Y79.822 E14.7147
G1 X31.699 Y79.547 E14.72426
G1 X31.824 Y79.154 E14.73797
G1 X32.045 Y78.526 E14.76012
G1 X32.542 Y77.42 E14.80044
G1 X32.72 Y77.076 E14.81333
G1 X32.857 Y76.819 E14.82301
G1 X33.05 Y76.469 E14.83631
G1 X33.538 Y75.668 E14.8675
G1 X34.049 Y74.965 E14.89641
G1 X34.274 Y74.68 E14.90849
G1 X34.523 Y74.376 E14.92156
G1 X34.799 Y74.051 E14.93574
G1 X35.436 Y73.362 E14.96695
G1 X36.114 Y72.744 E14.99746
G1 X36.381 Y72.52 E15.00905
G1 X36.589 Y72.35 E15.01799
G1 X36.921 Y72.085 E15.03212
G1 X37.678 Y71.532 E15.0633
G1 X38.428 Y71.073 E15.09254
G1 X38.742 Y70.898 E15.1045
G0 F6000 X38.937 Y71.248
G1 F1200 X39.269 Y71.07 E15.11703
G1 X39.656 Y70.872 E15.13149
G1 X40.493 Y70.489 E15.1621
G1 X41.262 Y70.21 E15.18931
G1 X41.588 Y70.106 E15.20069
G1 X41.878 Y70.018 E15.21077
G1 X42.288 Y69.9 E15.22496
G1 X43.183 Y69.685 E15.25557
G1 X43.976 Y69.56 E15.28228
G1 X44.34 Y69.517 E15.29447
G1 X44.739 Y69.478 E15.3078
G1 X44.964 Y69.46 E15.31531
G1 X45.584 Y69.428 E15.33596
G1 X46.806 Y69.402 E15.37661
G1 X47.031 Y69.4 E15.38409
G1 X100.286 Y69.4 E17.15536
G1 X102.29 Y69.427 E17.22202
G1 X102.493 Y69.431 E17.22877
G1 X105.019 Y69.437 E17.31279
G1 X106.71 Y69.402 E17.36905
G1 X106.928 Y69.4 E17.3763
G1 X173.456 Y69.402 E19.58903
G1 X174.158 Y69.412 E19.61238
G1 X174.748 Y69.437 E19.63202
G1 X175.005 Y69.455 E19.64059
G1 X175.479 Y69.499 E19.65642
G1 X175.999 Y69.559 E19.67383
G1 X176.908 Y69.704 E19.70445
G1 X177.65 Y69.884 E19.72984
G1 X177.942 Y69.966 E19.73993
G1 X178.291 Y70.07 E19.75204
G1 X178.734 Y70.211 E19.7675
G1 X179.598 Y70.528 E19.79811
G1 X180.332 Y70.868 E19.82502
G1 X180.642 Y71.026 E19.83659
G1 X180.979 Y71.205 E19.84928
G1 X181.364 Y71.419 E19.86393
G1 X182.148 Y71.901 E19.89454
G1 X182.794 Y72.374 E19.92117
G1 X183.087 Y72.606 E19.9336
G1 X183.351 Y72.822 E19.94495
G1 X183.636 Y73.063 E19.95736
G1 X184.044 Y73.426 E19.97553
G1 X184.91 Y74.333 E20.01723
G1 X185.148 Y74.614 E20.02948
G1 X185.344 Y74.853 E20.03976
G1 X185.597 Y75.17 E20.05325
G1 X186.139 Y75.914 E20.08387
G1 X186.459 Y76.425 E20.10392
G1 X186.651 Y76.761 E20.11679
G1 X186.772 Y76.982 E20.12517
G1 X187.098 Y77.607 E20.14862
G1 X187.486 Y78.442 E20.17924
G1 X187.788 Y79.269 E20.20853
G1 X187.887 Y79.58 E20.21938
G1 X187.976 Y79.874 E20.2296
G1 X188.101 Y80.31 E20.24468
G1 X188.316 Y81.205 E20.2753
G1 X188.407 Y81.749 E20.29364
G1 X188.432 Y81.926 E20.29959
G1 X188.494 Y82.465 E20.31763
G1 X188.536 Y82.935 E20.33333
G1 X188.572 Y83.536 E20.35335
G1 X188.582 Y83.923 E20.36623
G1 X188.586 Y84.318 E20.37937
G1 X188.599 Y135.47 E22.08069
G1 X188.592 Y136.003 E22.09842
G1 X188.562 Y136.674 E22.12076
G1 X188.505 Y137.418 E22.14558
G1 X188.467 Y137.813 E22.15878
G1 X188.448 Y137.979 E22.16433
G1 X188.304 Y138.889 E22.19498
G1 X188.11 Y139.683 E22.22216
G1 X187.995 Y140.086 E22.2361
G1 X187.889 Y140.435 E22.24823
G1 X187.775 Y140.788 E22.26057
G1 X187.454 Y141.651 E22.29119
G1 X187.109 Y142.389 E22.31829
G1 X186.945 Y142.707 E22.33019
G1 X186.802 Y142.975 E22.34029
G1 X186.597 Y143.346 E22.35439
G1 X186.117 Y144.131 E22.385
G1 X185.62 Y144.811 E22.41301
G1 X185.404 Y145.083 E22.42456
G1 X185.199 Y145.334 E22.43534
G1 X184.915 Y145.67 E22.44997
G1 X184.29 Y146.346 E22.48059
G1 X183.665 Y146.92 E22.50882
G1 X183.412 Y147.134 E22.51984
G1 X183.188 Y147.318 E22.52948
G1 X182.843 Y147.594 E22.54418
G1 X182.1 Y148.138 E22.5748
G1 X181.369 Y148.583 E22.60327
G1 X181.054 Y148.758 E22.61525
G1 X180.765 Y148.913 E22.62616
G1 X180.385 Y149.109 E22.64038
G1 X179.549 Y149.495 E22.67101
G1 X178.76 Y149.783 E22.69894
G1 X178.426 Y149.89 E22.71061
G1 X178.124 Y149.982 E22.72111
G1 X177.714 Y150.1 E22.7353
G1 X176.819 Y150.315 E22.76591
G1 X176.026 Y150.44 E22.79261
G1 X175.662 Y150.483 E22.80481
G1 X175.263 Y150.522 E22.81814
G1 X175.038 Y150.54 E22.82565
G1 X174.418 Y150.572 E22.8463
G1 X173.196 Y150.598 E22.88695
G1 X172.971 Y150.6 E22.89443
G1 X107.089 Y150.599 E25.08568
G1 X105.027 Y150.568 E25.15427
G1 X102.469 Y150.564 E25.23935
G1 X100.855 Y150.598 E25.29304
G1 X100.633 Y150.6 E25.30042
G1 X46.544 Y150.598 E27.09943
G1 X46.036 Y150.591 E27.11633
G1 X45.353 Y150.56 E27.13907
G1 X44.499 Y150.493 E27.16756
G1 X43.445 Y150.356 E27.20291
G1 X43.24 Y150.319 E27.20984
G1 X42.192 Y150.075 E27.24563
G1 X41.98 Y150.014 E27.25297
G1 X41.691 Y149.926 E27.26301
G1 X41.255 Y149.787 E27.27824
G1 X40.391 Y149.47 E27.30885
G1 X39.662 Y149.132 E27.33557
G1 X39.352 Y148.974 E27.34714
G1 X39.015 Y148.795 E27.35984
G1 X38.63 Y148.581 E27.37449
G1 X37.846 Y148.099 E27.4051
G1 X37.164 Y147.598 E27.43324
G1 X36.836 Y147.336 E27.4472
G1 X36.616 Y147.155 E27.45668
G1 X36.347 Y146.928 E27.46839
G1 X35.67 Y146.304 E27.49901
G1 X35.277 Y145.888 E27.51804
G1 X35.03 Y145.605 E27.53054
G1 X34.846 Y145.386 E27.54005
G1 X34.678 Y145.18 E27.54889
G1 X34.397 Y144.828 E27.56387
G1 X33.854 Y144.084 E27.59451
G1 X33.56 Y143.616 E27.61289
G1 X33.343 Y143.238 E27.62739
G1 X33.125 Y142.834 E27.64266
G1 X32.904 Y142.409 E27.65859
G1 X32.515 Y141.575 E27.6892
G1 X32.197 Y140.7 E27.72016
G1 X32.085 Y140.344 E27.73257
G1 X32.001 Y140.065 E27.74226
G1 X31.89 Y139.675 E27.75575
G1 X31.677 Y138.779 E27.78638
G1 X31.587 Y138.24 E27.80456
G1 X31.535 Y137.83 E27.8183
G1 X31.487 Y137.369 E27.83372
G1 X31.448 Y136.916 E27.84884
G1 X31.413 Y136.301 E27.86933
G1 X31.403 Y135.941 E27.88131
G1 X31.399 Y135.647 E27.89109
G1 X31.4 Y84.555 E29.59041
G1 X31.41 Y83.858 E29.6136
G1 X31.434 Y83.277 E29.63294
G1 X31.453 Y83.003 E29.64208
G1 X31.496 Y82.539 E29.65757
G1 X31.555 Y82.02 E29.67495
G1 X31.698 Y81.11 E29.70559
G1 X31.85 Y80.468 E29.72753
G1 X31.934 Y80.162 E29.73808
G1 X32 Y79.934 E29.74598
G1 X32.081 Y79.668 E29.75523
G1 X32.206 Y79.275 E29.76894
G1 X32.419 Y78.67 E29.79028
G1 X32.898 Y77.604 E29.82915
G1 X33.076 Y77.26 E29.84203
G1 X33.208 Y77.012 E29.85137
G1 X33.401 Y76.662 E29.86467
G1 X33.88 Y75.876 E29.89528
G1 X34.363 Y75.213 E29.92256
G1 X34.588 Y74.928 E29.93464
G1 X34.828 Y74.635 E29.94724
G1 X35.104 Y74.31 E29.96142
G1 X35.73 Y73.634 E29.99206
G1 X36.371 Y73.05 E30.0209
G1 X36.638 Y72.826 E30.0325
G1 X36.838 Y72.662 E30.0411
G1 X37.17 Y72.397 E30.05523
G1 X37.914 Y71.855 E30.08584
G1 X38.623 Y71.423 E30.11346
G1 X38.937 Y71.248 E30.12541
G0 F6000 X39.131 Y71.597
G1 F1200 X39.451 Y71.426 E30.13748
G1 X39.838 Y71.228 E30.15194
G1 X40.66 Y70.853 E30.18199
G1 X41.384 Y70.592 E30.20759
G1 X41.71 Y70.488 E30.21897
G1 X41.989 Y70.403 E30.22867
G1 X42.399 Y70.285 E30.24286
G1 X43.277 Y70.074 E30.27289
G1 X44.023 Y69.957 E30.29801
G1 X44.387 Y69.914 E30.3102
G1 X44.771 Y69.876 E30.32303
G1 X44.996 Y69.858 E30.33054
G1 X45.592 Y69.828 E30.35039
G1 X46.814 Y69.802 E30.39104
G1 X47.031 Y69.8 E30.39826
G1 X100.286 Y69.8 E32.16953
G1 X102.285 Y69.827 E32.23602
G1 X102.48 Y69.831 E32.24251
G1 X105.027 Y69.837 E32.32722
G1 X106.719 Y69.802 E32.38351
G1 X106.928 Y69.8 E32.39046
G1 X173.45 Y69.802 E34.60299
G1 X174.152 Y69.812 E34.62634
G1 X174.72 Y69.836 E34.64525
G1 X174.977 Y69.854 E34.65382
G1 X175.433 Y69.896 E34.66905
G1 X175.953 Y69.956 E34.68646
G1 X176.845 Y70.099 E34.71651
G1 X177.542 Y70.269 E34.74037
G1 X177.834 Y70.351 E34.75046
G1 X178.17 Y70.451 E34.76212
G1 X178.613 Y70.592 E34.77758
G1 X179.46 Y70.904 E34.8076
G1 X180.151 Y71.224 E34.83293
G1 X180.461 Y71.382 E34.8445
G1 X180.785 Y71.555 E34.85672
G1 X181.17 Y71.769 E34.87137
G1 X181.939 Y72.242 E34.9014
G1 X182.546 Y72.687 E34.92643
G1 X182.839 Y72.919 E34.93886
G1 X183.093 Y73.127 E34.94978
G1 X183.378 Y73.368 E34.96219
G1 X183.771 Y73.719 E34.97972
G1 X184.604 Y74.592 E35.01985
G1 X184.842 Y74.873 E35.0321
G1 X185.031 Y75.102 E35.04198
G1 X185.284 Y75.419 E35.05547
G1 X185.816 Y76.149 E35.08551
G1 X186.113 Y76.627 E35.10423
G1 X186.3 Y76.954 E35.11676
G1 X186.421 Y77.175 E35.12514
G1 X186.53 Y77.38 E35.13286
G1 X186.743 Y77.791 E35.14825
G1 X187.123 Y78.61 E35.17828
G1 X187.406 Y79.39 E35.20588
G1 X187.505 Y79.701 E35.21674
G1 X187.591 Y79.984 E35.22657
G1 X187.716 Y80.42 E35.24166
G1 X187.926 Y81.298 E35.27169
G1 X188.011 Y81.804 E35.28875
G1 X188.036 Y81.981 E35.2947
G1 X188.096 Y82.5 E35.31207
G1 X188.138 Y82.97 E35.32777
G1 X188.173 Y83.549 E35.34706
G1 X188.182 Y83.927 E35.35964
G1 X188.186 Y84.318 E35.37264
G1 X188.199 Y135.465 E37.0738
G1 X188.192 Y135.998 E37.09153
G1 X188.163 Y136.643 E37.113
G1 X188.106 Y137.387 E37.13782
G1 X188.07 Y137.768 E37.15055
G1 X188.051 Y137.934 E37.15611
G1 X187.909 Y138.826 E37.18615
G1 X187.725 Y139.573 E37.21174
G1 X187.61 Y139.976 E37.22567
G1 X187.508 Y140.312 E37.23735
G1 X187.394 Y140.665 E37.24969
G1 X187.079 Y141.511 E37.27972
G1 X186.753 Y142.205 E37.30522
G1 X186.589 Y142.523 E37.31712
G1 X186.452 Y142.781 E37.32684
G1 X186.247 Y143.152 E37.34093
G1 X185.775 Y143.922 E37.37097
G1 X185.307 Y144.562 E37.39734
G1 X185.091 Y144.834 E37.40889
G1 X184.893 Y145.075 E37.41927
G1 X184.609 Y145.411 E37.4339
G1 X183.996 Y146.075 E37.46396
G1 X183.406 Y146.615 E37.49056
G1 X183.153 Y146.829 E37.50158
G1 X182.938 Y147.006 E37.51084
G1 X182.593 Y147.282 E37.52554
G1 X181.863 Y147.814 E37.55558
G1 X181.175 Y148.233 E37.58238
G1 X180.86 Y148.408 E37.59436
G1 X180.582 Y148.557 E37.60485
G1 X180.202 Y148.753 E37.61907
G1 X179.382 Y149.131 E37.6491
G1 X178.638 Y149.402 E37.67544
G1 X178.304 Y149.509 E37.6871
G1 X178.013 Y149.597 E37.69722
G1 X177.603 Y149.715 E37.71141
G1 X176.725 Y149.926 E37.74144
G1 X175.979 Y150.043 E37.76656
G1 X175.615 Y150.086 E37.77875
G1 X175.231 Y150.124 E37.79158
G1 X175.006 Y150.142 E37.79909
G1 X174.41 Y150.172 E37.81894
G1 X173.188 Y150.198 E37.85959
G1 X172.971 Y150.2 E37.86681
G1 X107.095 Y150.199 E40.05785
G1 X105.038 Y150.168 E40.12628
G1 X102.461 Y150.164 E40.21199
G1 X100.847 Y150.198 E40.26568
G1 X100.633 Y150.2 E40.2728
G1 X46.549 Y150.198 E42.07164
G1 X46.041 Y150.191 E42.08854
G1 X45.384 Y150.161 E42.11041
G1 X44.53 Y150.094 E42.1389
G1 X43.516 Y149.963 E42.17291
G1 X43.311 Y149.926 E42.17984
G1 X42.303 Y149.69 E42.21427
G1 X42.091 Y149.629 E42.22161
G1 X41.813 Y149.545 E42.23127
G1 X41.377 Y149.406 E42.24649
G1 X40.529 Y149.094 E42.27654
G1 X39.843 Y148.776 E42.30169
G1 X39.533 Y148.618 E42.31326
G1 X39.209 Y148.445 E42.32548
G1 X38.824 Y148.231 E42.34013
G1 X38.055 Y147.758 E42.37016
G1 X37.414 Y147.286 E42.39663
G1 X37.086 Y147.024 E42.4106
G1 X36.874 Y146.849 E42.41974
