;FLAVOR:Marlin
;TIME:9287
;Filament used: 2.43972m
;Layer height: 0.12
;MINX:43.519
;MINY:39.517
;MINZ:0.12
;MAXX:176.491
;MAXY:176.491
;MAXZ:2.88
;Generated with Cura_SteamEngine master
M140 S60
M105
M190 S60
M104 S200
M105
M109 S200
M82 ;absolute extrusion mode
; Ender 3 Custom Start G-code
G92 E0 ; Reset Extruder
G28 ; Home all axes
G1 Z2.0 F3000 ; Move Z Axis up little to prevent scratching of Heat Bed
G1 X0.1 Y20 Z0.3 F5000.0 ; Move to start position
G1 X0.1 Y200.0 Z0.3 F1500.0 E15 ; Draw the first line
G1 X0.4 Y200.0 Z0.3 F5000.0 ; Move to side a little
G1 X0.4 Y20 Z0.3 F1500.0 E30 ; Draw the second line
G92 E0 ; Reset Extruder
G1 Z2.0 F3000 ; Move Z Axis up little to prevent scratching of Heat Bed
G1 X5 Y20 Z0.3 F5000.0 ; Move over to prevent blob squish
G92 E0
G92 E0
G1 F1500 E-6.5
;LAYER_COUNT:24
;LAYER:0
M107
G0 F6000 X70.644 Y47.702 Z0.12
;TYPE:SKIRT
G1 F1500 E0
G1 F1200 X70.958 Y47.259 E0.01084
G1 X71.223 Y46.913 E0.01953
G1 X71.58 Y46.466 E0.03095
G1 X71.856 Y46.13 E0.03963
G1 X72.28 Y45.628 E0.05274
G1 X72.67 Y45.19 E0.06444
G1 X73.62 Y44.287 E0.0906
G1 X74.169 Y43.824 E0.10493
G1 X74.397 Y43.638 E0.1108
G1 X74.978 Y43.174 E0.12564
G1 X75.735 Y42.62 E0.14436
G1 X76.495 Y42.156 E0.16213
G1 X77.002 Y41.874 E0.17371
G1 X77.444 Y41.637 E0.18372
G1 X78.076 Y41.31 E0.19792
G1 X78.927 Y40.915 E0.21664
G1 X79.809 Y40.593 E0.23538
G1 X80.573 Y40.351 E0.25137
G1 X80.891 Y40.256 E0.258
G1 X81.532 Y40.074 E0.27129
G1 X82.568 Y39.833 E0.29252
G1 X82.601 Y39.827 E0.29319
G1 X83.365 Y39.716 E0.30859
G1 X84.055 Y39.64 E0.32245
G1 X84.336 Y39.613 E0.32808
G1 X85.025 Y39.555 E0.34188
G1 X86.088 Y39.517 E0.36311
G1 X86.245 Y39.519 E0.36624
G1 X87.025 Y39.557 E0.38182
G1 X87.609 Y39.606 E0.39352
G1 X87.848 Y39.628 E0.39831
G1 X88.028 Y39.647 E0.40192
G1 X90.643 Y39.903 E0.45436
G1 X93.14 Y40.074 E0.5043
G1 X95.662 Y40.176 E0.55467
G1 X98.154 Y40.207 E0.60441
G1 X100.718 Y40.165 E0.65558
G1 X103.202 Y40.055 E0.7052
G1 X105.71 Y39.873 E0.75538
G1 X108.336 Y39.613 E0.80804
G1 X109.025 Y39.555 E0.82184
G1 X110.088 Y39.517 E0.84307
G1 X110.245 Y39.519 E0.8462
G1 X111.025 Y39.557 E0.86179
G1 X111.609 Y39.606 E0.87348
G1 X111.848 Y39.628 E0.87827
G1 X112.028 Y39.647 E0.88188
G1 X114.643 Y39.903 E0.93432
G1 X117.14 Y40.074 E0.98427
G1 X119.662 Y40.176 E1.03464
G1 X122.154 Y40.207 E1.08437
G1 X124.718 Y40.165 E1.13554
G1 X127.202 Y40.055 E1.18516
G1 X129.71 Y39.873 E1.23535
G1 X132.336 Y39.613 E1.28801
G1 X133.025 Y39.555 E1.3018
G1 X134.088 Y39.517 E1.32303
G1 X134.245 Y39.519 E1.32616
G1 X135.025 Y39.557 E1.34175
G1 X135.609 Y39.606 E1.35344
G1 X135.908 Y39.635 E1.35944
G1 X136.679 Y39.721 E1.37492
G1 X137.606 Y39.864 E1.39364
G1 X138.496 Y40.08 E1.41192
G1 X139.168 Y40.273 E1.42587
G1 X139.455 Y40.36 E1.43185
G1 X140.184 Y40.591 E1.44711
G1 X141.388 Y41.052 E1.47284
G1 X141.957 Y41.326 E1.48544
G1 X142.572 Y41.645 E1.49927
G1 X142.833 Y41.785 E1.50518
G1 X143.498 Y42.153 E1.52035
G1 X144.299 Y42.642 E1.53908
G1 X145.044 Y43.188 E1.55751
G1 X145.564 Y43.604 E1.5708
G1 X145.877 Y43.862 E1.57889
G1 X146.394 Y44.299 E1.5924
G1 X147.084 Y44.934 E1.61112
G1 X147.696 Y45.601 E1.62918
G1 X148.148 Y46.136 E1.64316
G1 X148.644 Y46.74 E1.65875
G1 X148.741 Y46.849 E1.66167
G1 X149.746 Y48.073 E1.69327
G1 X151.394 Y49.967 E1.74337
G1 X153.107 Y51.829 E1.79386
G1 X154.858 Y53.627 E1.84395
G1 X156.675 Y55.389 E1.89446
G1 X158.503 Y57.066 E1.94396
G1 X160.429 Y58.732 E1.99478
G1 X162.364 Y60.314 E2.04466
G1 X164.356 Y61.85 E2.09486
G1 X166.414 Y63.347 E2.14564
G1 X168.395 Y64.708 E2.19361
G1 X169.034 Y65.182 E2.20949
G1 X169.581 Y65.619 E2.22346
G1 X169.807 Y65.804 E2.22929
G1 X170.388 Y66.294 E2.24445
G1 X171.078 Y66.929 E2.26317
G1 X171.706 Y67.612 E2.28168
G1 X172.163 Y68.154 E2.29583
G1 X172.348 Y68.38 E2.30166
G1 X172.824 Y68.976 E2.31688
G1 X173.378 Y69.734 E2.33562
G1 X173.684 Y70.219 E2.34706
G1 X173.882 Y70.564 E2.355
G1 X174.224 Y71.185 E2.36915
G1 X174.383 Y71.484 E2.3759
G1 X174.701 Y72.102 E2.38977
G1 X175.094 Y72.954 E2.4085
G1 X175.305 Y73.508 E2.42033
G1 X175.413 Y73.829 E2.42709
G1 X175.627 Y74.502 E2.44118
G1 X175.728 Y74.837 E2.44816
G1 X175.916 Y75.49 E2.46172
G1 X176.136 Y76.401 E2.48043
G1 X176.231 Y76.953 E2.4916
G1 X176.284 Y77.355 E2.4997
G1 X176.349 Y77.928 E2.5112
G1 X176.379 Y78.222 E2.5171
G1 X176.452 Y79.08 E2.53429
G1 X176.491 Y80.017 E2.553
G1 X176.452 Y80.92 E2.57104
G1 X176.385 Y81.711 E2.58688
G1 X176.356 Y81.998 E2.59264
G1 X176.246 Y82.975 E2.61226
G1 X175.993 Y85.567 E2.66423
G1 X175.818 Y88.09 E2.7147
G1 X175.713 Y90.623 E2.76529
G1 X175.681 Y93.104 E2.81481
G1 X175.721 Y95.663 E2.86588
G1 X175.829 Y98.123 E2.91502
G1 X176.013 Y100.687 E2.96632
G1 X176.249 Y103.06 E3.01391
G1 X176.364 Y104.082 E3.03443
G1 X176.394 Y104.389 E3.04059
G1 X176.452 Y105.08 E3.05443
G1 X176.491 Y106.017 E3.07314
G1 X176.452 Y106.92 E3.09118
G1 X176.385 Y107.717 E3.10714
G1 X176.355 Y108.012 E3.11306
G1 X176.288 Y108.611 E3.12508
G1 X176.252 Y108.899 E3.13088
G1 X176.089 Y109.823 E3.1496
G1 X175.915 Y110.51 E3.16374
G1 X175.698 Y111.261 E3.17934
G1 X175.614 Y111.536 E3.18508
G1 X175.406 Y112.191 E3.1988
G1 X174.959 Y113.362 E3.22381
G1 X174.74 Y113.851 E3.2345
G1 X173.7 Y116.263 E3.28692
G1 X172.76 Y118.62 E3.33756
G1 X171.891 Y120.997 E3.38806
G1 X171.11 Y123.338 E3.43731
G1 X170.372 Y125.773 E3.48809
G1 X169.705 Y128.226 E3.53882
G1 X169.114 Y130.671 E3.58902
G1 X168.598 Y133.099 E3.63855
G1 X168.184 Y135.357 E3.68436
G1 X168.136 Y135.599 E3.68929
G1 X167.915 Y136.507 E3.70794
G1 X167.699 Y137.256 E3.72349
G1 X167.606 Y137.561 E3.72986
G1 X167.397 Y138.214 E3.74354
G1 X167.009 Y139.247 E3.76556
G1 X166.989 Y139.293 E3.76656
G1 X166.661 Y139.98 E3.78175
G1 X166.333 Y140.611 E3.79594
G1 X166.206 Y140.849 E3.80133
G1 X165.862 Y141.473 E3.81555
G1 X165.375 Y142.274 E3.83425
G1 X164.82 Y143.032 E3.853
G1 X164.361 Y143.606 E3.86767
G1 X164.034 Y144.004 E3.87795
G1 X162.37 Y146.086 E3.93114
G1 X160.85 Y148.101 E3.98151
G1 X159.389 Y150.158 E4.03186
G1 X157.985 Y152.257 E4.08225
G1 X156.649 Y154.383 E4.13236
G1 X155.375 Y156.543 E4.1824
G1 X154.171 Y158.722 E4.23208
G1 X153.013 Y160.967 E4.2825
G1 X151.407 Y164.364 E4.35748
G1 X150.962 Y165.356 E4.37918
G1 X150.831 Y165.637 E4.38536
G1 X150.679 Y165.944 E4.3922
G1 X150.391 Y166.502 E4.40473
G1 X150.254 Y166.76 E4.41056
G1 X149.865 Y167.467 E4.42666
G1 X149.378 Y168.268 E4.44537
G1 X148.826 Y169.024 E4.46405
G1 X148.392 Y169.568 E4.47794
G1 X148.203 Y169.798 E4.48388
G1 X147.709 Y170.384 E4.49918
G1 X147.075 Y171.075 E4.51789
G1 X146.543 Y171.572 E4.53242
G1 X146.317 Y171.766 E4.53836
G1 X145.83 Y172.175 E4.55105
G1 X145.617 Y172.35 E4.55656
G1 X145.018 Y172.828 E4.57185
G1 X144.261 Y173.381 E4.59056
G1 X143.748 Y173.703 E4.60264
G1 X143.401 Y173.902 E4.61063
G1 X142.827 Y174.218 E4.6237
G1 X142.578 Y174.351 E4.62934
G1 X141.921 Y174.691 E4.6441
G1 X141.07 Y175.086 E4.66282
G1 X140.191 Y175.407 E4.6815
G1 X139.393 Y175.659 E4.6982
G1 X139.126 Y175.739 E4.70376
G1 X138.482 Y175.923 E4.71713
G1 X137.57 Y176.142 E4.73584
G1 X137.066 Y176.228 E4.74605
G1 X136.616 Y176.287 E4.7551
G1 X135.909 Y176.366 E4.7693
G1 X135.605 Y176.395 E4.77539
G1 X134.932 Y176.452 E4.78887
G1 X133.995 Y176.491 E4.80759
G1 X133.074 Y176.452 E4.82598
G1 X132.296 Y176.386 E4.84156
G1 X129.363 Y176.098 E4.90038
G1 X126.866 Y175.927 E4.95032
G1 X124.344 Y175.825 E5.0007
G1 X121.852 Y175.794 E5.05043
G1 X119.288 Y175.836 E5.1016
G1 X116.804 Y175.946 E5.15122
G1 X114.275 Y176.13 E5.20183
G1 X112.066 Y176.349 E5.24612
G1 X111.816 Y176.375 E5.25114
G1 X111.605 Y176.395 E5.25537
G1 X110.931 Y176.452 E5.26887
G1 X109.994 Y176.491 E5.28758
G1 X109.074 Y176.452 E5.30596
G1 X108.296 Y176.386 E5.32154
G1 X105.363 Y176.098 E5.38035
G1 X102.866 Y175.927 E5.4303
G1 X100.344 Y175.825 E5.48067
G1 X97.852 Y175.794 E5.53041
G1 X95.288 Y175.836 E5.58158
G1 X92.804 Y175.946 E5.6312
G1 X90.275 Y176.13 E5.6818
G1 X88.066 Y176.349 E5.7261
G1 X87.816 Y176.375 E5.73112
G1 X87.605 Y176.395 E5.73535
G1 X86.931 Y176.452 E5.74884
G1 X85.994 Y176.491 E5.76756
G1 X85.081 Y176.452 E5.7858
G1 X84.333 Y176.389 E5.80078
G1 X84.035 Y176.36 E5.80675
G1 X83.319 Y176.28 E5.82113
G1 X82.392 Y176.136 E5.83985
G1 X81.481 Y175.914 E5.85856
G1 X80.759 Y175.705 E5.87356
G1 X80.488 Y175.623 E5.87921
G1 X79.808 Y175.407 E5.89345
G1 X78.586 Y174.937 E5.91958
G1 X78.04 Y174.672 E5.93169
G1 X77.427 Y174.354 E5.94547
G1 X77.159 Y174.211 E5.95153
G1 X76.497 Y173.844 E5.96664
G1 X75.696 Y173.354 E5.98538
G1 X74.96 Y172.814 E6.00359
G1 X74.446 Y172.403 E6.01673
G1 X74.231 Y172.226 E6.02228
G1 X73.617 Y171.709 E6.0383
G1 X72.926 Y171.075 E6.05702
G1 X72.439 Y170.556 E6.07122
G1 X72.239 Y170.325 E6.07732
G1 X71.833 Y169.843 E6.08989
G1 X71.628 Y169.592 E6.09636
G1 X71.174 Y169.023 E6.11089
G1 X70.62 Y168.265 E6.12962
G1 X70.322 Y167.791 E6.1408
G1 X70.121 Y167.442 E6.14883
G1 X69.743 Y166.756 E6.16447
G1 X69.61 Y166.505 E6.17013
G1 X69.323 Y165.95 E6.1826
G1 X68.9 Y165.03 E6.20281
G1 X68.87 Y164.956 E6.2044
G1 X68.574 Y164.132 E6.22188
G1 X68.362 Y163.46 E6.23594
G1 X68.282 Y163.195 E6.24146
G1 X68.083 Y162.504 E6.25581
G1 X67.928 Y161.903 E6.2682
G1 X67.686 Y160.841 E6.28994
G1 X67.061 Y158.268 E6.34278
G1 X66.422 Y155.923 E6.39128
G1 X65.672 Y153.453 E6.44279
G1 X64.863 Y151.037 E6.49364
G1 X64.013 Y148.719 E6.54291
G1 X63.069 Y146.351 E6.59378
G1 X62.082 Y144.068 E6.64342
G1 X61.009 Y141.767 E6.69408
G1 X59.871 Y139.497 E6.74476
G1 X58.702 Y137.318 E6.7941
G1 X57.442 Y135.124 E6.84459
G1 X56.116 Y132.959 E6.89526
G1 X54.752 Y130.866 E6.94511
G1 X53.321 Y128.802 E6.99523
G1 X51.818 Y126.756 E7.0459
G1 X50.275 Y124.779 E7.09594
G1 X48.861 Y123.063 E7.14032
G1 X47.928 Y121.957 E7.16919
G1 X47.628 Y121.592 E7.17862
G1 X47.174 Y121.023 E7.19315
G1 X46.62 Y120.265 E7.21188
G1 X46.149 Y119.49 E7.22998
G1 X45.76 Y118.786 E7.24603
G1 X45.606 Y118.497 E7.25257
G1 X45.32 Y117.943 E7.26501
G1 X44.891 Y117.007 E7.28556
G1 X44.862 Y116.935 E7.28711
G1 X44.582 Y116.157 E7.30361
G1 X44.39 Y115.553 E7.31625
G1 X44.298 Y115.25 E7.32257
G1 X44.078 Y114.482 E7.33852
G1 X43.859 Y113.57 E7.35723
G1 X43.722 Y112.684 E7.37512
G1 X43.649 Y112.036 E7.38814
G1 X43.618 Y111.72 E7.39447
G1 X43.552 Y110.929 E7.41031
G1 X43.521 Y109.632 E7.4362
G1 X43.526 Y109.488 E7.43908
G1 X43.559 Y108.933 E7.45018
G1 X43.613 Y108.307 E7.46271
G1 X43.646 Y107.985 E7.46917
G1 X43.75 Y107.059 E7.48777
G1 X44.009 Y104.418 E7.54073
G1 X44.184 Y101.902 E7.59106
G1 X44.287 Y99.381 E7.64141
G1 X44.319 Y96.891 E7.6911
G1 X44.279 Y94.333 E7.74216
G1 X44.17 Y91.848 E7.7918
G1 X43.989 Y89.344 E7.8419
G1 X43.76 Y87.027 E7.88836
G1 X43.645 Y85.997 E7.90904
G1 X43.616 Y85.699 E7.91502
G1 X43.554 Y84.96 E7.92982
G1 X43.519 Y83.731 E7.95435
G1 X43.524 Y83.553 E7.95791
G1 X43.559 Y82.932 E7.97032
G1 X43.601 Y82.437 E7.98023
G1 X43.644 Y82.003 E7.98894
G1 X43.721 Y81.315 E8.00275
G1 X43.865 Y80.388 E8.02147
G1 X44.086 Y79.48 E8.04012
G1 X44.301 Y78.737 E8.05556
G1 X44.387 Y78.457 E8.0614
G1 X44.594 Y77.807 E8.07502
G1 X44.916 Y76.926 E8.09373
G1 X45.152 Y76.398 E8.10528
G1 X45.325 Y76.048 E8.11307
G1 X45.671 Y75.38 E8.12808
G1 X45.823 Y75.097 E8.13449
G1 X46.158 Y74.494 E8.14826
G1 X46.648 Y73.694 E8.16698
G1 X47.184 Y72.964 E8.18505
G1 X47.624 Y72.414 E8.19911
G1 X47.806 Y72.193 E8.20482
G1 X48.297 Y71.611 E8.22002
G1 X48.932 Y70.921 E8.23873
G1 X49.354 Y70.521 E8.25033
G1 X49.413 Y70.468 E8.25191
G1 X49.689 Y70.228 E8.25921
G1 X50.164 Y69.829 E8.27159
G1 X50.379 Y69.653 E8.27714
G1 X51.483 Y68.772 E8.30533
G1 X53.487 Y67.127 E8.35707
G1 X55.381 Y65.479 E8.40717
G1 X57.243 Y63.766 E8.45766
G1 X59.043 Y62.013 E8.5078
G1 X60.783 Y60.22 E8.55766
G1 X62.498 Y58.35 E8.60829
G1 X64.139 Y56.453 E8.65835
G1 X65.744 Y54.491 E8.70894
G1 X67.269 Y52.513 E8.75878
G1 X68.766 Y50.455 E8.80956
G1 X69.996 Y48.667 E8.85287
G1 X70.644 Y47.702 E8.87607
G0 F6000 X70.976 Y47.925
G1 F1200 X71.278 Y47.498 E8.88651
G1 X71.535 Y47.163 E8.89493
G1 X71.999 Y46.584 E8.90974
G1 X72.162 Y46.388 E8.91483
G1 X72.586 Y45.886 E8.92794
G1 X72.963 Y45.463 E8.93925
G1 X73.878 Y44.593 E8.96444
G1 X74.427 Y44.13 E8.97878
G1 X74.646 Y43.95 E8.98443
G1 X75.227 Y43.486 E8.99927
G1 X75.971 Y42.943 E9.01765
G1 X76.69 Y42.506 E9.03444
G1 X77.361 Y42.134 E9.04975
G1 X77.628 Y41.993 E9.05578
G1 X78.26 Y41.666 E9.06998
G1 X79.095 Y41.278 E9.08835
G1 X79.93 Y40.975 E9.10608
G1 X80.694 Y40.733 E9.12207
G1 X81 Y40.641 E9.12845
G1 X81.641 Y40.459 E9.14175
G1 X82.64 Y40.227 E9.16221
G1 X82.673 Y40.221 E9.16288
G1 X83.408 Y40.114 E9.17771
G1 X84.098 Y40.038 E9.19156
G1 X84.37 Y40.011 E9.19701
G1 X85.059 Y39.953 E9.21081
G1 X86.083 Y39.917 E9.23126
G1 X86.24 Y39.919 E9.23439
G1 X86.991 Y39.955 E9.2494
G1 X87.575 Y40.004 E9.26109
G1 X90.61 Y40.301 E9.32195
G1 X93.133 Y40.475 E9.37242
G1 X95.641 Y40.576 E9.42251
G1 X98.156 Y40.607 E9.4727
G1 X100.705 Y40.565 E9.52358
G1 X103.25 Y40.453 E9.57441
G1 X105.777 Y40.269 E9.62498
G1 X107.885 Y40.06 E9.66725
G1 X108.139 Y40.033 E9.67235
G1 X108.37 Y40.011 E9.67698
G1 X109.059 Y39.953 E9.69078
G1 X110.083 Y39.917 E9.71122
G1 X110.24 Y39.919 E9.71436
G1 X110.991 Y39.955 E9.72936
G1 X111.575 Y40.004 E9.74106
G1 X114.61 Y40.301 E9.80191
G1 X117.133 Y40.475 E9.85238
G1 X119.641 Y40.576 E9.90247
G1 X122.156 Y40.607 E9.95267
G1 X124.705 Y40.565 E10.00354
G1 X127.25 Y40.453 E10.05438
G1 X129.777 Y40.269 E10.10494
G1 X131.885 Y40.06 E10.14721
G1 X132.139 Y40.033 E10.15231
G1 X132.37 Y40.011 E10.15694
G1 X133.059 Y39.953 E10.17074
G1 X134.083 Y39.917 E10.19119
G1 X134.24 Y39.919 E10.19432
G1 X134.991 Y39.955 E10.20933
G1 X135.575 Y40.004 E10.22102
G1 X135.864 Y40.032 E10.22682
G1 X136.635 Y40.118 E10.2423
G1 X137.545 Y40.26 E10.26068
G1 X138.386 Y40.465 E10.27795
G1 X139.058 Y40.658 E10.2919
G1 X139.334 Y40.741 E10.29766
G1 X140.063 Y40.972 E10.31292
G1 X141.224 Y41.416 E10.33772
G1 X141.773 Y41.681 E10.34989
G1 X142.388 Y42 E10.36371
G1 X142.639 Y42.135 E10.3694
G1 X143.304 Y42.503 E10.38457
G1 X144.09 Y42.984 E10.40296
G1 X144.794 Y43.501 E10.42039
G1 X145.42 Y44.003 E10.4364
G1 X145.619 Y44.168 E10.44156
G1 X146.136 Y44.605 E10.45507
G1 X146.812 Y45.229 E10.47343
G1 X147.39 Y45.859 E10.49049
G1 X147.842 Y46.394 E10.50447
G1 X148.289 Y46.938 E10.51852
G1 X148.431 Y47.102 E10.52285
G1 X149.431 Y48.319 E10.55428
G1 X151.099 Y50.237 E10.60501
G1 X152.827 Y52.115 E10.65593
G1 X154.558 Y53.893 E10.70545
G1 X156.39 Y55.669 E10.75637
G1 X158.273 Y57.397 E10.80738
G1 X160.138 Y59.011 E10.8566
G1 X162.134 Y60.642 E10.90803
G1 X164.139 Y62.188 E10.95856
G1 X166.156 Y63.656 E11.00834
G1 X168.169 Y65.038 E11.05707
G1 X168.784 Y65.494 E11.07235
G1 X169.331 Y65.931 E11.08632
G1 X169.549 Y66.11 E11.09195
G1 X170.13 Y66.6 E11.10712
G1 X170.807 Y67.224 E11.12549
G1 X171.4 Y67.87 E11.14299
G1 X171.857 Y68.412 E11.15714
G1 X172.036 Y68.63 E11.16277
G1 X172.512 Y69.226 E11.17799
G1 X173.054 Y69.97 E11.19636
G1 X173.34 Y70.424 E11.20707
G1 X173.532 Y70.757 E11.21474
G1 X173.872 Y71.375 E11.22881
G1 X174.027 Y71.667 E11.23541
G1 X174.345 Y72.285 E11.24928
G1 X174.731 Y73.121 E11.26766
G1 X174.928 Y73.641 E11.27875
G1 X175.032 Y73.951 E11.28528
G1 X175.244 Y74.62 E11.29928
G1 X175.343 Y74.947 E11.3061
G1 X175.531 Y75.6 E11.31966
G1 X175.747 Y76.495 E11.33804
G1 X175.835 Y77.01 E11.34846
G1 X175.886 Y77.4 E11.35631
G1 X175.967 Y78.121 E11.37079
G1 X175.996 Y78.422 E11.37683
G1 X176.054 Y79.113 E11.39066
G1 X176.091 Y80.033 E11.40904
G1 X176.054 Y80.887 E11.4261
G1 X175.987 Y81.673 E11.44184
G1 X175.959 Y81.954 E11.44747
G1 X175.845 Y82.965 E11.46778
G1 X175.594 Y85.534 E11.51929
G1 X175.417 Y88.084 E11.5703
G1 X175.313 Y90.601 E11.62057
G1 X175.281 Y93.105 E11.67055
G1 X175.321 Y95.651 E11.72136
G1 X175.431 Y98.171 E11.7717
G1 X175.615 Y100.719 E11.82268
G1 X175.848 Y103.066 E11.86975
G1 X175.967 Y104.127 E11.89105
G1 X175.996 Y104.422 E11.89697
G1 X176.054 Y105.113 E11.9108
G1 X176.091 Y106.033 E11.92918
G1 X176.054 Y106.887 E11.94624
G1 X175.999 Y107.542 E11.95936
G1 X175.957 Y107.967 E11.96788
G1 X175.89 Y108.566 E11.97991
G1 X175.855 Y108.847 E11.98556
G1 X175.695 Y109.753 E12.00392
G1 X175.53 Y110.398 E12.0172
G1 X175.313 Y111.149 E12.0328
