;FLAVOR:Marlin
;TIME:1010
;Filament used: 0.255503m
;Layer height: 0.12
;MINX:83.338
;MINY:94.5
;MINZ:0.2
;MAXX:136.662
;MAXY:125.5
;MAXZ:3.68
;Generated with Cura_SteamEngine master
M140 S60
M105
M190 S60
M104 S200
M105
M109 S200
M82 ;absolute extrusion mode
; Ender 3 Custom Start G-code
G92 E0 ; Reset Extruder
G28 ; Home all axes
G1 Z2.0 F3000 ; Move Z Axis up little to prevent scratching of Heat Bed
G1 X0.1 Y20 Z0.3 F5000.0 ; Move to start position
G1 X0.1 Y200.0 Z0.3 F1500.0 E15 ; Draw the first line
G1 X0.4 Y200.0 Z0.3 F5000.0 ; Move to side a little
G1 X0.4 Y20 Z0.3 F1500.0 E30 ; Draw the second line
G92 E0 ; Reset Extruder
G1 Z2.0 F3000 ; Move Z Axis up little to prevent scratching of Heat Bed
G1 X5 Y20 Z0.3 F5000.0 ; Move over to prevent blob squish
G92 E0
G92 E0
G1 F1500 E-6.5
;LAYER_COUNT:30
;LAYER:0
M107
G0 F6000 X87.115 Y97.537 Z0.2
;TYPE:SKIRT
G1 F1500 E0
G1 F1200 X87.822 Y96.921 E0.03119
G1 X88.579 Y96.368 E0.06237
G1 X89.381 Y95.881 E0.09358
G1 X90.221 Y95.464 E0.12477
G1 X91.093 Y95.12 E0.15595
G1 X91.992 Y94.852 E0.18715
G1 X92.91 Y94.661 E0.21833
G1 X93.841 Y94.549 E0.24952
G1 X94.485 Y94.519 E0.27097
G1 X95.417 Y94.502 E0.30197
G1 X95.618 Y94.5 E0.30865
G1 X124.862 Y94.501 E1.28131
G1 X125.562 Y94.511 E1.3046
G1 X126.498 Y94.564 E1.33578
G1 X127.427 Y94.697 E1.36699
G1 X128.341 Y94.909 E1.3982
G1 X129.233 Y95.198 E1.42939
G1 X130.097 Y95.561 E1.46056
G1 X130.928 Y95.997 E1.49177
G1 X131.718 Y96.502 E1.52295
G1 X132.463 Y97.073 E1.55417
G1 X133.156 Y97.704 E1.58535
G1 X133.792 Y98.393 E1.61653
G1 X134.368 Y99.133 E1.64772
G1 X134.685 Y99.604 E1.66661
G1 X134.832 Y99.835 E1.67571
G1 X134.984 Y100.082 E1.68536
G1 X135.092 Y100.262 E1.69234
G1 X135.54 Y101.086 E1.72354
G1 X135.916 Y101.945 E1.75472
G1 X136.218 Y102.833 E1.78592
G1 X136.442 Y103.743 E1.81709
G1 X136.589 Y104.67 E1.84831
G1 X136.655 Y105.605 E1.87948
G1 X136.655 Y106.246 E1.9008
G1 X136.625 Y107.255 E1.93438
G1 X136.586 Y109.867 E2.02126
G1 X136.62 Y112.409 E2.10582
G1 X136.64 Y112.923 E2.12293
G1 X136.662 Y113.81 E2.15244
G1 X136.645 Y114.748 E2.18364
G1 X136.548 Y115.681 E2.21484
G1 X136.373 Y116.602 E2.24602
G1 X136.119 Y117.505 E2.27722
G1 X135.79 Y118.383 E2.3084
G1 X135.387 Y119.23 E2.3396
G1 X134.788 Y120.229 E2.37834
G1 X134.693 Y120.37 E2.384
G1 X134.395 Y120.791 E2.40115
G1 X134.203 Y121.049 E2.41185
G1 X133.611 Y121.777 E2.44306
G1 X132.96 Y122.452 E2.47425
G1 X132.253 Y123.069 E2.50546
G1 X131.497 Y123.623 E2.53663
G1 X130.696 Y124.111 E2.56783
G1 X129.856 Y124.529 E2.59904
G1 X128.984 Y124.874 E2.63023
G1 X128.086 Y125.143 E2.66141
G1 X127.168 Y125.335 E2.6926
G1 X126.237 Y125.448 E2.72379
G1 X125.586 Y125.48 E2.74547
G1 X124.633 Y125.498 E2.77717
G1 X124.425 Y125.5 E2.78409
G1 X95.176 Y125.499 E3.75692
G1 X94.495 Y125.489 E3.77957
G1 X93.559 Y125.435 E3.81075
G1 X92.631 Y125.302 E3.84193
G1 X91.717 Y125.09 E3.87314
G1 X90.825 Y124.801 E3.90433
G1 X89.961 Y124.437 E3.93551
G1 X89.234 Y124.06 E3.96275
G1 X89.204 Y124.043 E3.96389
G1 X88.408 Y123.546 E3.99511
G1 X87.658 Y122.984 E4.02628
G1 X86.958 Y122.359 E4.05749
G1 X86.314 Y121.677 E4.08869
G1 X85.731 Y120.943 E4.11986
G1 X85.329 Y120.351 E4.14366
G1 X85.164 Y120.09 E4.15393
G1 X85.002 Y119.826 E4.16424
G1 X84.875 Y119.612 E4.17251
G1 X84.432 Y118.786 E4.20369
G1 X84.06 Y117.925 E4.23488
G1 X83.763 Y117.035 E4.26609
G1 X83.542 Y116.123 E4.2973
G1 X83.4 Y115.196 E4.32849
G1 X83.338 Y114.261 E4.35966
G1 X83.34 Y113.666 E4.37945
G1 X83.366 Y112.808 E4.408
G1 X83.407 Y110.176 E4.49555
G1 X83.375 Y107.593 E4.58147
G1 X83.341 Y106.282 E4.62509
G1 X83.357 Y105.344 E4.65629
G1 X83.452 Y104.411 E4.68748
G1 X83.627 Y103.49 E4.71866
G1 X83.88 Y102.586 E4.74988
G1 X84.208 Y101.708 E4.78106
G1 X84.611 Y100.861 E4.81226
G1 X85.222 Y99.842 E4.85177
G1 X85.324 Y99.691 E4.85783
G1 X85.623 Y99.269 E4.87504
G1 X85.87 Y98.938 E4.88877
G1 X86.462 Y98.211 E4.91996
G1 X87.115 Y97.537 E4.95117
G0 F6000 X87.415 Y97.804
G1 F1200 X88.111 Y97.202 E4.98178
G1 X88.858 Y96.663 E5.01241
G1 X89.648 Y96.191 E5.04302
G1 X90.476 Y95.789 E5.07363
G1 X91.336 Y95.46 E5.10426
G1 X92.221 Y95.208 E5.13487
G1 X93.125 Y95.033 E5.16549
G1 X94.493 Y94.919 E5.21115
G1 X95.425 Y94.902 E5.24215
G1 X95.618 Y94.9 E5.24857
G1 X124.705 Y94.9 E6.21601
G1 X125.556 Y94.911 E6.24432
G1 X126.476 Y94.964 E6.27497
G1 X127.387 Y95.097 E6.30559
G1 X128.283 Y95.308 E6.3362
G1 X129.157 Y95.596 E6.36681
G1 X130.003 Y95.959 E6.39743
G1 X130.815 Y96.394 E6.42807
G1 X131.585 Y96.898 E6.45868
G1 X132.309 Y97.467 E6.4893
G1 X132.981 Y98.096 E6.51992
G1 X133.596 Y98.782 E6.55056
G1 X134.348 Y99.819 E6.59317
G1 X134.495 Y100.05 E6.60227
G1 X134.641 Y100.287 E6.61153
G1 X134.749 Y100.467 E6.61851
G1 X135.188 Y101.277 E6.64916
G1 X135.555 Y102.121 E6.67977
G1 X135.848 Y102.994 E6.71039
G1 X136.063 Y103.889 E6.74101
G1 X136.2 Y104.799 E6.77162
G1 X136.258 Y105.718 E6.80224
G1 X136.255 Y106.234 E6.81941
G1 X136.225 Y107.237 E6.85278
G1 X136.186 Y109.867 E6.94026
G1 X136.22 Y112.43 E7.02552
G1 X136.24 Y112.933 E7.04226
G1 X136.262 Y113.82 E7.07177
G1 X136.245 Y114.741 E7.10241
G1 X136.148 Y115.656 E7.13301
G1 X135.972 Y116.56 E7.16365
G1 X135.718 Y117.445 E7.19427
G1 X135.388 Y118.304 E7.22487
G1 X134.985 Y119.132 E7.2555
G1 X134.456 Y120.006 E7.28948
G1 X134.361 Y120.147 E7.29514
G1 X134.074 Y120.552 E7.31165
G1 X133.882 Y120.81 E7.32234
G1 X133.3 Y121.524 E7.35298
G1 X132.66 Y122.185 E7.38358
G1 X131.964 Y122.788 E7.41421
G1 X131.218 Y123.328 E7.44484
G1 X130.428 Y123.801 E7.47547
G1 X129.601 Y124.205 E7.50608
G1 X128.741 Y124.534 E7.5367
G1 X127.856 Y124.788 E7.56733
G1 X126.953 Y124.964 E7.59793
G1 X125.578 Y125.08 E7.64382
G1 X124.625 Y125.098 E7.67553
G1 X124.425 Y125.1 E7.68218
G1 X95.182 Y125.099 E8.6548
G1 X94.501 Y125.089 E8.67746
G1 X93.582 Y125.035 E8.70807
G1 X92.671 Y124.902 E8.7387
G1 X91.775 Y124.691 E8.76931
G1 X90.901 Y124.402 E8.79993
G1 X90.055 Y124.039 E8.83055
G1 X89.431 Y123.712 E8.85398
G1 X89.401 Y123.695 E8.85513
G1 X88.621 Y123.207 E8.88573
G1 X87.885 Y122.653 E8.91637
G1 X87.201 Y122.037 E8.94698
G1 X86.573 Y121.364 E8.9776
G1 X86.005 Y120.639 E9.00823
G1 X85.667 Y120.137 E9.02836
G1 X85.502 Y119.876 E9.03863
G1 X85.346 Y119.622 E9.04855
G1 X85.219 Y119.408 E9.05682
G1 X84.784 Y118.596 E9.08746
G1 X84.421 Y117.75 E9.11808
G1 X84.133 Y116.876 E9.14869
G1 X83.922 Y115.98 E9.1793
G1 X83.789 Y115.069 E9.20992
G1 X83.736 Y114.15 E9.24054
G1 X83.74 Y113.678 E9.25624
G1 X83.767 Y112.771 E9.28642
G1 X83.807 Y110.177 E9.37271
G1 X83.775 Y107.576 E9.45922
G1 X83.741 Y106.271 E9.50264
G1 X83.757 Y105.351 E9.53325
G1 X83.853 Y104.435 E9.56388
G1 X84.028 Y103.532 E9.59447
G1 X84.281 Y102.646 E9.62512
G1 X84.61 Y101.786 E9.65574
G1 X85.012 Y100.958 E9.68636
G1 X85.553 Y100.066 E9.72106
G1 X85.655 Y99.915 E9.72712
G1 X85.944 Y99.509 E9.74369
G1 X86.191 Y99.178 E9.75743
G1 X86.773 Y98.464 E9.78807
G1 X87.415 Y97.804 E9.81869
G0 F6000 X87.714 Y98.072
G1 F1200 X88.4 Y97.484 E9.84874
G1 X89.135 Y96.96 E9.87876
G1 X89.914 Y96.502 E9.90882
G1 X90.73 Y96.115 E9.93886
G1 X91.577 Y95.802 E9.96889
G1 X92.448 Y95.565 E9.99891
G1 X93.337 Y95.407 E10.02895
G1 X94.5 Y95.319 E10.06774
G1 X95.432 Y95.302 E10.09874
G1 X95.618 Y95.3 E10.10493
G1 X124.705 Y95.3 E11.07237
G1 X125.551 Y95.311 E11.10051
G1 X126.452 Y95.364 E11.13053
G1 X127.346 Y95.496 E11.16058
G1 X128.224 Y95.707 E11.19062
G1 X129.08 Y95.995 E11.22065
G1 X129.907 Y96.357 E11.25068
G1 X130.699 Y96.791 E11.28072
G1 X131.449 Y97.294 E11.31075
G1 X132.152 Y97.861 E11.34079
G1 X132.803 Y98.487 E11.37083
G1 X133.395 Y99.169 E11.40087
G1 X134.01 Y100.034 E11.43617
G1 X134.157 Y100.265 E11.44528
G1 X134.298 Y100.493 E11.45419
G1 X134.406 Y100.673 E11.46117
G1 X134.836 Y101.467 E11.49121
G1 X135.194 Y102.296 E11.52124
G1 X135.478 Y103.154 E11.5513
G1 X135.684 Y104.033 E11.58133
G1 X135.811 Y104.927 E11.61136
G1 X135.856 Y106.222 E11.65446
G1 X135.825 Y107.287 E11.6899
G1 X135.786 Y109.867 E11.77572
G1 X135.82 Y112.415 E11.86047
G1 X135.84 Y112.943 E11.87805
G1 X135.862 Y113.83 E11.90756
G1 X135.844 Y114.733 E11.9376
G1 X135.747 Y115.631 E11.96764
G1 X135.57 Y116.517 E11.99769
G1 X135.316 Y117.383 E12.02771
G1 X134.987 Y118.224 E12.05774
G1 X134.584 Y119.032 E12.08777
G1 X134.124 Y119.782 E12.11704
G1 X134.029 Y119.923 E12.12269
G1 X133.753 Y120.314 E12.13861
G1 X133.561 Y120.572 E12.14931
G1 X132.99 Y121.271 E12.17933
G1 X132.36 Y121.918 E12.20936
G1 X131.675 Y122.507 E12.23941
G1 X130.94 Y123.032 E12.26945
G1 X130.162 Y123.491 E12.2995
G1 X129.346 Y123.878 E12.32953
G1 X128.5 Y124.193 E12.35956
G1 X127.629 Y124.431 E12.38959
G1 X126.74 Y124.591 E12.41963
G1 X125.571 Y124.68 E12.45863
G1 X124.618 Y124.698 E12.49033
G1 X124.425 Y124.7 E12.49675
G1 X95.188 Y124.699 E13.46918
G1 X94.507 Y124.689 E13.49183
G1 X93.606 Y124.636 E13.52185
G1 X92.712 Y124.503 E13.55191
G1 X91.834 Y124.292 E13.58194
G1 X90.978 Y124.004 E13.61198
G1 X90.151 Y123.641 E13.64202
G1 X89.598 Y123.347 E13.66285
G1 X88.833 Y122.868 E13.69287
G1 X88.113 Y122.322 E13.72293
G1 X87.444 Y121.715 E13.75297
G1 X86.832 Y121.052 E13.78298
G1 X86.281 Y120.336 E13.81303
G1 X86.005 Y119.923 E13.82955
G1 X85.84 Y119.662 E13.83982
G1 X85.69 Y119.418 E13.84935
G1 X85.563 Y119.204 E13.85763
G1 X85.137 Y118.407 E13.88768
G1 X84.783 Y117.576 E13.91773
G1 X84.504 Y116.718 E13.94773
G1 X84.302 Y115.837 E13.9778
G1 X84.179 Y114.943 E14.00781
G1 X84.14 Y113.69 E14.04951
G1 X84.166 Y112.845 E14.07762
G1 X84.207 Y110.178 E14.16634
G1 X84.176 Y107.661 E14.25006
G1 X84.14 Y106.261 E14.29664
G1 X84.157 Y105.358 E14.32668
G1 X84.254 Y104.46 E14.35672
G1 X84.429 Y103.574 E14.38676
G1 X84.683 Y102.708 E14.41678
G1 X85.012 Y101.867 E14.44681
G1 X85.414 Y101.058 E14.47686
G1 X85.885 Y100.289 E14.50685
G1 X85.987 Y100.138 E14.51291
G1 X86.264 Y99.748 E14.52882
G1 X86.511 Y99.417 E14.54256
G1 X87.083 Y98.718 E14.5726
G1 X87.714 Y98.072 E14.60263
G1 F1500 E8.10263
;MESH:road.stl
G0 F6000 X94.026 Y105.282
G0 X94.901 Y105.917
G0 X124.68 Y106.287
G0 X124.069 Y109.628
G0 X124.931 Y113.9
;TYPE:WALL-INNER
G1 F1500 E14.60263
G1 F1200 X124.664 Y113.9 E14.61152
G1 X124.663 Y113.9 E14.61155
G1 X95.291 Y113.9 E15.58847
G1 X95.29 Y113.9 E15.5885
G1 X95.023 Y113.9 E15.59738
G1 X95.1 Y113.644 E15.60271
G1 X95.578 Y112.068 E15.65748
G1 X95.782 Y110 E15.7266
G1 X95.589 Y108.028 E15.7925
G1 X95.575 Y107.922 E15.79606
G1 X95.1 Y106.356 E15.85049
G1 X95.023 Y106.1 E15.85938
G1 X95.29 Y106.1 E15.8647
G1 X95.291 Y106.1 E15.86473
G1 X124.663 Y106.1 E16.84165
G1 X124.664 Y106.1 E16.84168
G1 X124.931 Y106.1 E16.85056
G1 X124.854 Y106.356 E16.85589
G1 X124.376 Y107.932 E16.91067
G1 X124.172 Y110 E16.97978
G1 X124.376 Y112.068 E17.0489
G1 X124.854 Y113.644 E17.10367
G1 X124.931 Y113.9 E17.109
G0 F6000 X125.44 Y114.072
;TYPE:WALL-OUTER
G1 F1200 X125.274 Y114.3 E17.11838
G1 X94.743 Y114.3 E18.13385
G1 X94.556 Y113.995 E18.14575
G1 X94.604 Y113.905 E18.14914
G1 X95.184 Y111.99 E18.21569
G1 X95.38 Y110 E18.2822
G1 X95.192 Y108.074 E18.34656
G1 X95.183 Y108.007 E18.34881
G1 X94.604 Y106.095 E18.41526
G1 X94.561 Y106.015 E18.41828
G1 X94.79 Y105.7 E18.43123
G1 X125.3 Y105.7 E19.446
G1 X125.44 Y105.927 E19.45487
G1 X125.35 Y106.095 E19.46121
G1 X124.77 Y108.01 E19.52776
G1 X124.574 Y110 E19.59426
G1 X124.77 Y111.99 E19.66077
G1 X125.35 Y113.905 E19.72732
G1 X125.44 Y114.072 E19.73363
G0 F6000 X125.105 Y114.05
G0 X124.673 Y113.429
G0 X124.406 Y113.51
;TYPE:SKIN
G1 F1200 X95.548 Y113.51 E20.69345
G1 X95.962 Y112.144 E20.74093
G1 X96.174 Y110 E20.81258
G1 X95.977 Y107.983 E20.87999
G1 X95.957 Y107.839 E20.88482
G1 X95.548 Y106.49 E20.93171
G1 X124.406 Y106.49 E21.89153
G1 X123.992 Y107.856 E21.939
G1 X123.78 Y110 E22.01066
G1 X123.992 Y112.144 E22.08232
G1 X124.406 Y113.51 E22.12979
G0 F6000 X124.673 Y113.429
G0 X124.333 Y110
G0 X124.477 Y107.215
G0 X124.057 Y107.087
G1 F1200 X123.62 Y106.65 E22.15035
G0 F6000 X123.054 Y106.65
G1 F1200 X123.926 Y107.521 E22.19134
G0 F6000 X123.818 Y107.979
G1 F1200 X122.489 Y106.65 E22.25385
G0 F6000 X121.923 Y106.65
G1 F1200 X123.767 Y108.494 E22.34059
G0 F6000 X123.716 Y109.008
G1 F1200 X121.357 Y106.65 E22.45153
G0 F6000 X120.792 Y106.65
G1 F1200 X123.665 Y109.523 E22.58666
G0 F6000 X123.623 Y110.047
G1 F1200 X120.226 Y106.65 E22.74645
G0 F6000 X119.66 Y106.65
G1 F1200 X123.685 Y110.674 E22.93575
G0 F6000 X123.747 Y111.302
G1 F1200 X119.095 Y106.65 E23.15456
G0 F6000 X118.529 Y106.65
G1 F1200 X123.81 Y111.93 E23.40294
G0 F6000 X123.984 Y112.67
G1 F1200 X117.963 Y106.65 E23.68613
G0 F6000 X117.398 Y106.65
G1 F1200 X124.097 Y113.349 E24.00123
G0 F6000 X123.531 Y113.349
G1 F1200 X116.832 Y106.65 E24.31633
G0 F6000 X116.266 Y106.65
G1 F1200 X122.965 Y113.349 E24.63143
G0 F6000 X122.4 Y113.349
G1 F1200 X115.701 Y106.65 E24.94653
G0 F6000 X115.135 Y106.65
G1 F1200 X121.834 Y113.349 E25.26163
G0 F6000 X121.268 Y113.349
G1 F1200 X114.569 Y106.65 E25.57673
G0 F6000 X114.003 Y106.65
G1 F1200 X120.703 Y113.349 E25.89185
G0 F6000 X120.137 Y113.349
G1 F1200 X113.438 Y106.65 E26.20695
G0 F6000 X112.872 Y106.65
G1 F1200 X119.571 Y113.349 E26.52206
G0 F6000 X119.006 Y113.349
G1 F1200 X112.306 Y106.65 E26.83718
G0 F6000 X111.741 Y106.65
G1 F1200 X118.44 Y113.349 E27.15228
G0 F6000 X117.874 Y113.349
G1 F1200 X111.175 Y106.65 E27.46738
G0 F6000 X110.609 Y106.65
G1 F1200 X117.309 Y113.349 E27.7825
G0 F6000 X116.743 Y113.349
G1 F1200 X110.044 Y106.65 E28.0976
G0 F6000 X109.478 Y106.65
G1 F1200 X116.177 Y113.349 E28.4127
G0 F6000 X115.611 Y113.349
G1 F1200 X108.912 Y106.65 E28.72781
G0 F6000 X108.347 Y106.65
G1 F1200 X115.046 Y113.349 E29.04291
G0 F6000 X114.48 Y113.349
G1 F1200 X107.781 Y106.65 E29.35801
G0 F6000 X107.215 Y106.65
G1 F1200 X113.914 Y113.349 E29.67311
G0 F6000 X113.349 Y113.349
G1 F1200 X106.65 Y106.65 E29.98821
G0 F6000 X106.084 Y106.65
G1 F1200 X112.783 Y113.349 E30.30331
G0 F6000 X112.217 Y113.349
G1 F1200 X105.518 Y106.65 E30.61841
G0 F6000 X104.953 Y106.65
G1 F1200 X111.652 Y113.349 E30.93351
G0 F6000 X111.086 Y113.349
G1 F1200 X104.387 Y106.65 E31.24861
G0 F6000 X103.821 Y106.65
G1 F1200 X110.52 Y113.349 E31.56371
G0 F6000 X109.955 Y113.349
G1 F1200 X103.255 Y106.65 E31.87883
G0 F6000 X102.69 Y106.65
G1 F1200 X109.389 Y113.349 E32.19393
G0 F6000 X108.823 Y113.349
G1 F1200 X102.124 Y106.65 E32.50903
G0 F6000 X101.558 Y106.65
G1 F1200 X108.258 Y113.349 E32.82416
G0 F6000 X107.692 Y113.349
G1 F1200 X100.993 Y106.65 E33.13926
G0 F6000 X100.427 Y106.65
G1 F1200 X107.126 Y113.349 E33.45436
G0 F6000 X106.56 Y113.349
G1 F1200 X99.861 Y106.65 E33.76946
G0 F6000 X99.296 Y106.65
G1 F1200 X105.995 Y113.349 E34.08456
G0 F6000 X105.429 Y113.349
G1 F1200 X98.73 Y106.65 E34.39966
G0 F6000 X98.164 Y106.65
G1 F1200 X104.863 Y113.349 E34.71476
G0 F6000 X104.298 Y113.349
G1 F1200 X97.599 Y106.65 E35.02986
G0 F6000 X97.033 Y106.65
G1 F1200 X103.732 Y113.349 E35.34496
G0 F6000 X103.166 Y113.349
G1 F1200 X96.467 Y106.65 E35.66006
G0 F6000 X95.902 Y106.65
G1 F1200 X102.601 Y113.349 E35.97516
G0 F6000 X102.035 Y113.349
G1 F1200 X95.948 Y107.262 E36.26148
G0 F6000 X96.141 Y108.021
G1 F1200 X101.469 Y113.349 E36.51209
G0 F6000 X100.904 Y113.349
G1 F1200 X96.202 Y108.647 E36.73326
G0 F6000 X96.264 Y109.274
G1 F1200 X100.338 Y113.349 E36.92491
G0 F6000 X99.772 Y113.349
G1 F1200 X96.324 Y109.901 E37.08709
G0 F6000 X96.291 Y110.433
G1 F1200 X99.207 Y113.349 E37.22425
G0 F6000 X98.641 Y113.349
G1 F1200 X96.24 Y110.947 E37.33721
G0 F6000 X96.189 Y111.462
G1 F1200 X98.075 Y113.349 E37.42595
G0 F6000 X97.51 Y113.349
G1 F1200 X96.138 Y111.977 E37.49048
G0 F6000 X96.037 Y112.442
G1 F1200 X96.944 Y113.349 E37.53314
G0 F6000 X96.378 Y113.349
G1 F1200 X95.906 Y112.876 E37.55537
G1 F1500 E31.05537
G0 F6000 X95.488 Y112.748
G0 X95.742 Y107.886
G0 X95.274 Y106.287
G0 X125.152 Y106
G0 X125.152 Y105.918
;TYPE:SKIN
G1 F1500 E37.55537
G1 F1200 X125.213 Y105.979 E37.5568
G0 F6000 X124.839 Y106.3
;MESH:NONMESH
G0 F300 X124.839 Y106.3 Z0.32
G0 F6000 X124.534 Y107.964
G0 X124.333 Y110
G0 X124.495 Y111.648
G0 X124.931 Y113.9
;TIME_ELAPSED:69.056904
;LAYER:1
M106 S85
;TYPE:WALL-INNER
;MESH:road.stl
G1 F1200 X124.664 Y113.9 E37.56213
G1 X124.663 Y113.9 E37.56215
G1 X95.291 Y113.9 E38.1483
