;FLAVOR:Marlin
;TIME:561
;Filament used: 0.147536m
;Layer height: 0.12
;MINX:91.51
;MINY:91.51
;MINZ:0.2
;MAXX:128.491
;MAXY:128.491
;MAXZ:2.84
;Generated with Cura_SteamEngine master
M140 S60
M105
M190 S60
M104 S200
M105
M109 S200
M82 ;absolute extrusion mode
; Ender 3 Custom Start G-code
G92 E0 ; Reset Extruder
G28 ; Home all axes
G1 Z2.0 F3000 ; Move Z Axis up little to prevent scratching of Heat Bed
G1 X0.1 Y20 Z0.3 F5000.0 ; Move to start position
G1 X0.1 Y200.0 Z0.3 F1500.0 E15 ; Draw the first line
G1 X0.4 Y200.0 Z0.3 F5000.0 ; Move to side a little
G1 X0.4 Y20 Z0.3 F1500.0 E30 ; Draw the second line
G92 E0 ; Reset Extruder
G1 Z2.0 F3000 ; Move Z Axis up little to prevent scratching of Heat Bed
G1 X5 Y20 Z0.3 F5000.0 ; Move over to prevent blob squish
G92 E0
G92 E0
G1 F1500 E-6.5
;LAYER_COUNT:23
;LAYER:0
M107
G0 F6000 X96.942 Y96.909 Z0.2
;TYPE:SKIRT
G1 F1500 E0
G1 F1200 X97.61 Y96.296 E0.03015
G1 X98.167 Y95.826 E0.05439
G1 X98.397 Y95.638 E0.06428
G1 X98.978 Y95.174 E0.08901
G1 X99.735 Y94.62 E0.12021
G1 X100.495 Y94.156 E0.14982
G1 X101.002 Y93.874 E0.16912
G1 X101.444 Y93.637 E0.1858
G1 X102.076 Y93.31 E0.20947
G1 X102.927 Y92.915 E0.24067
G1 X103.809 Y92.593 E0.2719
G1 X104.573 Y92.351 E0.29856
G1 X104.873 Y92.261 E0.30897
G1 X105.517 Y92.077 E0.33125
G1 X106.429 Y91.858 E0.36244
G1 X107.036 Y91.757 E0.38291
G1 X107.366 Y91.715 E0.39398
G1 X107.952 Y91.649 E0.41359
G1 X108.374 Y91.608 E0.42769
G1 X109.075 Y91.549 E0.45109
G1 X110.013 Y91.51 E0.48231
G1 X110.695 Y91.532 E0.50501
G1 X110.976 Y91.552 E0.51438
G1 X111.575 Y91.602 E0.53437
G1 X112.023 Y91.646 E0.54934
G1 X112.709 Y91.724 E0.57231
G1 X113.635 Y91.87 E0.60349
G1 X114.518 Y92.086 E0.63372
G1 X115.176 Y92.276 E0.6565
G1 X115.432 Y92.353 E0.66539
G1 X116.174 Y92.587 E0.69127
G1 X117.056 Y92.907 E0.72248
G1 X117.93 Y93.313 E0.75453
G1 X118.598 Y93.66 E0.77956
G1 X118.851 Y93.796 E0.78912
G1 X119.475 Y94.14 E0.81282
G1 X120.276 Y94.627 E0.844
G1 X121.03 Y95.179 E0.87508
G1 X121.592 Y95.628 E0.899
G1 X121.82 Y95.815 E0.90881
G1 X122.39 Y96.296 E0.93362
G1 X123.08 Y96.931 E0.9648
G1 X123.706 Y97.612 E0.99557
G1 X124.163 Y98.154 E1.01915
G1 X124.348 Y98.38 E1.02886
G1 X124.824 Y98.976 E1.05423
G1 X125.378 Y99.734 E1.08546
G1 X125.684 Y100.219 E1.10453
G1 X125.882 Y100.564 E1.11776
G1 X126.224 Y101.185 E1.14134
G1 X126.387 Y101.492 E1.1529
G1 X126.709 Y102.119 E1.17635
G1 X127.102 Y102.971 E1.20756
G1 X127.403 Y103.8 E1.23689
G1 X127.653 Y104.587 E1.26435
G1 X127.727 Y104.836 E1.27299
G1 X127.913 Y105.48 E1.29529
G1 X128.135 Y106.391 E1.32648
G1 X128.234 Y106.976 E1.34621
G1 X128.284 Y107.355 E1.35892
G1 X128.349 Y107.928 E1.3781
G1 X128.379 Y108.222 E1.38793
G1 X128.452 Y109.078 E1.41651
G1 X128.491 Y110.015 E1.4477
G1 X128.453 Y110.918 E1.47776
G1 X128.395 Y111.61 E1.50086
G1 X128.349 Y112.071 E1.51627
G1 X128.308 Y112.444 E1.52875
G1 X128.276 Y112.71 E1.53766
G1 X128.248 Y112.918 E1.54464
G1 X128.083 Y113.841 E1.57582
G1 X127.922 Y114.476 E1.59761
G1 X127.704 Y115.238 E1.62397
G1 X127.604 Y115.566 E1.63538
G1 X127.393 Y116.225 E1.65839
G1 X126.955 Y117.371 E1.6992
G1 X126.679 Y117.946 E1.72041
G1 X126.408 Y118.471 E1.74006
G1 X126.206 Y118.849 E1.75432
G1 X125.862 Y119.473 E1.77802
G1 X125.375 Y120.274 E1.80919
G1 X124.825 Y121.026 E1.84018
G1 X124.389 Y121.572 E1.86342
G1 X124.202 Y121.799 E1.8732
G1 X123.707 Y122.386 E1.89874
G1 X123.073 Y123.077 E1.92993
G1 X122.531 Y123.583 E1.9546
G1 X122.319 Y123.765 E1.96389
G1 X121.831 Y124.175 E1.98509
G1 X121.621 Y124.347 E1.99412
G1 X121.024 Y124.824 E2.01953
G1 X120.267 Y125.377 E2.05071
G1 X119.681 Y125.743 E2.07369
G1 X119.407 Y125.899 E2.08418
G1 X118.832 Y126.216 E2.10602
G1 X118.571 Y126.355 E2.11585
G1 X117.915 Y126.694 E2.14041
G1 X117.064 Y127.089 E2.17162
G1 X116.192 Y127.407 E2.20249
G1 X115.524 Y127.619 E2.2258
G1 X115.126 Y127.739 E2.23962
G1 X114.482 Y127.923 E2.2619
G1 X113.57 Y128.142 E2.2931
G1 X113.066 Y128.228 E2.3101
G1 X112.616 Y128.287 E2.3252
G1 X111.909 Y128.366 E2.34886
G1 X111.605 Y128.395 E2.35902
G1 X110.932 Y128.452 E2.38148
G1 X109.995 Y128.491 E2.41267
G1 X109.096 Y128.453 E2.4426
G1 X108.42 Y128.397 E2.46516
G1 X108.103 Y128.367 E2.47575
G1 X107.309 Y128.278 E2.50232
G1 X106.382 Y128.133 E2.53353
G1 X105.471 Y127.911 E2.56472
G1 X104.764 Y127.706 E2.5892
G1 X104.517 Y127.631 E2.59779
G1 X103.823 Y127.412 E2.62199
G1 X102.941 Y127.092 E2.6532
G1 X102.069 Y126.687 E2.68518
G1 X101.401 Y126.34 E2.71021
G1 X101.154 Y126.207 E2.71954
G1 X100.531 Y125.864 E2.7432
G1 X99.729 Y125.377 E2.7744
G1 X98.96 Y124.814 E2.8061
G1 X98.438 Y124.396 E2.82835
G1 X98.227 Y124.223 E2.83742
G1 X97.618 Y123.71 E2.86391
G1 X96.927 Y123.076 E2.8951
G1 X96.427 Y122.541 E2.91945
G1 X96.228 Y122.31 E2.92959
G1 X95.812 Y121.816 E2.95107
G1 X95.628 Y121.592 E2.96071
G1 X95.174 Y121.023 E2.98493
G1 X94.62 Y120.265 E3.01615
G1 X94.322 Y119.791 E3.03477
G1 X94.121 Y119.442 E3.04817
G1 X93.743 Y118.756 E3.07422
G1 X93.61 Y118.505 E3.08367
G1 X93.323 Y117.95 E3.10445
G1 X92.911 Y117.056 E3.13719
G1 X92.882 Y116.985 E3.13974
G1 X92.575 Y116.136 E3.16977
G1 X92.362 Y115.461 E3.19331
G1 X92.282 Y115.195 E3.20255
G1 X92.083 Y114.504 E3.22647
G1 X91.862 Y113.593 E3.25764
G1 X91.746 Y112.89 E3.28134
G1 X91.713 Y112.624 E3.29026
G1 X91.648 Y112.044 E3.30967
G1 X91.603 Y111.586 E3.32498
G1 X91.547 Y110.909 E3.34757
G1 X91.51 Y109.972 E3.37876
G1 X91.531 Y109.326 E3.40026
G1 X91.557 Y108.942 E3.41306
G1 X91.605 Y108.388 E3.43155
G1 X91.641 Y108.027 E3.44362
G1 X91.721 Y107.311 E3.46758
G1 X91.865 Y106.384 E3.49878
G1 X92.091 Y105.46 E3.53042
G1 X92.308 Y104.714 E3.55626
G1 X92.395 Y104.429 E3.56617
G1 X92.603 Y103.78 E3.58884
G1 X92.927 Y102.9 E3.62003
G1 X93.182 Y102.334 E3.64068
G1 X93.348 Y102.002 E3.65302
G1 X93.652 Y101.416 E3.67498
G1 X93.817 Y101.109 E3.68657
G1 X94.136 Y100.533 E3.70847
G1 X94.758 Y99.54 E3.74744
G1 X94.817 Y99.456 E3.75086
G1 X95.223 Y98.913 E3.77341
G1 X95.58 Y98.466 E3.79244
G1 X95.861 Y98.124 E3.80716
G1 X96.306 Y97.598 E3.83007
G1 X96.942 Y96.909 E3.86126
G0 F6000 X97.236 Y97.18
G1 F1200 X97.868 Y96.602 E3.88975
G1 X98.425 Y96.132 E3.91399
G1 X98.646 Y95.95 E3.92351
G1 X99.227 Y95.486 E3.94824
G1 X99.971 Y94.943 E3.97887
G1 X100.69 Y94.506 E4.00686
G1 X101.361 Y94.134 E4.03238
G1 X101.628 Y93.993 E4.04242
G1 X102.26 Y93.666 E4.06609
G1 X103.095 Y93.278 E4.09671
G1 X103.93 Y92.975 E4.12625
G1 X104.694 Y92.733 E4.15291
G1 X104.983 Y92.646 E4.16295
G1 X105.627 Y92.462 E4.18522
G1 X106.522 Y92.248 E4.21583
G1 X107.091 Y92.153 E4.23502
G1 X107.411 Y92.113 E4.24574
G1 X108.165 Y92.029 E4.27098
G1 X108.408 Y92.006 E4.2791
G1 X109.109 Y91.947 E4.30249
G1 X110.029 Y91.91 E4.33312
G1 X110.67 Y91.931 E4.35445
G1 X110.943 Y91.951 E4.36355
G1 X111.542 Y92.001 E4.38355
G1 X111.978 Y92.044 E4.39812
G1 X112.664 Y92.122 E4.42108
G1 X113.573 Y92.266 E4.45169
G1 X114.407 Y92.47 E4.48025
G1 X115.065 Y92.66 E4.50303
G1 X115.312 Y92.735 E4.51161
G1 X116.054 Y92.969 E4.53749
G1 X116.919 Y93.284 E4.56811
G1 X117.746 Y93.668 E4.59843
G1 X118.41 Y94.013 E4.62332
G1 X118.657 Y94.146 E4.63265
G1 X119.281 Y94.49 E4.65635
G1 X120.068 Y94.969 E4.687
G1 X120.78 Y95.491 E4.71636
G1 X121.342 Y95.94 E4.74028
G1 X121.562 Y96.121 E4.74976
G1 X122.132 Y96.602 E4.77457
G1 X122.809 Y97.226 E4.80519
G1 X123.4 Y97.87 E4.83426
G1 X123.857 Y98.412 E4.85784
G1 X124.036 Y98.63 E4.86722
G1 X124.512 Y99.226 E4.89259
G1 X125.054 Y99.97 E4.92321
G1 X125.34 Y100.424 E4.94105
G1 X125.532 Y100.757 E4.95384
G1 X125.872 Y101.375 E4.9773
G1 X126.031 Y101.675 E4.98859
G1 X126.353 Y102.302 E5.01204
G1 X126.738 Y103.138 E5.04265
G1 X127.022 Y103.921 E5.07035
G1 X127.27 Y104.702 E5.0976
G1 X127.343 Y104.947 E5.10611
G1 X127.529 Y105.591 E5.1284
G1 X127.746 Y106.485 E5.159
G1 X127.838 Y107.033 E5.17748
G1 X127.886 Y107.4 E5.18979
G1 X127.967 Y108.121 E5.21392
G1 X127.996 Y108.421 E5.22395
G1 X128.054 Y109.111 E5.24698
G1 X128.091 Y110.031 E5.2776
G1 X128.054 Y110.884 E5.306
G1 X127.996 Y111.576 E5.3291
G1 X127.952 Y112.027 E5.34417
G1 X127.911 Y112.4 E5.35665
G1 X127.879 Y112.656 E5.36523
G1 X127.851 Y112.864 E5.37221
G1 X127.689 Y113.77 E5.40282
G1 X127.537 Y114.366 E5.42328
G1 X127.319 Y115.128 E5.44964
G1 X127.223 Y115.444 E5.46063
G1 X127.012 Y116.103 E5.48364
G1 X126.59 Y117.207 E5.52295
G1 X126.323 Y117.762 E5.54343
G1 X125.995 Y118.396 E5.56718
G1 X125.856 Y118.655 E5.57695
G1 X125.512 Y119.279 E5.60065
G1 X125.033 Y120.066 E5.6313
G1 X124.512 Y120.776 E5.66059
G1 X124.076 Y121.322 E5.68383
G1 X123.896 Y121.541 E5.69325
G1 X123.401 Y122.128 E5.71879
G1 X122.778 Y122.806 E5.74942
G1 X122.268 Y123.281 E5.7726
G1 X122.062 Y123.459 E5.78165
G1 X121.574 Y123.869 E5.80285
G1 X121.372 Y124.034 E5.81153
G1 X120.775 Y124.511 E5.83694
G1 X120.031 Y125.054 E5.86758
G1 X119.481 Y125.397 E5.88914
G1 X119.214 Y125.549 E5.89936
G1 X118.639 Y125.866 E5.92119
G1 X118.387 Y126 E5.93069
G1 X117.731 Y126.339 E5.95525
G1 X116.896 Y126.726 E5.98586
G1 X116.071 Y127.025 E6.01504
G1 X115.253 Y127.284 E6.04358
G1 X115.016 Y127.354 E6.0518
G1 X114.372 Y127.538 E6.07408
G1 X113.477 Y127.752 E6.10468
G1 X113.007 Y127.832 E6.12054
G1 X112.572 Y127.89 E6.13514
G1 X111.869 Y127.968 E6.15866
G1 X111.572 Y127.996 E6.16858
G1 X110.899 Y128.053 E6.19105
G1 X109.979 Y128.091 E6.22167
G1 X109.129 Y128.055 E6.24997
G1 X108.453 Y127.999 E6.27253
G1 X108.147 Y127.969 E6.28276
G1 X107.353 Y127.88 E6.30933
G1 X106.444 Y127.738 E6.33993
G1 X105.582 Y127.527 E6.36945
G1 X104.875 Y127.322 E6.39393
G1 X104.637 Y127.25 E6.4022
G1 X103.943 Y127.031 E6.42641
G1 X103.078 Y126.716 E6.45703
G1 X102.253 Y126.332 E6.48729
G1 X101.589 Y125.987 E6.51218
G1 X101.347 Y125.857 E6.52132
G1 X100.724 Y125.514 E6.54497
G1 X99.937 Y125.035 E6.57561
G1 X99.21 Y124.502 E6.6056
G1 X98.688 Y124.084 E6.62784
G1 X98.485 Y123.917 E6.63658
G1 X97.876 Y123.404 E6.66306
G1 X97.198 Y122.781 E6.69369
G1 X96.728 Y122.277 E6.71661
G1 X96.534 Y122.053 E6.72647
G1 X96.118 Y121.559 E6.74795
G1 X95.94 Y121.342 E6.75728
G1 X95.486 Y120.773 E6.78149
G1 X94.944 Y120.029 E6.81211
G1 X94.665 Y119.586 E6.82952
G1 X94.471 Y119.249 E6.84245
G1 X94.096 Y118.567 E6.86834
G1 X93.965 Y118.321 E6.87761
G1 X93.678 Y117.766 E6.89839
G1 X93.281 Y116.905 E6.92993
G1 X93.252 Y116.834 E6.93248
G1 X92.956 Y116.016 E6.96141
G1 X92.743 Y115.341 E6.98495
G1 X92.666 Y115.084 E6.99388
G1 X92.467 Y114.393 E7.01779
G1 X92.251 Y113.499 E7.04838
G1 X92.143 Y112.838 E7.07066
G1 X92.111 Y112.58 E7.07931
G1 X92.033 Y111.874 E7.10293
G1 X92.002 Y111.553 E7.11366
G1 X91.946 Y110.876 E7.13625
G1 X91.91 Y109.956 E7.16687
G1 X91.93 Y109.351 E7.18701
G1 X91.938 Y109.221 E7.19134
G1 X91.956 Y108.976 E7.19951
G1 X92.003 Y108.426 E7.21787
G1 X92.021 Y108.238 E7.22415
G1 X92.119 Y107.355 E7.2537
G1 X92.26 Y106.445 E7.28433
G1 X92.475 Y105.571 E7.31426
G1 X92.692 Y104.825 E7.3401
G1 X92.776 Y104.551 E7.34964
G1 X92.984 Y103.902 E7.3723
G1 X93.303 Y103.038 E7.40294
G1 X93.542 Y102.509 E7.42224
G1 X93.703 Y102.186 E7.43425
G1 X94.005 Y101.604 E7.45606
G1 X94.167 Y101.302 E7.46745
G1 X94.486 Y100.726 E7.48935
G1 X95.085 Y99.769 E7.5269
G1 X95.144 Y99.685 E7.53032
G1 X95.535 Y99.163 E7.55201
G1 X95.892 Y98.716 E7.57104
G1 X96.167 Y98.383 E7.5854
G1 X96.612 Y97.857 E7.60832
G1 X97.236 Y97.18 E7.63894
G0 F6000 X97.53 Y97.452
G1 F1200 X98.126 Y96.907 E7.6658
G1 X98.683 Y96.437 E7.69004
G1 X98.896 Y96.263 E7.69919
G1 X99.477 Y95.799 E7.72392
G1 X100.207 Y95.267 E7.75396
G1 X100.884 Y94.855 E7.78032
G1 X101.391 Y94.573 E7.79962
G1 X101.699 Y94.407 E7.81126
G1 X102.444 Y94.021 E7.83916
G1 X103.263 Y93.642 E7.86918
G1 X104.051 Y93.356 E7.89706
G1 X104.815 Y93.114 E7.92371
G1 X105.093 Y93.03 E7.93337
G1 X105.737 Y92.846 E7.95565
G1 X106.615 Y92.637 E7.98567
G1 X107.145 Y92.55 E8.00353
G1 X107.455 Y92.51 E8.01393
G1 X108.203 Y92.427 E8.03896
G1 X108.442 Y92.405 E8.04694
G1 X109.143 Y92.346 E8.07034
G1 X110.045 Y92.31 E8.10037
G1 X110.644 Y92.33 E8.1203
G1 X110.909 Y92.349 E8.12914
G1 X111.508 Y92.399 E8.14913
G1 X111.932 Y92.441 E8.1633
G1 X112.618 Y92.519 E8.18626
G1 X113.51 Y92.661 E8.2163
G1 X114.296 Y92.854 E8.24322
G1 X114.954 Y93.044 E8.266
G1 X115.192 Y93.116 E8.27427
G1 X115.934 Y93.35 E8.30015
G1 X116.782 Y93.66 E8.33018
G1 X117.562 Y94.023 E8.35879
G1 X118.222 Y94.366 E8.38353
G1 X118.464 Y94.496 E8.39267
G1 X119.088 Y94.84 E8.41637
G1 X119.859 Y95.311 E8.44642
G1 X120.531 Y95.804 E8.47414
G1 X121.093 Y96.253 E8.49807
G1 X121.304 Y96.427 E8.50716
G1 X121.874 Y96.908 E8.53197
G1 X122.538 Y97.52 E8.562
G1 X123.094 Y98.128 E8.58941
G1 X123.551 Y98.67 E8.61299
G1 X123.723 Y98.88 E8.62201
G1 X124.199 Y99.476 E8.64738
G1 X124.731 Y100.206 E8.67743
G1 X125.018 Y100.665 E8.69543
G1 X125.182 Y100.951 E8.7064
G1 X125.52 Y101.564 E8.72968
G1 X125.675 Y101.857 E8.7407
G1 X125.997 Y102.484 E8.76415
G1 X126.374 Y103.305 E8.7942
G1 X126.641 Y104.043 E8.8203
G1 X126.887 Y104.817 E8.84731
G1 X127.144 Y105.702 E8.87796
G1 X127.356 Y106.58 E8.908
G1 X127.442 Y107.09 E8.92521
G1 X127.489 Y107.445 E8.93712
G1 X127.569 Y108.16 E8.96105
G1 X127.597 Y108.455 E8.9709
G1 X127.655 Y109.145 E8.99393
G1 X127.691 Y110.047 E9.02396
G1 X127.655 Y110.851 E9.05072
G1 X127.597 Y111.543 E9.07382
G1 X127.554 Y111.983 E9.08853
G1 X127.513 Y112.356 E9.10101
G1 X127.483 Y112.603 E9.10928
G1 X127.455 Y112.811 E9.11626
G1 X127.295 Y113.7 E9.14631
G1 X127.153 Y114.256 E9.16539
G1 X126.935 Y115.018 E9.19175
G1 X126.842 Y115.322 E9.20233
G1 X126.631 Y115.981 E9.22534
G1 X126.225 Y117.043 E9.26316
G1 X125.968 Y117.579 E9.28293
G1 X125.642 Y118.208 E9.30649
G1 X125.506 Y118.462 E9.31607
G1 X125.162 Y119.086 E9.33977
G1 X124.691 Y119.857 E9.36982
G1 X124.2 Y120.527 E9.39745
G1 X123.764 Y121.073 E9.42069
G1 X123.591 Y121.284 E9.42976
G1 X123.096 Y121.871 E9.4553
G1 X122.483 Y122.534 E9.48534
G1 X122.005 Y122.98 E9.50708
G1 X121.804 Y123.153 E9.5159
G1 X121.316 Y123.563 E9.5371
G1 X121.122 Y123.722 E9.54544
G1 X120.525 Y124.199 E9.57086
G1 X119.795 Y124.731 E9.6009
G1 X119.28 Y125.051 E9.62107
G1 X119.021 Y125.198 E9.63097
G1 X118.446 Y125.515 E9.65281
G1 X118.204 Y125.645 E9.66195
G1 X117.548 Y125.984 E9.68651
G1 X116.728 Y126.362 E9.71654
G1 X115.95 Y126.644 E9.74406
G1 X115.138 Y126.901 E9.77239
G1 X114.906 Y126.97 E9.78044
G1 X114.262 Y127.154 E9.80272
G1 X112.949 Y127.437 E9.84739
G1 X112.888 Y127.446 E9.84944
G1 X112.527 Y127.492 E9.86155
G1 X111.829 Y127.57 E9.88491
G1 X111.538 Y127.598 E9.89463
G1 X110.865 Y127.655 E9.91709
G1 X109.962 Y127.691 E9.94715
G1 X109.162 Y127.656 E9.97379
G1 X108.486 Y127.6 E9.99635
G1 X108.192 Y127.572 E10.00617
G1 X107.398 Y127.483 E10.03274
G1 X106.506 Y127.342 E10.06278
G1 X105.693 Y127.142 E10.09063
G1 X104.986 Y126.937 E10.11511
G1 X104.757 Y126.868 E10.12306
G1 X104.063 Y126.649 E10.14727
G1 X103.215 Y126.34 E10.17729
G1 X102.437 Y125.977 E10.20584
G1 X101.777 Y125.634 E10.23058
G1 X101.54 Y125.506 E10.23954
G1 X100.917 Y125.163 E10.26319
G1 X100.146 Y124.693 E10.29323
G1 X99.46 Y124.19 E10.32152
G1 X98.938 Y123.772 E10.34376
G1 X98.743 Y123.611 E10.35217
G1 X98.134 Y123.098 E10.37866
G1 X97.469 Y122.486 E10.40872
G1 X97.029 Y122.014 E10.43018
G1 X96.84 Y121.795 E10.4398
G1 X96.424 Y121.301 E10.46128
G1 X96.253 Y121.093 E10.47024
G1 X95.799 Y120.524 E10.49445
G1 X95.267 Y119.793 E10.52452
G1 X95.008 Y119.38 E10.54073
G1 X94.821 Y119.056 E10.55317
G1 X94.509 Y118.49 E10.57467
G1 X94.321 Y118.137 E10.58797
G1 X94.034 Y117.582 E10.60875
G1 X93.651 Y116.754 E10.6391
G1 X93.622 Y116.683 E10.64165
G1 X93.338 Y115.895 E10.66951
G1 X93.125 Y115.22 E10.69305
G1 X93.05 Y114.974 E10.7016
G1 X92.851 Y114.283 E10.72552
G1 X92.64 Y113.405 E10.75555
G1 X92.54 Y112.786 E10.77641
G1 X92.508 Y112.535 E10.78482
G1 X92.443 Y111.955 E10.80423
G1 X92.401 Y111.52 E10.81877
G1 X92.345 Y110.843 E10.84136
G1 X92.31 Y109.94 E10.87142
G1 X92.329 Y109.375 E10.89022
G1 X92.337 Y109.245 E10.89455
G1 X92.355 Y109.01 E10.90239
G1 X92.401 Y108.464 E10.92062
G1 X92.436 Y108.115 E10.93228
G1 X92.516 Y107.399 E10.95625
G1 X92.656 Y106.507 E10.98628
G1 X92.859 Y105.683 E11.0145
G1 X93.076 Y104.937 E11.04034
G1 X93.157 Y104.673 E11.04953
G1 X93.365 Y104.024 E11.0722
