;FLAVOR:Marlin
;TIME:1740
;Filament used: 0.372474m
;Layer height: 0.12
;MINX:91.51
;MINY:91.51
;MINZ:0.2
;MAXX:128.49
;MAXY:128.49
;MAXZ:19.04
;Generated with Cura_SteamEngine master
M140 S60
M105
M190 S60
M104 S200
M105
M109 S200
M82 ;absolute extrusion mode
; Ender 3 Custom Start G-code
G92 E0 ; Reset Extruder
G28 ; Home all axes
G1 Z2.0 F3000 ; Move Z Axis up little to prevent scratching of Heat Bed
G1 X0.1 Y20 Z0.3 F5000.0 ; Move to start position
G1 X0.1 Y200.0 Z0.3 F1500.0 E15 ; Draw the first line
G1 X0.4 Y200.0 Z0.3 F5000.0 ; Move to side a little
G1 X0.4 Y20 Z0.3 F1500.0 E30 ; Draw the second line
G92 E0 ; Reset Extruder
G1 Z2.0 F3000 ; Move Z Axis up little to prevent scratching of Heat Bed
G1 X5 Y20 Z0.3 F5000.0 ; Move over to prevent blob squish
G92 E0
G92 E0
G1 F1500 E-6.5
;LAYER_COUNT:160
;LAYER:0
M107
G0 F6000 X96.939 Y96.913 Z0.2
;TYPE:SKIRT
G1 F1500 E0
G1 F1200 X97.354 Y96.521 E0.01899
G1 X97.413 Y96.468 E0.02162
G1 X97.691 Y96.227 E0.03386
G1 X98.171 Y95.824 E0.05471
G1 X98.381 Y95.651 E0.06376
G1 X98.981 Y95.172 E0.08929
G1 X99.738 Y94.619 E0.12047
G1 X100.523 Y94.142 E0.15102
G1 X101.196 Y93.77 E0.1766
G1 X101.496 Y93.61 E0.18791
G1 X102.108 Y93.296 E0.21079
G1 X103.142 Y92.831 E0.2485
G1 X103.178 Y92.817 E0.24978
G1 X103.851 Y92.58 E0.27351
G1 X104.541 Y92.362 E0.29758
G1 X104.807 Y92.282 E0.30682
G1 X105.49 Y92.085 E0.33046
G1 X106.401 Y91.864 E0.36164
G1 X107.318 Y91.722 E0.3925
G1 X108.035 Y91.642 E0.4165
G1 X108.51 Y91.595 E0.43237
G1 X108.734 Y91.575 E0.43985
G1 X109.165 Y91.542 E0.45423
G1 X110.103 Y91.51 E0.48545
G1 X110.733 Y91.534 E0.50642
G1 X110.959 Y91.549 E0.51395
G1 X111.188 Y91.567 E0.52159
G1 X111.552 Y91.599 E0.53374
G1 X112.062 Y91.65 E0.55079
G1 X112.472 Y91.695 E0.56451
G1 X112.721 Y91.725 E0.57285
G1 X112.879 Y91.746 E0.57815
G1 X113.803 Y91.909 E0.60936
G1 X114.449 Y92.072 E0.63152
G1 X115.269 Y92.306 E0.65988
G1 X115.58 Y92.4 E0.67069
G1 X116.194 Y92.595 E0.69211
G1 X117.075 Y92.917 E0.72331
G1 X117.709 Y93.203 E0.74644
G1 X117.964 Y93.331 E0.75593
G1 X118.481 Y93.598 E0.77529
G1 X118.864 Y93.803 E0.78974
G1 X119.486 Y94.147 E0.81338
G1 X119.831 Y94.347 E0.82664
G1 X120.614 Y94.863 E0.85783
G1 X121.051 Y95.196 E0.8761
G1 X121.6 Y95.636 E0.8995
G1 X121.813 Y95.811 E0.90867
G1 X122.388 Y96.296 E0.93369
G1 X123.079 Y96.93 E0.96488
G1 X123.54 Y97.422 E0.98731
G1 X123.773 Y97.691 E0.99914
G1 X124.176 Y98.171 E1.01999
G1 X124.349 Y98.381 E1.02904
G1 X124.824 Y98.976 E1.05436
G1 X125.377 Y99.733 E1.08554
G1 X125.64 Y100.147 E1.10186
G1 X125.883 Y100.565 E1.11794
G1 X126.169 Y101.083 E1.13762
G1 X126.378 Y101.476 E1.15242
G1 X126.694 Y102.089 E1.17536
G1 X127.048 Y102.843 E1.20306
G1 X127.059 Y102.869 E1.204
G1 X127.413 Y103.828 E1.238
G1 X127.618 Y104.474 E1.26055
G1 X127.702 Y104.752 E1.2702
G1 X127.914 Y105.487 E1.29565
G1 X128.182 Y106.651 E1.33538
G1 X128.282 Y107.349 E1.35883
G1 X128.374 Y108.188 E1.3869
G1 X128.405 Y108.506 E1.39753
G1 X128.424 Y108.723 E1.40477
G1 X128.457 Y109.149 E1.41898
G1 X128.49 Y110.087 E1.4502
G1 X128.467 Y110.709 E1.4709
G1 X128.452 Y110.941 E1.47864
G1 X128.433 Y111.188 E1.48687
G1 X128.401 Y111.552 E1.49903
G1 X128.35 Y112.062 E1.51608
G1 X128.305 Y112.472 E1.52979
G1 X128.275 Y112.721 E1.53814
G1 X128.254 Y112.879 E1.54344
G1 X128.091 Y113.803 E1.57464
G1 X127.928 Y114.449 E1.5968
G1 X127.694 Y115.269 E1.62517
G1 X127.6 Y115.58 E1.63597
G1 X127.405 Y116.194 E1.6574
G1 X127.083 Y117.075 E1.6886
G1 X126.797 Y117.709 E1.71173
G1 X126.669 Y117.964 E1.72122
G1 X126.402 Y118.481 E1.74057
G1 X126.259 Y118.75 E1.75071
G1 X125.775 Y119.624 E1.78393
G1 X125.275 Y120.417 E1.81511
G1 X124.821 Y121.028 E1.84043
G1 X124.378 Y121.583 E1.86405
G1 X124.189 Y121.813 E1.87395
G1 X123.704 Y122.388 E1.89897
G1 X123.07 Y123.079 E1.93016
G1 X122.578 Y123.54 E1.95259
G1 X122.311 Y123.772 E1.96435
G1 X121.83 Y124.176 E1.98524
G1 X121.621 Y124.347 E1.99423
G1 X121.024 Y124.824 E2.01964
G1 X120.267 Y125.377 E2.05082
G1 X119.478 Y125.858 E2.08156
G1 X118.803 Y126.231 E2.10721
G1 X118.504 Y126.39 E2.11847
G1 X117.892 Y126.704 E2.14135
G1 X116.82 Y127.184 E2.18041
G1 X116.185 Y127.408 E2.20281
G1 X115.548 Y127.611 E2.22505
G1 X115.267 Y127.696 E2.23481
G1 X114.521 Y127.912 E2.26064
G1 X113.61 Y128.134 E2.29183
G1 X112.706 Y128.275 E2.32226
G1 X111.927 Y128.363 E2.34833
G1 X111.624 Y128.392 E2.35846
G1 X110.921 Y128.451 E2.38192
G1 X109.984 Y128.49 E2.41311
G1 X109.315 Y128.469 E2.43538
G1 X109.009 Y128.447 E2.44558
G1 X108.43 Y128.398 E2.46491
G1 X108.139 Y128.369 E2.47463
G1 X107.314 Y128.277 E2.50224
G1 X106.387 Y128.134 E2.53344
G1 X105.485 Y127.914 E2.56432
G1 X104.833 Y127.726 E2.58689
G1 X104.559 Y127.643 E2.59641
G1 X103.814 Y127.407 E2.6224
G1 X102.933 Y127.086 E2.65359
G1 X102.291 Y126.797 E2.67701
G1 X102.036 Y126.669 E2.6865
G1 X101.519 Y126.402 E2.70585
G1 X101.136 Y126.197 E2.7203
G1 X100.514 Y125.853 E2.74394
G1 X99.714 Y125.364 E2.77512
G1 X98.978 Y124.826 E2.80545
G1 X98.419 Y124.38 E2.82923
G1 X98.183 Y124.186 E2.83939
G1 X97.605 Y123.698 E2.86455
G1 X96.915 Y123.063 E2.89574
G1 X96.432 Y122.547 E2.91925
G1 X96.228 Y122.311 E2.92962
G1 X95.824 Y121.83 E2.95052
G1 X95.65 Y121.618 E2.95964
G1 X95.171 Y121.018 E2.98517
G1 X94.618 Y120.261 E3.01636
G1 X94.142 Y119.479 E3.0468
G1 X93.776 Y118.815 E3.07202
G1 X93.599 Y118.483 E3.08454
G1 X93.298 Y117.897 E3.10645
G1 X92.745 Y116.63 E3.15243
G1 X92.725 Y116.575 E3.15437
G1 X92.579 Y116.146 E3.16945
G1 X92.383 Y115.529 E3.19098
G1 X92.295 Y115.236 E3.20115
G1 X92.083 Y114.498 E3.22669
G1 X91.862 Y113.586 E3.2579
G1 X91.761 Y112.986 E3.27814
G1 X91.715 Y112.624 E3.29028
G1 X91.626 Y111.811 E3.31748
G1 X91.595 Y111.493 E3.3281
G1 X91.575 Y111.266 E3.33568
G1 X91.542 Y110.835 E3.35006
G1 X91.51 Y109.897 E3.38128
G1 X91.534 Y109.267 E3.40225
G1 X91.549 Y109.041 E3.40978
G1 X91.567 Y108.812 E3.41742
G1 X91.601 Y108.433 E3.43008
G1 X91.652 Y107.92 E3.44722
G1 X91.694 Y107.535 E3.4601
G1 X91.724 Y107.288 E3.46838
G1 X91.745 Y107.129 E3.47371
G1 X91.907 Y106.205 E3.50491
G1 X92.074 Y105.544 E3.52759
G1 X92.308 Y104.726 E3.55589
G1 X92.402 Y104.415 E3.56669
G1 X92.599 Y103.796 E3.5883
G1 X92.921 Y102.915 E3.6195
G1 X93.211 Y102.275 E3.64287
G1 X93.34 Y102.018 E3.65243
G1 X93.6 Y101.515 E3.67127
G1 X93.741 Y101.25 E3.68125
G1 X94.133 Y100.539 E3.70825
G1 X94.691 Y99.634 E3.74362
G1 X94.715 Y99.599 E3.74503
G1 X95.191 Y98.956 E3.77164
G1 X95.623 Y98.415 E3.79466
G1 X95.818 Y98.178 E3.80487
G1 X96.304 Y97.603 E3.82991
G1 X96.939 Y96.913 E3.8611
G0 F6000 X97.234 Y97.185
G1 F1200 X97.621 Y96.818 E3.87884
G1 X97.68 Y96.765 E3.88148
G1 X97.948 Y96.533 E3.89327
G1 X98.428 Y96.13 E3.91411
G1 X98.631 Y95.964 E3.92283
G1 X99.231 Y95.485 E3.94837
G1 X99.974 Y94.942 E3.97898
G1 X100.716 Y94.492 E4.00784
G1 X101.389 Y94.12 E4.03342
G1 X101.678 Y93.966 E4.04431
G1 X102.29 Y93.652 E4.06719
G1 X103.287 Y93.204 E4.10354
G1 X103.323 Y93.19 E4.10482
G1 X103.972 Y92.961 E4.12772
G1 X104.662 Y92.743 E4.15178
G1 X104.917 Y92.666 E4.16064
G1 X105.6 Y92.469 E4.18429
G1 X106.495 Y92.253 E4.21491
G1 X107.363 Y92.119 E4.24412
G1 X108.08 Y92.039 E4.26811
G1 X108.549 Y91.993 E4.28379
G1 X108.765 Y91.974 E4.291
G1 X109.196 Y91.941 E4.30538
G1 X110.116 Y91.911 E4.33599
G1 X110.707 Y91.933 E4.35566
G1 X110.933 Y91.948 E4.3632
G1 X111.153 Y91.965 E4.37054
G1 X111.513 Y91.997 E4.38256
G1 X112.018 Y92.047 E4.39944
G1 X112.428 Y92.092 E4.41315
G1 X112.669 Y92.121 E4.42123
G1 X112.827 Y92.142 E4.42653
G1 X113.733 Y92.303 E4.45713
G1 X114.339 Y92.457 E4.47793
G1 X115.159 Y92.691 E4.50629
G1 X115.459 Y92.781 E4.51671
G1 X116.073 Y92.976 E4.53814
G1 X116.937 Y93.293 E4.56875
G1 X117.533 Y93.562 E4.5905
G1 X117.781 Y93.687 E4.59973
G1 X118.454 Y94.036 E4.62495
G1 X118.67 Y94.153 E4.63312
G1 X119.292 Y94.497 E4.65676
G1 X119.626 Y94.69 E4.66959
G1 X120.394 Y95.197 E4.7002
G1 X120.801 Y95.508 E4.71723
G1 X121.35 Y95.948 E4.74063
G1 X121.555 Y96.116 E4.74945
G1 X122.13 Y96.601 E4.77447
G1 X122.808 Y97.225 E4.80512
G1 X123.24 Y97.686 E4.82613
G1 X123.467 Y97.948 E4.83766
G1 X123.87 Y98.428 E4.8585
G1 X124.036 Y98.631 E4.86723
G1 X124.511 Y99.226 E4.89255
G1 X125.298 Y100.354 E4.9383
G1 X125.533 Y100.759 E4.95387
G1 X125.819 Y101.277 E4.97355
G1 X126.023 Y101.659 E4.98795
G1 X126.339 Y102.272 E5.01089
G1 X126.679 Y102.999 E5.03758
G1 X126.69 Y103.025 E5.03852
G1 X127.031 Y103.949 E5.07128
G1 X127.236 Y104.595 E5.09382
G1 X127.318 Y104.863 E5.10315
G1 X127.53 Y105.598 E5.12859
G1 X127.788 Y106.72 E5.16688
G1 X127.885 Y107.393 E5.1895
G1 X127.962 Y108.089 E5.21279
G1 X128.007 Y108.545 E5.22803
G1 X128.025 Y108.754 E5.235
G1 X128.058 Y109.18 E5.24921
G1 X128.09 Y110.1 E5.27983
G1 X128.068 Y110.683 E5.29924
G1 X128.053 Y110.915 E5.30697
G1 X128.035 Y111.153 E5.31491
G1 X128.003 Y111.513 E5.32693
G1 X127.953 Y112.018 E5.34381
G1 X127.908 Y112.428 E5.35753
G1 X127.879 Y112.669 E5.3656
G1 X127.858 Y112.827 E5.3709
G1 X127.697 Y113.733 E5.40151
G1 X127.543 Y114.339 E5.4223
G1 X127.309 Y115.159 E5.45066
G1 X127.219 Y115.459 E5.46108
G1 X127.024 Y116.073 E5.48251
G1 X126.707 Y116.937 E5.51312
G1 X126.438 Y117.533 E5.53487
G1 X126.313 Y117.781 E5.5441
G1 X125.964 Y118.454 E5.56932
G1 X125.846 Y118.672 E5.57756
G1 X125.519 Y119.263 E5.60003
G1 X125.427 Y119.425 E5.60623
G1 X124.936 Y120.204 E5.63685
G1 X124.508 Y120.779 E5.66069
G1 X124.065 Y121.334 E5.68431
G1 X123.884 Y121.555 E5.69381
G1 X123.399 Y122.13 E5.71883
G1 X122.775 Y122.808 E5.74948
G1 X122.314 Y123.24 E5.77049
G1 X122.053 Y123.466 E5.78198
G1 X121.572 Y123.87 E5.80287
G1 X121.372 Y124.034 E5.81147
G1 X120.775 Y124.511 E5.83689
G1 X120.031 Y125.054 E5.86752
G1 X119.285 Y125.508 E5.89657
G1 X118.61 Y125.881 E5.92222
G1 X118.322 Y126.034 E5.93306
G1 X117.71 Y126.348 E5.95594
G1 X116.676 Y126.81 E5.99361
G1 X116.064 Y127.027 E6.01521
G1 X115.427 Y127.23 E6.03744
G1 X115.156 Y127.312 E6.04686
G1 X114.41 Y127.528 E6.07269
G1 X113.515 Y127.745 E6.10332
G1 X112.661 Y127.878 E6.13207
G1 X112.011 Y127.952 E6.15383
G1 X111.59 Y127.994 E6.1679
G1 X110.887 Y128.053 E6.19136
G1 X109.968 Y128.09 E6.22195
G1 X109.34 Y128.069 E6.24285
G1 X109.043 Y128.048 E6.25276
G1 X108.464 Y127.999 E6.27208
G1 X108.183 Y127.972 E6.28147
G1 X107.358 Y127.88 E6.30908
G1 X106.449 Y127.738 E6.33968
G1 X105.596 Y127.53 E6.36888
G1 X104.944 Y127.342 E6.39145
G1 X104.68 Y127.262 E6.40063
G1 X103.935 Y127.026 E6.42662
G1 X103.07 Y126.71 E6.45725
G1 X102.467 Y126.438 E6.47925
G1 X102.219 Y126.313 E6.48849
G1 X101.546 Y125.964 E6.5137
G1 X101.33 Y125.847 E6.52187
G1 X100.708 Y125.503 E6.54552
G1 X99.922 Y125.023 E6.57615
G1 X99.227 Y124.513 E6.60482
G1 X98.668 Y124.067 E6.6286
G1 X98.441 Y123.88 E6.63839
G1 X97.863 Y123.392 E6.66355
G1 X97.186 Y122.768 E6.69417
G1 X96.732 Y122.283 E6.71626
G1 X96.534 Y122.053 E6.72636
G1 X96.13 Y121.572 E6.74725
G1 X95.963 Y121.368 E6.75602
G1 X95.484 Y120.768 E6.78156
G1 X94.941 Y120.025 E6.81216
G1 X94.492 Y119.286 E6.84092
G1 X94.185 Y118.731 E6.86202
G1 X93.955 Y118.3 E6.87827
G1 X93.654 Y117.714 E6.90018
G1 X93.121 Y116.493 E6.94449
G1 X93.101 Y116.438 E6.94644
G1 X92.96 Y116.025 E6.96095
G1 X92.764 Y115.408 E6.98248
G1 X92.679 Y115.126 E6.99228
G1 X92.467 Y114.388 E7.01782
G1 X92.252 Y113.493 E7.04843
G1 X92.157 Y112.931 E7.06739
G1 X92.113 Y112.58 E7.07916
G1 X92.024 Y111.772 E7.10619
G1 X91.993 Y111.454 E7.11682
G1 X91.974 Y111.235 E7.12413
G1 X91.941 Y110.804 E7.13851
G1 X91.911 Y109.884 E7.16912
G1 X91.933 Y109.293 E7.18879
G1 X91.948 Y109.067 E7.19633
G1 X91.965 Y108.847 E7.20367
G1 X91.999 Y108.473 E7.21616
G1 X92.05 Y107.963 E7.2332
G1 X92.092 Y107.578 E7.24609
G1 X92.12 Y107.34 E7.25406
G1 X92.141 Y107.181 E7.25939
G1 X92.301 Y106.274 E7.29002
G1 X92.459 Y105.654 E7.3113
G1 X92.693 Y104.836 E7.3396
G1 X92.783 Y104.536 E7.35002
G1 X92.98 Y103.917 E7.37162
G1 X93.297 Y103.053 E7.40223
G1 X93.57 Y102.452 E7.42419
G1 X93.696 Y102.202 E7.4335
G1 X94.036 Y101.546 E7.45808
G1 X94.149 Y101.337 E7.46598
G1 X94.483 Y100.732 E7.48896
G1 X95.021 Y99.86 E7.52304
G1 X95.045 Y99.825 E7.52445
G1 X95.504 Y99.206 E7.55008
G1 X95.936 Y98.665 E7.57311
G1 X96.123 Y98.436 E7.58294
G1 X96.609 Y97.861 E7.60799
G1 X97.234 Y97.185 E7.63861
G0 F6000 X97.528 Y97.456
G1 F1200 X97.889 Y97.116 E7.6551
G1 X98.205 Y96.839 E7.66908
G1 X98.685 Y96.436 E7.68992
G1 X98.88 Y96.277 E7.69829
G1 X99.48 Y95.798 E7.72383
G1 X100.21 Y95.266 E7.75387
G1 X100.91 Y94.842 E7.78109
G1 X101.583 Y94.47 E7.80667
G1 X101.861 Y94.322 E7.81714
G1 X102.473 Y94.008 E7.84002
G1 X103.432 Y93.577 E7.87499
G1 X103.468 Y93.563 E7.87627
G1 X104.092 Y93.343 E7.89828
G1 X104.782 Y93.125 E7.92235
G1 X105.028 Y93.051 E7.93089
G1 X105.711 Y92.854 E7.95453
G1 X106.589 Y92.642 E7.98458
G1 X107.407 Y92.517 E8.0121
G1 X108.268 Y92.422 E8.04091
G1 X108.587 Y92.391 E8.05157
G1 X108.795 Y92.373 E8.05851
G1 X109.226 Y92.34 E8.07289
G1 X110.129 Y92.311 E8.10294
G1 X110.681 Y92.332 E8.12131
G1 X110.907 Y92.347 E8.12885
G1 X111.474 Y92.395 E8.14777
G1 X111.975 Y92.445 E8.16452
G1 X112.385 Y92.49 E8.17824
G1 X112.616 Y92.518 E8.18598
G1 X112.774 Y92.539 E8.19128
G1 X113.663 Y92.697 E8.22131
G1 X114.229 Y92.842 E8.24074
G1 X115.049 Y93.076 E8.2691
G1 X115.337 Y93.162 E8.2791
G1 X115.951 Y93.357 E8.30053
G1 X116.799 Y93.669 E8.33058
G1 X117.356 Y93.922 E8.35093
G1 X117.597 Y94.042 E8.35988
G1 X118.265 Y94.388 E8.3849
G1 X118.476 Y94.503 E8.3929
G1 X119.098 Y94.847 E8.41654
G1 X119.42 Y95.033 E8.42891
G1 X120.173 Y95.531 E8.45893
G1 X120.551 Y95.82 E8.47476
G1 X121.1 Y96.26 E8.49816
G1 X121.297 Y96.422 E8.50664
G1 X121.872 Y96.907 E8.53166
G1 X122.536 Y97.519 E8.5617
G1 X122.941 Y97.951 E8.58139
G1 X123.161 Y98.205 E8.59257
G1 X123.564 Y98.685 E8.61341
G1 X123.723 Y98.88 E8.62178
G1 X124.198 Y99.475 E8.6471
G1 X124.955 Y100.561 E8.69113
G1 X125.182 Y100.952 E8.70617
G1 X125.535 Y101.592 E8.73048
G1 X125.667 Y101.842 E8.73988
G1 X125.983 Y102.455 E8.76282
G1 X126.311 Y103.155 E8.78853
G1 X126.322 Y103.181 E8.78947
G1 X126.65 Y104.07 E8.82099
G1 X126.855 Y104.716 E8.84353
G1 X126.933 Y104.974 E8.85249
G1 X127.145 Y105.709 E8.87794
G1 X127.394 Y106.788 E8.91477
G1 X127.487 Y107.437 E8.93657
G1 X127.578 Y108.265 E8.96428
G1 X127.609 Y108.583 E8.97491
G1 X127.627 Y108.785 E8.98165
G1 X127.66 Y109.211 E8.99586
G1 X127.689 Y110.114 E9.02591
G1 X127.669 Y110.657 E9.04399
G1 X127.654 Y110.889 E9.05172
G1 X127.636 Y111.118 E9.05936
G1 X127.605 Y111.474 E9.07124
G1 X127.555 Y111.975 E9.08799
G1 X127.51 Y112.385 E9.10171
G1 X127.482 Y112.616 E9.10945
G1 X127.461 Y112.774 E9.11475
G1 X127.303 Y113.663 E9.14478
G1 X127.158 Y114.229 E9.16421
G1 X126.924 Y115.049 E9.19258
G1 X126.838 Y115.337 E9.20257
G1 X126.643 Y115.951 E9.224
G1 X126.331 Y116.799 E9.25405
G1 X126.078 Y117.356 E9.2744
G1 X125.958 Y117.597 E9.28335
G1 X125.612 Y118.265 E9.30838
G1 X125.496 Y118.478 E9.31644
G1 X125.08 Y119.227 E9.34494
G1 X124.598 Y119.99 E9.37496
G1 X124.196 Y120.529 E9.39732
G1 X123.753 Y121.084 E9.42094
G1 X123.578 Y121.297 E9.43011
G1 X123.093 Y121.872 E9.45513
G1 X122.481 Y122.536 E9.48516
G1 X122.049 Y122.941 E9.50486
G1 X121.796 Y123.16 E9.51599
G1 X121.315 Y123.564 E9.53688
G1 X121.122 Y123.722 E9.54517
G1 X120.525 Y124.199 E9.57059
G1 X119.795 Y124.731 E9.60063
G1 X119.091 Y125.158 E9.62802
G1 X118.416 Y125.531 E9.65367
G1 X118.139 Y125.678 E9.6641
G1 X117.527 Y125.992 E9.68698
G1 X116.533 Y126.437 E9.7232
G1 X115.942 Y126.645 E9.74404
G1 X115.305 Y126.848 E9.76627
G1 X115.045 Y126.928 E9.77532
G1 X114.299 Y127.144 E9.80115
G1 X113.421 Y127.356 E9.8312
G1 X112.616 Y127.481 E9.85829
G1 X111.846 Y127.568 E9.88406
G1 X111.557 Y127.595 E9.89372
G1 X110.854 Y127.654 E9.91718
G1 X109.952 Y127.69 E9.94721
G1 X109.365 Y127.67 E9.96674
G1 X109.077 Y127.65 E9.97634
G1 X108.498 Y127.601 E9.99567
G1 X108.228 Y127.574 E10.0047
G1 X107.403 Y127.482 E10.0323
G1 X106.51 Y127.342 E10.06237
G1 X105.707 Y127.146 E10.08986
G1 X105.055 Y126.958 E10.11243
G1 X104.801 Y126.881 E10.12126
G1 X104.056 Y126.645 E10.14725
G1 X103.208 Y126.334 E10.17729
G1 X102.644 Y126.078 E10.19789
G1 X102.403 Y125.958 E10.20685
G1 X101.735 Y125.612 E10.23187
G1 X101.524 Y125.497 E10.23986
G1 X100.902 Y125.153 E10.2635
