;FLAVOR:Marlin
;TIME:3603
;Filament used: 0.85419m
;Layer height: 0.12
;MINX:86.513
;MINY:86.509
;MINZ:0.2
;MAXX:133.488
;MAXY:133.491
;MAXZ:27.56
;Generated with Cura_SteamEngine master
M140 S60
M105
M190 S60
M104 S200
M105
M109 S200
M82 ;absolute extrusion mode
; Ender 3 Custom Start G-code
G92 E0 ; Reset Extruder
G28 ; Home all axes
G1 Z2.0 F3000 ; Move Z Axis up little to prevent scratching of Heat Bed
G1 X0.1 Y20 Z0.3 F5000.0 ; Move to start position
G1 X0.1 Y200.0 Z0.3 F1500.0 E15 ; Draw the first line
G1 X0.4 Y200.0 Z0.3 F5000.0 ; Move to side a little
G1 X0.4 Y20 Z0.3 F1500.0 E30 ; Draw the second line
G92 E0 ; Reset Extruder
G1 Z2.0 F3000 ; Move Z Axis up little to prevent scratching of Heat Bed
G1 X5 Y20 Z0.3 F5000.0 ; Move over to prevent blob squish
G92 E0
G92 E0
G1 F1500 E-6.5
;LAYER_COUNT:229
;LAYER:0
M107
G0 F6000 X93.403 Y93.375 Z0.2
;TYPE:SKIRT
G1 F1500 E0
G1 F1200 X93.784 Y93.015 E0.01743
G1 X93.938 Y92.876 E0.02433
G1 X94.219 Y92.631 E0.03673
G1 X94.575 Y92.332 E0.0522
G1 X95.575 Y91.509 E0.09527
G1 X96.115 Y91.075 E0.11831
G1 X97.245 Y90.278 E0.16431
G1 X97.367 Y90.203 E0.16907
G1 X97.773 Y89.965 E0.18472
G1 X98.261 Y89.694 E0.20329
G1 X99.233 Y89.166 E0.24008
G1 X99.381 Y89.087 E0.24566
G1 X100.036 Y88.744 E0.27025
G1 X101.238 Y88.204 E0.31408
G1 X101.776 Y88.014 E0.33306
G1 X102.561 Y87.76 E0.3605
G1 X103.637 Y87.427 E0.39796
G1 X104.301 Y87.23 E0.421
G1 X105.583 Y86.932 E0.46477
G1 X106.393 Y86.794 E0.4921
G1 X106.753 Y86.739 E0.50421
G1 X107.222 Y86.675 E0.51996
G1 X107.824 Y86.61 E0.5401
G1 X108.171 Y86.582 E0.55168
G1 X108.468 Y86.562 E0.56158
G1 X108.748 Y86.547 E0.5709
G1 X108.949 Y86.538 E0.57759
G1 X109.63 Y86.514 E0.60026
G1 X110.24 Y86.509 E0.62055
G1 X110.487 Y86.514 E0.62876
G1 X110.762 Y86.523 E0.63792
G1 X111.049 Y86.536 E0.64747
G1 X111.276 Y86.549 E0.65503
G1 X112.018 Y86.598 E0.67977
G1 X112.653 Y86.658 E0.70098
G1 X112.99 Y86.7 E0.71228
G1 X113.246 Y86.735 E0.72087
G1 X113.448 Y86.765 E0.72766
G1 X114.284 Y86.904 E0.75585
G1 X115.525 Y87.186 E0.79818
G1 X116.419 Y87.445 E0.82913
G1 X116.615 Y87.504 E0.83594
G1 X117.173 Y87.677 E0.85537
G1 X117.382 Y87.744 E0.86267
G1 X118.379 Y88.075 E0.89761
G1 X119.256 Y88.408 E0.92881
G1 X119.851 Y88.685 E0.95064
G1 X120.066 Y88.793 E0.95865
G1 X120.431 Y88.984 E0.97235
G1 X121.745 Y89.699 E1.0221
G1 X122.37 Y90.05 E1.04594
G1 X123.168 Y90.544 E1.07716
G1 X123.648 Y90.889 E1.09682
G1 X123.757 Y90.972 E1.10138
G1 X123.994 Y91.158 E1.1114
G1 X124.422 Y91.504 E1.1297
G1 X125.417 Y92.327 E1.17265
G1 X125.955 Y92.784 E1.19613
G1 X126.644 Y93.421 E1.22734
G1 X127.093 Y93.902 E1.24922
G1 X127.21 Y94.035 E1.25511
G1 X127.356 Y94.205 E1.26257
G1 X127.681 Y94.591 E1.27935
G1 X128.387 Y95.447 E1.31626
G1 X128.945 Y96.142 E1.3459
G1 X129.5 Y96.898 E1.37709
G1 X129.854 Y97.463 E1.39927
G1 X129.933 Y97.598 E1.40447
G1 X130.043 Y97.791 E1.41186
G1 X130.287 Y98.23 E1.42856
G1 X130.863 Y99.293 E1.46878
G1 X131.254 Y100.039 E1.49679
G1 X131.81 Y101.286 E1.5422
G1 X131.838 Y101.361 E1.54486
G1 X131.995 Y101.809 E1.56065
G1 X132.204 Y102.455 E1.58324
G1 X132.552 Y103.575 E1.62224
G1 X132.766 Y104.296 E1.64726
G1 X133.06 Y105.562 E1.69049
G1 X133.202 Y106.392 E1.71849
G1 X133.26 Y106.767 E1.73111
G1 X133.323 Y107.231 E1.74669
G1 X133.386 Y107.81 E1.76606
G1 X133.415 Y108.163 E1.77784
G1 X133.437 Y108.499 E1.78904
G1 X133.459 Y108.937 E1.80363
G1 X133.483 Y109.599 E1.82566
G1 X133.488 Y110.196 E1.84552
G1 X133.483 Y110.474 E1.85476
G1 X133.473 Y110.79 E1.86528
G1 X133.459 Y111.089 E1.87524
G1 X133.447 Y111.295 E1.8821
G1 X133.401 Y111.996 E1.90546
G1 X133.34 Y112.644 E1.92711
G1 X133.293 Y113.019 E1.93968
G1 X133.258 Y113.273 E1.94821
G1 X133.197 Y113.67 E1.96157
G1 X133.098 Y114.263 E1.98157
G1 X132.812 Y115.518 E2.02438
G1 X132.536 Y116.469 E2.05731
G1 X132.476 Y116.668 E2.06423
G1 X132.232 Y117.453 E2.09157
G1 X132.18 Y117.616 E2.09726
G1 X131.958 Y118.293 E2.12095
G1 X131.628 Y119.17 E2.15212
G1 X131.429 Y119.611 E2.16821
G1 X131.222 Y120.026 E2.18364
G1 X130.882 Y120.671 E2.20789
G1 X130.274 Y121.79 E2.25024
G1 X129.964 Y122.343 E2.27133
G1 X129.301 Y123.384 E2.31238
G1 X129.232 Y123.48 E2.31631
G1 X128.854 Y123.976 E2.33705
G1 X128.428 Y124.503 E2.35959
G1 X127.774 Y125.297 E2.39381
G1 X127.24 Y125.928 E2.4213
G1 X126.604 Y126.617 E2.45249
G1 X126.182 Y127.015 E2.47178
G1 X126.02 Y127.16 E2.47901
G1 X125.785 Y127.365 E2.48938
G1 X125.452 Y127.645 E2.50385
G1 X124.542 Y128.397 E2.54312
G1 X123.865 Y128.941 E2.572
G1 X123.109 Y129.496 E2.6032
G1 X122.626 Y129.802 E2.62221
G1 X122.265 Y130.012 E2.6361
G1 X121.721 Y130.314 E2.6568
G1 X120.739 Y130.847 E2.69396
G1 X120.591 Y130.926 E2.69954
G1 X120.008 Y131.231 E2.72143
G1 X119.159 Y131.63 E2.75263
G1 X118.378 Y131.923 E2.78037
G1 X117.355 Y132.263 E2.81623
G1 X117.145 Y132.33 E2.82356
G1 X116.283 Y132.597 E2.85357
G1 X115.708 Y132.767 E2.87351
G1 X114.435 Y133.062 E2.91698
G1 X113.601 Y133.204 E2.94511
G1 X113.267 Y133.256 E2.95636
G1 X112.885 Y133.309 E2.96918
G1 X112.884 Y133.305 E2.96932
G1 X111.957 Y133.408 E3.00034
G1 X111.321 Y133.448 E3.02154
G1 X111.023 Y133.463 E3.03146
G1 X110.378 Y133.486 E3.05293
G1 X109.777 Y133.491 E3.07292
G1 X109.514 Y133.486 E3.08167
G1 X109.183 Y133.475 E3.09268
G1 X108.878 Y133.46 E3.10284
G1 X107.997 Y133.403 E3.1322
G1 X107.381 Y133.345 E3.15278
G1 X107.006 Y133.299 E3.16535
G1 X106.638 Y133.248 E3.1777
G1 X106.354 Y133.203 E3.18727
G1 X105.745 Y133.102 E3.2078
G1 X104.475 Y132.813 E3.25112
G1 X103.539 Y132.541 E3.28354
G1 X103.349 Y132.484 E3.29014
G1 X102.553 Y132.237 E3.31786
G1 X101.735 Y131.97 E3.34648
G1 X100.912 Y131.664 E3.37568
G1 X100.857 Y131.641 E3.37766
G1 X99.965 Y131.22 E3.41047
G1 X99.308 Y130.872 E3.4352
G1 X98.376 Y130.367 E3.47046
G1 X98.229 Y130.286 E3.47604
G1 X97.638 Y129.954 E3.49858
G1 X96.84 Y129.461 E3.52978
G1 X96.454 Y129.186 E3.54555
G1 X96.356 Y129.113 E3.54961
G1 X96.03 Y128.86 E3.56333
G1 X95.555 Y128.477 E3.58363
G1 X94.701 Y127.772 E3.62046
G1 X94.04 Y127.211 E3.6493
G1 X93.352 Y126.574 E3.68048
G1 X92.897 Y126.087 E3.70265
G1 X92.782 Y125.956 E3.70845
G1 X92.644 Y125.795 E3.7155
G1 X92.319 Y125.409 E3.73228
G1 X91.508 Y124.424 E3.77472
G1 X91.049 Y123.85 E3.79916
G1 X90.495 Y123.093 E3.83036
G1 X90.183 Y122.598 E3.84983
G1 X90.104 Y122.465 E3.85497
G1 X89.95 Y122.197 E3.86525
G1 X89.716 Y121.777 E3.88124
G1 X89.139 Y120.714 E3.92147
G1 X88.737 Y119.943 E3.95039
G1 X88.339 Y119.094 E3.98158
G1 X88.164 Y118.646 E3.99757
G1 X88.138 Y118.575 E4.00009
G1 X88.005 Y118.191 E4.01361
G1 X87.795 Y117.541 E4.03633
G1 X87.448 Y116.424 E4.07523
G1 X87.231 Y115.691 E4.10065
G1 X86.939 Y114.434 E4.14357
G1 X86.8 Y113.622 E4.17097
G1 X86.744 Y113.259 E4.18319
G1 X86.681 Y112.799 E4.19863
G1 X86.616 Y112.207 E4.21844
G1 X86.586 Y111.842 E4.23062
G1 X86.565 Y111.542 E4.24063
G1 X86.55 Y111.268 E4.24975
G1 X86.541 Y111.049 E4.25704
G1 X86.517 Y110.359 E4.28001
G1 X86.513 Y109.736 E4.30073
G1 X86.519 Y109.462 E4.30984
G1 X86.528 Y109.2 E4.31856
G1 X86.552 Y108.709 E4.33491
G1 X86.597 Y108.013 E4.35811
G1 X86.653 Y107.408 E4.37832
G1 X86.686 Y107.134 E4.3875
G1 X86.73 Y106.808 E4.39844
G1 X86.799 Y106.361 E4.41348
G1 X86.904 Y105.729 E4.43479
G1 X87.197 Y104.446 E4.47856
G1 X87.472 Y103.505 E4.51117
G1 X87.528 Y103.32 E4.5176
G1 X87.808 Y102.424 E4.54882
G1 X88.034 Y101.73 E4.5731
G1 X88.362 Y100.851 E4.6043
G1 X88.654 Y100.217 E4.62752
G1 X88.78 Y99.97 E4.63674
G1 X89.116 Y99.331 E4.66075
G1 X89.652 Y98.343 E4.69814
G1 X90.04 Y97.65 E4.72455
G1 X90.699 Y96.616 E4.76533
G1 X90.768 Y96.52 E4.76927
G1 X91.146 Y96.024 E4.79001
G1 X91.568 Y95.503 E4.81231
G1 X92.222 Y94.708 E4.84655
G1 X92.767 Y94.064 E4.87461
G1 X93.403 Y93.375 E4.90579
G0 F6000 X93.697 Y93.647
G1 F1200 X94.052 Y93.312 E4.92203
G1 X94.206 Y93.173 E4.92893
G1 X94.476 Y92.937 E4.94086
G1 X94.829 Y92.641 E4.95618
G1 X95.826 Y91.821 E4.99911
G1 X96.366 Y91.387 E5.02216
G1 X97.455 Y90.619 E5.06648
G1 X97.577 Y90.544 E5.07124
G1 X97.968 Y90.315 E5.08631
G1 X98.452 Y90.046 E5.10473
G1 X99.424 Y89.518 E5.14152
G1 X100.222 Y89.099 E5.1715
G1 X101.38 Y88.578 E5.21373
G1 X101.899 Y88.395 E5.23203
G1 X102.68 Y88.142 E5.25934
G1 X103.624 Y87.849 E5.29221
G1 X104.415 Y87.614 E5.31966
G1 X105.65 Y87.327 E5.36183
G1 X106.46 Y87.189 E5.38916
G1 X106.807 Y87.135 E5.40084
G1 X107.276 Y87.071 E5.41658
G1 X107.856 Y87.008 E5.43599
G1 X108.203 Y86.98 E5.44757
G1 X108.489 Y86.961 E5.4571
G1 X108.769 Y86.946 E5.46643
G1 X109.644 Y86.914 E5.49555
G1 X110.232 Y86.909 E5.51511
G1 X110.479 Y86.914 E5.52332
G1 X110.744 Y86.923 E5.53214
G1 X111.031 Y86.936 E5.5417
G1 X111.249 Y86.948 E5.54896
G1 X111.991 Y86.997 E5.57369
G1 X112.604 Y87.055 E5.59417
G1 X112.941 Y87.097 E5.60547
G1 X113.187 Y87.131 E5.61373
G1 X113.585 Y87.192 E5.62712
G1 X114.217 Y87.298 E5.64843
G1 X115.414 Y87.571 E5.68927
G1 X116.497 Y87.886 E5.72678
G1 X117.055 Y88.059 E5.74621
G1 X117.256 Y88.124 E5.75324
G1 X118.253 Y88.455 E5.78818
G1 X119.113 Y88.783 E5.81879
G1 X119.671 Y89.043 E5.83927
G1 X119.886 Y89.151 E5.84727
G1 X120.336 Y89.387 E5.86417
G1 X121.42 Y89.976 E5.9052
G1 X122.174 Y90.399 E5.93396
G1 X122.957 Y90.884 E5.96459
G1 X123.406 Y91.208 E5.98301
G1 X123.515 Y91.291 E5.98756
G1 X123.743 Y91.469 E5.99718
G1 X124.167 Y91.812 E6.01532
G1 X125.046 Y92.538 E6.05324
G1 X125.696 Y93.089 E6.08158
G1 X126.372 Y93.715 E6.11223
G1 X126.793 Y94.167 E6.13277
G1 X126.91 Y94.3 E6.13866
G1 X127.05 Y94.463 E6.14581
G1 X127.372 Y94.845 E6.16243
G1 X128.174 Y95.819 E6.20439
G1 X128.633 Y96.392 E6.22881
G1 X129.177 Y97.135 E6.25944
G1 X129.509 Y97.665 E6.28024
G1 X129.588 Y97.8 E6.28544
G1 X129.694 Y97.986 E6.29256
G1 X129.936 Y98.421 E6.30912
G1 X130.512 Y99.484 E6.34933
G1 X130.9 Y100.224 E6.37712
G1 X131.436 Y101.426 E6.42089
G1 X131.464 Y101.501 E6.42356
G1 X131.614 Y101.933 E6.43877
G1 X131.822 Y102.574 E6.46118
G1 X132.212 Y103.832 E6.50499
G1 X132.383 Y104.41 E6.52503
G1 X132.666 Y105.629 E6.56666
G1 X132.808 Y106.459 E6.59466
G1 X132.864 Y106.821 E6.60685
G1 X132.927 Y107.285 E6.62242
G1 X132.987 Y107.843 E6.64109
G1 X133.016 Y108.196 E6.65287
G1 X133.038 Y108.519 E6.66363
G1 X133.059 Y108.952 E6.67805
G1 X133.083 Y109.614 E6.70009
G1 X133.088 Y110.189 E6.71921
G1 X133.083 Y110.467 E6.72846
G1 X133.073 Y110.772 E6.73861
G1 X133.059 Y111.071 E6.74856
G1 X133.048 Y111.269 E6.75516
G1 X133.002 Y111.97 E6.77853
G1 X132.943 Y112.594 E6.79937
G1 X132.896 Y112.969 E6.81194
G1 X132.862 Y113.214 E6.82017
G1 X132.802 Y113.604 E6.83329
G1 X132.703 Y114.197 E6.85329
G1 X132.428 Y115.406 E6.89453
G1 X132.152 Y116.357 E6.92746
G1 X132.094 Y116.549 E6.93413
G1 X131.8 Y117.491 E6.96696
G1 X131.578 Y118.168 E6.99065
G1 X131.069 Y119.438 E7.03616
G1 X130.868 Y119.84 E7.05111
G1 X130.531 Y120.48 E7.07517
G1 X129.996 Y121.466 E7.11248
G1 X129.615 Y122.147 E7.13843
G1 X128.976 Y123.151 E7.17801
G1 X128.907 Y123.247 E7.18195
G1 X128.543 Y123.724 E7.2019
G1 X128.119 Y124.248 E7.22432
G1 X127.372 Y125.154 E7.26338
G1 X126.935 Y125.67 E7.28587
G1 X126.31 Y126.346 E7.31649
G1 X125.915 Y126.717 E7.33451
G1 X125.753 Y126.862 E7.34174
G1 X125.526 Y127.06 E7.35176
G1 X125.197 Y127.337 E7.36607
G1 X124.287 Y128.089 E7.40533
G1 X123.615 Y128.629 E7.434
G1 X122.872 Y129.173 E7.46463
G1 X122.421 Y129.459 E7.48239
G1 X122.349 Y129.502 E7.48518
G1 X122.071 Y129.662 E7.49585
G1 X121.531 Y129.962 E7.5164
G1 X120.549 Y130.495 E7.55356
G1 X119.823 Y130.876 E7.58083
G1 X118.989 Y131.267 E7.61147
G1 X118.252 Y131.543 E7.63764
G1 X117.229 Y131.883 E7.6735
G1 X117.027 Y131.948 E7.68055
G1 X116.169 Y132.213 E7.71042
G1 X115.594 Y132.383 E7.73036
G1 X114.368 Y132.668 E7.77223
G1 X113.534 Y132.81 E7.80037
G1 X113.212 Y132.859 E7.8112
G1 X112.83 Y132.912 E7.82403
G1 X112.83 Y132.909 E7.82413
G1 X111.932 Y133.009 E7.85418
G1 X111.296 Y133.049 E7.87537
G1 X111.009 Y133.063 E7.88493
G1 X110.364 Y133.086 E7.9064
G1 X109.785 Y133.091 E7.92566
G1 X109.522 Y133.086 E7.9344
G1 X109.202 Y133.075 E7.94505
G1 X108.721 Y133.05 E7.96107
G1 X108.023 Y133.004 E7.98434
G1 X107.429 Y132.948 E8.00418
G1 X107.054 Y132.902 E8.01675
G1 X106.7 Y132.853 E8.02864
G1 X105.811 Y132.707 E8.0586
G1 X104.587 Y132.429 E8.10035
G1 X103.651 Y132.157 E8.13277
G1 X103.468 Y132.102 E8.13912
G1 X102.672 Y131.855 E8.16684
G1 X101.859 Y131.59 E8.19528
G1 X101.066 Y131.295 E8.22343
G1 X101.011 Y131.272 E8.22541
G1 X100.152 Y130.867 E8.25699
G1 X99.498 Y130.521 E8.2816
G1 X98.424 Y129.938 E8.32225
G1 X97.833 Y129.606 E8.34479
G1 X96.693 Y128.865 E8.39002
G1 X96.595 Y128.792 E8.39408
G1 X96.281 Y128.549 E8.40729
G1 X95.912 Y128.252 E8.42304
G1 X94.839 Y127.366 E8.46932
G1 X94.299 Y126.907 E8.4929
G1 X93.624 Y126.28 E8.52354
G1 X93.198 Y125.823 E8.54432
G1 X93.083 Y125.692 E8.55012
G1 X92.95 Y125.537 E8.55691
G1 X92.628 Y125.155 E8.57353
G1 X91.82 Y124.174 E8.6158
G1 X91.361 Y123.6 E8.64024
G1 X90.818 Y122.857 E8.67085
G1 X90.526 Y122.393 E8.68908
G1 X90.447 Y122.26 E8.69423
G1 X90.299 Y122.002 E8.70412
G1 X90.068 Y121.586 E8.71995
G1 X89.491 Y120.523 E8.76018
G1 X89.405 Y120.362 E8.76625
G1 X89.091 Y119.759 E8.78886
G1 X88.539 Y118.508 E8.83434
G1 X88.513 Y118.437 E8.83685
G1 X88.386 Y118.067 E8.84986
G1 X88.177 Y117.423 E8.87238
G1 X87.83 Y116.306 E8.91129
G1 X87.614 Y115.577 E8.93657
G1 X87.333 Y114.367 E8.97789
G1 X87.194 Y113.555 E9.00529
G1 X87.14 Y113.204 E9.0171
G1 X87.077 Y112.744 E9.03254
G1 X87.015 Y112.174 E9.05161
G1 X86.985 Y111.809 E9.0638
G1 X86.965 Y111.52 E9.07343
G1 X86.94 Y111.035 E9.08958
G1 X86.916 Y110.345 E9.11255
G1 X86.913 Y109.745 E9.1325
G1 X86.919 Y109.471 E9.14162
G1 X86.927 Y109.218 E9.15004
G1 X86.94 Y108.934 E9.15949
G1 X86.951 Y108.735 E9.16612
G1 X86.996 Y108.039 E9.18932
G1 X87.05 Y107.456 E9.20879
G1 X87.083 Y107.182 E9.21797
G1 X87.126 Y106.868 E9.22851
G1 X87.193 Y106.427 E9.24335
G1 X87.298 Y105.795 E9.26466
G1 X87.581 Y104.559 E9.30683
G1 X87.909 Y103.439 E9.34565
G1 X88.146 Y102.678 E9.37216
G1 X88.414 Y101.854 E9.40098
G1 X88.737 Y100.992 E9.43159
G1 X89.012 Y100.396 E9.45343
G1 X89.134 Y100.156 E9.46238
G1 X89.468 Y99.521 E9.48624
G1 X90.004 Y98.533 E9.52363
G1 X90.389 Y97.846 E9.54982
G1 X91.024 Y96.849 E9.58914
G1 X91.093 Y96.753 E9.59307
G1 X91.457 Y96.276 E9.61303
G1 X91.877 Y95.757 E9.63523
G1 X92.531 Y94.962 E9.66947
G1 X93.072 Y94.323 E9.69732
G1 X93.697 Y93.647 E9.72794
G0 F6000 X93.991 Y93.92
G1 F1200 X94.32 Y93.609 E9.743
G1 X94.474 Y93.47 E9.7499
G1 X94.734 Y93.243 E9.76138
G1 X95.083 Y92.95 E9.77653
G1 X96.076 Y92.133 E9.8193
G1 X96.616 Y91.699 E9.84234
G1 X97.664 Y90.96 E9.885
G1 X97.786 Y90.885 E9.88976
G1 X98.163 Y90.664 E9.90429
G1 X98.643 Y90.397 E9.92256
G1 X99.615 Y89.869 E9.95935
G1 X100.407 Y89.453 E9.98911
G1 X101.522 Y88.952 E10.02976
G1 X102.023 Y88.775 E10.04744
G1 X102.798 Y88.524 E10.07453
G1 X103.865 Y88.194 E10.11168
G1 X104.529 Y87.997 E10.13472
G1 X105.717 Y87.721 E10.17528
G1 X106.527 Y87.583 E10.20261
G1 X106.861 Y87.532 E10.21385
G1 X107.33 Y87.468 E10.22959
G1 X107.889 Y87.407 E10.24829
G1 X108.236 Y87.379 E10.25987
G1 X108.51 Y87.361 E10.26901
G1 X108.977 Y87.337 E10.28456
G1 X109.658 Y87.313 E10.30722
G1 X110.223 Y87.309 E10.32601
G1 X110.47 Y87.314 E10.33423
G1 X110.726 Y87.322 E10.34275
G1 X111.013 Y87.335 E10.35231
G1 X111.223 Y87.347 E10.3593
G1 X111.965 Y87.396 E10.38403
G1 X112.554 Y87.452 E10.40371
G1 X112.891 Y87.494 E10.41501
G1 X113.128 Y87.527 E10.42297
G1 X113.519 Y87.587 E10.43612
G1 X114.151 Y87.693 E10.45744
G1 X115.302 Y87.955 E10.4967
G1 X116.379 Y88.268 E10.534
G1 X116.937 Y88.441 E10.55343
G1 X118.127 Y88.835 E10.59513
G1 X118.971 Y89.157 E10.62517
G1 X119.492 Y89.4 E10.64429
G1 X119.707 Y89.508 E10.65229
G1 X120.056 Y89.691 E10.6654
G1 X121.354 Y90.397 E10.71455
G1 X121.979 Y90.748 E10.73839
G1 X122.746 Y91.224 E10.76841
G1 X123.163 Y91.526 E10.78554
G1 X123.272 Y91.609 E10.79009
G1 X123.492 Y91.781 E10.79938
G1 X123.912 Y92.121 E10.81735
G1 X124.899 Y92.937 E10.85995
G1 X125.437 Y93.394 E10.88343
G1 X126.099 Y94.009 E10.91348
G1 X126.492 Y94.431 E10.93266
G1 X126.745 Y94.721 E10.94546
G1 X127.064 Y95.1 E10.96194
G1 X127.862 Y96.069 E11.00369
G1 X128.321 Y96.642 E11.02811
G1 X128.854 Y97.371 E11.05814
