;FLAVOR:Marlin
;TIME:3395
;Filament used: 0.629983m
;Layer height: 0.2
;MINX:96.346
;MINY:95.883
;MINZ:0.2
;MAXX:133.326
;MAXY:132.85
;MAXZ:25.8
;Generated with Cura_SteamEngine master
M140 S55
M105
M190 S55
M104 S185
M105
M109 S185
M82 ;absolute extrusion mode
; Ender 3 Custom Start G-code
G92 E0 ; Reset Extruder
G28 ; Home all axes
G1 Z2.0 F3000 ; Move Z Axis up little to prevent scratching of Heat Bed
G1 X0.1 Y20 Z0.3 F5000.0 ; Move to start position
G1 X0.1 Y200.0 Z0.3 F1500.0 E15 ; Draw the first line
G1 X0.4 Y200.0 Z0.3 F5000.0 ; Move to side a little
G1 X0.4 Y20 Z0.3 F1500.0 E30 ; Draw the second line
G92 E0 ; Reset Extruder
G1 Z2.0 F3000 ; Move Z Axis up little to prevent scratching of Heat Bed
G1 X5 Y20 Z0.3 F5000.0 ; Move over to prevent blob squish
G92 E0
G92 E0
G1 F1500 E-6.5
;LAYER_COUNT:130
;LAYER:0
M107
G0 F6000 X116.609 Y96.799 Z0.2
;TYPE:SKIRT
G1 F1500 E0
G1 F1200 X117.42 Y96.889 E0.02714
G1 X118.312 Y97.028 E0.05717
G1 X119.099 Y97.22 E0.08411
G1 X120.036 Y97.492 E0.11656
G1 X120.781 Y97.728 E0.14255
G1 X121.629 Y98.039 E0.17259
G1 X122.375 Y98.386 E0.19996
G1 X123.205 Y98.818 E0.23108
G1 X123.918 Y99.211 E0.25816
G1 X124.689 Y99.682 E0.28821
G1 X125.327 Y100.148 E0.31449
G1 X126.053 Y100.728 E0.34539
G1 X126.66 Y101.237 E0.37174
G1 X127.326 Y101.848 E0.4018
G1 X127.857 Y102.423 E0.42783
G1 X128.354 Y103.004 E0.45326
G1 X128.579 Y103.276 E0.465
G1 X129.035 Y103.848 E0.48933
G1 X129.566 Y104.578 E0.51936
G1 X129.971 Y105.244 E0.54528
G1 X130.406 Y106.035 E0.57531
G1 X130.802 Y106.796 E0.60384
G1 X131.183 Y107.614 E0.63385
G1 X131.465 Y108.383 E0.6611
G1 X131.763 Y109.326 E0.69399
G1 X131.983 Y110.09 E0.72043
G1 X132.194 Y110.968 E0.75047
G1 X132.315 Y111.75 E0.77679
G1 X132.421 Y112.716 E0.80911
G1 X132.488 Y113.493 E0.83505
G1 X132.526 Y114.395 E0.86507
G1 X132.492 Y115.203 E0.89197
G1 X132.41 Y116.143 E0.92336
G1 X132.321 Y116.943 E0.95013
G1 X132.182 Y117.835 E0.98015
G1 X132.003 Y118.575 E1.00548
G1 X131.729 Y119.532 E1.03859
G1 X131.492 Y120.284 E1.06481
G1 X131.183 Y121.132 E1.09483
G1 X130.842 Y121.869 E1.12184
G1 X130.51 Y122.517 E1.14605
G1 X130.365 Y122.789 E1.15631
G1 X130.009 Y123.435 E1.18084
G1 X129.539 Y124.206 E1.21087
G1 X129.097 Y124.812 E1.23582
G1 X128.464 Y125.61 E1.2697
G1 X127.964 Y126.205 E1.29555
G1 X127.353 Y126.87 E1.32558
G1 X126.803 Y127.379 E1.35051
G1 X126.263 Y127.843 E1.37419
G1 X125.982 Y128.076 E1.38633
G1 X125.365 Y128.569 E1.4126
G1 X124.635 Y129.101 E1.44264
G1 X123.93 Y129.528 E1.47005
G1 X123.086 Y129.99 E1.50206
G1 X122.4 Y130.346 E1.52776
G1 X121.581 Y130.727 E1.55781
G1 X121.087 Y130.915 E1.57539
G1 X120.871 Y130.991 E1.583
G1 X120.465 Y131.124 E1.59721
G1 X119.834 Y131.315 E1.61914
G1 X119.109 Y131.523 E1.64422
G1 X118.231 Y131.734 E1.67426
G1 X117.442 Y131.854 E1.7008
G1 X116.485 Y131.959 E1.73282
G1 X115.854 Y132.013 E1.75389
G1 X114.951 Y132.05 E1.78395
G1 X114.296 Y132.027 E1.80575
G1 X113.187 Y131.952 E1.84272
G1 X112.74 Y131.912 E1.85764
G1 X112.249 Y131.857 E1.87407
G1 X111.356 Y131.716 E1.90414
G1 X110.582 Y131.528 E1.93064
G1 X109.598 Y131.242 E1.96472
G1 X108.886 Y131.016 E1.98956
G1 X108.038 Y130.705 E2.01961
G1 X107.298 Y130.36 E2.04676
G1 X106.474 Y129.931 E2.07766
G1 X105.76 Y129.538 E2.10477
G1 X104.988 Y129.068 E2.13483
G1 X104.308 Y128.568 E2.1629
G1 X103.458 Y127.884 E2.19919
G1 X102.982 Y127.482 E2.21991
G1 X102.318 Y126.869 E2.24997
G1 X101.829 Y126.339 E2.27395
G1 X101.418 Y125.861 E2.29492
G1 X101.196 Y125.594 E2.30647
G1 X100.652 Y124.916 E2.33538
G1 X100.119 Y124.188 E2.36539
G1 X99.683 Y123.472 E2.39327
G1 X99.209 Y122.606 E2.42611
G1 X98.853 Y121.917 E2.4519
G1 X98.475 Y121.097 E2.48193
G1 X98.199 Y120.34 E2.50873
G1 X97.914 Y119.433 E2.54035
G1 X97.691 Y118.66 E2.56711
G1 X97.479 Y117.782 E2.59715
G1 X97.358 Y116.996 E2.6236
G1 X97.257 Y116.086 E2.65406
G1 X97.185 Y115.263 E2.68154
G1 X97.146 Y114.361 E2.71156
G1 X97.183 Y113.503 E2.74013
G1 X97.271 Y112.52 E2.77295
G1 X97.354 Y111.776 E2.79785
G1 X97.494 Y110.884 E2.82788
G1 X97.69 Y110.082 E2.85534
G1 X97.943 Y109.215 E2.88538
G1 X98.188 Y108.439 E2.91245
G1 X98.498 Y107.591 E2.94248
G1 X98.846 Y106.841 E2.96998
G1 X99.159 Y106.233 E2.99272
G1 X99.299 Y105.972 E3.00257
G1 X99.675 Y105.291 E3.02845
G1 X100.146 Y104.52 E3.0585
G1 X100.599 Y103.9 E3.08404
G1 X101.206 Y103.139 E3.11641
G1 X101.709 Y102.54 E3.14243
G1 X102.32 Y101.874 E3.17249
G1 X102.894 Y101.344 E3.19847
G1 X103.457 Y100.863 E3.2231
G1 X103.724 Y100.643 E3.23461
G1 X104.321 Y100.167 E3.26
G1 X105.052 Y99.636 E3.29005
G1 X105.758 Y99.208 E3.31751
G1 X106.549 Y98.776 E3.34749
G1 X107.271 Y98.401 E3.37455
G1 X108.09 Y98.021 E3.40458
G1 X108.864 Y97.738 E3.43199
G1 X109.81 Y97.44 E3.46498
G1 X110.537 Y97.23 E3.49015
G1 X111.415 Y97.018 E3.52019
G1 X112.194 Y96.897 E3.54641
G1 X113.144 Y96.791 E3.5782
G1 X113.952 Y96.721 E3.60518
G1 X114.854 Y96.683 E3.6352
G1 X115.674 Y96.718 E3.6625
G1 X116.609 Y96.799 E3.69372
G0 F6000 X116.653 Y96.402
G1 F1200 X117.464 Y96.492 E3.72086
G1 X118.374 Y96.633 E3.75148
G1 X119.209 Y96.835 E3.78006
G1 X120.157 Y97.111 E3.8129
G1 X120.902 Y97.347 E3.83889
G1 X121.767 Y97.663 E3.86952
G1 X122.558 Y98.03 E3.89852
G1 X123.398 Y98.468 E3.93003
G1 X124.111 Y98.861 E3.95711
G1 X124.897 Y99.34 E3.98772
G1 X125.576 Y99.835 E4.01567
G1 X126.31 Y100.422 E4.04693
G1 X126.917 Y100.931 E4.07328
G1 X127.596 Y101.552 E4.10388
G1 X128.161 Y102.163 E4.13156
G1 X128.658 Y102.744 E4.15699
G1 X128.892 Y103.026 E4.16918
G1 X129.348 Y103.598 E4.19351
G1 X129.89 Y104.343 E4.22415
G1 X130.32 Y105.049 E4.25165
G1 X130.761 Y105.85 E4.28206
G1 X131.157 Y106.611 E4.31059
G1 X131.546 Y107.445 E4.3412
G1 X131.846 Y108.26 E4.37008
G1 X132.053 Y108.904 E4.39258
G1 X132.147 Y109.215 E4.40339
G1 X132.367 Y109.979 E4.42983
G1 X132.583 Y110.874 E4.46046
G1 X132.712 Y111.704 E4.48839
G1 X132.82 Y112.681 E4.52109
G1 X132.887 Y113.458 E4.54703
G1 X132.926 Y114.378 E4.57765
G1 X132.891 Y115.236 E4.60621
G1 X132.808 Y116.187 E4.63796
G1 X132.719 Y116.987 E4.66474
G1 X132.578 Y117.897 E4.69536
G1 X132.388 Y118.684 E4.72229
G1 X132.111 Y119.652 E4.75578
G1 X131.874 Y120.404 E4.782
G1 X131.559 Y121.269 E4.81262
G1 X131.198 Y122.051 E4.84127
G1 X130.716 Y122.982 E4.87614
G1 X130.36 Y123.628 E4.90067
G1 X129.881 Y124.414 E4.93129
G1 X129.412 Y125.06 E4.95784
G1 X128.991 Y125.596 E4.98051
G1 X128.77 Y125.867 E4.99214
G1 X128.27 Y126.462 E5.01799
G1 X127.648 Y127.141 E5.04861
G1 X127.063 Y127.683 E5.07514
G1 X126.523 Y128.147 E5.09882
G1 X126.232 Y128.388 E5.11138
G1 X125.615 Y128.881 E5.13765
G1 X124.871 Y129.424 E5.16829
G1 X124.124 Y129.878 E5.19736
G1 X123.271 Y130.346 E5.22972
G1 X122.585 Y130.702 E5.25543
G1 X121.75 Y131.09 E5.28605
G1 X121.22 Y131.292 E5.30492
G1 X121.004 Y131.368 E5.31253
G1 X120.582 Y131.507 E5.32731
G1 X119.944 Y131.7 E5.34948
G1 X119.219 Y131.908 E5.37457
G1 X118.324 Y132.123 E5.40518
G1 X117.487 Y132.252 E5.43335
G1 X116.519 Y132.357 E5.46573
G1 X115.888 Y132.411 E5.4868
G1 X114.968 Y132.45 E5.51742
G1 X114.269 Y132.426 E5.54069
G1 X113.16 Y132.351 E5.57766
G1 X112.695 Y132.309 E5.59318
G1 X112.204 Y132.254 E5.60962
G1 X111.294 Y132.112 E5.64025
G1 X110.472 Y131.912 E5.66839
G1 X109.477 Y131.623 E5.70285
G1 X108.765 Y131.397 E5.7277
G1 X107.9 Y131.081 E5.75833
G1 X107.115 Y130.716 E5.78712
G1 X106.281 Y130.281 E5.8184
G1 X105.567 Y129.888 E5.84551
G1 X104.78 Y129.41 E5.87614
G1 X104.058 Y128.88 E5.90593
G1 X103.2 Y128.189 E5.94257
G1 X102.724 Y127.787 E5.96329
G1 X102.047 Y127.163 E5.99391
G1 X101.526 Y126.6 E6.01943
G1 X101.115 Y126.122 E6.04039
G1 X100.884 Y125.845 E6.05239
G1 X100.34 Y125.167 E6.0813
G1 X99.796 Y124.424 E6.11193
G1 X99.333 Y123.665 E6.1415
G1 X98.854 Y122.79 E6.17468
G1 X98.498 Y122.101 E6.20047
G1 X98.111 Y121.265 E6.23111
G1 X97.818 Y120.462 E6.25954
G1 X97.529 Y119.544 E6.29155
G1 X97.306 Y118.771 E6.31831
G1 X97.09 Y117.876 E6.34893
G1 X96.96 Y117.042 E6.37701
G1 X96.858 Y116.121 E6.40783
G1 X96.786 Y115.298 E6.43531
G1 X96.746 Y114.378 E6.46593
G1 X96.785 Y113.468 E6.49623
G1 X96.873 Y112.476 E6.52935
G1 X96.956 Y111.732 E6.55425
G1 X97.098 Y110.822 E6.58488
G1 X97.306 Y109.971 E6.61402
G1 X97.562 Y109.095 E6.64438
G1 X97.807 Y108.319 E6.67144
G1 X98.122 Y107.454 E6.70206
G1 X98.491 Y106.658 E6.73124
G1 X98.948 Y105.778 E6.76422
G1 X99.324 Y105.097 E6.7901
G1 X99.804 Y104.312 E6.8207
G1 X100.285 Y103.652 E6.84786
G1 X100.899 Y102.881 E6.88064
G1 X101.402 Y102.282 E6.90666
G1 X102.025 Y101.604 E6.93728
G1 X102.635 Y101.04 E6.96492
G1 X103.198 Y100.559 E6.98954
G1 X103.475 Y100.33 E7.0015
G1 X104.072 Y99.854 E7.02689
G1 X104.816 Y99.312 E7.05751
G1 X105.565 Y98.858 E7.08664
G1 X106.364 Y98.421 E7.11693
G1 X107.086 Y98.046 E7.14399
G1 X107.921 Y97.658 E7.17461
G1 X108.742 Y97.357 E7.2037
G1 X109.699 Y97.055 E7.23707
G1 X110.426 Y96.845 E7.26224
G1 X111.321 Y96.629 E7.29287
G1 X112.148 Y96.499 E7.32071
G1 X112.804 Y96.423 E7.34267
G1 X113.109 Y96.393 E7.35287
G1 X113.917 Y96.323 E7.37984
G1 X114.837 Y96.283 E7.41047
G1 X115.707 Y96.319 E7.43943
G1 X116.653 Y96.402 E7.47102
G0 F6000 X116.697 Y96.004
G1 F1200 X117.508 Y96.094 E7.49816
G1 X118.435 Y96.237 E7.52935
G1 X119.319 Y96.451 E7.5596
G1 X120.278 Y96.73 E7.59282
G1 X121.023 Y96.966 E7.61882
G1 X121.904 Y97.287 E7.65
G1 X122.741 Y97.675 E7.68069
G1 X123.591 Y98.117 E7.71255
G1 X124.304 Y98.51 E7.73963
G1 X125.105 Y98.998 E7.77083
G1 X125.824 Y99.521 E7.8004
G1 X126.567 Y100.115 E7.83204
G1 X127.174 Y100.624 E7.85838
G1 X127.866 Y101.257 E7.88958
G1 X128.465 Y101.903 E7.91888
G1 X128.962 Y102.484 E7.94431
G1 X129.204 Y102.777 E7.95695
G1 X129.66 Y103.349 E7.98128
G1 X130.213 Y104.107 E8.01248
G1 X130.67 Y104.855 E8.04164
G1 X131.116 Y105.665 E8.07239
G1 X131.512 Y106.426 E8.10093
G1 X131.909 Y107.276 E8.13213
G1 X132.226 Y108.138 E8.16268
G1 X132.433 Y108.782 E8.18518
G1 X132.531 Y109.104 E8.19637
G1 X132.751 Y109.868 E8.22281
G1 X132.972 Y110.78 E8.25403
G1 X133.109 Y111.658 E8.28358
G1 X133.218 Y112.647 E8.31667
G1 X133.285 Y113.424 E8.34261
G1 X133.326 Y114.361 E8.37381
G1 X133.289 Y115.268 E8.404
G1 X133.206 Y116.231 E8.43615
G1 X133.117 Y117.031 E8.46292
G1 X132.973 Y117.958 E8.49412
G1 X132.774 Y118.792 E8.52264
G1 X132.591 Y119.443 E8.54513
G1 X132.492 Y119.772 E8.55656
G1 X132.255 Y120.524 E8.58278
G1 X131.936 Y121.406 E8.61398
G1 X131.554 Y122.234 E8.64431
G1 X131.222 Y122.882 E8.66852
G1 X131.066 Y123.175 E8.67956
G1 X130.71 Y123.821 E8.7041
G1 X130.223 Y124.622 E8.73528
G1 X129.727 Y125.307 E8.7634
G1 X129.306 Y125.843 E8.78607
G1 X129.076 Y126.125 E8.79818
G1 X128.576 Y126.72 E8.82403
G1 X127.943 Y127.411 E8.8552
G1 X127.324 Y127.986 E8.8833
G1 X126.784 Y128.45 E8.90698
G1 X126.482 Y128.701 E8.92004
G1 X125.865 Y129.194 E8.9463
G1 X125.108 Y129.747 E8.97748
G1 X124.317 Y130.228 E9.00828
G1 X123.455 Y130.701 E9.04098
G1 X122.769 Y131.057 E9.06668
G1 X121.919 Y131.453 E9.09787
G1 X121.353 Y131.669 E9.11802
G1 X121.137 Y131.745 E9.12564
G1 X120.699 Y131.889 E9.14097
G1 X120.054 Y132.084 E9.16339
G1 X119.329 Y132.292 E9.18847
G1 X118.418 Y132.512 E9.21964
G1 X117.532 Y132.649 E9.24946
G1 X116.553 Y132.756 E9.28222
G1 X115.922 Y132.81 E9.30328
G1 X114.985 Y132.85 E9.33447
G1 X114.242 Y132.825 E9.3592
G1 X113.133 Y132.75 E9.39617
G1 X112.65 Y132.707 E9.4123
G1 X112.159 Y132.652 E9.42873
G1 X111.233 Y132.508 E9.4599
G1 X110.362 Y132.297 E9.48971
G1 X109.356 Y132.005 E9.52455
G1 X108.644 Y131.779 E9.54939
G1 X107.763 Y131.457 E9.58059
G1 X106.932 Y131.071 E9.61107
G1 X106.088 Y130.632 E9.64271
G1 X105.374 Y130.239 E9.66982
G1 X104.572 Y129.752 E9.70102
G1 X103.808 Y129.193 E9.73251
G1 X102.942 Y128.495 E9.7695
G1 X102.466 Y128.093 E9.79023
G1 X101.775 Y127.458 E9.82144
G1 X101.222 Y126.861 E9.84851
G1 X100.811 Y126.383 E9.86947
G1 X100.572 Y126.095 E9.88192
G1 X100.028 Y125.417 E9.91083
G1 X99.473 Y124.661 E9.94203
G1 X98.983 Y123.859 E9.97329
G1 X98.498 Y122.973 E10.00688
G1 X98.142 Y122.284 E10.03267
G1 X97.748 Y121.434 E10.06384
G1 X97.437 Y120.583 E10.09397
G1 X97.145 Y119.655 E10.12633
G1 X96.922 Y118.882 E10.15309
G1 X96.701 Y117.971 E10.18427
G1 X96.563 Y117.087 E10.21402
G1 X96.46 Y116.156 E10.24518
G1 X96.388 Y115.333 E10.27265
G1 X96.346 Y114.396 E10.30385
G1 X96.386 Y113.434 E10.33587
G1 X96.476 Y112.431 E10.36937
G1 X96.559 Y111.687 E10.39427
G1 X96.702 Y110.761 E10.42543
G1 X96.921 Y109.86 E10.45627
G1 X97.18 Y108.974 E10.48697
G1 X97.425 Y108.198 E10.51404
G1 X97.746 Y107.317 E10.54523
G1 X98.135 Y106.475 E10.57608
G1 X98.598 Y105.585 E10.60944
G1 X98.974 Y104.904 E10.63532
G1 X99.462 Y104.103 E10.66651
G1 X99.971 Y103.404 E10.69527
G1 X100.593 Y102.624 E10.72845
G1 X101.096 Y102.025 E10.75447
G1 X101.729 Y101.333 E10.78566
G1 X102.375 Y100.736 E10.81492
G1 X102.938 Y100.255 E10.83955
G1 X103.225 Y100.017 E10.85195
G1 X103.822 Y99.541 E10.87734
G1 X104.58 Y98.988 E10.90855
G1 X105.372 Y98.507 E10.93937
G1 X106.18 Y98.066 E10.96999
G1 X106.902 Y97.691 E10.99705
G1 X107.752 Y97.295 E11.02823
G1 X108.621 Y96.976 E11.05902
G1 X109.588 Y96.671 E11.09275
G1 X110.315 Y96.461 E11.11792
G1 X111.227 Y96.239 E11.14914
G1 X112.102 Y96.102 E11.17859
G1 X113.075 Y95.994 E11.21115
G1 X113.883 Y95.924 E11.23813
G1 X114.82 Y95.883 E11.26932
G1 X115.74 Y95.921 E11.29995
G1 X116.697 Y96.004 E11.3319
G1 F1500 E4.8319
;MESH:city.stl
G0 F6000 X115.69 Y106.289
G0 X115.585 Y107.367
G0 X117.411 Y108.159
G0 X118.575 Y108.782
G0 X119.593 Y109.616
G0 X120.427 Y110.634
G0 X121.051 Y111.799
G0 X121.433 Y113.062
G0 X121.562 Y114.373
G0 X121.433 Y115.684
G0 X121.051 Y116.947
G0 X120.427 Y118.111
G0 X119.595 Y119.127
G0 X118.572 Y119.965
G0 X117.914 Y120.316
G0 X116.182 Y121.138
;TYPE:WALL-INNER
G1 F1500 E11.3319
G1 F1200 X114.819 Y121.268 E11.37744
G1 X113.49 Y121.138 E11.42185
G1 X112.197 Y120.746 E11.46679
G1 X111.007 Y120.108 E11.5117
G1 X109.959 Y119.25 E11.55675
G1 X109.101 Y118.202 E11.60179
G1 X108.463 Y117.012 E11.6467
G1 X108.072 Y115.719 E11.69163
G1 X107.939 Y114.373 E11.73662
G1 X108.072 Y113.027 E11.7816
G1 X108.463 Y111.734 E11.82653
G1 X109.101 Y110.543 E11.87147
G1 X109.961 Y109.493 E11.91661
G1 X111.004 Y108.639 E11.96145
G1 X112.197 Y108 E12.00646
G1 X113.49 Y107.608 E12.0514
G1 X114.836 Y107.476 E12.09638
G1 X116.183 Y107.608 E12.1414
G1 X117.476 Y108 E12.18634
G1 X118.669 Y108.639 E12.23135
G1 X119.714 Y109.495 E12.27628
G1 X120.57 Y110.54 E12.32121
G1 X121.21 Y111.734 E12.36627
G1 X121.601 Y113.027 E12.41119
G1 X121.733 Y114.373 E12.45618
G1 X121.601 Y115.719 E12.50116
G1 X121.21 Y117.012 E12.54609
G1 X120.57 Y118.205 E12.59112
G1 X119.716 Y119.248 E12.63595
G1 X118.666 Y120.108 E12.6811
G1 X117.475 Y120.745 E12.72602
G1 X116.182 Y121.138 E12.77097
G0 F6000 X116.262 Y121.532
;TYPE:WALL-OUTER
G1 F1200 X114.852 Y121.67 E12.81809
G1 X114.798 Y121.668 E12.81988
G1 X113.41 Y121.532 E12.86627
G1 X112.042 Y121.117 E12.91382
G1 X110.785 Y120.444 E12.96124
G1 X109.675 Y119.534 E13.00898
G1 X108.765 Y118.424 E13.05672
G1 X108.092 Y117.167 E13.10414
G1 X107.678 Y115.799 E13.15168
G1 X107.537 Y114.373 E13.19934
G1 X107.678 Y112.947 E13.247
G1 X108.092 Y111.579 E13.29454
G1 X108.765 Y110.321 E13.34199
G1 X109.675 Y109.211 E13.38973
G1 X110.785 Y108.302 E13.43745
G1 X112.042 Y107.629 E13.48487
G1 X113.41 Y107.214 E13.53242
G1 X114.836 Y107.074 E13.58008
G1 X116.263 Y107.214 E13.62777
G1 X117.631 Y107.629 E13.67531
G1 X118.888 Y108.302 E13.72274
G1 X119.998 Y109.211 E13.77046
G1 X120.907 Y110.321 E13.81818
G1 X121.581 Y111.579 E13.86564
G1 X121.995 Y112.947 E13.91318
G1 X122.135 Y114.373 E13.96084
G1 X121.995 Y115.799 E14.0085
G1 X121.581 Y117.167 E14.05603
G1 X120.907 Y118.424 E14.10347
G1 X119.998 Y119.534 E14.15119
G1 X118.888 Y120.444 E14.19893
G1 X117.633 Y121.115 E14.24626
G1 X117.599 Y121.126 E14.24745
G1 X116.262 Y121.532 E14.29393
G0 F6000 X116.177 Y121.101
G0 X116.107 Y120.754
;TYPE:SKIN
G1 F1200 X114.819 Y120.876 E14.33696
G1 X113.567 Y120.754 E14.3788
G1 X112.347 Y120.384 E14.4212
G1 X111.226 Y119.784 E14.46349
G1 X110.236 Y118.973 E14.50605
G1 X109.425 Y117.983 E14.54862
G1 X108.825 Y116.862 E14.59091
G1 X108.456 Y115.644 E14.63324
G1 X108.331 Y114.373 E14.67571
G1 X108.456 Y113.102 E14.71819
