;FLAVOR:Marlin
;TIME:2386
;Filament used: 0.616875m
;Layer height: 0.12
;MINX:83
;MINY:86.451
;MINZ:0.12
;MAXX:137
;MAXY:133.45
;MAXZ:13.68
;Generated with Cura_SteamEngine master
M140 S60
M105
M190 S60
M104 S200
M105
M109 S200
M82 ;absolute extrusion mode
; Ender 3 Custom Start G-code
G92 E0 ; Reset Extruder
G28 ; Home all axes
G1 Z2.0 F3000 ; Move Z Axis up little to prevent scratching of Heat Bed
G1 X0.1 Y20 Z0.3 F5000.0 ; Move to start position
G1 X0.1 Y200.0 Z0.3 F1500.0 E15 ; Draw the first line
G1 X0.4 Y200.0 Z0.3 F5000.0 ; Move to side a little
G1 X0.4 Y20 Z0.3 F1500.0 E30 ; Draw the second line
G92 E0 ; Reset Extruder
G1 Z2.0 F3000 ; Move Z Axis up little to prevent scratching of Heat Bed
G1 X5 Y20 Z0.3 F5000.0 ; Move over to prevent blob squish
G92 E0
G92 E0
G1 F1500 E-6.5
;LAYER_COUNT:114
;LAYER:0
M107
G0 F6000 X97.339 Y91.277 Z0.12
;TYPE:SKIRT
G1 F1500 E0
G1 F1200 X98.006 Y90.618 E0.01871
G1 X98.727 Y90.018 E0.03743
G1 X99.496 Y89.482 E0.05614
G1 X100.277 Y89.029 E0.07415
G1 X100.644 Y88.837 E0.08242
G1 X101.761 Y88.272 E0.1074
G1 X101.926 Y88.197 E0.11102
G1 X102.991 Y87.657 E0.13485
G1 X103.844 Y87.269 E0.15355
G1 X104.728 Y86.955 E0.17227
G1 X105.635 Y86.717 E0.19098
G1 X106.143 Y86.619 E0.20131
G1 X107.074 Y86.5 E0.22004
G1 X107.857 Y86.462 E0.23568
G1 X108.774 Y86.451 E0.25398
G1 X111.48 Y86.455 E0.30798
G1 X112.196 Y86.466 E0.32227
G1 X113.132 Y86.521 E0.34098
G1 X114.061 Y86.655 E0.35971
G1 X114.974 Y86.867 E0.37842
G1 X115.866 Y87.157 E0.39714
G1 X116.73 Y87.521 E0.41585
G1 X117.56 Y87.958 E0.43457
G1 X117.585 Y87.974 E0.43516
G1 X117.972 Y88.198 E0.44408
G1 X118.934 Y88.768 E0.4664
G1 X120.13 Y89.49 E0.49428
G1 X120.911 Y90.008 E0.51298
G1 X121.646 Y90.592 E0.53171
G1 X122.328 Y91.235 E0.55042
G1 X122.953 Y91.935 E0.56914
G1 X123.552 Y92.738 E0.58914
G1 X123.719 Y92.987 E0.59512
G1 X123.969 Y93.37 E0.60425
G1 X134.046 Y109.254 E0.97964
G1 X134.421 Y109.863 E0.99391
G1 X134.878 Y110.682 E1.01263
G1 X135.264 Y111.537 E1.03135
G1 X135.481 Y112.126 E1.04387
G1 X135.8 Y113.077 E1.06389
G1 X136.233 Y114.417 E1.09199
G1 X136.403 Y114.918 E1.10255
G1 X136.667 Y115.818 E1.12127
G1 X136.853 Y116.737 E1.13998
G1 X136.96 Y117.669 E1.1587
G1 X136.987 Y118.289 E1.17109
G1 X136.999 Y119.076 E1.18679
G1 X137 Y121.714 E1.23944
G1 X136.989 Y122.592 E1.25696
G1 X136.936 Y123.529 E1.27569
G1 X136.804 Y124.457 E1.29439
G1 X136.593 Y125.371 E1.31311
G1 X136.304 Y126.263 E1.33183
G1 X135.941 Y127.128 E1.35055
G1 X135.506 Y127.959 E1.36926
G1 X135.001 Y128.749 E1.38798
G1 X134.431 Y129.494 E1.4067
G1 X133.8 Y130.188 E1.42541
G1 X133.111 Y130.825 E1.44414
G1 X132.371 Y131.401 E1.46285
G1 X131.585 Y131.912 E1.48156
G1 X130.758 Y132.354 E1.50027
G1 X129.896 Y132.724 E1.51899
G1 X129.006 Y133.019 E1.53771
G1 X128.094 Y133.238 E1.55642
G1 X127.167 Y133.378 E1.57513
G1 X126.299 Y133.437 E1.59249
G1 X125.979 Y133.446 E1.59888
G1 X125.67 Y133.45 E1.60505
G1 X94.565 Y133.449 E2.22578
G1 X93.867 Y133.44 E2.23971
G1 X92.931 Y133.388 E2.25842
G1 X92.002 Y133.256 E2.27715
G1 X91.088 Y133.046 E2.29586
G1 X90.195 Y132.759 E2.31458
G1 X89.33 Y132.396 E2.3333
G1 X88.499 Y131.962 E2.35201
G1 X87.708 Y131.458 E2.37073
G1 X86.963 Y130.888 E2.38945
G1 X86.269 Y130.257 E2.40817
G1 X85.632 Y129.57 E2.42686
G1 X85.055 Y128.83 E2.44559
G1 X84.543 Y128.044 E2.46431
G1 X84.1 Y127.217 E2.48303
G1 X83.729 Y126.356 E2.50174
G1 X83.433 Y125.466 E2.52046
G1 X83.214 Y124.554 E2.53917
G1 X83.073 Y123.627 E2.55789
G1 X83.013 Y122.738 E2.57567
G1 X83.004 Y122.405 E2.58232
G1 X83 Y122.108 E2.58824
G1 X83.001 Y119.059 E2.64909
G1 X83.012 Y118.348 E2.66328
G1 X83.067 Y117.412 E2.68199
G1 X83.201 Y116.483 E2.70072
G1 X83.331 Y115.884 E2.71295
G1 X83.512 Y115.149 E2.72806
G1 X83.649 Y114.55 E2.74032
G1 X83.68 Y114.437 E2.74266
G1 X83.677 Y114.436 E2.74272
G1 X84.006 Y113.062 E2.77092
G1 X84.263 Y112.161 E2.78962
G1 X84.596 Y111.284 E2.80834
G1 X85.003 Y110.439 E2.82705
G1 X85.333 Y109.863 E2.8403
G1 X85.767 Y109.157 E2.85684
G1 X95.791 Y93.358 E3.23023
G1 X96.185 Y92.754 E3.24462
G1 X96.73 Y91.991 E3.26333
G1 X97.339 Y91.277 E3.28206
G0 F6000 X97.655 Y91.525
G1 F1200 X98.312 Y90.88 E3.30043
G1 X99.023 Y90.295 E3.31881
G1 X99.782 Y89.774 E3.33718
G1 X100.463 Y89.383 E3.35285
G1 X100.825 Y89.194 E3.361
G1 X101.942 Y88.629 E3.38598
G1 X102.105 Y88.555 E3.38955
G1 X103.172 Y88.014 E3.41343
G1 X104.01 Y87.633 E3.4318
G1 X104.878 Y87.327 E3.45016
G1 X106.176 Y87.019 E3.47679
G1 X106.211 Y87.013 E3.4775
G1 X107.124 Y86.897 E3.49586
G1 X107.862 Y86.862 E3.51061
G1 X108.773 Y86.851 E3.52879
G1 X111.474 Y86.855 E3.58269
G1 X112.19 Y86.866 E3.59698
G1 X113.109 Y86.92 E3.61535
G1 X114.02 Y87.054 E3.63373
G1 X114.916 Y87.266 E3.6521
G1 X115.79 Y87.555 E3.67047
G1 X116.635 Y87.919 E3.68883
G1 X117.31 Y88.282 E3.70413
G1 X117.312 Y88.279 E3.7042
G1 X117.417 Y88.34 E3.70662
G1 X117.768 Y88.542 E3.7147
G1 X118.727 Y89.11 E3.73695
G1 X119.923 Y89.832 E3.76483
G1 X120.69 Y90.342 E3.78321
G1 X121.41 Y90.916 E3.80158
G1 X122.077 Y91.551 E3.81996
G1 X122.686 Y92.241 E3.83833
G1 X123.221 Y92.962 E3.85624
G1 X123.384 Y93.206 E3.8621
G1 X123.71 Y93.706 E3.87401
G1 X128.787 Y101.713 E4.06321
G1 X133.705 Y109.464 E4.2464
G1 X134.08 Y110.073 E4.26067
G1 X134.528 Y110.877 E4.27904
G1 X134.905 Y111.717 E4.29741
G1 X135.102 Y112.253 E4.30881
G1 X135.38 Y113.08 E4.32622
G1 X135.853 Y114.542 E4.35689
G1 X136.024 Y115.047 E4.36753
G1 X136.282 Y115.93 E4.38588
G1 X136.463 Y116.833 E4.40426
G1 X136.564 Y117.748 E4.42263
G1 X136.587 Y118.295 E4.43356
G1 X136.599 Y119.082 E4.44927
G1 X136.6 Y121.714 E4.50179
G1 X136.589 Y122.587 E4.51921
G1 X136.536 Y123.506 E4.53758
G1 X136.404 Y124.417 E4.55595
G1 X136.193 Y125.313 E4.57432
G1 X135.906 Y126.188 E4.5927
G1 X135.543 Y127.034 E4.61107
G1 X135.109 Y127.846 E4.62945
G1 X134.605 Y128.617 E4.64783
G1 X134.037 Y129.341 E4.66619
G1 X133.408 Y130.013 E4.68456
G1 X132.723 Y130.628 E4.70293
G1 X131.987 Y131.181 E4.7213
G1 X131.206 Y131.669 E4.73968
G1 X130.386 Y132.087 E4.75805
G1 X129.532 Y132.432 E4.77643
G1 X128.652 Y132.701 E4.79479
G1 X127.751 Y132.894 E4.81318
G1 X126.838 Y133.007 E4.83154
G1 X126.288 Y133.037 E4.84253
G1 X125.968 Y133.046 E4.84892
G1 X125.67 Y133.05 E4.85487
G1 X94.57 Y133.049 E5.4755
G1 X93.872 Y133.04 E5.48943
G1 X92.953 Y132.988 E5.5078
G1 X92.042 Y132.857 E5.52617
G1 X91.146 Y132.647 E5.54453
G1 X90.271 Y132.36 E5.56291
G1 X89.424 Y131.998 E5.58129
G1 X88.612 Y131.564 E5.59967
G1 X87.841 Y131.062 E5.61803
G1 X87.116 Y130.494 E5.63641
G1 X86.443 Y129.865 E5.65479
G1 X85.828 Y129.181 E5.67315
G1 X85.274 Y128.446 E5.69151
G1 X84.786 Y127.665 E5.70989
G1 X84.367 Y126.845 E5.72827
G1 X84.021 Y125.992 E5.74664
G1 X83.751 Y125.112 E5.76501
G1 X83.558 Y124.211 E5.78339
G1 X83.444 Y123.298 E5.80176
G1 X83.413 Y122.727 E5.81317
G1 X83.404 Y122.394 E5.81982
G1 X83.4 Y122.108 E5.82552
G1 X83.401 Y119.065 E5.88625
G1 X83.412 Y118.354 E5.90044
G1 X83.466 Y117.435 E5.91881
G1 X83.6 Y116.524 E5.93719
G1 X83.719 Y115.98 E5.9483
G1 X83.906 Y115.223 E5.96386
G1 X84.039 Y114.639 E5.97581
G1 X84.069 Y114.531 E5.97805
G1 X84.066 Y114.53 E5.97811
G1 X84.395 Y113.156 E6.00631
G1 X84.648 Y112.27 E6.0247
G1 X84.977 Y111.411 E6.04305
G1 X85.38 Y110.582 E6.06145
G1 X85.674 Y110.073 E6.07318
G1 X86.188 Y109.239 E6.09273
G1 X96.126 Y93.577 E6.46289
G1 X96.52 Y92.973 E6.47728
G1 X97.056 Y92.224 E6.49566
G1 X97.655 Y91.525 E6.51403
G0 F6000 X97.971 Y91.773
G1 F1200 X98.618 Y91.143 E6.53206
G1 X99.319 Y90.574 E6.55007
G1 X100.067 Y90.068 E6.56809
G1 X100.649 Y89.737 E6.58146
G1 X101.005 Y89.551 E6.58947
G1 X102.122 Y88.986 E6.61445
G1 X102.272 Y88.919 E6.61773
G1 X103.353 Y88.37 E6.64193
G1 X104.175 Y87.998 E6.65993
G1 X105.028 Y87.7 E6.67796
G1 X106.244 Y87.414 E6.70289
G1 X106.279 Y87.408 E6.7036
G1 X107.175 Y87.295 E6.72162
G1 X107.868 Y87.262 E6.73547
G1 X108.773 Y87.251 E6.75353
G1 X111.468 Y87.255 E6.80731
G1 X112.184 Y87.266 E6.8216
G1 X113.085 Y87.32 E6.83961
G1 X113.978 Y87.453 E6.85763
G1 X114.856 Y87.665 E6.87566
G1 X115.712 Y87.954 E6.89369
G1 X116.539 Y88.317 E6.91171
G1 X117.11 Y88.631 E6.92471
G1 X117.113 Y88.625 E6.92485
G1 X117.452 Y88.82 E6.93265
G1 X118.52 Y89.453 E6.95743
G1 X119.716 Y90.175 E6.98531
G1 X120.468 Y90.675 E7.00333
G1 X121.173 Y91.24 E7.02136
G1 X121.824 Y91.865 E7.03937
G1 X122.418 Y92.546 E7.0574
G1 X122.89 Y93.186 E7.07327
G1 X123.049 Y93.425 E7.079
G1 X123.372 Y93.92 E7.09079
G1 X128.449 Y101.927 E7.28
G1 X133.291 Y109.557 E7.46033
G1 X133.739 Y110.283 E7.47736
G1 X134.178 Y111.072 E7.49538
G1 X134.546 Y111.897 E7.5134
G1 X134.722 Y112.381 E7.52368
G1 X135.038 Y113.323 E7.54351
G1 X135.447 Y114.588 E7.57004
G1 X135.646 Y115.175 E7.58241
G1 X135.898 Y116.042 E7.60043
G1 X136.073 Y116.928 E7.61845
G1 X136.168 Y117.826 E7.63647
G1 X136.187 Y118.301 E7.64596
G1 X136.199 Y119.088 E7.66166
G1 X136.2 Y121.714 E7.71407
G1 X136.189 Y122.581 E7.73137
G1 X136.137 Y123.483 E7.7494
G1 X136.005 Y124.376 E7.76742
G1 X135.794 Y125.255 E7.78546
G1 X135.507 Y126.111 E7.80347
G1 X135.145 Y126.938 E7.82149
G1 X134.711 Y127.73 E7.83951
G1 X134.209 Y128.481 E7.85754
G1 X133.643 Y129.184 E7.87555
G1 X133.016 Y129.835 E7.89359
G1 X132.335 Y130.427 E7.91159
G1 X131.604 Y130.957 E7.92961
G1 X130.828 Y131.42 E7.94765
G1 X130.015 Y131.813 E7.96567
G1 X129.17 Y132.133 E7.9837
G1 X128.301 Y132.376 E8.00171
G1 X127.413 Y132.541 E8.01973
G1 X126.277 Y132.637 E8.04248
G1 X125.957 Y132.646 E8.04887
G1 X125.67 Y132.65 E8.0546
G1 X94.575 Y132.649 E8.67513
G1 X93.877 Y132.64 E8.68906
G1 X92.976 Y132.589 E8.70707
G1 X92.082 Y132.457 E8.7251
G1 X91.204 Y132.248 E8.74312
G1 X90.347 Y131.961 E8.76115
G1 X89.52 Y131.6 E8.77916
G1 X88.727 Y131.167 E8.79719
G1 X87.976 Y130.666 E8.81521
G1 X87.272 Y130.1 E8.83323
G1 X86.621 Y129.474 E8.85126
G1 X86.028 Y128.793 E8.86928
G1 X85.498 Y128.062 E8.88729
G1 X85.034 Y127.287 E8.90532
G1 X84.64 Y126.474 E8.92335
G1 X84.32 Y125.63 E8.94136
G1 X84.076 Y124.76 E8.95939
G1 X83.91 Y123.872 E8.97742
G1 X83.813 Y122.717 E9.00055
G1 X83.804 Y122.384 E9.0072
G1 X83.8 Y122.108 E9.01271
G1 X83.801 Y119.071 E9.07332
G1 X83.812 Y118.36 E9.08751
G1 X83.866 Y117.459 E9.10552
G1 X84 Y116.566 E9.12354
G1 X84.108 Y116.075 E9.13357
G1 X84.29 Y115.338 E9.14872
G1 X84.429 Y114.728 E9.16121
G1 X84.458 Y114.624 E9.16336
G1 X84.455 Y114.623 E9.16342
G1 X84.784 Y113.249 E9.19162
G1 X85.033 Y112.381 E9.20964
G1 X85.358 Y111.538 E9.22767
G1 X85.756 Y110.727 E9.2457
G1 X86.015 Y110.282 E9.25597
G1 X86.525 Y109.453 E9.2754
G1 X96.391 Y93.903 E9.6429
G1 X96.855 Y93.191 E9.65986
G1 X97.381 Y92.457 E9.67788
G1 X97.971 Y91.773 E9.69591
G1 F1500 E3.19591
;MESH:harbor_top_-_brick.stl
G0 F6000 X105.328 Y97.65
G0 X106.033 Y98.437
G0 X105.764 Y99.524
G0 X106.93 Y99.98
G0 X108.602 Y98.619
G0 X108.728 Y98.229
G0 X111.273 Y98.232
G0 X113.057 Y99.978
G0 X114.175 Y99.917
G0 X123.973 Y115.366
G0 X123.272 Y117.496
G0 X124.631 Y119.154
G0 X125.219 Y119.309
G0 X125.4 Y121.85
;TYPE:WALL-INNER
G1 F1500 E9.69591
G1 F1200 X94.6 Y121.85 E10.31056
G1 X94.6 Y119.127 E10.3649
G1 X94.694 Y119.118 E10.36678
G1 X95.068 Y119.007 E10.37457
G1 X95.142 Y118.975 E10.37618
G1 X95.466 Y118.801 E10.38352
G1 X95.785 Y118.539 E10.39175
G1 X96.046 Y118.221 E10.39996
G1 X96.242 Y117.857 E10.40821
G1 X96.36 Y117.462 E10.41644
G1 X96.401 Y117.048 E10.42474
G1 X96.36 Y116.642 E10.43289
G1 X96.241 Y116.247 E10.44112
G1 X96.046 Y115.884 E10.44934
G1 X95.785 Y115.565 E10.45757
G1 X95.557 Y115.378 E10.46345
G1 X105.556 Y99.618 E10.83592
G1 X105.694 Y99.692 E10.83904
G1 X106.09 Y99.81 E10.84729
G1 X106.499 Y99.851 E10.85549
G1 X106.897 Y99.812 E10.86347
G1 X107.304 Y99.692 E10.87194
G1 X107.669 Y99.496 E10.88021
G1 X107.986 Y99.235 E10.8884
G1 X108.248 Y98.917 E10.89662
G1 X108.443 Y98.553 E10.90487
G1 X108.563 Y98.157 E10.91312
G1 X108.573 Y98.051 E10.91525
G1 X111.427 Y98.054 E10.9722
G1 X111.438 Y98.159 E10.97431
G1 X111.558 Y98.553 E10.98253
G1 X111.752 Y98.916 E10.99074
G1 X112.014 Y99.235 E10.99898
G1 X112.331 Y99.496 E11.00717
G1 X112.695 Y99.692 E11.01542
G1 X113.091 Y99.81 E11.02367
G1 X113.5 Y99.851 E11.03187
G1 X113.897 Y99.812 E11.03983
G1 X114.253 Y99.708 E11.04724
G1 X124.211 Y115.405 E11.4182
G1 X124.015 Y115.565 E11.42325
G1 X123.754 Y115.884 E11.43148
G1 X123.559 Y116.247 E11.4397
G1 X123.439 Y116.643 E11.44796
G1 X123.4 Y117.068 E11.45647
G1 X123.44 Y117.462 E11.46438
G1 X123.558 Y117.857 E11.4726
G1 X123.754 Y118.221 E11.48085
G1 X124.015 Y118.539 E11.48906
G1 X124.334 Y118.801 E11.4973
G1 X124.697 Y118.995 E11.50552
G1 X125.093 Y119.115 E11.51377
G1 X125.4 Y119.145 E11.51993
G1 X125.4 Y121.85 E11.57391
G0 F6000 X125.8 Y122.25
;TYPE:WALL-OUTER
G1 F1200 X94.2 Y122.25 E12.20452
G1 X94.2 Y118.743 E12.27451
G1 X94.297 Y118.753 E12.27645
G1 X94.618 Y118.723 E12.28289
G1 X94.931 Y118.63 E12.2894
G1 X94.968 Y118.614 E12.29021
G1 X95.243 Y118.467 E12.29643
G1 X95.501 Y118.255 E12.3031
G1 X95.712 Y117.998 E12.30973
G1 X95.87 Y117.703 E12.31641
G1 X95.966 Y117.384 E12.32306
G1 X95.999 Y117.048 E12.3298
G1 X95.966 Y116.72 E12.33637
G1 X95.87 Y116.401 E12.34302
G1 X95.712 Y116.107 E12.34968
G1 X95.501 Y115.849 E12.35633
G1 X95.243 Y115.638 E12.36299
G1 X95.001 Y115.508 E12.36847
G1 X105.434 Y99.064 E12.7571
G1 X105.554 Y99.162 E12.76019
G1 X105.848 Y99.32 E12.76685
G1 X106.168 Y99.416 E12.77352
G1 X106.5 Y99.449 E12.78018
G1 X106.82 Y99.418 E12.78659
G1 X107.151 Y99.32 E12.79348
G1 X107.445 Y99.162 E12.80014
G1 X107.702 Y98.951 E12.80678
G1 X107.914 Y98.693 E12.81344
G1 X108.072 Y98.399 E12.8201
G1 X108.168 Y98.08 E12.82675
G1 X108.2 Y97.734 E12.83369
G1 X108.191 Y97.65 E12.83537
G1 X111.809 Y97.655 E12.90757
G1 X111.8 Y97.762 E12.90972
G1 X111.832 Y98.08 E12.91609
G1 X111.929 Y98.399 E12.92275
G1 X112.086 Y98.693 E12.9294
G1 X112.298 Y98.951 E12.93606
G1 X112.555 Y99.162 E12.9427
G1 X112.849 Y99.32 E12.94936
G1 X113.169 Y99.416 E12.95603
G1 X113.501 Y99.449 E12.96268
G1 X113.821 Y99.418 E12.9691
G1 X114.134 Y99.326 E12.97561
G1 X114.171 Y99.31 E12.97642
G1 X114.397 Y99.188 E12.98154
G1 X124.763 Y115.528 E13.3677
G1 X124.557 Y115.638 E13.37237
G1 X124.299 Y115.849 E13.37902
G1 X124.088 Y116.107 E13.38567
G1 X123.93 Y116.401 E13.39233
G1 X123.834 Y116.72 E13.39898
G1 X123.802 Y117.066 E13.40591
G1 X123.834 Y117.384 E13.41229
G1 X123.93 Y117.703 E13.41894
G1 X124.088 Y117.998 E13.42561
G1 X124.299 Y118.255 E13.43225
G1 X124.557 Y118.467 E13.43891
G1 X124.851 Y118.624 E13.44557
G1 X125.171 Y118.721 E13.45224
G1 X125.502 Y118.753 E13.45888
G1 X125.8 Y118.724 E13.46485
G1 X125.8 Y122.25 E13.53522
G0 F6000 X125.53 Y121.98
G0 X125.29 Y121.46
G0 X125.01 Y121.46
;TYPE:SKIN
G1 F1200 X94.99 Y121.46 E14.1343
G1 X94.99 Y119.437 E14.17467
G1 X95.201 Y119.374 E14.17906
G1 X95.312 Y119.326 E14.18148
G1 X95.684 Y119.127 E14.18989
G1 X96.062 Y118.816 E14.19966
G1 X96.372 Y118.439 E14.2094
G1 X96.605 Y118.007 E14.2192
G1 X96.744 Y117.538 E14.22896
G1 X96.793 Y117.048 E14.23879
G1 X96.744 Y116.566 E14.24846
G1 X96.603 Y116.097 E14.25823
G1 X96.372 Y115.666 E14.26799
G1 X96.07 Y115.298 E14.27749
G1 X105.709 Y100.104 E14.63657
G1 X106.014 Y100.194 E14.64291
G1 X106.499 Y100.243 E14.65264
G1 X106.971 Y100.196 E14.66211
G1 X107.452 Y100.055 E14.67211
G1 X107.887 Y99.822 E14.68196
G1 X108.263 Y99.512 E14.69168
G1 X108.574 Y99.135 E14.70144
G1 X108.805 Y98.703 E14.71121
G1 X108.884 Y98.441 E14.71667
G1 X111.117 Y98.444 E14.76124
G1 X111.196 Y98.703 E14.76664
G1 X111.426 Y99.134 E14.77639
G1 X111.737 Y99.512 E14.78616
G1 X112.113 Y99.821 E14.79587
G1 X112.545 Y100.055 E14.80567
G1 X113.015 Y100.194 E14.81546
G1 X113.5 Y100.243 E14.82518
G1 X113.971 Y100.196 E14.83463
G1 X114.081 Y100.164 E14.83692
G1 X123.703 Y115.331 E15.19536
G1 X123.428 Y115.666 E15.20401
G1 X123.197 Y116.097 E15.21377
G1 X123.055 Y116.567 E15.22357
G1 X123.008 Y117.07 E15.23365
G1 X123.056 Y117.538 E15.24304
G1 X123.195 Y118.007 E15.2528
G1 X123.428 Y118.439 E15.26259
G1 X123.738 Y118.816 E15.27233
G1 X124.116 Y119.127 E15.2821
G1 X124.547 Y119.357 E15.29185
G1 X125.01 Y119.497 E15.3015
G1 X125.01 Y121.46 E15.34068
G0 F6000 X125.29 Y121.46
G0 X125.219 Y119.309
G0 X123.299 Y117.699
G0 X123.973 Y115.366
G0 X114.175 Y99.917
