;FLAVOR:Marlin
;TIME:2402
;Filament used: 0.615657m
;Layer height: 0.12
;MINX:83
;MINY:86.451
;MINZ:0.12
;MAXX:136.998
;MAXY:133.45
;MAXZ:13.68
;Generated with Cura_SteamEngine master
M140 S60
M105
M190 S60
M104 S200
M105
M109 S200
M82 ;absolute extrusion mode
; Ender 3 Custom Start G-code
G92 E0 ; Reset Extruder
G28 ; Home all axes
G1 Z2.0 F3000 ; Move Z Axis up little to prevent scratching of Heat Bed
G1 X0.1 Y20 Z0.3 F5000.0 ; Move to start position
G1 X0.1 Y200.0 Z0.3 F1500.0 E15 ; Draw the first line
G1 X0.4 Y200.0 Z0.3 F5000.0 ; Move to side a little
G1 X0.4 Y20 Z0.3 F1500.0 E30 ; Draw the second line
G92 E0 ; Reset Extruder
G1 Z2.0 F3000 ; Move Z Axis up little to prevent scratching of Heat Bed
G1 X5 Y20 Z0.3 F5000.0 ; Move over to prevent blob squish
G92 E0
G92 E0
G1 F1500 E-6.5
;LAYER_COUNT:114
;LAYER:0
M107
G0 F6000 X97.368 Y91.244 Z0.12
;TYPE:SKIRT
G1 F1500 E0
G1 F1200 X98.038 Y90.587 E0.01873
G1 X98.76 Y89.989 E0.03743
G1 X99.531 Y89.455 E0.05615
G1 X100.488 Y88.917 E0.07806
G1 X101.97 Y88.177 E0.11112
G1 X102.96 Y87.673 E0.13329
G1 X103.813 Y87.283 E0.152
G1 X104.696 Y86.968 E0.17071
G1 X105.603 Y86.729 E0.18943
G1 X106.875 Y86.529 E0.21513
G1 X107.089 Y86.508 E0.21942
G1 X108.051 Y86.456 E0.23864
G1 X108.551 Y86.451 E0.24862
G1 X111.529 Y86.451 E0.30805
G1 X112.193 Y86.461 E0.3213
G1 X113.129 Y86.515 E0.34001
G1 X114.057 Y86.649 E0.35872
G1 X114.971 Y86.861 E0.37745
G1 X115.863 Y87.151 E0.39617
G1 X116.727 Y87.515 E0.41488
G1 X117.51 Y87.924 E0.43251
G1 X117.755 Y88.065 E0.43815
G1 X118.813 Y88.686 E0.46263
G1 X119.14 Y88.897 E0.47039
G1 X120.073 Y89.455 E0.49209
G1 X120.07 Y89.46 E0.49221
G1 X120.694 Y89.854 E0.50693
G1 X121.443 Y90.419 E0.52566
G1 X122.14 Y91.046 E0.54437
G1 X122.781 Y91.731 E0.56309
G1 X123.362 Y92.467 E0.5818
G1 X123.65 Y92.885 E0.59193
G1 X124.024 Y93.457 E0.60557
G1 X129.262 Y101.718 E0.80077
G1 X133.112 Y107.78 E0.94408
G1 X133.982 Y109.153 E0.97652
G1 X134.426 Y109.875 E0.99343
G1 X134.882 Y110.694 E1.01214
G1 X135.267 Y111.55 E1.03087
G1 X135.482 Y112.133 E1.04327
G1 X135.741 Y112.905 E1.05952
G1 X136.065 Y113.914 E1.08067
G1 X136.418 Y114.967 E1.10283
G1 X136.677 Y115.868 E1.12154
G1 X136.86 Y116.788 E1.14026
G1 X136.963 Y117.72 E1.15897
G1 X136.987 Y118.302 E1.1706
G1 X136.997 Y118.987 E1.18427
G1 X136.998 Y121.714 E1.23869
G1 X136.987 Y122.592 E1.25621
G1 X136.934 Y123.529 E1.27494
G1 X136.802 Y124.457 E1.29364
G1 X136.591 Y125.371 E1.31236
G1 X136.302 Y126.263 E1.33108
G1 X135.939 Y127.128 E1.3498
G1 X135.504 Y127.959 E1.36851
G1 X134.999 Y128.749 E1.38723
G1 X134.429 Y129.494 E1.40595
G1 X133.798 Y130.188 E1.42466
G1 X133.109 Y130.825 E1.44339
G1 X132.369 Y131.401 E1.4621
G1 X131.583 Y131.912 E1.48081
G1 X130.756 Y132.354 E1.49953
G1 X129.894 Y132.724 E1.51825
G1 X129.004 Y133.019 E1.53696
G1 X128.092 Y133.238 E1.55567
G1 X127.165 Y133.378 E1.57438
G1 X126.297 Y133.437 E1.59174
G1 X125.977 Y133.446 E1.59813
G1 X125.668 Y133.45 E1.6043
G1 X94.565 Y133.449 E2.22499
G1 X93.867 Y133.44 E2.23892
G1 X92.931 Y133.388 E2.25763
G1 X92.002 Y133.256 E2.27636
G1 X91.088 Y133.046 E2.29507
G1 X90.195 Y132.759 E2.31379
G1 X89.33 Y132.396 E2.33251
G1 X88.499 Y131.962 E2.35122
G1 X87.708 Y131.458 E2.36994
G1 X86.963 Y130.888 E2.38866
G1 X86.269 Y130.257 E2.40738
G1 X85.632 Y129.57 E2.42607
G1 X85.055 Y128.83 E2.4448
G1 X84.543 Y128.044 E2.46352
G1 X84.1 Y127.217 E2.48224
G1 X83.729 Y126.356 E2.50095
G1 X83.433 Y125.466 E2.51967
G1 X83.214 Y124.554 E2.53838
G1 X83.073 Y123.627 E2.5571
G1 X83.013 Y122.732 E2.575
G1 X83.005 Y122.43 E2.58103
G1 X83.001 Y122.202 E2.58558
G1 X83 Y121.953 E2.59055
G1 X83.004 Y119.032 E2.64884
G1 X83.014 Y118.361 E2.66223
G1 X83.068 Y117.425 E2.68094
G1 X83.202 Y116.496 E2.69967
G1 X83.332 Y115.895 E2.71194
G1 X83.498 Y115.22 E2.72581
G1 X83.846 Y113.718 E2.75658
G1 X84.019 Y113.009 E2.77115
G1 X84.279 Y112.109 E2.78984
G1 X84.616 Y111.233 E2.80857
G1 X85.026 Y110.39 E2.82728
G1 X85.333 Y109.859 E2.83952
G1 X85.801 Y109.099 E2.85733
G1 X95.816 Y93.315 E3.23037
G1 X96.209 Y92.717 E3.24465
G1 X96.757 Y91.956 E3.26337
G1 X97.368 Y91.244 E3.28209
G0 F6000 X97.684 Y91.493
G1 F1200 X98.343 Y90.85 E3.30046
G1 X99.056 Y90.268 E3.31883
G1 X99.817 Y89.749 E3.33721
G1 X100.667 Y89.275 E3.35664
G1 X102.076 Y88.571 E3.38807
G1 X103.141 Y88.029 E3.41192
G1 X103.979 Y87.647 E3.43029
G1 X104.847 Y87.34 E3.44867
G1 X105.738 Y87.109 E3.46704
G1 X106.914 Y86.927 E3.49078
G1 X107.128 Y86.906 E3.49507
G1 X108.055 Y86.856 E3.5136
G1 X108.551 Y86.851 E3.5235
G1 X111.523 Y86.851 E3.58281
G1 X112.187 Y86.861 E3.59606
G1 X113.106 Y86.915 E3.61443
G1 X114.017 Y87.048 E3.63281
G1 X114.913 Y87.26 E3.65118
G1 X115.787 Y87.549 E3.66955
G1 X116.633 Y87.913 E3.68793
G1 X117.311 Y88.271 E3.70323
G1 X117.553 Y88.41 E3.7088
G1 X118.611 Y89.031 E3.73328
G1 X118.949 Y89.249 E3.74131
G1 X119.868 Y89.799 E3.76268
G1 X119.865 Y89.805 E3.76281
G1 X120.481 Y90.193 E3.77734
G1 X121.214 Y90.749 E3.7957
G1 X121.896 Y91.368 E3.81408
G1 X122.522 Y92.043 E3.83245
G1 X123.315 Y93.104 E3.85889
G1 X123.689 Y93.676 E3.87253
G1 X128.925 Y101.932 E4.06762
G1 X132.774 Y107.994 E4.21092
G1 X133.644 Y109.367 E4.24336
G1 X134.085 Y110.084 E4.26016
G1 X134.533 Y110.889 E4.27854
G1 X134.908 Y111.729 E4.2969
G1 X135.103 Y112.26 E4.30819
G1 X135.362 Y113.032 E4.32444
G1 X135.722 Y114.153 E4.34794
G1 X136.038 Y115.094 E4.36775
G1 X136.293 Y115.979 E4.38613
G1 X136.469 Y116.882 E4.40448
G1 X136.567 Y117.798 E4.42287
G1 X136.587 Y118.308 E4.43305
G1 X136.597 Y118.993 E4.44673
G1 X136.598 Y121.714 E4.50103
G1 X136.587 Y122.587 E4.51845
G1 X136.534 Y123.506 E4.53682
G1 X136.402 Y124.417 E4.55519
G1 X136.191 Y125.313 E4.57356
G1 X135.904 Y126.188 E4.59194
G1 X135.541 Y127.034 E4.61031
G1 X135.107 Y127.846 E4.62868
G1 X134.603 Y128.617 E4.64706
G1 X134.035 Y129.341 E4.66543
G1 X133.406 Y130.013 E4.68379
G1 X132.721 Y130.628 E4.70217
G1 X131.985 Y131.181 E4.72054
G1 X131.204 Y131.669 E4.73892
G1 X130.384 Y132.087 E4.75728
G1 X129.53 Y132.432 E4.77566
G1 X128.65 Y132.701 E4.79403
G1 X127.749 Y132.894 E4.81242
G1 X126.836 Y133.007 E4.83077
G1 X126.286 Y133.037 E4.84177
G1 X125.966 Y133.046 E4.84816
G1 X125.668 Y133.05 E4.8541
G1 X94.57 Y133.049 E5.4747
G1 X93.872 Y133.04 E5.48863
G1 X92.953 Y132.988 E5.507
G1 X92.042 Y132.857 E5.52536
G1 X91.146 Y132.647 E5.54373
G1 X90.271 Y132.36 E5.56211
G1 X89.424 Y131.998 E5.58049
G1 X88.612 Y131.564 E5.59886
G1 X87.841 Y131.062 E5.61722
G1 X87.116 Y130.494 E5.6356
G1 X86.443 Y129.865 E5.65398
G1 X85.828 Y129.181 E5.67234
G1 X85.274 Y128.446 E5.69071
G1 X84.786 Y127.665 E5.70909
G1 X84.367 Y126.845 E5.72746
G1 X84.021 Y125.992 E5.74583
G1 X83.751 Y125.112 E5.7642
G1 X83.558 Y124.211 E5.78259
G1 X83.444 Y123.298 E5.80095
G1 X83.413 Y122.722 E5.81246
G1 X83.405 Y122.42 E5.81849
G1 X83.401 Y122.2 E5.82288
G1 X83.4 Y121.954 E5.82779
G1 X83.404 Y119.038 E5.88598
G1 X83.414 Y118.367 E5.89938
G1 X83.468 Y117.448 E5.91775
G1 X83.601 Y116.537 E5.93612
G1 X83.721 Y115.99 E5.94729
G1 X83.885 Y115.325 E5.96096
G1 X84.234 Y113.813 E5.99193
G1 X84.407 Y113.104 E6.00649
G1 X84.664 Y112.22 E6.02487
G1 X84.997 Y111.362 E6.04323
G1 X85.402 Y110.535 E6.06161
G1 X85.673 Y110.068 E6.07238
G1 X86.138 Y109.313 E6.09008
G1 X96.058 Y93.677 E6.45961
G1 X96.544 Y92.936 E6.4773
G1 X97.082 Y92.19 E6.49565
G1 X97.684 Y91.493 E6.51403
G0 F6000 X97.998 Y91.742
G1 F1200 X98.648 Y91.114 E6.53207
G1 X99.351 Y90.547 E6.55009
G1 X100.101 Y90.044 E6.56811
G1 X100.845 Y89.632 E6.58508
G1 X102.327 Y88.893 E6.61813
G1 X103.323 Y88.386 E6.64043
G1 X104.145 Y88.012 E6.65846
G1 X104.997 Y87.713 E6.67648
G1 X105.872 Y87.49 E6.6945
G1 X106.953 Y87.325 E6.71632
G1 X107.167 Y87.304 E6.72061
G1 X108.059 Y87.256 E6.73844
G1 X108.551 Y87.251 E6.74825
G1 X111.517 Y87.251 E6.80744
G1 X112.181 Y87.261 E6.8207
G1 X113.082 Y87.315 E6.83871
G1 X113.975 Y87.448 E6.85673
G1 X114.853 Y87.659 E6.87475
G1 X115.709 Y87.948 E6.89278
G1 X116.536 Y88.311 E6.9108
G1 X117.111 Y88.618 E6.92381
G1 X117.35 Y88.755 E6.92931
G1 X118.408 Y89.376 E6.95379
G1 X118.715 Y89.575 E6.96109
G1 X119.663 Y90.142 E6.98313
G1 X119.66 Y90.147 E6.98325
G1 X120.267 Y90.531 E6.99758
G1 X120.985 Y91.079 E7.01561
G1 X121.652 Y91.689 E7.03365
G1 X122.262 Y92.354 E7.05165
G1 X122.98 Y93.323 E7.07572
G1 X123.431 Y94.014 E7.09219
G1 X128.394 Y101.841 E7.27714
G1 X128.587 Y102.147 E7.28436
G1 X132.436 Y108.209 E7.42766
G1 X133.306 Y109.582 E7.46009
G1 X133.744 Y110.294 E7.47678
G1 X134.183 Y111.083 E7.49479
G1 X134.549 Y111.909 E7.51282
G1 X134.723 Y112.388 E7.52299
G1 X135.024 Y113.286 E7.54189
G1 X135.334 Y114.252 E7.56214
G1 X135.659 Y115.221 E7.58254
G1 X135.908 Y116.089 E7.60056
G1 X136.079 Y116.976 E7.61858
G1 X136.187 Y118.314 E7.64537
G1 X136.198 Y119.148 E7.66202
G1 X136.197 Y121.854 E7.71602
G1 X136.187 Y122.581 E7.73053
G1 X136.135 Y123.483 E7.74856
G1 X136.003 Y124.376 E7.76657
G1 X135.792 Y125.255 E7.78461
G1 X135.505 Y126.111 E7.80263
G1 X135.143 Y126.938 E7.82064
G1 X134.709 Y127.73 E7.83867
G1 X134.207 Y128.481 E7.85669
G1 X133.641 Y129.184 E7.87471
G1 X133.014 Y129.835 E7.89274
G1 X132.333 Y130.427 E7.91075
G1 X131.602 Y130.957 E7.92877
G1 X130.826 Y131.42 E7.9468
G1 X130.013 Y131.813 E7.96482
G1 X129.168 Y132.133 E7.98285
G1 X128.299 Y132.376 E8.00086
G1 X127.411 Y132.541 E8.01888
G1 X126.275 Y132.637 E8.04164
G1 X125.955 Y132.646 E8.04802
G1 X125.668 Y132.65 E8.05375
G1 X94.575 Y132.649 E8.67425
G1 X93.877 Y132.64 E8.68818
G1 X92.976 Y132.589 E8.70619
G1 X92.082 Y132.457 E8.72422
G1 X91.204 Y132.248 E8.74223
G1 X90.347 Y131.961 E8.76027
G1 X89.52 Y131.6 E8.77827
G1 X88.727 Y131.167 E8.79631
G1 X87.976 Y130.666 E8.81432
G1 X87.272 Y130.1 E8.83235
G1 X86.621 Y129.474 E8.85037
G1 X86.028 Y128.793 E8.86839
G1 X85.498 Y128.062 E8.88641
G1 X85.034 Y127.287 E8.90444
G1 X84.64 Y126.474 E8.92247
G1 X84.32 Y125.63 E8.94048
G1 X84.076 Y124.76 E8.95851
G1 X83.91 Y123.872 E8.97654
G1 X83.813 Y122.711 E8.99979
G1 X83.801 Y122.198 E9.01003
G1 X83.8 Y121.954 E9.0149
G1 X83.804 Y119.044 E9.07297
G1 X83.814 Y118.373 E9.08636
G1 X83.868 Y117.471 E9.10439
G1 X84.001 Y116.578 E9.12241
G1 X84.109 Y116.086 E9.13246
G1 X84.267 Y115.446 E9.14562
G1 X84.593 Y114.032 E9.17458
G1 X84.796 Y113.199 E9.19169
G1 X85.048 Y112.332 E9.2097
G1 X85.377 Y111.491 E9.22773
G1 X85.778 Y110.682 E9.24575
G1 X86.014 Y110.277 E9.2551
G1 X86.398 Y109.652 E9.26974
G1 X96.396 Y93.892 E9.64219
G1 X96.485 Y93.754 E9.64547
G1 X96.878 Y93.156 E9.65975
G1 X97.407 Y92.424 E9.67777
G1 X97.998 Y91.742 E9.69578
G1 F1500 E3.19578
;MESH:harbor_top_-_wheet.stl
G0 F6000 X104.58 Y98.793
G0 X105.491 Y99.37
G0 X95.793 Y115.338
G0 X96.527 Y117.497
G0 X94.782 Y119.278
G0 X94.6 Y121.85
;TYPE:WALL-INNER
G1 F1500 E9.69578
G1 F1200 X94.6 Y121.651 E9.69976
G1 X94.604 Y119.124 E9.75018
G1 X94.707 Y119.113 E9.75225
G1 X95.103 Y118.996 E9.76049
G1 X95.466 Y118.799 E9.76873
G1 X95.784 Y118.539 E9.77693
G1 X96.045 Y118.221 E9.78514
G1 X96.239 Y117.857 E9.79337
G1 X96.359 Y117.463 E9.80159
G1 X96.401 Y117.045 E9.80998
G1 X96.359 Y116.638 E9.81814
G1 X96.239 Y116.247 E9.8263
G1 X96.046 Y115.884 E9.83451
G1 X95.784 Y115.564 E9.84276
G1 X95.555 Y115.377 E9.84866
G1 X105.555 Y99.615 E10.22117
G1 X105.693 Y99.689 E10.2243
G1 X106.087 Y99.809 E10.23252
G1 X106.498 Y99.851 E10.24076
G1 X106.911 Y99.809 E10.24905
G1 X107.305 Y99.689 E10.25726
G1 X107.668 Y99.495 E10.26548
G1 X107.984 Y99.234 E10.27366
G1 X108.246 Y98.917 E10.28186
G1 X108.444 Y98.553 E10.29013
G1 X108.561 Y98.157 E10.29837
G1 X108.572 Y98.051 E10.3005
G1 X111.426 Y98.05 E10.35745
G1 X111.437 Y98.159 E10.35964
G1 X111.557 Y98.553 E10.36786
G1 X111.751 Y98.916 E10.37607
G1 X112.014 Y99.234 E10.38431
G1 X112.33 Y99.495 E10.39249
G1 X112.693 Y99.689 E10.4007
G1 X113.087 Y99.809 E10.40892
G1 X113.5 Y99.851 E10.41721
G1 X113.911 Y99.809 E10.42545
G1 X114.252 Y99.705 E10.43256
G1 X119.321 Y107.7 E10.62148
G1 X124.21 Y115.404 E10.80357
G1 X124.014 Y115.564 E10.80861
G1 X123.752 Y115.884 E10.81687
G1 X123.559 Y116.247 E10.82507
G1 X123.439 Y116.638 E10.83323
G1 X123.397 Y117.05 E10.8415
G1 X123.439 Y117.463 E10.84978
G1 X123.559 Y117.857 E10.858
G1 X123.753 Y118.221 E10.86623
G1 X124.014 Y118.539 E10.87444
G1 X124.332 Y118.799 E10.88264
G1 X124.697 Y118.996 E10.89092
G1 X125.091 Y119.113 E10.89912
G1 X125.398 Y119.144 E10.90528
G1 X125.398 Y121.85 E10.95928
G1 X94.799 Y121.85 E11.56992
G1 X94.6 Y121.85 E11.57248
G0 F6000 X94.2 Y122.25
;TYPE:WALL-OUTER
G1 F1200 X94.204 Y118.744 E11.64245
G1 X94.296 Y118.753 E11.6443
G1 X94.629 Y118.719 E11.65098
G1 X94.949 Y118.624 E11.65764
G1 X95.242 Y118.465 E11.66429
G1 X95.5 Y118.254 E11.67094
G1 X95.711 Y117.998 E11.67756
G1 X95.868 Y117.703 E11.68423
G1 X95.965 Y117.384 E11.69088
G1 X95.999 Y117.046 E11.69766
G1 X95.965 Y116.718 E11.70424
G1 X95.868 Y116.401 E11.71086
G1 X95.711 Y116.107 E11.71751
G1 X95.5 Y115.848 E11.72418
G1 X95.241 Y115.637 E11.73084
G1 X94.999 Y115.507 E11.73633
G1 X105.433 Y99.061 E12.125
G1 X105.555 Y99.161 E12.12815
G1 X105.847 Y99.318 E12.13477
G1 X106.166 Y99.415 E12.14142
G1 X106.498 Y99.449 E12.14808
G1 X106.832 Y99.415 E12.15478
G1 X107.151 Y99.318 E12.16143
G1 X107.444 Y99.161 E12.16807
G1 X107.7 Y98.95 E12.17469
G1 X107.913 Y98.692 E12.18137
G1 X108.072 Y98.399 E12.18802
G1 X108.167 Y98.079 E12.19468
G1 X108.201 Y97.746 E12.20136
G1 X108.191 Y97.651 E12.20327
G1 X111.807 Y97.65 E12.27543
G1 X111.797 Y97.745 E12.27733
G1 X111.831 Y98.08 E12.28405
G1 X111.928 Y98.399 E12.29071
G1 X112.085 Y98.692 E12.29734
G1 X112.298 Y98.95 E12.30402
G1 X112.554 Y99.161 E12.31064
G1 X112.847 Y99.318 E12.31727
G1 X113.166 Y99.415 E12.32392
G1 X113.5 Y99.449 E12.33062
G1 X113.832 Y99.415 E12.33728
G1 X114.151 Y99.318 E12.34394
G1 X114.397 Y99.187 E12.3495
G1 X119.463 Y107.175 E12.53826
G1 X119.659 Y107.486 E12.5456
G1 X123.575 Y113.655 E12.69142
G1 X124.762 Y115.528 E12.73567
G1 X124.557 Y115.637 E12.7403
G1 X124.298 Y115.848 E12.74697
G1 X124.087 Y116.107 E12.75364
G1 X123.93 Y116.401 E12.76029
G1 X123.833 Y116.718 E12.7669
G1 X123.799 Y117.05 E12.77356
G1 X123.833 Y117.384 E12.78026
G1 X123.93 Y117.703 E12.78692
G1 X124.087 Y117.998 E12.79359
G1 X124.298 Y118.254 E12.80021
G1 X124.556 Y118.465 E12.80686
G1 X124.851 Y118.624 E12.81355
G1 X125.169 Y118.719 E12.82017
G1 X125.502 Y118.753 E12.82685
G1 X125.798 Y118.723 E12.83279
G1 X125.798 Y122.25 E12.90317
G1 X94.2 Y122.25 E13.53374
G0 F6000 X94.47 Y121.98
G0 X94.711 Y121.459
G0 X94.99 Y121.46
;TYPE:SKIN
G1 F1200 X94.994 Y119.435 E13.57415
G1 X95.253 Y119.359 E13.57954
G1 X95.684 Y119.124 E13.58934
G1 X96.061 Y118.816 E13.59905
G1 X96.371 Y118.439 E13.60879
G1 X96.601 Y118.007 E13.61856
G1 X96.743 Y117.54 E13.6283
G1 X96.793 Y117.045 E13.63823
G1 X96.743 Y116.56 E13.64796
G1 X96.601 Y116.097 E13.65762
G1 X96.372 Y115.667 E13.66735
G1 X96.068 Y115.296 E13.67692
G1 X105.708 Y100.102 E14.03601
G1 X106.009 Y100.193 E14.04228
G1 X106.498 Y100.243 E14.05209
G1 X106.989 Y100.193 E14.06194
G1 X107.455 Y100.051 E14.07166
G1 X107.886 Y99.821 E14.08141
G1 X108.261 Y99.511 E14.09112
G1 X108.57 Y99.137 E14.1008
G1 X108.806 Y98.703 E14.11066
G1 X108.884 Y98.441 E14.11612
G1 X111.115 Y98.44 E14.16064
G1 X111.195 Y98.703 E14.16613
G1 X111.425 Y99.134 E14.17588
G1 X111.737 Y99.511 E14.18564
G1 X112.112 Y99.821 E14.19535
G1 X112.543 Y100.051 E14.2051
G1 X113.009 Y100.193 E14.21482
G1 X113.5 Y100.243 E14.22467
G1 X113.989 Y100.193 E14.23448
G1 X114.082 Y100.165 E14.23642
G1 X118.992 Y107.909 E14.4194
G1 X123.701 Y115.331 E14.59481
G1 X123.426 Y115.667 E14.60348
G1 X123.197 Y116.097 E14.6132
G1 X123.055 Y116.56 E14.62286
G1 X123.005 Y117.05 E14.63269
G1 X123.055 Y117.541 E14.64254
G1 X123.197 Y118.007 E14.65226
G1 X123.427 Y118.439 E14.66203
G1 X123.737 Y118.816 E14.67177
G1 X124.114 Y119.125 E14.6815
G1 X124.547 Y119.359 E14.69132
G1 X125.008 Y119.495 E14.70091
G1 X125.008 Y121.46 E14.74013
G1 X94.99 Y121.46 E15.33917
G0 F6000 X95.277 Y121.299
G1 F1200 X95.15 Y121.171 E15.34277
G0 F6000 X95.151 Y120.606
G1 F1200 X95.843 Y121.299 E15.36231
G0 F6000 X96.409 Y121.299
G1 F1200 X95.152 Y120.042 E15.39779
G0 F6000 X95.213 Y119.537
G1 F1200 X96.974 Y121.299 E15.4475
G0 F6000 X97.54 Y121.299
