;FLAVOR:Marlin
;TIME:2437
;Filament used: 0.62454m
;Layer height: 0.12
;MINX:83
;MINY:86.451
;MINZ:0.12
;MAXX:136.999
;MAXY:133.45
;MAXZ:13.68
;Generated with Cura_SteamEngine master
M140 S60
M105
M190 S60
M104 S200
M105
M109 S200
M82 ;absolute extrusion mode
; Ender 3 Custom Start G-code
G92 E0 ; Reset Extruder
G28 ; Home all axes
G1 Z2.0 F3000 ; Move Z Axis up little to prevent scratching of Heat Bed
G1 X0.1 Y20 Z0.3 F5000.0 ; Move to start position
G1 X0.1 Y200.0 Z0.3 F1500.0 E15 ; Draw the first line
G1 X0.4 Y200.0 Z0.3 F5000.0 ; Move to side a little
G1 X0.4 Y20 Z0.3 F1500.0 E30 ; Draw the second line
G92 E0 ; Reset Extruder
G1 Z2.0 F3000 ; Move Z Axis up little to prevent scratching of Heat Bed
G1 X5 Y20 Z0.3 F5000.0 ; Move over to prevent blob squish
G92 E0
G92 E0
G1 F1500 E-6.5
;LAYER_COUNT:114
;LAYER:0
M107
G0 F6000 X97.357 Y91.258 Z0.12
;TYPE:SKIRT
G1 F1500 E0
G1 F1200 X98.026 Y90.6 E0.01873
G1 X98.748 Y90.001 E0.03745
G1 X99.518 Y89.467 E0.05615
G1 X100.086 Y89.131 E0.06932
G1 X100.144 Y89.099 E0.07064
G1 X100.551 Y88.885 E0.07982
G1 X101.751 Y88.287 E0.10657
G1 X102.988 Y87.659 E0.13426
G1 X103.842 Y87.271 E0.15298
G1 X104.725 Y86.957 E0.17168
G1 X105.867 Y86.67 E0.19518
G1 X105.903 Y86.663 E0.19591
G1 X106.831 Y86.524 E0.21463
G1 X107.858 Y86.462 E0.23517
G1 X108.774 Y86.451 E0.25345
G1 X111.48 Y86.455 E0.30745
G1 X112.194 Y86.466 E0.3217
G1 X113.131 Y86.521 E0.34043
G1 X114.059 Y86.655 E0.35914
G1 X114.972 Y86.867 E0.37785
G1 X115.864 Y87.157 E0.39656
G1 X116.729 Y87.521 E0.41529
G1 X117.534 Y87.944 E0.43344
G1 X117.944 Y88.182 E0.4429
G1 X118.934 Y88.768 E0.46586
G1 X120.13 Y89.49 E0.49374
G1 X120.911 Y90.008 E0.51244
G1 X121.646 Y90.592 E0.53117
G1 X122.328 Y91.235 E0.54988
G1 X122.953 Y91.935 E0.56861
G1 X123.562 Y92.753 E0.58896
G1 X123.719 Y92.987 E0.59458
G1 X123.991 Y93.405 E0.60453
G1 X134.067 Y109.288 E0.9799
G1 X134.424 Y109.869 E0.9935
G1 X134.881 Y110.689 E1.01224
G1 X135.266 Y111.544 E1.03095
G1 X135.473 Y112.105 E1.04288
G1 X135.735 Y112.88 E1.05921
G1 X136.062 Y113.896 E1.08051
G1 X136.147 Y114.147 E1.0858
G1 X136.435 Y115.02 E1.10414
G1 X136.691 Y115.922 E1.12285
G1 X136.869 Y116.843 E1.14157
G1 X136.98 Y118.029 E1.16534
G1 X136.986 Y118.18 E1.16836
G1 X136.994 Y118.498 E1.17471
G1 X136.999 Y118.983 E1.18439
G1 X136.999 Y121.898 E1.24256
G1 X136.99 Y122.584 E1.25625
G1 X136.938 Y123.521 E1.27498
G1 X136.806 Y124.449 E1.29368
G1 X136.595 Y125.363 E1.3124
G1 X136.308 Y126.256 E1.33112
G1 X135.945 Y127.121 E1.34984
G1 X135.51 Y127.952 E1.36856
G1 X135.006 Y128.743 E1.38728
G1 X134.437 Y129.488 E1.40599
G1 X133.806 Y130.182 E1.4247
G1 X133.118 Y130.819 E1.44341
G1 X132.378 Y131.396 E1.46214
G1 X131.592 Y131.907 E1.48085
G1 X130.765 Y132.35 E1.49957
G1 X129.904 Y132.721 E1.51828
G1 X129.014 Y133.017 E1.537
G1 X128.102 Y133.236 E1.55572
G1 X127.175 Y133.376 E1.57443
G1 X126.277 Y133.436 E1.59239
G1 X125.892 Y133.446 E1.60007
G1 X125.606 Y133.45 E1.60578
G1 X94.565 Y133.449 E2.22524
G1 X93.867 Y133.44 E2.23917
G1 X92.931 Y133.388 E2.25787
G1 X92.002 Y133.256 E2.2766
G1 X91.088 Y133.046 E2.29532
G1 X90.195 Y132.759 E2.31403
G1 X89.33 Y132.396 E2.33275
G1 X88.499 Y131.962 E2.35146
G1 X87.708 Y131.458 E2.37018
G1 X86.963 Y130.888 E2.3889
G1 X86.269 Y130.257 E2.40762
G1 X85.632 Y129.57 E2.42631
G1 X85.055 Y128.83 E2.44504
G1 X84.543 Y128.044 E2.46376
G1 X84.1 Y127.217 E2.48248
G1 X83.729 Y126.356 E2.50119
G1 X83.433 Y125.466 E2.51991
G1 X83.214 Y124.554 E2.53863
G1 X83.073 Y123.627 E2.55734
G1 X83.013 Y122.72 E2.57548
G1 X83.004 Y122.365 E2.58257
G1 X83 Y122.082 E2.58821
G1 X83.002 Y119.022 E2.64928
G1 X83.013 Y118.344 E2.66281
G1 X83.069 Y117.407 E2.68154
G1 X83.203 Y116.479 E2.70025
G1 X83.327 Y115.908 E2.71192
G1 X83.509 Y115.165 E2.72718
G1 X83.65 Y114.547 E2.73983
G1 X83.681 Y114.435 E2.74215
G1 X83.678 Y114.434 E2.74221
G1 X84.008 Y113.057 E2.77047
G1 X84.265 Y112.156 E2.78917
G1 X84.598 Y111.279 E2.80789
G1 X85.005 Y110.434 E2.82661
G1 X85.333 Y109.862 E2.83976
G1 X85.749 Y109.185 E2.85562
G1 X95.722 Y93.464 E3.22715
G1 X95.81 Y93.327 E3.2304
G1 X96.2 Y92.732 E3.2446
G1 X96.747 Y91.97 E3.26332
G1 X97.357 Y91.258 E3.28203
G0 F6000 X97.673 Y91.506
G1 F1200 X98.332 Y90.863 E3.3004
G1 X99.044 Y90.279 E3.31878
G1 X99.804 Y89.76 E3.33715
G1 X100.279 Y89.481 E3.34814
G1 X100.337 Y89.449 E3.34946
G1 X100.73 Y89.243 E3.35832
G1 X101.932 Y88.644 E3.38512
G1 X103.169 Y88.016 E3.4128
G1 X104.007 Y87.635 E3.43117
G1 X104.876 Y87.329 E3.44956
G1 X105.944 Y87.063 E3.47152
G1 X105.98 Y87.056 E3.47225
G1 X106.89 Y86.92 E3.49062
G1 X107.863 Y86.862 E3.51007
G1 X108.773 Y86.851 E3.52823
G1 X111.474 Y86.855 E3.58213
G1 X112.188 Y86.866 E3.59638
G1 X113.107 Y86.92 E3.61475
G1 X114.018 Y87.054 E3.63313
G1 X114.914 Y87.266 E3.6515
G1 X115.788 Y87.555 E3.66987
G1 X116.634 Y87.919 E3.68825
G1 X117.334 Y88.29 E3.70406
G1 X117.74 Y88.526 E3.71343
G1 X118.727 Y89.11 E3.73632
G1 X119.923 Y89.832 E3.7642
G1 X120.69 Y90.342 E3.78258
G1 X121.41 Y90.916 E3.80095
G1 X122.077 Y91.551 E3.81933
G1 X122.686 Y92.241 E3.8377
G1 X123.231 Y92.977 E3.85597
G1 X123.384 Y93.206 E3.86147
G1 X123.722 Y93.726 E3.87385
G1 X133.646 Y109.368 E4.24352
G1 X134.083 Y110.079 E4.26018
G1 X134.531 Y110.883 E4.27855
G1 X134.907 Y111.724 E4.29693
G1 X135.094 Y112.233 E4.30775
G1 X135.356 Y113.008 E4.32408
G1 X135.686 Y114.035 E4.3456
G1 X135.767 Y114.272 E4.3506
G1 X136.055 Y115.145 E4.36895
G1 X136.306 Y116.031 E4.38733
G1 X136.478 Y116.936 E4.40571
G1 X136.581 Y118.045 E4.42794
G1 X136.587 Y118.196 E4.43095
G1 X136.594 Y118.502 E4.43706
G1 X136.599 Y118.983 E4.44666
G1 X136.599 Y121.893 E4.50473
G1 X136.59 Y122.579 E4.51842
G1 X136.538 Y123.498 E4.53679
G1 X136.406 Y124.409 E4.55516
G1 X136.196 Y125.306 E4.57355
G1 X135.909 Y126.18 E4.5919
G1 X135.547 Y127.027 E4.61028
G1 X135.113 Y127.839 E4.62866
G1 X134.61 Y128.61 E4.64703
G1 X134.042 Y129.335 E4.66541
G1 X133.414 Y130.007 E4.68376
G1 X132.729 Y130.623 E4.70215
G1 X131.994 Y131.177 E4.72052
G1 X131.213 Y131.665 E4.73889
G1 X130.393 Y132.083 E4.75726
G1 X129.539 Y132.428 E4.77564
G1 X128.659 Y132.699 E4.79402
G1 X127.759 Y132.892 E4.81239
G1 X126.845 Y133.006 E4.83077
G1 X126.266 Y133.036 E4.84234
G1 X125.881 Y133.046 E4.85002
G1 X125.606 Y133.05 E4.85551
G1 X94.57 Y133.049 E5.47487
G1 X93.872 Y133.04 E5.4888
G1 X92.953 Y132.988 E5.50717
G1 X92.042 Y132.857 E5.52554
G1 X91.146 Y132.647 E5.5439
G1 X90.271 Y132.36 E5.56228
G1 X89.424 Y131.998 E5.58066
G1 X88.612 Y131.564 E5.59903
G1 X87.841 Y131.062 E5.61739
G1 X87.116 Y130.494 E5.63577
G1 X86.443 Y129.865 E5.65416
G1 X85.828 Y129.181 E5.67251
G1 X85.274 Y128.446 E5.69088
G1 X84.786 Y127.665 E5.70926
G1 X84.367 Y126.845 E5.72763
G1 X84.021 Y125.992 E5.746
G1 X83.751 Y125.112 E5.76437
G1 X83.558 Y124.211 E5.78276
G1 X83.444 Y123.298 E5.80112
G1 X83.412 Y122.71 E5.81287
G1 X83.403 Y122.355 E5.81996
G1 X83.4 Y122.082 E5.82541
G1 X83.402 Y119.028 E5.88636
G1 X83.413 Y118.35 E5.89989
G1 X83.468 Y117.431 E5.91826
G1 X83.603 Y116.52 E5.93664
G1 X83.716 Y116.003 E5.9472
G1 X83.877 Y115.346 E5.9607
G1 X84.039 Y114.636 E5.97523
G1 X84.069 Y114.528 E5.97747
G1 X84.067 Y114.528 E5.97751
G1 X84.397 Y113.151 E6.00577
G1 X84.65 Y112.266 E6.02413
G1 X84.979 Y111.406 E6.04251
G1 X85.382 Y110.578 E6.06089
G1 X85.674 Y110.072 E6.07254
G1 X86.17 Y109.265 E6.09145
G1 X96.059 Y93.678 E6.45982
G1 X96.535 Y92.951 E6.47716
G1 X97.072 Y92.204 E6.49552
G1 X97.673 Y91.506 E6.51391
G0 F6000 X97.988 Y91.755
G1 F1200 X98.637 Y91.127 E6.53193
G1 X99.339 Y90.558 E6.54996
G1 X100.473 Y89.831 E6.57684
G1 X100.531 Y89.799 E6.57816
G1 X100.908 Y89.601 E6.58666
G1 X102.168 Y88.973 E6.61476
G1 X103.35 Y88.373 E6.64121
G1 X104.173 Y88 E6.65924
G1 X105.025 Y87.701 E6.67726
G1 X106.02 Y87.456 E6.69771
G1 X106.056 Y87.449 E6.69844
G1 X106.949 Y87.316 E6.71646
G1 X107.868 Y87.262 E6.73483
G1 X108.773 Y87.251 E6.75289
G1 X111.468 Y87.255 E6.80667
G1 X112.182 Y87.266 E6.82092
G1 X113.084 Y87.32 E6.83896
G1 X113.977 Y87.453 E6.85697
G1 X114.855 Y87.665 E6.875
G1 X115.71 Y87.954 E6.89301
G1 X116.537 Y88.317 E6.91103
G1 X117.133 Y88.636 E6.92452
G1 X117.537 Y88.87 E6.93384
G1 X118.443 Y89.406 E6.95485
G1 X119.716 Y90.175 E6.98453
G1 X120.468 Y90.675 E7.00255
G1 X121.173 Y91.24 E7.02058
G1 X121.824 Y91.865 E7.03859
G1 X122.418 Y92.546 E7.05662
G1 X122.899 Y93.2 E7.07282
G1 X123.048 Y93.424 E7.07819
G1 X123.384 Y93.941 E7.0905
G1 X133.386 Y109.707 E7.4631
G1 X133.743 Y110.288 E7.47671
G1 X134.181 Y111.078 E7.49473
G1 X134.547 Y111.903 E7.51274
G1 X134.715 Y112.361 E7.52248
G1 X134.977 Y113.136 E7.5388
G1 X135.307 Y114.162 E7.56031
G1 X135.388 Y114.397 E7.56527
G1 X135.676 Y115.27 E7.58362
G1 X135.92 Y116.14 E7.60165
G1 X136.087 Y117.027 E7.61966
G1 X136.181 Y118.061 E7.64038
G1 X136.187 Y118.212 E7.6434
G1 X136.194 Y118.507 E7.64929
G1 X136.199 Y118.983 E7.65879
G1 X136.199 Y121.888 E7.71676
G1 X136.19 Y122.574 E7.73045
G1 X136.138 Y123.475 E7.74846
G1 X136.007 Y124.369 E7.76649
G1 X135.797 Y125.247 E7.78451
G1 X135.51 Y126.104 E7.80254
G1 X135.149 Y126.931 E7.82055
G1 X134.716 Y127.724 E7.83858
G1 X134.214 Y128.475 E7.85661
G1 X133.648 Y129.179 E7.87463
G1 X133.022 Y129.829 E7.89264
G1 X132.341 Y130.422 E7.91066
G1 X131.61 Y130.953 E7.92869
G1 X130.835 Y131.416 E7.94671
G1 X130.022 Y131.81 E7.96474
G1 X129.177 Y132.13 E7.98277
G1 X128.308 Y132.373 E8.00078
G1 X127.42 Y132.539 E8.0188
G1 X126.256 Y132.637 E8.04212
G1 X125.871 Y132.647 E8.0498
G1 X125.606 Y132.65 E8.05509
G1 X94.575 Y132.649 E8.67435
G1 X93.877 Y132.64 E8.68828
G1 X92.976 Y132.589 E8.70629
G1 X92.082 Y132.457 E8.72432
G1 X91.204 Y132.248 E8.74233
G1 X90.347 Y131.961 E8.76037
G1 X89.52 Y131.6 E8.77838
G1 X88.727 Y131.167 E8.79641
G1 X87.976 Y130.666 E8.81442
G1 X87.272 Y130.1 E8.83245
G1 X86.621 Y129.474 E8.85047
G1 X86.028 Y128.793 E8.86849
G1 X85.498 Y128.062 E8.88651
G1 X85.034 Y127.287 E8.90454
G1 X84.64 Y126.474 E8.92257
G1 X84.32 Y125.63 E8.94058
G1 X84.076 Y124.76 E8.95861
G1 X83.91 Y123.872 E8.97664
G1 X83.812 Y122.7 E9.00011
G1 X83.803 Y122.345 E9.0072
G1 X83.8 Y122.082 E9.01244
G1 X83.802 Y119.035 E9.07325
G1 X83.813 Y118.357 E9.08678
G1 X83.868 Y117.455 E9.10482
G1 X84.002 Y116.562 E9.12284
G1 X84.104 Y116.098 E9.13232
G1 X84.274 Y115.402 E9.14661
G1 X84.429 Y114.725 E9.16047
G1 X84.458 Y114.621 E9.16263
G1 X84.456 Y114.621 E9.16267
G1 X84.786 Y113.244 E9.19093
G1 X85.035 Y112.376 E9.20895
G1 X85.36 Y111.533 E9.22698
G1 X85.758 Y110.723 E9.24499
G1 X86.015 Y110.281 E9.25519
G1 X86.508 Y109.48 E9.27396
G1 X96.479 Y93.765 E9.64537
G1 X96.869 Y93.17 E9.65957
G1 X97.397 Y92.438 E9.67758
G1 X97.988 Y91.755 E9.6956
G1 F1500 E3.1956
;MESH:harbor_top_-_ore.stl
G0 F6000 X104.58 Y98.795
G0 X105.491 Y99.372
G0 X95.794 Y115.339
G0 X96.528 Y117.496
G0 X94.779 Y119.28
G0 X94.6 Y121.85
;TYPE:WALL-INNER
G1 F1500 E9.6956
G1 F1200 X94.6 Y121.651 E9.69957
G1 X94.601 Y119.127 E9.74994
G1 X94.695 Y119.118 E9.75183
G1 X95.102 Y118.996 E9.76031
G1 X95.466 Y118.801 E9.76855
G1 X95.785 Y118.539 E9.77679
G1 X96.046 Y118.221 E9.785
G1 X96.242 Y117.857 E9.79325
G1 X96.36 Y117.462 E9.80147
G1 X96.401 Y117.048 E9.80977
G1 X96.36 Y116.642 E9.81792
G1 X96.241 Y116.247 E9.82615
G1 X96.046 Y115.884 E9.83437
G1 X95.785 Y115.565 E9.8426
G1 X95.557 Y115.378 E9.84848
G1 X105.555 Y99.617 E10.22096
G1 X105.694 Y99.692 E10.22411
G1 X106.091 Y99.81 E10.23237
G1 X106.397 Y99.84 E10.23851
G1 X106.468 Y99.854 E10.23995
G1 X106.897 Y99.812 E10.24856
G1 X107.304 Y99.692 E10.25702
G1 X107.669 Y99.496 E10.26529
G1 X107.986 Y99.235 E10.27349
G1 X108.248 Y98.917 E10.28171
G1 X108.443 Y98.553 E10.28995
G1 X108.562 Y98.158 E10.29818
G1 X108.573 Y98.051 E10.30033
G1 X111.427 Y98.054 E10.35728
G1 X111.436 Y98.148 E10.35917
G1 X111.557 Y98.552 E10.36758
G1 X111.752 Y98.916 E10.37582
G1 X112.014 Y99.235 E10.38406
G1 X112.331 Y99.496 E10.39226
G1 X112.695 Y99.692 E10.40051
G1 X113.091 Y99.81 E10.40875
G1 X113.5 Y99.851 E10.41696
G1 X113.898 Y99.812 E10.42494
G1 X114.253 Y99.707 E10.43232
G1 X124.21 Y115.405 E10.8033
G1 X124.015 Y115.565 E10.80833
G1 X123.754 Y115.884 E10.81656
G1 X123.559 Y116.247 E10.82478
G1 X123.439 Y116.643 E10.83304
G1 X123.4 Y117.068 E10.84155
G1 X123.44 Y117.462 E10.84946
G1 X123.558 Y117.857 E10.85768
G1 X123.754 Y118.221 E10.86593
G1 X124.015 Y118.539 E10.87414
G1 X124.334 Y118.801 E10.88238
G1 X124.697 Y118.995 E10.8906
G1 X125.093 Y119.115 E10.89885
G1 X125.399 Y119.145 E10.90499
G1 X125.4 Y121.651 E10.955
G1 X125.4 Y121.85 E10.95897
G1 X125.201 Y121.85 E10.96154
G1 X94.799 Y121.85 E11.56824
G1 X94.6 Y121.85 E11.57081
G0 F6000 X94.2 Y122.25
;TYPE:WALL-OUTER
G1 F1200 X94.201 Y118.744 E11.64078
G1 X94.297 Y118.753 E11.6427
G1 X94.618 Y118.723 E11.64914
G1 X94.949 Y118.624 E11.65603
G1 X95.243 Y118.467 E11.66268
G1 X95.501 Y118.255 E11.66935
G1 X95.712 Y117.998 E11.67598
G1 X95.87 Y117.703 E11.68266
G1 X95.966 Y117.384 E11.68931
G1 X95.999 Y117.048 E11.69605
G1 X95.966 Y116.72 E11.70263
G1 X95.87 Y116.401 E11.70927
G1 X95.712 Y116.107 E11.71593
G1 X95.501 Y115.849 E11.72259
G1 X95.243 Y115.638 E11.72924
G1 X95.001 Y115.508 E11.73472
G1 X105.433 Y99.063 E12.12336
G1 X105.554 Y99.162 E12.12648
G1 X105.848 Y99.32 E12.13314
G1 X106.168 Y99.416 E12.13981
G1 X106.461 Y99.444 E12.14568
G1 X106.49 Y99.45 E12.14627
G1 X106.82 Y99.418 E12.15289
G1 X107.151 Y99.32 E12.15978
G1 X107.445 Y99.162 E12.16644
G1 X107.702 Y98.951 E12.17307
G1 X107.914 Y98.693 E12.17974
G1 X108.072 Y98.399 E12.1864
G1 X108.168 Y98.08 E12.19304
G1 X108.201 Y97.748 E12.1997
G1 X108.191 Y97.65 E12.20167
G1 X111.809 Y97.655 E12.27387
G1 X111.804 Y97.709 E12.27495
G1 X111.798 Y97.738 E12.27554
G1 X111.83 Y98.07 E12.2822
G1 X111.929 Y98.399 E12.28906
G1 X112.086 Y98.693 E12.29571
G1 X112.298 Y98.951 E12.30237
G1 X112.555 Y99.162 E12.30901
G1 X112.849 Y99.32 E12.31567
G1 X113.169 Y99.416 E12.32233
G1 X113.501 Y99.449 E12.32899
G1 X113.821 Y99.418 E12.33541
G1 X114.152 Y99.32 E12.3423
G1 X114.397 Y99.188 E12.34785
G1 X124.762 Y115.528 E12.734
G1 X124.557 Y115.638 E12.73865
G1 X124.299 Y115.849 E12.7453
G1 X124.088 Y116.107 E12.75195
G1 X123.93 Y116.401 E12.75861
G1 X123.834 Y116.72 E12.76526
G1 X123.802 Y117.066 E12.77219
G1 X123.834 Y117.384 E12.77857
G1 X123.93 Y117.703 E12.78522
G1 X124.088 Y117.998 E12.7919
G1 X124.299 Y118.255 E12.79853
G1 X124.557 Y118.467 E12.8052
G1 X124.851 Y118.624 E12.81185
G1 X125.171 Y118.721 E12.81852
G1 X125.502 Y118.753 E12.82516
G1 X125.799 Y118.725 E12.83111
G1 X125.8 Y122.25 E12.90146
G1 X94.2 Y122.25 E13.53207
G0 F6000 X94.47 Y121.98
G0 X94.711 Y121.459
G0 X94.99 Y121.46
;TYPE:SKIN
G1 F1200 X94.991 Y119.437 E13.57244
G1 X95.252 Y119.359 E13.57787
G1 X95.684 Y119.127 E13.58766
G1 X96.062 Y118.816 E13.59743
G1 X96.372 Y118.439 E13.60717
G1 X96.605 Y118.007 E13.61696
G1 X96.744 Y117.538 E13.62673
G1 X96.793 Y117.048 E13.63655
G1 X96.744 Y116.566 E13.64622
G1 X96.603 Y116.097 E13.65599
G1 X96.372 Y115.666 E13.66575
G1 X96.07 Y115.298 E13.67525
G1 X105.708 Y100.103 E14.03434
G1 X106.015 Y100.194 E14.04073
G1 X106.341 Y100.226 E14.04727
G1 X106.448 Y100.248 E14.04945
G1 X106.971 Y100.196 E14.05994
G1 X107.452 Y100.055 E14.06994
G1 X107.887 Y99.822 E14.07979
G1 X108.263 Y99.512 E14.08951
G1 X108.574 Y99.135 E14.09926
G1 X108.805 Y98.703 E14.10904
G1 X108.884 Y98.441 E14.1145
G1 X111.117 Y98.444 E14.15906
G1 X111.194 Y98.702 E14.16444
G1 X111.426 Y99.134 E14.17422
G1 X111.737 Y99.512 E14.18399
G1 X112.113 Y99.821 E14.1937
G1 X112.545 Y100.055 E14.20351
G1 X113.015 Y100.194 E14.21329
G1 X113.5 Y100.243 E14.22302
G1 X113.972 Y100.196 E14.23248
G1 X114.081 Y100.164 E14.23475
G1 X123.702 Y115.332 E14.5932
G1 X123.428 Y115.666 E14.60182
G1 X123.197 Y116.097 E14.61158
G1 X123.055 Y116.567 E14.62138
G1 X123.008 Y117.07 E14.63146
G1 X123.056 Y117.538 E14.64085
G1 X123.195 Y118.007 E14.65061
G1 X123.428 Y118.439 E14.6604
G1 X123.738 Y118.816 E14.67014
G1 X124.116 Y119.127 E14.67991
G1 X124.547 Y119.357 E14.68966
G1 X125.009 Y119.497 E14.6993
G1 X125.01 Y121.46 E14.73847
G1 X94.99 Y121.46 E15.33755
G0 F6000 X95.277 Y121.299
G1 F1200 X95.15 Y121.171 E15.34115
G0 F6000 X95.15 Y120.606
G1 F1200 X95.843 Y121.299 E15.36071
G0 F6000 X96.409 Y121.299
