;FLAVOR:Marlin
;TIME:912
;Filament used: 0.372494m
;Layer height: 0.12
;MINX:85.896
;MINY:82.366
;MINZ:0.12
;MAXX:134.094
;MAXY:137.636
;MAXZ:3.84
;Generated with Cura_SteamEngine master
M140 S60
M105
M190 S60
M104 S200
M105
M109 S200
M82 ;absolute extrusion mode
; Ender 3 Custom Start G-code
G92 E0 ; Reset Extruder
G28 ; Home all axes
G1 Z2.0 F3000 ; Move Z Axis up little to prevent scratching of Heat Bed
G1 X0.1 Y20 Z0.3 F5000.0 ; Move to start position
G1 X0.1 Y200.0 Z0.3 F1500.0 E15 ; Draw the first line
G1 X0.4 Y200.0 Z0.3 F5000.0 ; Move to side a little
G1 X0.4 Y20 Z0.3 F1500.0 E30 ; Draw the second line
G92 E0 ; Reset Extruder
G1 Z2.0 F3000 ; Move Z Axis up little to prevent scratching of Heat Bed
G1 X5 Y20 Z0.3 F5000.0 ; Move over to prevent blob squish
G92 E0
G92 E0
G1 F1500 E-6.5
;LAYER_COUNT:32
;LAYER:0
M107
G0 F6000 X89.09 Y85.812 Z0.12
;TYPE:SKIRT
G1 F1500 E0
G1 F1200 X89.778 Y85.174 E0.01872
G1 X90.517 Y84.598 E0.03742
G1 X91.303 Y84.086 E0.05614
G1 X92.13 Y83.643 E0.07486
G1 X92.992 Y83.273 E0.09358
G1 X93.882 Y82.977 E0.1123
G1 X94.794 Y82.758 E0.13102
G1 X95.721 Y82.617 E0.14973
G1 X96.586 Y82.558 E0.16703
G1 X96.862 Y82.55 E0.17254
G1 X97.124 Y82.545 E0.17777
G1 X97.208 Y82.545 E0.17945
G1 X99.848 Y82.489 E0.23215
G1 X101.72 Y82.404 E0.26954
G1 X102.192 Y82.378 E0.27898
G1 X103.13 Y82.366 E0.2977
G1 X104.127 Y82.442 E0.31765
G1 X104.365 Y82.471 E0.32243
G1 X105.291 Y82.624 E0.34116
G1 X106.2 Y82.855 E0.35988
G1 X107.25 Y83.23 E0.38213
G1 X107.532 Y83.347 E0.38822
G1 X108.699 Y83.913 E0.41411
G1 X108.74 Y83.936 E0.41505
G1 X109.758 Y84.583 E0.43912
G1 X110.601 Y85.186 E0.4598
G1 X110.925 Y85.425 E0.46783
G1 X112.969 Y86.847 E0.51752
G1 X115.484 Y88.488 E0.57745
G1 X122.525 Y92.916 E0.74344
G1 X124.763 Y94.28 E0.79574
G1 X126.869 Y95.486 E0.84417
G1 X127.995 Y96.112 E0.86988
G1 X128.795 Y96.602 E0.88861
G1 X129.696 Y97.278 E0.91108
G1 X129.858 Y97.413 E0.91529
G1 X130.552 Y98.043 E0.934
G1 X131.19 Y98.731 E0.95272
G1 X131.675 Y99.342 E0.96829
G1 X131.82 Y99.539 E0.97317
G1 X132.343 Y100.318 E0.9919
G1 X132.798 Y101.138 E1.01061
G1 X133.241 Y102.147 E1.0326
G1 X133.351 Y102.436 E1.03877
G1 X133.647 Y103.326 E1.05749
G1 X133.867 Y104.238 E1.07621
G1 X133.999 Y105.092 E1.09346
G1 X134.022 Y105.292 E1.09747
G1 X134.089 Y106.228 E1.1162
G1 X134.092 Y106.754 E1.1267
G1 X134.067 Y108.069 E1.15294
G1 X134.05 Y108.633 E1.1642
G1 X134.043 Y111.152 E1.21447
G1 X134.092 Y113.233 E1.25601
G1 X134.094 Y113.448 E1.2603
G1 X134.032 Y114.719 E1.2857
G1 X134.015 Y114.878 E1.28889
G1 X133.875 Y115.806 E1.30762
G1 X133.684 Y116.623 E1.32436
G1 X133.62 Y116.856 E1.32918
G1 X133.333 Y117.749 E1.3479
G1 X132.972 Y118.614 E1.36661
G1 X132.43 Y119.628 E1.38955
G1 X132.302 Y119.84 E1.3945
G1 X131.783 Y120.621 E1.41321
G1 X131.2 Y121.356 E1.43193
G1 X130.448 Y122.141 E1.45362
G1 X130.222 Y122.355 E1.45983
G1 X129.514 Y122.971 E1.47856
G1 X128.378 Y123.764 E1.50621
G1 X128.332 Y123.792 E1.50728
G1 X127.66 Y124.17 E1.52267
G1 X126.894 Y124.566 E1.53988
G1 X124.565 Y125.809 E1.59256
G1 X122.384 Y127.055 E1.64269
G1 X120.209 Y128.379 E1.6935
G1 X116.685 Y130.596 E1.77659
G1 X114.579 Y131.962 E1.82668
G1 X112.524 Y133.381 E1.87652
G1 X110.476 Y134.879 E1.92715
G1 X109.982 Y135.252 E1.93951
G1 X109.21 Y135.784 E1.95822
G1 X108.58 Y136.151 E1.97277
G1 X108.415 Y136.24 E1.97651
G1 X107.571 Y136.65 E1.99523
G1 X106.45 Y137.066 E2.01909
G1 X106.25 Y137.128 E2.02327
G1 X105.343 Y137.367 E2.04199
G1 X104.071 Y137.568 E2.06769
G1 X103.878 Y137.587 E2.07156
G1 X102.494 Y137.636 E2.0992
G1 X101.309 Y137.603 E2.12285
G1 X100.904 Y137.587 E2.13094
G1 X98.3 Y137.55 E2.18291
G1 X97.43 Y137.549 E2.20028
G1 X96.732 Y137.538 E2.21421
G1 X95.795 Y137.483 E2.23294
G1 X94.867 Y137.349 E2.25165
G1 X93.954 Y137.136 E2.27036
G1 X93.062 Y136.846 E2.28908
G1 X92.198 Y136.481 E2.30779
G1 X91.368 Y136.044 E2.32651
G1 X90.579 Y135.538 E2.34522
G1 X89.835 Y134.966 E2.36395
G1 X89.143 Y134.333 E2.38266
G1 X88.507 Y133.644 E2.40137
G1 X87.932 Y132.902 E2.42011
G1 X87.423 Y132.115 E2.43881
G1 X86.982 Y131.287 E2.45753
G1 X86.614 Y130.425 E2.47624
G1 X86.321 Y129.534 E2.49495
G1 X86.104 Y128.621 E2.51368
G1 X85.966 Y127.694 E2.53238
G1 X85.909 Y126.838 E2.5495
G1 X85.9 Y126.507 E2.55611
G1 X85.896 Y126.208 E2.56208
G1 X85.897 Y94.098 E3.20287
G1 X85.906 Y93.409 E3.21662
G1 X85.958 Y92.473 E3.23533
G1 X86.09 Y91.544 E3.25405
G1 X86.3 Y90.63 E3.27277
G1 X86.588 Y89.738 E3.29147
G1 X86.95 Y88.873 E3.31019
G1 X87.385 Y88.042 E3.32891
G1 X87.889 Y87.251 E3.34762
G1 X88.459 Y86.506 E3.36634
G1 X89.09 Y85.812 E3.38506
G0 F6000 X89.482 Y85.986
G1 F1200 X90.167 Y85.371 E3.40343
G1 X90.902 Y84.817 E3.4218
G1 X91.683 Y84.329 E3.44018
G1 X92.503 Y83.91 E3.45855
G1 X93.356 Y83.565 E3.47692
G1 X94.236 Y83.294 E3.49529
G1 X95.136 Y83.102 E3.51366
G1 X96.05 Y82.988 E3.53204
G1 X96.598 Y82.957 E3.54299
G1 X96.874 Y82.949 E3.5485
G1 X97.126 Y82.945 E3.55353
G1 X97.218 Y82.945 E3.55537
G1 X99.875 Y82.888 E3.6084
G1 X101.659 Y82.808 E3.64404
G1 X102.214 Y82.777 E3.65513
G1 X103.135 Y82.766 E3.67351
G1 X104.079 Y82.839 E3.69241
G1 X104.317 Y82.868 E3.69719
G1 X105.225 Y83.019 E3.71556
G1 X106.117 Y83.248 E3.73394
G1 X107.097 Y83.599 E3.75471
G1 X107.379 Y83.716 E3.76081
G1 X108.503 Y84.262 E3.78574
G1 X108.544 Y84.285 E3.78668
G1 X109.525 Y84.909 E3.80988
G1 X110.498 Y85.606 E3.83377
G1 X110.688 Y85.746 E3.83848
G1 X112.751 Y87.183 E3.88865
G1 X115.26 Y88.819 E3.94842
G1 X122.361 Y93.285 E4.11583
G1 X124.535 Y94.611 E4.16665
G1 X126.659 Y95.826 E4.21548
G1 X126.681 Y95.84 E4.216
G1 X127.801 Y96.462 E4.24156
G1 X128.586 Y96.943 E4.25994
G1 X129.44 Y97.585 E4.28126
G1 X129.602 Y97.72 E4.28547
G1 X130.283 Y98.339 E4.30383
G1 X130.908 Y99.016 E4.32222
G1 X131.353 Y99.58 E4.33656
G1 X131.498 Y99.777 E4.34144
G1 X132.011 Y100.541 E4.3598
G1 X132.456 Y101.347 E4.37817
G1 X132.868 Y102.289 E4.39869
G1 X132.978 Y102.578 E4.40486
G1 X133.267 Y103.452 E4.42323
G1 X133.48 Y104.348 E4.44161
G1 X133.602 Y105.138 E4.45757
G1 X133.625 Y105.338 E4.46158
G1 X133.69 Y106.256 E4.47995
G1 X133.692 Y106.746 E4.48973
G1 X133.667 Y108.057 E4.51589
G1 X133.65 Y108.62 E4.52713
G1 X133.643 Y111.16 E4.57782
G1 X133.692 Y113.236 E4.61926
G1 X133.694 Y113.451 E4.62355
G1 X133.634 Y114.677 E4.64805
G1 X133.617 Y114.836 E4.65124
G1 X133.479 Y115.746 E4.66961
G1 X133.298 Y116.517 E4.68541
G1 X133.234 Y116.75 E4.69023
G1 X132.952 Y117.626 E4.7086
G1 X132.595 Y118.474 E4.72696
G1 X132.087 Y119.421 E4.74841
G1 X131.959 Y119.633 E4.75335
G1 X131.45 Y120.4 E4.77172
G1 X130.875 Y121.119 E4.79009
G1 X130.173 Y121.851 E4.81033
G1 X129.947 Y122.065 E4.81654
G1 X129.252 Y122.668 E4.8349
G1 X128.17 Y123.423 E4.86123
G1 X128.124 Y123.451 E4.86231
G1 X127.477 Y123.814 E4.87711
G1 X126.699 Y124.216 E4.89459
G1 X124.384 Y125.452 E4.94696
G1 X122.198 Y126.7 E4.99719
G1 X119.936 Y128.078 E5.05005
G1 X116.545 Y130.211 E5.13
G1 X114.341 Y131.641 E5.18243
G1 X112.265 Y133.074 E5.23277
G1 X110.283 Y134.524 E5.28177
G1 X109.741 Y134.933 E5.29532
G1 X108.983 Y135.455 E5.31369
G1 X108.39 Y135.799 E5.32737
G1 X108.225 Y135.888 E5.33111
G1 X107.397 Y136.29 E5.34948
G1 X106.332 Y136.684 E5.37214
G1 X106.132 Y136.746 E5.37632
G1 X105.241 Y136.98 E5.3947
G1 X104.032 Y137.17 E5.41913
G1 X103.839 Y137.189 E5.423
G1 X102.505 Y137.236 E5.44964
G1 X101.32 Y137.203 E5.47329
G1 X100.927 Y137.187 E5.48114
G1 X98.305 Y137.15 E5.53347
G1 X97.436 Y137.149 E5.55081
G1 X96.738 Y137.138 E5.56474
G1 X95.819 Y137.083 E5.58312
G1 X94.908 Y136.949 E5.60149
G1 X94.012 Y136.737 E5.61987
G1 X93.138 Y136.447 E5.63824
G1 X92.293 Y136.083 E5.6566
G1 X91.482 Y135.647 E5.67498
G1 X90.712 Y135.142 E5.69336
G1 X89.989 Y134.572 E5.71173
G1 X89.318 Y133.942 E5.7301
G1 X88.704 Y133.255 E5.74848
G1 X88.153 Y132.518 E5.76685
G1 X87.667 Y131.736 E5.78522
G1 X87.251 Y130.915 E5.80359
G1 X86.907 Y130.061 E5.82196
G1 X86.639 Y129.18 E5.84034
G1 X86.449 Y128.279 E5.85871
G1 X86.337 Y127.366 E5.87707
G1 X86.309 Y126.827 E5.88784
G1 X86.3 Y126.496 E5.89445
G1 X86.296 Y126.208 E5.9002
G1 X86.297 Y94.104 E6.54087
G1 X86.306 Y93.415 E6.55462
G1 X86.358 Y92.495 E6.57301
G1 X86.489 Y91.584 E6.59137
G1 X86.7 Y90.688 E6.60974
G1 X86.987 Y89.813 E6.62812
G1 X87.349 Y88.967 E6.64648
G1 X87.783 Y88.155 E6.66486
G1 X88.285 Y87.383 E6.68323
G1 X88.853 Y86.659 E6.7016
G1 X89.482 Y85.986 E6.71998
G0 F6000 X89.873 Y86.164
G1 F1200 X90.555 Y85.571 E6.73802
G1 X91.286 Y85.041 E6.75604
G1 X92.06 Y84.577 E6.77404
G1 X92.873 Y84.184 E6.79206
G1 X93.718 Y83.864 E6.8101
G1 X94.588 Y83.62 E6.82813
G1 X95.475 Y83.454 E6.84614
G1 X96.609 Y83.357 E6.86885
G1 X96.885 Y83.349 E6.87436
G1 X97.229 Y83.344 E6.88123
G1 X99.859 Y83.289 E6.93372
G1 X101.699 Y83.206 E6.97048
G1 X102.236 Y83.176 E6.98121
G1 X103.139 Y83.167 E6.99923
G1 X104.031 Y83.236 E7.01709
G1 X104.269 Y83.265 E7.02187
G1 X105.159 Y83.414 E7.03988
G1 X106.034 Y83.641 E7.05792
G1 X106.944 Y83.969 E7.07722
G1 X107.226 Y84.086 E7.08331
G1 X108.307 Y84.611 E7.1073
G1 X108.348 Y84.634 E7.10824
G1 X109.292 Y85.234 E7.13056
G1 X110.261 Y85.928 E7.15434
G1 X110.461 Y86.076 E7.15931
G1 X112.533 Y87.519 E7.2097
G1 X115.051 Y89.16 E7.26967
G1 X122.094 Y93.59 E7.43572
G1 X124.377 Y94.982 E7.48908
G1 X126.453 Y96.17 E7.53681
G1 X127.607 Y96.811 E7.56315
G1 X128.376 Y97.284 E7.58117
G1 X129.184 Y97.892 E7.60135
G1 X129.346 Y98.027 E7.60556
G1 X130.013 Y98.635 E7.62357
G1 X130.624 Y99.3 E7.64159
G1 X131.031 Y99.817 E7.65472
G1 X131.176 Y100.014 E7.6596
G1 X131.678 Y100.764 E7.67761
G1 X132.113 Y101.556 E7.69565
G1 X132.494 Y102.432 E7.71471
G1 X132.604 Y102.721 E7.72088
G1 X132.887 Y103.578 E7.73889
G1 X133.094 Y104.457 E7.75691
G1 X133.204 Y105.184 E7.77158
G1 X133.227 Y105.384 E7.7756
G1 X133.291 Y106.285 E7.79363
G1 X133.292 Y106.739 E7.80269
G1 X133.267 Y108.045 E7.82876
G1 X133.25 Y108.607 E7.83998
G1 X133.243 Y111.169 E7.8911
G1 X133.292 Y113.24 E7.93244
G1 X133.294 Y113.455 E7.93674
G1 X133.236 Y114.634 E7.96029
G1 X133.219 Y114.793 E7.96348
G1 X133.084 Y115.686 E7.98151
G1 X132.913 Y116.411 E7.99637
G1 X132.849 Y116.644 E8.00119
G1 X132.571 Y117.503 E8.01921
G1 X132.219 Y118.335 E8.03724
G1 X131.745 Y119.214 E8.05717
G1 X131.617 Y119.426 E8.06211
G1 X131.116 Y120.178 E8.08014
G1 X130.551 Y120.882 E8.09816
G1 X129.898 Y121.56 E8.11694
G1 X129.672 Y121.774 E8.12315
G1 X128.99 Y122.366 E8.14118
G1 X127.962 Y123.081 E8.16616
G1 X127.916 Y123.109 E8.16724
G1 X127.293 Y123.459 E8.1815
G1 X126.508 Y123.865 E8.19914
G1 X124.204 Y125.095 E8.25126
G1 X121.972 Y126.369 E8.30254
G1 X119.783 Y127.702 E8.35369
G1 X116.259 Y129.919 E8.43677
G1 X114.142 Y131.293 E8.48714
G1 X112.024 Y132.754 E8.53849
G1 X110.013 Y134.226 E8.58822
G1 X109.5 Y134.613 E8.60105
G1 X108.756 Y135.125 E8.61907
G1 X108.2 Y135.447 E8.63189
G1 X108.035 Y135.536 E8.63563
G1 X107.222 Y135.929 E8.65365
G1 X106.213 Y136.302 E8.67512
G1 X106.013 Y136.364 E8.6793
G1 X105.14 Y136.593 E8.69731
G1 X103.992 Y136.772 E8.7205
G1 X103.799 Y136.791 E8.72437
G1 X102.516 Y136.836 E8.74999
G1 X101.178 Y136.798 E8.7767
G1 X100.916 Y136.787 E8.78193
G1 X98.311 Y136.75 E8.83392
G1 X97.442 Y136.749 E8.85126
G1 X96.744 Y136.738 E8.86519
G1 X95.843 Y136.684 E8.88321
G1 X94.95 Y136.55 E8.90123
G1 X94.072 Y136.338 E8.91925
G1 X93.216 Y136.049 E8.93728
G1 X92.39 Y135.685 E8.9553
G1 X91.598 Y135.25 E8.97333
G1 X90.849 Y134.746 E8.99134
G1 X90.146 Y134.178 E9.00938
G1 X89.497 Y133.551 E9.02739
G1 X88.906 Y132.868 E9.04541
G1 X88.377 Y132.136 E9.06344
G1 X87.916 Y131.359 E9.08147
G1 X87.525 Y130.545 E9.09949
G1 X87.207 Y129.7 E9.1175
G1 X86.966 Y128.83 E9.13552
G1 X86.802 Y127.942 E9.15354
G1 X86.709 Y126.816 E9.17609
G1 X86.7 Y126.485 E9.18269
G1 X86.696 Y126.208 E9.18822
G1 X86.697 Y94.109 E9.82879
G1 X86.706 Y93.42 E9.84254
G1 X86.758 Y92.518 E9.86057
G1 X86.889 Y91.625 E9.87859
G1 X87.099 Y90.746 E9.89662
G1 X87.385 Y89.89 E9.91463
G1 X87.747 Y89.062 E9.93267
G1 X88.18 Y88.27 E9.95068
G1 X88.681 Y87.519 E9.96869
G1 X89.247 Y86.815 E9.98672
G1 X89.873 Y86.164 E10.00474
G1 F1500 E3.50474
;MESH:harbor_base_-_1.stl
G0 F6000 X97.31 Y92.879
G0 X97.31 Y93.958
G0 X97.496 Y125.95
;TYPE:WALL-INNER
G1 F1500 E10.00474
G1 F1200 X97.496 Y94.144 E10.63947
G1 X102.432 Y94.144 E10.73797
G1 X102.588 Y94.016 E10.742
G1 X102.645 Y93.985 E10.74329
G1 X102.731 Y93.96 E10.74508
G1 X102.802 Y93.953 E10.7465
G1 X102.882 Y93.961 E10.74811
G1 X102.956 Y93.984 E10.74965
G1 X103.025 Y94.021 E10.75122
G1 X103.086 Y94.071 E10.75279
G1 X103.132 Y94.127 E10.75424
G1 X103.169 Y94.197 E10.75582
G1 X103.261 Y94.503 E10.76219
G1 X121.825 Y106.18 E11.19985
G1 X122.107 Y106.153 E11.20551
G1 X122.181 Y106.16 E11.20699
G1 X122.25 Y106.181 E11.20843
G1 X122.326 Y106.222 E11.21015
G1 X122.384 Y106.269 E11.21164
G1 X122.433 Y106.329 E11.21319
G1 X122.471 Y106.4 E11.2148
G1 X122.492 Y106.471 E11.21627
G1 X122.5 Y106.55 E11.21786
G1 X122.492 Y106.63 E11.21946
G1 X122.47 Y106.703 E11.22098
G1 X122.425 Y106.786 E11.22287
G1 X122.303 Y106.981 E11.22746
G1 X122.303 Y113.165 E11.35087
G1 X122.432 Y113.326 E11.35498
G1 X122.469 Y113.396 E11.35656
G1 X122.492 Y113.472 E11.35815
G1 X122.5 Y113.551 E11.35973
G1 X122.492 Y113.631 E11.36134
G1 X122.469 Y113.706 E11.3629
G1 X122.437 Y113.766 E11.36426
G1 X122.383 Y113.831 E11.36595
G1 X122.32 Y113.882 E11.36756
G1 X122.252 Y113.919 E11.36911
G1 X122.183 Y113.94 E11.37055
G1 X122.103 Y113.947 E11.37215
G1 X122.025 Y113.94 E11.37371
G1 X121.874 Y113.894 E11.37686
G1 X121.565 Y113.821 E11.3832
G1 X103.234 Y125.352 E11.81537
G1 X103.192 Y125.725 E11.82286
G1 X103.167 Y125.811 E11.82465
G1 X103.136 Y125.867 E11.82593
G1 X103.085 Y125.929 E11.82753
G1 X103.018 Y125.984 E11.82926
G1 X102.957 Y126.016 E11.83063
G1 X102.879 Y126.04 E11.83226
G1 X102.802 Y126.047 E11.8338
G1 X102.726 Y126.04 E11.83533
G1 X102.655 Y126.018 E11.83681
G1 X102.528 Y125.95 E11.83969
G1 X97.496 Y125.95 E11.94011
G0 F6000 X97.096 Y126.35
;TYPE:WALL-OUTER
G1 F1200 X97.096 Y93.744 E12.59079
G1 X102.289 Y93.744 E12.69443
G1 X102.362 Y93.684 E12.69631
G1 X102.496 Y93.612 E12.69935
G1 X102.652 Y93.566 E12.70259
G1 X102.804 Y93.551 E12.70564
G1 X102.958 Y93.567 E12.70873
G1 X103.112 Y93.613 E12.71194
G1 X103.249 Y93.687 E12.71504
G1 X103.37 Y93.787 E12.71818
G1 X103.467 Y93.904 E12.72121
G1 X103.541 Y94.045 E12.72439
G1 X103.601 Y94.244 E12.72854
G1 X121.922 Y105.769 E13.16048
G1 X122.106 Y105.751 E13.16416
G1 X122.262 Y105.766 E13.16729
G1 X122.407 Y105.811 E13.17032
G1 X122.545 Y105.885 E13.17345
G1 X122.668 Y105.985 E13.17661
G1 X122.768 Y106.108 E13.17977
G1 X122.843 Y106.247 E13.18293
G1 X122.886 Y106.394 E13.18598
G1 X122.903 Y106.55 E13.18911
G1 X122.886 Y106.706 E13.19225
G1 X122.843 Y106.854 E13.19532
G1 X122.764 Y106.999 E13.19862
G1 X122.703 Y107.096 E13.2009
G1 X122.703 Y113.025 E13.31922
G1 X122.767 Y113.105 E13.32127
G1 X122.842 Y113.244 E13.32442
G1 X122.886 Y113.394 E13.32754
G1 X122.903 Y113.552 E13.33071
G1 X122.886 Y113.707 E13.33382
G1 X122.841 Y113.861 E13.33702
G1 X122.768 Y113.994 E13.34005
G1 X122.669 Y114.114 E13.34316
G1 X122.544 Y114.216 E13.34638
G1 X122.407 Y114.29 E13.34948
G1 X122.261 Y114.334 E13.35253
G1 X122.102 Y114.349 E13.35571
G1 X121.949 Y114.334 E13.35878
G1 X121.771 Y114.281 E13.36249
G1 X121.636 Y114.249 E13.36526
G1 X103.61 Y125.588 E13.79024
G1 X103.586 Y125.804 E13.79457
G1 X103.539 Y125.963 E13.79788
G1 X103.47 Y126.091 E13.80078
G1 X103.368 Y126.214 E13.80397
G1 X103.244 Y126.316 E13.80718
G1 X103.11 Y126.388 E13.81021
G1 X102.955 Y126.434 E13.81344
G1 X102.803 Y126.449 E13.81649
G1 X102.646 Y126.434 E13.81963
G1 X102.501 Y126.39 E13.82266
G1 X102.427 Y126.35 E13.82434
G1 X97.096 Y126.35 E13.93072
G0 F6000 X97.366 Y126.08
G0 X97.606 Y125.56
G0 X97.886 Y125.56
;TYPE:SKIN
G1 F1200 X97.886 Y94.534 E14.54988
G1 X102.572 Y94.534 E14.64339
G1 X102.804 Y94.345 E14.64937
G1 X102.806 Y94.346 E14.64941
G1 X102.93 Y94.755 E14.65794
G1 X121.73 Y106.581 E15.10117
G1 X122.103 Y106.545 E15.10865
G1 X122.108 Y106.552 E15.10882
G1 X122.093 Y106.581 E15.10947
G1 X121.913 Y106.87 E15.11626
G1 X121.913 Y113.302 E15.24462
G1 X122.107 Y113.545 E15.25083
G1 X122.105 Y113.555 E15.25103
G1 X122.103 Y113.556 E15.25108
