;FLAVOR:Marlin
;TIME:1483
;Filament used: 0.247973m
;Layer height: 0.12
;MINX:87.321
;MINY:112.077
;MINZ:0.12
;MAXX:118.665
;MAXY:143.098
;MAXZ:14.4
;Generated with Cura_SteamEngine master
M140 S60
M105
M190 S60
M104 S200
M105
M109 S200
M82 ;absolute extrusion mode
; Ender 3 Custom Start G-code
G92 E0 ; Reset Extruder
G28 ; Home all axes
G1 Z2.0 F3000 ; Move Z Axis up little to prevent scratching of Heat Bed
G1 X0.1 Y20 Z0.3 F5000.0 ; Move to start position
G1 X0.1 Y200.0 Z0.3 F1500.0 E15 ; Draw the first line
G1 X0.4 Y200.0 Z0.3 F5000.0 ; Move to side a little
G1 X0.4 Y20 Z0.3 F1500.0 E30 ; Draw the second line
G92 E0 ; Reset Extruder
G1 Z2.0 F3000 ; Move Z Axis up little to prevent scratching of Heat Bed
G1 X5 Y20 Z0.3 F5000.0 ; Move over to prevent blob squish
G92 E0
G92 E0
G1 F1500 E-6.5
;LAYER_COUNT:120
;LAYER:0
M107
G0 F6000 X92.461 Y115.356 Z0.12
;TYPE:SKIRT
G1 F1500 E0
G1 F1200 X93.228 Y114.817 E0.01871
G1 X94.038 Y114.344 E0.03743
G1 X95.141 Y113.838 E0.06164
G1 X95.719 Y113.611 E0.07404
G1 X96.614 Y113.243 E0.09335
G1 X97.627 Y112.842 E0.11509
G1 X98.513 Y112.534 E0.13381
G1 X99.422 Y112.303 E0.15252
G1 X100.348 Y112.151 E0.17125
G1 X101.283 Y112.077 E0.18997
G1 X102.22 Y112.083 E0.20867
G1 X103.154 Y112.17 E0.22739
G1 X103.793 Y112.276 E0.24031
G1 X103.895 Y112.296 E0.24239
G1 X104.545 Y112.444 E0.25569
G1 X104.849 Y112.523 E0.26196
G1 X105.144 Y112.604 E0.26806
G1 X105.358 Y112.666 E0.27251
G1 X105.919 Y112.82 E0.28412
G1 X106.202 Y112.904 E0.29001
G1 X106.856 Y113.104 E0.30366
G1 X107.74 Y113.416 E0.32237
G1 X108.595 Y113.803 E0.3411
G1 X109.208 Y114.137 E0.35503
G1 X109.736 Y114.447 E0.36725
G1 X110.047 Y114.637 E0.37452
G1 X110.923 Y115.191 E0.3952
G1 X111.501 Y115.542 E0.4087
G1 X111.649 Y115.641 E0.41225
G1 X112.699 Y116.297 E0.43696
G1 X113.055 Y116.512 E0.44526
G1 X113.311 Y116.672 E0.45128
G1 X113.613 Y116.866 E0.45845
G1 X114.38 Y117.406 E0.47716
G1 X115.098 Y118.01 E0.49589
G1 X115.762 Y118.672 E0.5146
G1 X116.367 Y119.388 E0.53331
G1 X116.909 Y120.154 E0.55203
G1 X117.384 Y120.963 E0.57075
G1 X117.788 Y121.809 E0.58946
G1 X118.118 Y122.687 E0.60818
G1 X118.373 Y123.59 E0.62691
G1 X118.549 Y124.511 E0.64562
G1 X118.647 Y125.443 E0.66432
G1 X118.665 Y126.381 E0.68304
G1 X118.603 Y127.317 E0.70176
G1 X118.461 Y128.244 E0.72048
G1 X118.241 Y129.156 E0.7392
G1 X117.944 Y130.045 E0.7579
G1 X117.573 Y130.906 E0.77661
G1 X117.159 Y131.682 E0.79417
G1 X117.009 Y131.938 E0.80009
G1 X116.846 Y132.207 E0.80636
G1 X113.576 Y137.438 E0.92947
G1 X113.195 Y138.033 E0.94357
G1 X112.656 Y138.8 E0.96228
G1 X112.053 Y139.519 E0.98101
G1 X111.392 Y140.184 E0.99972
G1 X110.676 Y140.79 E1.01844
G1 X109.911 Y141.333 E1.03716
G1 X109.103 Y141.809 E1.05587
G1 X108.257 Y142.214 E1.07459
G1 X107.38 Y142.546 E1.0933
G1 X106.478 Y142.802 E1.11201
G1 X105.557 Y142.98 E1.13073
G1 X104.625 Y143.079 E1.14944
G1 X103.687 Y143.098 E1.16816
G1 X102.751 Y143.038 E1.18688
G1 X101.824 Y142.897 E1.20559
G1 X100.912 Y142.678 E1.22431
G1 X100.022 Y142.383 E1.24302
G1 X99.16 Y142.012 E1.26175
G1 X98.373 Y141.594 E1.27953
G1 X98.18 Y141.481 E1.28399
G1 X97.772 Y141.23 E1.29355
G1 X97.034 Y140.753 E1.31109
G1 X94.419 Y139.124 E1.37257
G1 X94.228 Y139.007 E1.37704
G1 X93.45 Y138.483 E1.39576
G1 X92.719 Y137.896 E1.41447
G1 X91.924 Y137.123 E1.4366
G1 X91.193 Y136.338 E1.458
G1 X91.003 Y136.129 E1.46364
G1 X90.514 Y135.576 E1.47837
G1 X90.215 Y135.223 E1.4876
G1 X90.025 Y134.989 E1.49362
G1 X89.465 Y134.236 E1.51235
G1 X88.971 Y133.439 E1.53106
G1 X88.548 Y132.602 E1.54977
G1 X88.197 Y131.732 E1.56849
G1 X87.921 Y130.836 E1.5872
G1 X87.723 Y129.919 E1.60593
G1 X87.607 Y129.026 E1.6239
G1 X87.51 Y127.931 E1.64583
G1 X87.413 Y126.907 E1.66636
G1 X87.376 Y126.543 E1.67366
G1 X87.321 Y125.607 E1.69237
G1 X87.346 Y124.67 E1.71108
G1 X87.451 Y123.738 E1.72979
G1 X87.635 Y122.818 E1.74852
G1 X87.896 Y121.917 E1.76724
G1 X88.234 Y121.042 E1.78596
G1 X88.792 Y119.934 E1.81071
G1 X88.867 Y119.804 E1.81371
G1 X89.008 Y119.566 E1.81923
G1 X89.295 Y119.098 E1.83019
G1 X89.486 Y118.793 E1.83737
G1 X89.931 Y118.103 E1.85375
G1 X90.473 Y117.338 E1.87246
G1 X91.078 Y116.622 E1.89117
G1 X91.742 Y115.959 E1.90989
G1 X92.461 Y115.356 E1.92862
G0 F6000 X92.758 Y115.632
G1 F1200 X93.515 Y115.108 E1.94699
G1 X94.314 Y114.651 E1.96536
G1 X95.288 Y114.21 E1.9867
G1 X95.869 Y113.981 E1.99916
G1 X96.762 Y113.615 E2.01842
G1 X97.775 Y113.214 E2.04016
G1 X98.644 Y112.913 E2.05851
G1 X99.537 Y112.688 E2.07689
G1 X100.446 Y112.542 E2.09526
G1 X101.364 Y112.475 E2.11363
G1 X102.285 Y112.488 E2.13201
G1 X103.201 Y112.58 E2.15039
G1 X103.716 Y112.668 E2.16081
G1 X103.818 Y112.688 E2.16289
G1 X104.444 Y112.831 E2.1757
G1 X104.748 Y112.91 E2.18197
G1 X105.033 Y112.988 E2.18787
G1 X105.268 Y113.056 E2.19275
G1 X105.645 Y113.159 E2.20055
G1 X106.085 Y113.286 E2.20969
G1 X106.739 Y113.486 E2.22333
G1 X107.607 Y113.794 E2.24171
G1 X108.445 Y114.175 E2.26009
G1 X109.006 Y114.482 E2.27285
G1 X109.534 Y114.792 E2.28507
G1 X109.834 Y114.975 E2.29208
G1 X110.724 Y115.538 E2.31309
G1 X111.294 Y115.884 E2.3264
G1 X111.438 Y115.98 E2.32986
G1 X112.535 Y116.666 E2.35567
G1 X112.848 Y116.855 E2.36297
G1 X113.095 Y117.009 E2.36878
G1 X113.397 Y117.203 E2.37594
G1 X114.149 Y117.733 E2.3943
G1 X114.853 Y118.327 E2.41268
G1 X115.502 Y118.98 E2.43106
G1 X116.092 Y119.687 E2.44943
G1 X116.618 Y120.442 E2.4678
G1 X117.077 Y121.24 E2.48617
G1 X117.465 Y122.075 E2.50454
G1 X117.78 Y122.94 E2.52291
G1 X118.017 Y123.83 E2.54129
G1 X118.177 Y124.737 E2.55967
G1 X118.258 Y125.654 E2.57804
G1 X118.258 Y126.574 E2.5964
G1 X118.179 Y127.492 E2.61479
G1 X118.02 Y128.398 E2.63315
G1 X117.784 Y129.288 E2.65152
G1 X117.471 Y130.154 E2.6699
G1 X117.084 Y130.989 E2.68826
G1 X116.814 Y131.48 E2.69945
G1 X116.664 Y131.736 E2.70537
G1 X116.506 Y131.995 E2.71142
G1 X113.239 Y137.222 E2.83443
G1 X112.858 Y137.817 E2.84853
G1 X112.328 Y138.57 E2.86691
G1 X111.735 Y139.274 E2.88528
G1 X111.083 Y139.924 E2.90365
G1 X110.377 Y140.516 E2.92204
G1 X109.623 Y141.043 E2.94039
G1 X108.825 Y141.503 E2.95877
G1 X107.991 Y141.893 E2.97715
G1 X107.126 Y142.208 E2.99552
G1 X106.237 Y142.447 E3.01389
G1 X105.331 Y142.608 E3.03225
G1 X104.414 Y142.69 E3.05063
G1 X103.493 Y142.692 E3.06901
G1 X102.576 Y142.614 E3.08737
G1 X101.669 Y142.457 E3.10574
G1 X100.778 Y142.221 E3.12413
G1 X99.912 Y141.91 E3.1425
G1 X99.076 Y141.524 E3.16087
G1 X98.575 Y141.248 E3.17229
G1 X98.382 Y141.135 E3.17675
G1 X97.989 Y140.893 E3.18596
G1 X97.3 Y140.448 E3.20233
G1 X94.593 Y138.761 E3.26598
G1 X94.437 Y138.666 E3.26963
G1 X93.674 Y138.151 E3.288
G1 X92.958 Y137.573 E3.30636
G1 X92.217 Y136.851 E3.32701
G1 X91.486 Y136.066 E3.34841
G1 X91.302 Y135.864 E3.35387
G1 X90.813 Y135.311 E3.3686
G1 X90.525 Y134.971 E3.37749
G1 X90.335 Y134.737 E3.3835
G1 X89.786 Y133.997 E3.40189
G1 X89.304 Y133.213 E3.42026
G1 X88.891 Y132.39 E3.43863
G1 X88.551 Y131.535 E3.457
G1 X88.287 Y130.653 E3.47537
G1 X88.101 Y129.751 E3.49375
G1 X88.005 Y128.99 E3.50905
G1 X87.908 Y127.895 E3.53099
G1 X87.811 Y126.867 E3.5516
G1 X87.774 Y126.503 E3.5589
G1 X87.721 Y125.584 E3.57727
G1 X87.748 Y124.664 E3.59564
G1 X87.854 Y123.749 E3.61402
G1 X88.04 Y122.847 E3.6324
G1 X88.303 Y121.965 E3.65077
G1 X88.641 Y121.109 E3.66913
G1 X89.138 Y120.134 E3.69097
G1 X89.213 Y120.004 E3.69397
G1 X89.35 Y119.775 E3.69929
G1 X89.634 Y119.31 E3.71016
G1 X89.825 Y119.005 E3.71735
G1 X90.267 Y118.32 E3.73361
G1 X90.799 Y117.569 E3.75198
G1 X91.395 Y116.868 E3.77034
G1 X92.05 Y116.22 E3.78873
G1 X92.758 Y115.632 E3.8071
G0 F6000 X93.055 Y115.909
G1 F1200 X93.801 Y115.401 E3.82511
G1 X94.59 Y114.96 E3.84315
G1 X95.434 Y114.582 E3.8616
G1 X96.041 Y114.343 E3.87462
G1 X96.909 Y113.987 E3.89334
G1 X97.922 Y113.586 E3.91508
G1 X98.775 Y113.291 E3.93309
G1 X99.652 Y113.073 E3.95113
G1 X100.544 Y112.933 E3.96915
G1 X101.445 Y112.873 E3.98717
G1 X102.348 Y112.892 E4.00519
G1 X103.639 Y113.061 E4.03118
G1 X103.741 Y113.081 E4.03325
G1 X104.343 Y113.218 E4.04557
G1 X104.647 Y113.297 E4.05184
G1 X104.921 Y113.372 E4.05751
G1 X105.161 Y113.442 E4.0625
G1 X105.54 Y113.545 E4.07033
G1 X105.827 Y113.627 E4.07629
G1 X106.622 Y113.869 E4.09287
G1 X107.473 Y114.171 E4.11089
G1 X108.294 Y114.547 E4.12892
G1 X108.803 Y114.827 E4.14051
G1 X109.331 Y115.137 E4.15273
G1 X109.62 Y115.313 E4.15948
G1 X110.524 Y115.885 E4.18083
G1 X111.086 Y116.226 E4.19395
G1 X111.221 Y116.316 E4.19718
G1 X112.322 Y117.004 E4.22309
G1 X112.641 Y117.197 E4.23053
G1 X112.879 Y117.345 E4.23613
G1 X113.181 Y117.539 E4.24329
G1 X113.918 Y118.06 E4.2613
G1 X114.607 Y118.645 E4.27934
G1 X115.241 Y119.288 E4.29736
G1 X115.816 Y119.985 E4.31539
G1 X116.326 Y120.729 E4.33339
G1 X116.769 Y121.516 E4.35141
G1 X117.141 Y122.339 E4.36944
G1 X117.438 Y123.192 E4.38746
G1 X117.659 Y124.068 E4.40549
G1 X117.802 Y124.96 E4.42352
G1 X117.865 Y125.861 E4.44154
G1 X117.848 Y126.763 E4.45955
G1 X117.751 Y127.661 E4.47757
G1 X117.575 Y128.547 E4.4956
G1 X117.322 Y129.414 E4.51362
G1 X116.993 Y130.255 E4.53164
G1 X116.469 Y131.278 E4.55458
G1 X116.319 Y131.534 E4.5605
G1 X116.167 Y131.783 E4.56632
G1 X112.902 Y137.006 E4.68924
G1 X112.521 Y137.601 E4.70334
G1 X112.001 Y138.34 E4.72138
G1 X111.417 Y139.029 E4.7394
G1 X110.775 Y139.664 E4.75742
G1 X110.079 Y140.24 E4.77545
G1 X109.335 Y140.752 E4.79347
G1 X108.549 Y141.196 E4.81149
G1 X107.726 Y141.569 E4.82952
G1 X106.874 Y141.867 E4.84753
G1 X105.999 Y142.089 E4.86555
G1 X105.107 Y142.233 E4.88358
G1 X104.206 Y142.297 E4.90161
G1 X103.303 Y142.282 E4.91963
G1 X102.405 Y142.186 E4.93765
G1 X101.519 Y142.012 E4.95567
G1 X100.652 Y141.76 E4.97369
G1 X99.81 Y141.432 E4.99172
G1 X98.777 Y140.903 E5.01488
G1 X98.584 Y140.79 E5.01934
G1 X98.206 Y140.557 E5.02821
G1 X97.506 Y140.105 E5.04483
G1 X94.837 Y138.442 E5.10759
G1 X94.646 Y138.325 E5.11206
G1 X93.898 Y137.819 E5.13008
G1 X93.197 Y137.25 E5.1481
G1 X92.509 Y136.578 E5.16729
G1 X91.778 Y135.793 E5.1887
G1 X91.602 Y135.599 E5.19392
G1 X91.113 Y135.046 E5.20866
G1 X90.836 Y134.718 E5.21722
G1 X90.646 Y134.484 E5.22324
G1 X90.108 Y133.759 E5.24126
G1 X89.637 Y132.989 E5.25927
G1 X89.235 Y132.18 E5.2773
G1 X88.907 Y131.338 E5.29533
G1 X88.654 Y130.471 E5.31335
G1 X88.479 Y129.585 E5.33138
G1 X88.404 Y128.955 E5.34404
G1 X88.312 Y127.919 E5.36479
G1 X88.202 Y126.754 E5.38814
G1 X88.172 Y126.462 E5.394
G1 X88.121 Y125.561 E5.41201
G1 X88.149 Y124.658 E5.43004
G1 X88.258 Y123.762 E5.44805
G1 X88.445 Y122.878 E5.46608
G1 X88.709 Y122.015 E5.48409
G1 X89.049 Y121.178 E5.50212
G1 X89.485 Y120.334 E5.52108
G1 X89.56 Y120.204 E5.52408
G1 X89.691 Y119.983 E5.5292
G1 X89.973 Y119.522 E5.53999
G1 X90.242 Y119.094 E5.55008
G1 X90.602 Y118.537 E5.56331
G1 X91.126 Y117.801 E5.58134
G1 X91.712 Y117.114 E5.59936
G1 X92.357 Y116.482 E5.61738
G1 X93.055 Y115.909 E5.6354
G1 F1500 E-0.8646
;MESH:harbor_base_-_4.stl
G0 F6000 X105.227 Y123.808
G0 X106.326 Y125.644
G0 X107.156 Y126.162
G0 X103.846 Y131.621
G0 X103.87 Y131.838
;TYPE:WALL-OUTER
G1 F1500 E5.6354
G1 F1200 X103.587 Y131.66 E5.64207
G1 X107.12 Y126.005 E5.77514
G1 X107.405 Y126.182 E5.78183
G1 X104.155 Y131.379 E5.90416
G1 X103.87 Y131.838 E5.91494
G1 F1500 E-0.58506
G0 F6000 X103.846 Y131.621
G0 X103.884 Y131.374
G0 X103.065 Y130.863
G0 X101.463 Y129.864
G0 X100.56 Y129.3
G0 X100.393 Y129.192
;TYPE:WALL-INNER
G1 F1500 E5.91494
G1 F1200 X100.347 Y129.164 E5.91601
G1 X100.194 Y128.996 E5.92055
G1 X99.293 Y128.007 E5.94725
G1 X100.064 Y126.772 E5.9763
G1 X100.214 Y126.531 E5.98197
G1 X100.415 Y126.21 E5.98952
G1 X100.501 Y126.072 E5.99277
G1 X99.31 Y125.338 E6.02069
G1 X99.309 Y125.337 E6.02072
G1 X99.14 Y125.234 E6.02467
G1 X99.245 Y125.065 E6.02723
G1 X99.355 Y124.889 E6.03137
G1 X100.714 Y125.726 E6.06322
G1 X100.829 Y125.544 E6.06752
G1 X101.031 Y125.223 E6.07509
G1 X101.183 Y124.981 E6.08079
G1 X101.3 Y124.796 E6.08516
G1 X101.954 Y123.748 E6.10981
G1 X103.232 Y124.121 E6.13638
G1 X103.436 Y124.18 E6.14061
G1 X103.501 Y124.22 E6.14214
G1 X103.388 Y124.4 E6.14501
G1 X103.037 Y124.96 E6.1582
G1 X102.706 Y124.892 E6.16494
G1 X102.354 Y124.902 E6.17197
G1 X101.999 Y124.976 E6.1792
G1 X101.926 Y124.999 E6.18073
G1 X101.601 Y125.145 E6.18784
G1 X101.505 Y125.211 E6.19017
G1 X101.269 Y125.372 E6.19503
G1 X100.989 Y125.644 E6.19993
G1 X100.853 Y125.828 E6.20206
G1 X100.755 Y125.96 E6.20403
G1 X100.655 Y126.152 E6.20835
G1 X100.573 Y126.308 E6.21
G1 X100.452 Y126.679 E6.21461
G1 X100.411 Y126.96 E6.21945
G1 X100.394 Y127.075 E6.22177
G1 X100.406 Y127.462 E6.2295
G1 X100.497 Y127.848 E6.23741
G1 X100.618 Y128.112 E6.24321
G1 X100.686 Y128.228 E6.24589
G1 X100.856 Y128.449 E6.25145
G1 X100.513 Y128.999 E6.26439
G1 X100.393 Y129.192 E6.26736
G0 F6000 X100.519 Y129.745
;TYPE:WALL-OUTER
G1 F1200 X100.085 Y129.472 E6.27759
G1 X100.048 Y129.429 E6.27872
G1 X98.988 Y128.266 E6.31012
G1 X98.8 Y128.043 E6.31594
G1 X99.949 Y126.202 E6.35925
G1 X98.587 Y125.364 E6.39116
G1 X99.227 Y124.34 E6.41526
G1 X100.587 Y125.178 E6.44714
G1 X100.961 Y124.584 E6.46115
G1 X101.768 Y123.29 E6.49158
G1 X102.045 Y123.356 E6.49727
G1 X102.051 Y123.359 E6.4974
G1 X103.599 Y123.811 E6.52958
G1 X104.054 Y124.089 E6.54022
G1 X103.194 Y125.463 E6.57257
G1 X103.01 Y125.377 E6.57662
G1 X102.951 Y125.355 E6.57788
G1 X102.935 Y125.347 E6.57824
G1 X102.671 Y125.293 E6.58361
G1 X102.401 Y125.301 E6.589
G1 X102.1 Y125.364 E6.59514
G1 X102.068 Y125.374 E6.59581
G1 X101.797 Y125.495 E6.60173
G1 X101.523 Y125.683 E6.60836
G1 X101.291 Y125.908 E6.61481
G1 X101.095 Y126.173 E6.62139
G1 X100.943 Y126.464 E6.62794
G1 X100.843 Y126.771 E6.63439
G1 X100.795 Y127.098 E6.64098
G1 X100.805 Y127.41 E6.64721
G1 X100.877 Y127.718 E6.65352
G1 X100.973 Y127.927 E6.65811
G1 X101.018 Y128.004 E6.65989
G1 X101.174 Y128.206 E6.66499
G1 X101.339 Y128.341 E6.66924
G1 X101.377 Y128.37 E6.6702
G1 X100.519 Y129.745 E6.70254
G0 F6000 X100.433 Y129.372
G0 X100.563 Y128.71
G0 X100.327 Y128.562
;TYPE:SKIN
G1 F1200 X99.78 Y127.963 E6.71873
G1 X100.03 Y127.563 E6.72814
G1 X100.126 Y127.975 E6.73658
G1 X100.271 Y128.292 E6.74354
G1 X100.362 Y128.446 E6.74711
G1 X100.382 Y128.473 E6.74778
G1 X100.327 Y128.562 E6.74987
G0 F6000 X100.563 Y128.71
G0 X100.625 Y128.509
G0 X100.295 Y127.395
G0 X100.243 Y127.396
;TYPE:SKIN
G1 F1200 X100.008 Y127.161 E6.75318
G0 F6000 X99.899 Y127.335
G1 F1200 X99.932 Y127.368 E6.75365
G0 F6000 X100.235 Y127.105
G1 F1200 X100.117 Y126.987 E6.75531
G0 F6000 X100.077 Y126.961
G0 X101.643 Y124.457
G0 X101.879 Y124.605
;TYPE:SKIN
G1 F1200 X102.128 Y124.204 E6.76473
G1 X102.909 Y124.432 E6.78097
G1 X102.851 Y124.523 E6.78312
G1 X102.741 Y124.5 E6.78537
G1 X102.309 Y124.514 E6.79399
G1 X101.9 Y124.598 E6.80232
G1 X101.879 Y124.605 E6.80277
G0 F6000 X101.721 Y124.914
;TYPE:SKIN
G1 F1200 X101.532 Y124.725 E6.80543
G0 F6000 X101.423 Y124.899
G1 F1200 X101.526 Y125.002 E6.80689
G0 F6000 X101.546 Y125.049
G0 X103.084 Y125.084
G0 X103.067 Y125.129
G1 F1200 X103.147 Y125.209 E6.80801
G0 F6000 X102.842 Y124.716
G1 F1500 E0.30801
;MESH:NONMESH
G0 F300 X102.842 Y124.716 Z0.24
G0 F6000 X102.824 Y124.803
G0 X103.113 Y125.188
G0 X104.027 Y125.761
G0 X105.628 Y126.761
G0 X106.447 Y127.272
G0 X103.846 Y131.621
G0 X103.871 Y131.839
;TIME_ELAPSED:25.513431
;LAYER:1
M106 S85
;TYPE:WALL-OUTER
;MESH:harbor_base_-_4.stl
G1 F1500 E6.80801
G1 F600 X103.509 Y131.612 E6.81654
G1 X107.043 Y125.955 E6.94965
G1 X107.406 Y126.183 E6.95821
G1 X104.076 Y131.509 E7.08356
G1 X103.871 Y131.839 E7.09131
G1 F1500 E0.59131
G0 F7500 X103.823 Y131.647
G0 X103.833 Y131.318
G0 X102.999 Y130.797
G0 X101.359 Y129.775
G0 X100.54 Y129.264
G0 X100.289 Y129.102
;TYPE:WALL-INNER
G1 F1500 E7.09131
G1 F600 X100.113 Y128.907 E7.09655
G1 X99.966 Y128.746 E7.1009
G1 X99.282 Y127.998 E7.12113
G1 X99.23 Y127.936 E7.12274
G1 X100.102 Y126.541 E7.15557
G1 X100.139 Y126.482 E7.15696
G1 X100.276 Y126.263 E7.16212
G1 X100.339 Y126.162 E7.16449
G1 X100.424 Y126.026 E7.1677
G1 X100.322 Y125.964 E7.16957
G1 X99.316 Y125.343 E7.19316
G1 X99.145 Y125.238 E7.19717
G1 X99.251 Y125.068 E7.19975
G1 X99.361 Y124.894 E7.20385
G1 X100.637 Y125.679 E7.23375
G1 X100.751 Y125.496 E7.23805
G1 X100.952 Y125.176 E7.2456
