;FLAVOR:Marlin
;TIME:2446
;Filament used: 0.63634m
;Layer height: 0.12
;MINX:83
;MINY:86.451
;MINZ:0.12
;MAXX:136.999
;MAXY:133.45
;MAXZ:13.68
;Generated with Cura_SteamEngine master
M140 S60
M105
M190 S60
M104 S200
M105
M109 S200
M82 ;absolute extrusion mode
; Ender 3 Custom Start G-code
G92 E0 ; Reset Extruder
G28 ; Home all axes
G1 Z2.0 F3000 ; Move Z Axis up little to prevent scratching of Heat Bed
G1 X0.1 Y20 Z0.3 F5000.0 ; Move to start position
G1 X0.1 Y200.0 Z0.3 F1500.0 E15 ; Draw the first line
G1 X0.4 Y200.0 Z0.3 F5000.0 ; Move to side a little
G1 X0.4 Y20 Z0.3 F1500.0 E30 ; Draw the second line
G92 E0 ; Reset Extruder
G1 Z2.0 F3000 ; Move Z Axis up little to prevent scratching of Heat Bed
G1 X5 Y20 Z0.3 F5000.0 ; Move over to prevent blob squish
G92 E0
G92 E0
G1 F1500 E-6.5
;LAYER_COUNT:114
;LAYER:0
M107
G0 F6000 X97.367 Y91.248 Z0.12
;TYPE:SKIRT
G1 F1500 E0
G1 F1200 X98.036 Y90.591 E0.01871
G1 X98.759 Y89.993 E0.03744
G1 X99.53 Y89.459 E0.05615
G1 X100.563 Y88.882 E0.07976
G1 X100.81 Y88.761 E0.08525
G1 X102.185 Y88.076 E0.11591
G1 X103.017 Y87.654 E0.13453
G1 X103.871 Y87.266 E0.15325
G1 X104.755 Y86.951 E0.17197
G1 X105.662 Y86.714 E0.19068
G1 X106.586 Y86.554 E0.2094
G1 X107.822 Y86.465 E0.23412
G1 X108.658 Y86.452 E0.25081
G1 X108.842 Y86.451 E0.25448
G1 X111.48 Y86.455 E0.30713
G1 X112.194 Y86.466 E0.32138
G1 X113.131 Y86.521 E0.34011
G1 X114.059 Y86.655 E0.35882
G1 X114.972 Y86.867 E0.37752
G1 X115.864 Y87.157 E0.39624
G1 X116.729 Y87.521 E0.41497
G1 X117.535 Y87.945 E0.43314
G1 X117.936 Y88.177 E0.44239
G1 X118.934 Y88.768 E0.46554
G1 X120.13 Y89.49 E0.49341
G1 X120.911 Y90.008 E0.51212
G1 X121.646 Y90.592 E0.53085
G1 X122.328 Y91.235 E0.54956
G1 X122.953 Y91.935 E0.56828
G1 X123.562 Y92.753 E0.58863
G1 X123.72 Y92.99 E0.59432
G1 X124.066 Y93.523 E0.607
G1 X133.983 Y109.154 E0.97642
G1 X134.078 Y109.306 E0.97999
G1 X134.439 Y109.896 E0.9938
G1 X134.894 Y110.716 E1.01251
G1 X135.277 Y111.572 E1.03123
G1 X135.48 Y112.123 E1.04294
G1 X135.718 Y112.829 E1.05781
G1 X136.097 Y114.006 E1.08249
G1 X136.407 Y114.929 E1.10192
G1 X136.668 Y115.829 E1.12062
G1 X136.814 Y116.524 E1.13479
G1 X136.823 Y116.575 E1.13583
G1 X136.946 Y117.505 E1.15455
G1 X136.989 Y118.339 E1.17121
G1 X136.999 Y119.152 E1.18744
G1 X136.999 Y121.898 E1.24224
G1 X136.99 Y122.584 E1.25593
G1 X136.938 Y123.521 E1.27465
G1 X136.806 Y124.449 E1.29336
G1 X136.595 Y125.363 E1.31208
G1 X136.308 Y126.256 E1.3308
G1 X135.945 Y127.121 E1.34952
G1 X135.51 Y127.952 E1.36824
G1 X135.006 Y128.743 E1.38695
G1 X134.437 Y129.488 E1.40566
G1 X133.806 Y130.182 E1.42438
G1 X133.118 Y130.819 E1.44309
G1 X132.378 Y131.396 E1.46182
G1 X131.592 Y131.907 E1.48053
G1 X130.765 Y132.35 E1.49925
G1 X129.904 Y132.721 E1.51796
G1 X129.014 Y133.017 E1.53668
G1 X128.102 Y133.236 E1.55539
G1 X127.175 Y133.376 E1.5741
G1 X126.277 Y133.436 E1.59206
G1 X125.892 Y133.446 E1.59975
G1 X125.606 Y133.45 E1.60546
G1 X94.565 Y133.449 E2.22491
G1 X93.867 Y133.44 E2.23884
G1 X92.931 Y133.388 E2.25755
G1 X92.002 Y133.256 E2.27628
G1 X91.088 Y133.046 E2.29499
G1 X90.195 Y132.759 E2.31371
G1 X89.33 Y132.396 E2.33243
G1 X88.499 Y131.962 E2.35114
G1 X87.708 Y131.458 E2.36986
G1 X86.963 Y130.888 E2.38858
G1 X86.269 Y130.257 E2.40729
G1 X85.632 Y129.57 E2.42599
G1 X85.055 Y128.83 E2.44472
G1 X84.543 Y128.044 E2.46344
G1 X84.1 Y127.217 E2.48216
G1 X83.729 Y126.356 E2.50087
G1 X83.433 Y125.466 E2.51959
G1 X83.214 Y124.554 E2.5383
G1 X83.073 Y123.627 E2.55702
G1 X83.013 Y122.732 E2.57492
G1 X83.005 Y122.43 E2.58095
G1 X83.001 Y122.203 E2.58548
G1 X83 Y121.955 E2.59043
G1 X83.004 Y119.032 E2.64876
G1 X83.014 Y118.366 E2.66205
G1 X83.068 Y117.43 E2.68076
G1 X83.257 Y116.226 E2.70508
G1 X83.341 Y115.859 E2.71259
G1 X83.444 Y115.44 E2.7212
G1 X83.65 Y114.534 E2.73975
G1 X83.718 Y114.287 E2.74486
G1 X83.997 Y113.105 E2.76909
G1 X84.252 Y112.202 E2.78782
G1 X84.583 Y111.325 E2.80653
G1 X84.987 Y110.478 E2.82525
G1 X85.312 Y109.907 E2.83836
G1 X85.788 Y109.127 E2.8566
G1 X85.889 Y108.965 E2.86041
G1 X95.725 Y93.458 E3.22687
G1 X96.208 Y92.721 E3.24446
G1 X96.756 Y91.96 E3.26317
G1 X97.367 Y91.248 E3.28189
G0 F6000 X97.682 Y91.496
G1 F1200 X98.341 Y90.854 E3.30025
G1 X99.054 Y90.271 E3.31863
G1 X99.815 Y89.752 E3.33702
G1 X100.739 Y89.241 E3.35809
G1 X101.006 Y89.11 E3.36402
G1 X102.309 Y88.461 E3.39307
G1 X103.198 Y88.01 E3.41296
G1 X104.037 Y87.63 E3.43135
G1 X104.905 Y87.324 E3.44971
G1 X105.796 Y87.094 E3.46808
G1 X106.704 Y86.943 E3.48644
G1 X107.828 Y86.865 E3.50893
G1 X108.664 Y86.852 E3.52561
G1 X108.842 Y86.851 E3.52917
G1 X111.474 Y86.855 E3.58169
G1 X112.188 Y86.866 E3.59594
G1 X113.107 Y86.92 E3.61431
G1 X114.018 Y87.054 E3.63269
G1 X114.914 Y87.266 E3.65106
G1 X115.788 Y87.555 E3.66943
G1 X116.634 Y87.919 E3.68781
G1 X117.335 Y88.291 E3.70365
G1 X117.732 Y88.521 E3.71281
G1 X118.727 Y89.11 E3.73588
G1 X119.923 Y89.832 E3.76376
G1 X120.69 Y90.342 E3.78214
G1 X121.41 Y90.916 E3.80052
G1 X122.077 Y91.551 E3.81889
G1 X122.686 Y92.241 E3.83726
G1 X123.231 Y92.977 E3.85554
G1 X123.385 Y93.208 E3.86108
G1 X123.729 Y93.737 E3.87367
G1 X133.646 Y109.368 E4.24309
G1 X134.098 Y110.105 E4.26034
G1 X134.544 Y110.91 E4.2787
G1 X134.918 Y111.751 E4.29707
G1 X135.101 Y112.251 E4.3077
G1 X135.339 Y112.957 E4.32257
G1 X135.701 Y114.084 E4.34619
G1 X136.028 Y115.056 E4.36665
G1 X136.283 Y115.941 E4.38503
G1 X136.42 Y116.594 E4.39835
G1 X136.429 Y116.645 E4.39938
G1 X136.549 Y117.558 E4.41776
G1 X136.589 Y118.344 E4.43346
G1 X136.599 Y119.152 E4.44959
G1 X136.599 Y121.893 E4.50429
G1 X136.59 Y122.579 E4.51798
G1 X136.538 Y123.498 E4.53635
G1 X136.406 Y124.409 E4.55472
G1 X136.196 Y125.306 E4.5731
G1 X135.909 Y126.18 E4.59146
G1 X135.547 Y127.027 E4.60984
G1 X135.113 Y127.839 E4.62822
G1 X134.61 Y128.61 E4.64659
G1 X134.042 Y129.335 E4.66497
G1 X133.414 Y130.007 E4.68332
G1 X132.729 Y130.623 E4.70171
G1 X131.994 Y131.177 E4.72007
G1 X131.213 Y131.665 E4.73845
G1 X130.393 Y132.083 E4.75682
G1 X129.539 Y132.428 E4.7752
G1 X128.659 Y132.699 E4.79358
G1 X127.759 Y132.892 E4.81195
G1 X126.845 Y133.006 E4.83033
G1 X126.266 Y133.036 E4.8419
G1 X125.881 Y133.046 E4.84958
G1 X125.606 Y133.05 E4.85507
G1 X94.57 Y133.049 E5.47443
G1 X93.872 Y133.04 E5.48836
G1 X92.953 Y132.988 E5.50673
G1 X92.042 Y132.857 E5.52509
G1 X91.146 Y132.647 E5.54346
G1 X90.271 Y132.36 E5.56184
G1 X89.424 Y131.998 E5.58022
G1 X88.612 Y131.564 E5.59859
G1 X87.841 Y131.062 E5.61695
G1 X87.116 Y130.494 E5.63533
G1 X86.443 Y129.865 E5.65371
G1 X85.828 Y129.181 E5.67207
G1 X85.274 Y128.446 E5.69044
G1 X84.786 Y127.665 E5.70882
G1 X84.367 Y126.845 E5.72719
G1 X84.021 Y125.992 E5.74556
G1 X83.751 Y125.112 E5.76393
G1 X83.558 Y124.211 E5.78232
G1 X83.444 Y123.298 E5.80068
G1 X83.413 Y122.722 E5.81219
G1 X83.405 Y122.42 E5.81822
G1 X83.401 Y122.201 E5.82259
G1 X83.4 Y121.956 E5.82748
G1 X83.404 Y119.038 E5.88571
G1 X83.414 Y118.372 E5.89901
G1 X83.468 Y117.453 E5.91738
G1 X83.648 Y116.31 E5.94047
G1 X83.729 Y115.955 E5.94773
G1 X83.837 Y115.515 E5.95678
G1 X84.04 Y114.623 E5.97503
G1 X84.112 Y114.361 E5.98045
G1 X84.387 Y113.197 E6.00432
G1 X84.637 Y112.311 E6.02269
G1 X84.964 Y111.45 E6.04107
G1 X85.364 Y110.621 E6.05944
G1 X85.654 Y110.115 E6.07108
G1 X86.13 Y109.335 E6.08932
G1 X86.227 Y109.179 E6.09298
G1 X96.063 Y93.672 E6.45944
G1 X96.155 Y93.529 E6.46284
G1 X96.542 Y92.94 E6.4769
G1 X97.081 Y92.194 E6.49527
G1 X97.682 Y91.496 E6.51365
G0 F6000 X97.997 Y91.745
G1 F1200 X98.646 Y91.118 E6.53166
G1 X99.349 Y90.551 E6.54968
G1 X100.099 Y90.047 E6.56771
G1 X100.915 Y89.601 E6.58627
G1 X102.541 Y88.792 E6.62251
G1 X103.379 Y88.367 E6.64127
G1 X104.202 Y87.995 E6.65929
G1 X105.054 Y87.697 E6.6773
G1 X105.93 Y87.475 E6.69534
G1 X106.821 Y87.332 E6.71334
G1 X107.834 Y87.265 E6.7336
G1 X108.67 Y87.252 E6.75029
G1 X108.841 Y87.251 E6.7537
G1 X111.468 Y87.255 E6.80613
G1 X112.182 Y87.266 E6.82038
G1 X113.084 Y87.32 E6.83841
G1 X113.977 Y87.453 E6.85643
G1 X114.855 Y87.665 E6.87445
G1 X115.71 Y87.954 E6.89246
G1 X116.537 Y88.317 E6.91049
G1 X117.134 Y88.637 E6.924
G1 X117.529 Y88.866 E6.93311
G1 X118.52 Y89.453 E6.9561
G1 X119.716 Y90.175 E6.98398
G1 X120.468 Y90.675 E7.002
G1 X121.173 Y91.24 E7.02003
G1 X121.824 Y91.865 E7.03804
G1 X122.418 Y92.546 E7.05607
G1 X122.899 Y93.2 E7.07227
G1 X123.05 Y93.426 E7.0777
G1 X123.391 Y93.952 E7.09021
G1 X133.396 Y109.723 E7.46293
G1 X133.757 Y110.313 E7.47673
G1 X134.193 Y111.104 E7.49475
G1 X134.558 Y111.93 E7.51277
G1 X134.722 Y112.379 E7.52231
G1 X135.006 Y113.224 E7.5401
G1 X135.35 Y114.296 E7.56257
G1 X135.649 Y115.184 E7.58127
G1 X135.898 Y116.052 E7.59929
G1 X136.026 Y116.663 E7.61175
G1 X136.035 Y116.714 E7.61278
G1 X136.152 Y117.61 E7.63081
G1 X136.189 Y118.35 E7.6456
G1 X136.199 Y119.152 E7.66161
G1 X136.199 Y121.888 E7.71621
G1 X136.19 Y122.574 E7.7299
G1 X136.138 Y123.475 E7.74791
G1 X136.007 Y124.369 E7.76594
G1 X135.797 Y125.247 E7.78395
G1 X135.51 Y126.104 E7.80199
G1 X135.149 Y126.931 E7.82
G1 X134.716 Y127.724 E7.83803
G1 X134.214 Y128.475 E7.85605
G1 X133.648 Y129.179 E7.87408
G1 X133.022 Y129.829 E7.89209
G1 X132.341 Y130.422 E7.91011
G1 X131.61 Y130.953 E7.92814
G1 X130.835 Y131.416 E7.94616
G1 X130.022 Y131.81 E7.96419
G1 X129.177 Y132.13 E7.98222
G1 X128.308 Y132.373 E8.00022
G1 X127.42 Y132.539 E8.01825
G1 X126.256 Y132.637 E8.04156
G1 X125.871 Y132.647 E8.04925
G1 X125.606 Y132.65 E8.05454
G1 X94.575 Y132.649 E8.67379
G1 X93.877 Y132.64 E8.68773
G1 X92.976 Y132.589 E8.70573
G1 X92.082 Y132.457 E8.72377
G1 X91.204 Y132.248 E8.74178
G1 X90.347 Y131.961 E8.75982
G1 X89.52 Y131.6 E8.77782
G1 X88.727 Y131.167 E8.79585
G1 X87.976 Y130.666 E8.81387
G1 X87.272 Y130.1 E8.8319
G1 X86.621 Y129.474 E8.84992
G1 X86.028 Y128.793 E8.86794
G1 X85.498 Y128.062 E8.88596
G1 X85.034 Y127.287 E8.90398
G1 X84.64 Y126.474 E8.92201
G1 X84.32 Y125.63 E8.94003
G1 X84.076 Y124.76 E8.95806
G1 X83.91 Y123.872 E8.97609
G1 X83.813 Y122.711 E8.99934
G1 X83.801 Y122.198 E9.00958
G1 X83.8 Y121.956 E9.01441
G1 X83.804 Y119.044 E9.07252
G1 X83.814 Y118.378 E9.08581
G1 X83.868 Y117.476 E9.10384
G1 X84.039 Y116.394 E9.1257
G1 X84.118 Y116.05 E9.13275
G1 X84.219 Y115.64 E9.14117
G1 X84.43 Y114.711 E9.16018
G1 X84.5 Y114.456 E9.16546
G1 X84.776 Y113.289 E9.18939
G1 X85.022 Y112.42 E9.20742
G1 X85.345 Y111.577 E9.22543
G1 X85.741 Y110.765 E9.24346
G1 X85.995 Y110.324 E9.25362
G1 X86.471 Y109.544 E9.27185
G1 X96.489 Y93.749 E9.64511
G1 X96.876 Y93.16 E9.65918
G1 X97.405 Y92.428 E9.6772
G1 X97.997 Y91.745 E9.69524
G1 F1500 E3.19524
;MESH:harbor_top_-_wool.stl
G0 F6000 X104.58 Y98.795
G0 X105.491 Y99.372
G0 X95.795 Y115.34
G0 X96.528 Y117.496
G0 X94.783 Y119.277
G0 X94.6 Y121.85
;TYPE:WALL-INNER
G1 F1500 E9.69524
G1 F1200 X94.6 Y121.651 E9.69921
G1 X94.604 Y119.126 E9.7496
G1 X94.694 Y119.118 E9.7514
G1 X95.068 Y119.007 E9.75919
G1 X95.142 Y118.975 E9.76079
G1 X95.466 Y118.801 E9.76813
G1 X95.785 Y118.539 E9.77637
G1 X96.046 Y118.221 E9.78458
G1 X96.242 Y117.857 E9.79283
G1 X96.36 Y117.462 E9.80106
G1 X96.401 Y117.048 E9.80936
G1 X96.36 Y116.642 E9.8175
G1 X96.241 Y116.247 E9.82574
G1 X96.046 Y115.884 E9.83396
G1 X95.785 Y115.565 E9.84218
G1 X95.558 Y115.379 E9.84804
G1 X105.555 Y99.617 E10.22052
G1 X105.694 Y99.692 E10.22367
G1 X106.091 Y99.81 E10.23194
G1 X106.397 Y99.84 E10.23807
G1 X106.468 Y99.854 E10.23952
G1 X106.897 Y99.812 E10.24812
G1 X107.304 Y99.692 E10.25659
G1 X107.669 Y99.496 E10.26486
G1 X107.986 Y99.235 E10.27305
G1 X108.248 Y98.917 E10.28127
G1 X108.443 Y98.553 E10.28951
G1 X108.562 Y98.158 E10.29775
G1 X108.573 Y98.051 E10.29989
G1 X111.427 Y98.054 E10.35685
G1 X111.438 Y98.16 E10.35897
G1 X111.558 Y98.553 E10.36717
G1 X111.752 Y98.916 E10.37539
G1 X112.014 Y99.235 E10.38363
G1 X112.331 Y99.496 E10.39182
G1 X112.695 Y99.692 E10.40007
G1 X113.092 Y99.81 E10.40834
G1 X113.398 Y99.84 E10.41447
G1 X113.469 Y99.854 E10.41592
G1 X113.898 Y99.812 E10.42452
G1 X114.253 Y99.707 E10.4319
G1 X124.21 Y115.405 E10.80288
G1 X124.015 Y115.565 E10.80791
G1 X123.754 Y115.884 E10.81614
G1 X123.559 Y116.247 E10.82436
G1 X123.439 Y116.643 E10.83262
G1 X123.4 Y117.068 E10.84113
G1 X123.44 Y117.462 E10.84904
G1 X123.558 Y117.857 E10.85726
G1 X123.754 Y118.221 E10.86551
G1 X124.015 Y118.539 E10.87372
G1 X124.334 Y118.801 E10.88196
G1 X124.697 Y118.995 E10.89018
G1 X125.093 Y119.115 E10.89843
G1 X125.399 Y119.144 E10.90457
G1 X125.4 Y121.651 E10.9546
G1 X125.4 Y121.85 E10.95857
G1 X125.201 Y121.85 E10.96114
G1 X94.799 Y121.85 E11.56784
G1 X94.6 Y121.85 E11.57041
G0 F6000 X94.2 Y122.25
;TYPE:WALL-OUTER
G1 F1200 X94.204 Y118.744 E11.64038
G1 X94.298 Y118.753 E11.64226
G1 X94.618 Y118.723 E11.64868
G1 X94.931 Y118.63 E11.65519
G1 X94.968 Y118.614 E11.656
G1 X95.243 Y118.467 E11.66222
G1 X95.501 Y118.255 E11.66888
G1 X95.712 Y117.998 E11.67552
G1 X95.87 Y117.703 E11.6822
G1 X95.966 Y117.384 E11.68885
G1 X95.999 Y117.048 E11.69558
G1 X95.966 Y116.72 E11.70216
G1 X95.87 Y116.401 E11.70881
G1 X95.712 Y116.107 E11.71547
G1 X95.501 Y115.849 E11.72212
G1 X95.243 Y115.638 E11.72877
G1 X95.002 Y115.508 E11.73424
G1 X105.433 Y99.063 E12.12287
G1 X105.554 Y99.162 E12.12599
G1 X105.848 Y99.32 E12.13265
G1 X106.168 Y99.416 E12.13931
G1 X106.461 Y99.444 E12.14519
G1 X106.49 Y99.45 E12.14578
G1 X106.82 Y99.418 E12.1524
G1 X107.151 Y99.32 E12.15928
G1 X107.445 Y99.162 E12.16594
G1 X107.702 Y98.951 E12.17258
G1 X107.914 Y98.693 E12.17924
G1 X108.072 Y98.399 E12.18591
G1 X108.168 Y98.08 E12.19255
G1 X108.201 Y97.748 E12.19921
G1 X108.192 Y97.65 E12.20118
G1 X111.808 Y97.655 E12.27334
G1 X111.799 Y97.748 E12.2752
G1 X111.832 Y98.081 E12.28188
G1 X111.929 Y98.399 E12.28851
G1 X112.086 Y98.693 E12.29516
G1 X112.298 Y98.951 E12.30183
G1 X112.555 Y99.162 E12.30846
G1 X112.849 Y99.32 E12.31513
G1 X113.169 Y99.416 E12.32179
G1 X113.462 Y99.444 E12.32767
G1 X113.491 Y99.45 E12.32826
G1 X113.821 Y99.418 E12.33487
G1 X114.152 Y99.32 E12.34176
G1 X114.397 Y99.188 E12.34732
G1 X124.762 Y115.528 E12.73347
G1 X124.557 Y115.638 E12.73811
G1 X124.299 Y115.849 E12.74476
G1 X124.088 Y116.107 E12.75141
G1 X123.93 Y116.401 E12.75808
G1 X123.834 Y116.72 E12.76472
G1 X123.802 Y117.066 E12.77166
G1 X123.834 Y117.384 E12.77804
G1 X123.93 Y117.703 E12.78468
G1 X124.088 Y117.998 E12.79136
G1 X124.299 Y118.255 E12.798
G1 X124.557 Y118.467 E12.80466
G1 X124.851 Y118.624 E12.81131
G1 X125.171 Y118.721 E12.81799
G1 X125.478 Y118.75 E12.82414
G1 X125.515 Y118.751 E12.82488
G1 X125.799 Y118.724 E12.83057
G1 X125.8 Y122.25 E12.90094
G1 X94.2 Y122.25 E13.53155
G0 F6000 X94.47 Y121.98
G0 X94.711 Y121.459
G0 X94.99 Y121.46
;TYPE:SKIN
G1 F1200 X94.994 Y119.436 E13.57194
G1 X95.201 Y119.374 E13.57625
G1 X95.312 Y119.326 E13.57867
G1 X95.684 Y119.127 E13.58708
G1 X96.062 Y118.816 E13.59685
G1 X96.372 Y118.439 E13.60659
G1 X96.605 Y118.007 E13.61639
G1 X96.744 Y117.538 E13.62615
G1 X96.793 Y117.048 E13.63598
G1 X96.744 Y116.566 E13.64565
G1 X96.603 Y116.097 E13.65542
G1 X96.372 Y115.666 E13.66518
G1 X96.071 Y115.299 E13.67465
G1 X105.708 Y100.103 E14.03374
G1 X106.015 Y100.194 E14.04013
G1 X106.341 Y100.226 E14.04667
G1 X106.448 Y100.248 E14.04885
G1 X106.971 Y100.196 E14.05934
G1 X107.452 Y100.055 E14.06934
G1 X107.887 Y99.822 E14.07919
G1 X108.263 Y99.512 E14.08891
G1 X108.574 Y99.135 E14.09867
G1 X108.805 Y98.703 E14.10844
G1 X108.884 Y98.441 E14.1139
G1 X111.116 Y98.444 E14.15845
G1 X111.196 Y98.703 E14.16386
G1 X111.426 Y99.134 E14.1736
G1 X111.737 Y99.512 E14.18337
G1 X112.113 Y99.821 E14.19309
G1 X112.545 Y100.055 E14.20289
G1 X113.016 Y100.194 E14.21269
G1 X113.342 Y100.226 E14.21923
G1 X113.449 Y100.248 E14.22141
G1 X113.972 Y100.196 E14.2319
G1 X114.081 Y100.164 E14.23416
G1 X123.702 Y115.332 E14.59261
G1 X123.428 Y115.666 E14.60123
G1 X123.197 Y116.097 E14.61099
G1 X123.055 Y116.567 E14.62079
G1 X123.008 Y117.07 E14.63087
G1 X123.056 Y117.538 E14.64026
G1 X123.195 Y118.007 E14.65002
G1 X123.428 Y118.439 E14.65982
G1 X123.738 Y118.816 E14.66956
G1 X124.116 Y119.127 E14.67933
G1 X124.547 Y119.357 E14.68908
G1 X125.009 Y119.497 E14.69871
G1 X125.01 Y121.46 E14.73788
G1 X94.99 Y121.46 E15.33696
G0 F6000 X95.277 Y121.299
G1 F1200 X95.15 Y121.171 E15.34056
