;FLAVOR:Marlin
;TIME:2388
;Filament used: 0.620544m
;Layer height: 0.12
;MINX:83
;MINY:86.451
;MINZ:0.12
;MAXX:136.998
;MAXY:133.45
;MAXZ:13.68
;Generated with Cura_SteamEngine master
M140 S60
M105
M190 S60
M104 S200
M105
M109 S200
M82 ;absolute extrusion mode
; Ender 3 Custom Start G-code
G92 E0 ; Reset Extruder
G28 ; Home all axes
G1 Z2.0 F3000 ; Move Z Axis up little to prevent scratching of Heat Bed
G1 X0.1 Y20 Z0.3 F5000.0 ; Move to start position
G1 X0.1 Y200.0 Z0.3 F1500.0 E15 ; Draw the first line
G1 X0.4 Y200.0 Z0.3 F5000.0 ; Move to side a little
G1 X0.4 Y20 Z0.3 F1500.0 E30 ; Draw the second line
G92 E0 ; Reset Extruder
G1 Z2.0 F3000 ; Move Z Axis up little to prevent scratching of Heat Bed
G1 X5 Y20 Z0.3 F5000.0 ; Move over to prevent blob squish
G92 E0
G92 E0
G1 F1500 E-6.5
;LAYER_COUNT:114
;LAYER:0
M107
G0 F6000 X97.347 Y91.265 Z0.12
;TYPE:SKIRT
G1 F1500 E0
G1 F1200 X98.015 Y90.607 E0.01871
G1 X98.737 Y90.008 E0.03743
G1 X99.507 Y89.472 E0.05616
G1 X100.458 Y88.933 E0.07797
G1 X102.385 Y87.965 E0.121
G1 X102.905 Y87.696 E0.13269
G1 X103.756 Y87.302 E0.1514
G1 X104.637 Y86.981 E0.17011
G1 X105.543 Y86.737 E0.18884
G1 X106.466 Y86.57 E0.20756
G1 X107.754 Y86.471 E0.23334
G1 X108.742 Y86.453 E0.25306
G1 X108.951 Y86.451 E0.25723
G1 X111.532 Y86.454 E0.30873
G1 X112.205 Y86.465 E0.32217
G1 X113.141 Y86.521 E0.34088
G1 X114.069 Y86.656 E0.35959
G1 X114.982 Y86.869 E0.3783
G1 X115.874 Y87.159 E0.39702
G1 X116.738 Y87.525 E0.41575
G1 X117.535 Y87.944 E0.43371
G1 X117.932 Y88.175 E0.44288
G1 X120.076 Y89.457 E0.49273
G1 X120.073 Y89.462 E0.49285
G1 X120.694 Y89.854 E0.5075
G1 X121.443 Y90.419 E0.52623
G1 X122.14 Y91.046 E0.54494
G1 X122.781 Y91.731 E0.56366
G1 X123.362 Y92.467 E0.58237
G1 X123.65 Y92.886 E0.59252
G1 X124.102 Y93.579 E0.60903
G1 X129.071 Y101.415 E0.79419
G1 X129.262 Y101.718 E0.80134
G1 X133.112 Y107.78 E0.94465
G1 X133.982 Y109.153 E0.97709
G1 X134.426 Y109.875 E0.994
G1 X134.882 Y110.694 E1.01271
G1 X135.267 Y111.55 E1.03144
G1 X135.482 Y112.133 E1.04384
G1 X135.741 Y112.905 E1.06009
G1 X136.065 Y113.914 E1.08124
G1 X136.418 Y114.967 E1.1034
G1 X136.677 Y115.868 E1.12211
G1 X136.86 Y116.788 E1.14083
G1 X136.963 Y117.72 E1.15954
G1 X136.987 Y118.302 E1.17117
G1 X136.997 Y118.987 E1.18484
G1 X136.998 Y121.714 E1.23926
G1 X136.987 Y122.592 E1.25678
G1 X136.934 Y123.529 E1.27551
G1 X136.802 Y124.457 E1.29422
G1 X136.591 Y125.371 E1.31293
G1 X136.302 Y126.263 E1.33165
G1 X135.939 Y127.128 E1.35037
G1 X135.504 Y127.959 E1.36909
G1 X134.999 Y128.749 E1.3878
G1 X134.429 Y129.494 E1.40652
G1 X133.798 Y130.188 E1.42523
G1 X133.109 Y130.825 E1.44396
G1 X132.369 Y131.401 E1.46267
G1 X131.583 Y131.912 E1.48138
G1 X130.756 Y132.354 E1.5001
G1 X129.894 Y132.724 E1.51882
G1 X129.004 Y133.019 E1.53753
G1 X128.092 Y133.238 E1.55624
G1 X127.165 Y133.378 E1.57495
G1 X126.297 Y133.437 E1.59231
G1 X125.977 Y133.446 E1.5987
G1 X125.668 Y133.45 E1.60487
G1 X94.565 Y133.449 E2.22556
G1 X93.867 Y133.44 E2.23949
G1 X92.931 Y133.388 E2.2582
G1 X92.002 Y133.256 E2.27693
G1 X91.088 Y133.046 E2.29564
G1 X90.195 Y132.759 E2.31436
G1 X89.33 Y132.396 E2.33308
G1 X88.499 Y131.962 E2.35179
G1 X87.708 Y131.458 E2.37051
G1 X86.963 Y130.888 E2.38923
G1 X86.269 Y130.257 E2.40795
G1 X85.632 Y129.57 E2.42664
G1 X85.055 Y128.83 E2.44537
G1 X84.543 Y128.044 E2.46409
G1 X84.1 Y127.217 E2.48281
G1 X83.729 Y126.356 E2.50152
G1 X83.433 Y125.466 E2.52024
G1 X83.214 Y124.554 E2.53895
G1 X83.073 Y123.627 E2.55767
G1 X83.013 Y122.732 E2.57557
G1 X83.005 Y122.43 E2.5816
G1 X83.001 Y122.188 E2.58643
G1 X83 Y121.905 E2.59207
G1 X83.002 Y119.219 E2.64568
G1 X83.016 Y118.332 E2.66338
G1 X83.071 Y117.396 E2.68209
G1 X83.207 Y116.468 E2.70081
G1 X83.333 Y115.889 E2.71263
G1 X83.475 Y115.314 E2.72445
G1 X83.765 Y114.05 E2.75033
G1 X84.02 Y113.006 E2.77178
G1 X84.281 Y112.106 E2.79048
G1 X84.618 Y111.23 E2.80921
G1 X85.028 Y110.387 E2.82792
G1 X85.329 Y109.866 E2.83992
G1 X85.783 Y109.127 E2.85723
G1 X88.29 Y105.178 E2.95058
G1 X95.826 Y93.298 E3.23133
G1 X96.191 Y92.74 E3.24464
G1 X96.738 Y91.978 E3.26336
G1 X97.347 Y91.265 E3.28207
G0 F6000 X97.663 Y91.513
G1 F1200 X98.321 Y90.869 E3.30044
G1 X99.033 Y90.285 E3.31882
G1 X99.792 Y89.765 E3.33718
G1 X100.637 Y89.291 E3.35652
G1 X102.623 Y88.293 E3.40087
G1 X103.089 Y88.052 E3.41134
G1 X103.924 Y87.665 E3.42971
G1 X104.79 Y87.352 E3.44808
G1 X105.68 Y87.116 E3.46646
G1 X106.587 Y86.958 E3.48483
G1 X107.761 Y86.871 E3.50832
G1 X108.749 Y86.853 E3.52804
G1 X108.951 Y86.851 E3.53207
G1 X111.525 Y86.854 E3.58344
G1 X112.198 Y86.865 E3.59687
G1 X113.117 Y86.92 E3.61525
G1 X114.028 Y87.055 E3.63362
G1 X114.924 Y87.268 E3.652
G1 X115.797 Y87.558 E3.67036
G1 X116.643 Y87.923 E3.68875
G1 X117.335 Y88.29 E3.70438
G1 X117.727 Y88.518 E3.71343
G1 X118.666 Y89.078 E3.73525
G1 X118.697 Y89.098 E3.73598
G1 X119.87 Y89.8 E3.76326
G1 X119.867 Y89.806 E3.7634
G1 X120.481 Y90.193 E3.77788
G1 X121.214 Y90.749 E3.79624
G1 X121.896 Y91.368 E3.81462
G1 X122.522 Y92.043 E3.83299
G1 X123.315 Y93.105 E3.85944
G1 X123.764 Y93.794 E3.87586
G1 X128.925 Y101.932 E4.06816
G1 X132.774 Y107.994 E4.21146
G1 X133.644 Y109.367 E4.2439
G1 X134.085 Y110.084 E4.2607
G1 X134.533 Y110.889 E4.27908
G1 X134.908 Y111.729 E4.29744
G1 X135.103 Y112.26 E4.30873
G1 X135.362 Y113.032 E4.32498
G1 X135.718 Y114.14 E4.3482
G1 X136.038 Y115.094 E4.36828
G1 X136.293 Y115.979 E4.38666
G1 X136.469 Y116.882 E4.40502
G1 X136.567 Y117.798 E4.42341
G1 X136.587 Y118.308 E4.43359
G1 X136.597 Y118.993 E4.44726
G1 X136.598 Y121.714 E4.50156
G1 X136.587 Y122.587 E4.51899
G1 X136.534 Y123.506 E4.53736
G1 X136.402 Y124.417 E4.55573
G1 X136.191 Y125.313 E4.5741
G1 X135.904 Y126.188 E4.59247
G1 X135.541 Y127.034 E4.61085
G1 X135.107 Y127.846 E4.62922
G1 X134.603 Y128.617 E4.6476
G1 X134.035 Y129.341 E4.66596
G1 X133.406 Y130.013 E4.68433
G1 X132.721 Y130.628 E4.7027
G1 X131.985 Y131.181 E4.72108
G1 X131.204 Y131.669 E4.73945
G1 X130.384 Y132.087 E4.75782
G1 X129.53 Y132.432 E4.7762
G1 X128.65 Y132.701 E4.79457
G1 X127.749 Y132.894 E4.81295
G1 X126.836 Y133.007 E4.83131
G1 X126.286 Y133.037 E4.8423
G1 X125.966 Y133.046 E4.84869
G1 X125.668 Y133.05 E4.85464
G1 X94.57 Y133.049 E5.47524
G1 X93.872 Y133.04 E5.48917
G1 X92.953 Y132.988 E5.50753
G1 X92.042 Y132.857 E5.5259
G1 X91.146 Y132.647 E5.54427
G1 X90.271 Y132.36 E5.56264
G1 X89.424 Y131.998 E5.58103
G1 X88.612 Y131.564 E5.5994
G1 X87.841 Y131.062 E5.61776
G1 X87.116 Y130.494 E5.63614
G1 X86.443 Y129.865 E5.65452
G1 X85.828 Y129.181 E5.67288
G1 X85.274 Y128.446 E5.69125
G1 X84.786 Y127.665 E5.70962
G1 X84.367 Y126.845 E5.728
G1 X84.021 Y125.992 E5.74637
G1 X83.751 Y125.112 E5.76474
G1 X83.558 Y124.211 E5.78313
G1 X83.444 Y123.298 E5.80149
G1 X83.413 Y122.722 E5.813
G1 X83.405 Y122.42 E5.81903
G1 X83.401 Y122.186 E5.8237
G1 X83.4 Y121.905 E5.82931
G1 X83.402 Y119.219 E5.88291
G1 X83.416 Y118.339 E5.90047
G1 X83.471 Y117.42 E5.91885
G1 X83.606 Y116.509 E5.93722
G1 X83.721 Y115.985 E5.94793
G1 X83.872 Y115.372 E5.96053
G1 X84.155 Y114.14 E5.98575
G1 X84.408 Y113.101 E6.00709
G1 X84.665 Y112.217 E6.02547
G1 X84.998 Y111.359 E6.04383
G1 X85.404 Y110.533 E6.0622
G1 X85.67 Y110.075 E6.07277
G1 X86.121 Y109.342 E6.08994
G1 X88.628 Y105.393 E6.18329
G1 X96.161 Y93.517 E6.46395
G1 X96.526 Y92.959 E6.47725
G1 X97.063 Y92.212 E6.49561
G1 X97.663 Y91.513 E6.51399
G0 F6000 X97.978 Y91.762
G1 F1200 X98.627 Y91.133 E6.53203
G1 X99.328 Y90.564 E6.55005
G1 X100.077 Y90.059 E6.56808
G1 X100.817 Y89.648 E6.58497
G1 X102.754 Y88.675 E6.62823
G1 X103.272 Y88.407 E6.63986
G1 X104.092 Y88.028 E6.65789
G1 X104.942 Y87.724 E6.67591
G1 X105.816 Y87.496 E6.69393
G1 X106.707 Y87.346 E6.71196
G1 X107.768 Y87.271 E6.73319
G1 X108.756 Y87.253 E6.75291
G1 X108.95 Y87.251 E6.75678
G1 X111.519 Y87.254 E6.80805
G1 X112.192 Y87.265 E6.82148
G1 X113.093 Y87.32 E6.83949
G1 X113.986 Y87.454 E6.85751
G1 X114.864 Y87.667 E6.87554
G1 X115.719 Y87.957 E6.89356
G1 X116.546 Y88.321 E6.91159
G1 X117.134 Y88.636 E6.9249
G1 X117.523 Y88.862 E6.93388
G1 X118.462 Y89.422 E6.9557
G1 X118.486 Y89.438 E6.95628
G1 X119.665 Y90.143 E6.98369
G1 X119.662 Y90.149 E6.98382
G1 X120.267 Y90.531 E6.9981
G1 X120.985 Y91.079 E7.01613
G1 X121.652 Y91.689 E7.03417
G1 X122.262 Y92.354 E7.05217
G1 X122.981 Y93.324 E7.07627
G1 X123.427 Y94.008 E7.09256
G1 X128.394 Y101.841 E7.27766
G1 X128.587 Y102.147 E7.28488
G1 X132.436 Y108.209 E7.42818
G1 X133.306 Y109.582 E7.46061
G1 X133.744 Y110.294 E7.4773
G1 X134.183 Y111.083 E7.49532
G1 X134.549 Y111.909 E7.51334
G1 X134.723 Y112.388 E7.52351
G1 X135.024 Y113.286 E7.54242
G1 X135.334 Y114.252 E7.56266
G1 X135.659 Y115.221 E7.58306
G1 X135.908 Y116.089 E7.60108
G1 X136.079 Y116.976 E7.6191
G1 X136.187 Y118.314 E7.64589
G1 X136.198 Y119.148 E7.66254
G1 X136.197 Y121.854 E7.71654
G1 X136.187 Y122.581 E7.73105
G1 X136.135 Y123.483 E7.74908
G1 X136.003 Y124.376 E7.76709
G1 X135.792 Y125.255 E7.78513
G1 X135.505 Y126.111 E7.80315
G1 X135.143 Y126.938 E7.82117
G1 X134.709 Y127.73 E7.83919
G1 X134.207 Y128.481 E7.85721
G1 X133.641 Y129.184 E7.87523
G1 X133.014 Y129.835 E7.89326
G1 X132.333 Y130.427 E7.91127
G1 X131.602 Y130.957 E7.92929
G1 X130.826 Y131.42 E7.94732
G1 X130.013 Y131.813 E7.96534
G1 X129.168 Y132.133 E7.98337
G1 X128.299 Y132.376 E8.00138
G1 X127.411 Y132.541 E8.01941
G1 X126.275 Y132.637 E8.04216
G1 X125.955 Y132.646 E8.04854
G1 X125.668 Y132.65 E8.05427
G1 X94.575 Y132.649 E8.67477
G1 X93.877 Y132.64 E8.6887
G1 X92.976 Y132.589 E8.70671
G1 X92.082 Y132.457 E8.72474
G1 X91.204 Y132.248 E8.74275
G1 X90.347 Y131.961 E8.76079
G1 X89.52 Y131.6 E8.7788
G1 X88.727 Y131.167 E8.79683
G1 X87.976 Y130.666 E8.81484
G1 X87.272 Y130.1 E8.83287
G1 X86.621 Y129.474 E8.85089
G1 X86.028 Y128.793 E8.86891
G1 X85.498 Y128.062 E8.88693
G1 X85.034 Y127.287 E8.90496
G1 X84.64 Y126.474 E8.92299
G1 X84.32 Y125.63 E8.941
G1 X84.076 Y124.76 E8.95903
G1 X83.91 Y123.872 E8.97706
G1 X83.813 Y122.711 E9.00031
G1 X83.805 Y122.409 E9.00634
G1 X83.801 Y122.184 E9.01083
G1 X83.8 Y121.905 E9.0164
G1 X83.803 Y119.054 E9.07329
G1 X83.815 Y118.345 E9.08744
G1 X83.871 Y117.444 E9.10546
G1 X84.005 Y116.551 E9.12348
G1 X84.109 Y116.081 E9.13308
G1 X84.266 Y115.444 E9.14618
G1 X84.545 Y114.229 E9.17105
G1 X84.797 Y113.196 E9.19227
G1 X85.05 Y112.329 E9.2103
G1 X85.378 Y111.488 E9.22831
G1 X85.78 Y110.679 E9.24634
G1 X86.011 Y110.284 E9.25547
G1 X86.459 Y109.556 E9.27253
G1 X88.966 Y105.607 E9.36587
G1 X96.418 Y93.857 E9.64354
G1 X96.861 Y93.178 E9.65972
G1 X97.388 Y92.445 E9.67773
G1 X97.978 Y91.762 E9.69575
G1 F1500 E3.19575
;MESH:harbor_top_-_wood.stl
G0 F6000 X96.999 Y110.744
G0 X97.914 Y111.324
G0 X95.793 Y115.338
G0 X96.393 Y116.149
G0 X96.201 Y117.43
G0 X95.911 Y118.132
G0 X94.781 Y119.278
G0 X94.6 Y121.85
;TYPE:WALL-INNER
G1 F1500 E9.69575
G1 F1200 X94.6 Y121.651 E9.69972
G1 X94.603 Y119.124 E9.75015
G1 X94.707 Y119.113 E9.75223
G1 X95.103 Y118.996 E9.76047
G1 X95.466 Y118.799 E9.76872
G1 X95.784 Y118.539 E9.77691
G1 X96.045 Y118.221 E9.78512
G1 X96.239 Y117.857 E9.79335
G1 X96.359 Y117.463 E9.80157
G1 X96.401 Y117.045 E9.80996
G1 X96.359 Y116.638 E9.81812
G1 X96.239 Y116.247 E9.82628
G1 X96.046 Y115.884 E9.83449
G1 X95.784 Y115.564 E9.84274
G1 X95.555 Y115.377 E9.84864
G1 X98.067 Y111.421 E9.94216
G1 X105.555 Y99.615 E10.22115
G1 X105.693 Y99.689 E10.22428
G1 X106.087 Y99.809 E10.2325
G1 X106.498 Y99.851 E10.24074
G1 X106.911 Y99.809 E10.24903
G1 X107.305 Y99.689 E10.25725
G1 X107.668 Y99.495 E10.26546
G1 X107.984 Y99.234 E10.27364
G1 X108.246 Y98.917 E10.28185
G1 X108.444 Y98.553 E10.29011
G1 X108.561 Y98.157 E10.29836
G1 X108.572 Y98.05 E10.3005
G1 X111.426 Y98.054 E10.35746
G1 X111.437 Y98.159 E10.35956
G1 X111.557 Y98.553 E10.36778
G1 X111.751 Y98.916 E10.376
G1 X112.014 Y99.234 E10.38423
G1 X112.33 Y99.495 E10.39241
G1 X112.693 Y99.689 E10.40062
G1 X113.087 Y99.809 E10.40884
G1 X113.5 Y99.851 E10.41713
G1 X113.911 Y99.809 E10.42537
G1 X114.252 Y99.705 E10.43249
G1 X119.321 Y107.7 E10.6214
G1 X124.21 Y115.404 E10.80349
G1 X124.014 Y115.564 E10.80854
G1 X123.752 Y115.884 E10.81679
G1 X123.559 Y116.247 E10.82499
G1 X123.439 Y116.638 E10.83316
G1 X123.397 Y117.05 E10.84142
G1 X123.439 Y117.463 E10.84971
G1 X123.559 Y117.857 E10.85792
G1 X123.753 Y118.221 E10.86616
G1 X124.014 Y118.539 E10.87437
G1 X124.332 Y118.799 E10.88256
G1 X124.697 Y118.996 E10.89084
G1 X125.091 Y119.113 E10.89904
G1 X125.398 Y119.144 E10.9052
G1 X125.398 Y121.85 E10.9592
G1 X94.799 Y121.85 E11.56984
G1 X94.6 Y121.85 E11.57241
G0 F6000 X94.2 Y122.25
;TYPE:WALL-OUTER
G1 F1200 X94.203 Y118.743 E11.64239
G1 X94.296 Y118.753 E11.64426
G1 X94.629 Y118.719 E11.65094
G1 X94.949 Y118.624 E11.6576
G1 X95.242 Y118.465 E11.66425
G1 X95.5 Y118.254 E11.6709
G1 X95.711 Y117.998 E11.67752
G1 X95.868 Y117.703 E11.68419
G1 X95.965 Y117.384 E11.69085
G1 X95.999 Y117.046 E11.69763
G1 X95.965 Y116.718 E11.70421
G1 X95.868 Y116.401 E11.71082
G1 X95.711 Y116.107 E11.71747
G1 X95.5 Y115.848 E11.72414
G1 X95.241 Y115.637 E11.73081
G1 X94.999 Y115.507 E11.73629
G1 X97.729 Y111.207 E11.83793
G1 X105.433 Y99.061 E12.12497
G1 X105.555 Y99.161 E12.12811
G1 X105.847 Y99.318 E12.13473
G1 X106.166 Y99.415 E12.14138
G1 X106.498 Y99.449 E12.14804
G1 X106.832 Y99.415 E12.15474
G1 X107.151 Y99.318 E12.1614
G1 X107.444 Y99.161 E12.16803
G1 X107.7 Y98.95 E12.17465
G1 X107.913 Y98.692 E12.18133
G1 X108.072 Y98.399 E12.18798
G1 X108.167 Y98.079 E12.19464
G1 X108.201 Y97.745 E12.20134
G1 X108.191 Y97.65 E12.20325
G1 X111.806 Y97.654 E12.27539
G1 X111.797 Y97.746 E12.27724
G1 X111.831 Y98.08 E12.28393
G1 X111.928 Y98.399 E12.29059
G1 X112.085 Y98.692 E12.29722
G1 X112.298 Y98.95 E12.3039
G1 X112.554 Y99.161 E12.31052
G1 X112.847 Y99.318 E12.31715
G1 X113.166 Y99.415 E12.32381
G1 X113.5 Y99.449 E12.33051
G1 X113.832 Y99.415 E12.33717
G1 X114.151 Y99.318 E12.34382
G1 X114.397 Y99.187 E12.34938
G1 X119.463 Y107.175 E12.53815
G1 X119.659 Y107.486 E12.54548
G1 X123.575 Y113.655 E12.6913
G1 X124.762 Y115.528 E12.73555
G1 X124.557 Y115.637 E12.74019
G1 X124.298 Y115.848 E12.74685
G1 X124.087 Y116.107 E12.75352
G1 X123.93 Y116.401 E12.76017
G1 X123.833 Y116.718 E12.76679
G1 X123.799 Y117.05 E12.77345
G1 X123.833 Y117.384 E12.78015
G1 X123.93 Y117.703 E12.7868
G1 X124.087 Y117.998 E12.79347
G1 X124.298 Y118.254 E12.80009
G1 X124.556 Y118.465 E12.80674
G1 X124.851 Y118.624 E12.81343
G1 X125.169 Y118.719 E12.82005
G1 X125.502 Y118.753 E12.82673
G1 X125.798 Y118.723 E12.83267
G1 X125.798 Y122.25 E12.90305
G1 X94.2 Y122.25 E13.53363
G0 F6000 X94.47 Y121.98
G0 X94.711 Y121.459
G0 X94.99 Y121.46
;TYPE:SKIN
G1 F1200 X94.993 Y119.435 E13.57404
G1 X95.253 Y119.359 E13.57944
G1 X95.684 Y119.124 E13.58924
G1 X96.061 Y118.816 E13.59895
G1 X96.371 Y118.439 E13.60869
G1 X96.601 Y118.007 E13.61846
G1 X96.743 Y117.54 E13.6282
G1 X96.793 Y117.045 E13.63813
G1 X96.743 Y116.56 E13.64786
G1 X96.601 Y116.097 E13.65752
G1 X96.372 Y115.667 E13.66725
G1 X96.068 Y115.296 E13.67682
G1 X98.396 Y111.63 E13.76348
G1 X105.708 Y100.102 E14.03591
G1 X106.009 Y100.193 E14.04219
G1 X106.498 Y100.243 E14.052
G1 X106.989 Y100.193 E14.06184
G1 X107.455 Y100.051 E14.07157
G1 X107.886 Y99.821 E14.08131
G1 X108.261 Y99.511 E14.09102
G1 X108.57 Y99.137 E14.10071
G1 X108.807 Y98.703 E14.11057
G1 X108.884 Y98.44 E14.11604
G1 X111.116 Y98.444 E14.16058
G1 X111.195 Y98.703 E14.16599
G1 X111.425 Y99.134 E14.17574
G1 X111.737 Y99.511 E14.1855
G1 X112.112 Y99.821 E14.19521
G1 X112.543 Y100.051 E14.20496
G1 X113.009 Y100.193 E14.21468
G1 X113.5 Y100.243 E14.22453
G1 X113.989 Y100.193 E14.23434
G1 X114.082 Y100.165 E14.23628
G1 X118.992 Y107.909 E14.41927
G1 X123.701 Y115.331 E14.59468
G1 X123.426 Y115.667 E14.60334
G1 X123.197 Y116.097 E14.61306
G1 X123.055 Y116.56 E14.62273
G1 X123.005 Y117.05 E14.63256
G1 X123.055 Y117.541 E14.64241
G1 X123.197 Y118.007 E14.65213
G1 X123.427 Y118.439 E14.66189
G1 X123.737 Y118.816 E14.67163
G1 X124.114 Y119.125 E14.68136
G1 X124.547 Y119.359 E14.69118
G1 X125.008 Y119.495 E14.70078
G1 X125.008 Y121.46 E14.73999
G1 X94.99 Y121.46 E15.33903
G0 F6000 X95.277 Y121.299
G1 F1200 X95.15 Y121.171 E15.34263
G0 F6000 X95.151 Y120.606
