;FLAVOR:Marlin
;TIME:2325
;Filament used: 0.592516m
;Layer height: 0.12
;MINX:83.001
;MINY:86.451
;MINZ:0.12
;MAXX:136.999
;MAXY:133.45
;MAXZ:13.68
;Generated with Cura_SteamEngine master
M140 S60
M105
M190 S60
M104 S200
M105
M109 S200
M82 ;absolute extrusion mode
; Ender 3 Custom Start G-code
G92 E0 ; Reset Extruder
G28 ; Home all axes
G1 Z2.0 F3000 ; Move Z Axis up little to prevent scratching of Heat Bed
G1 X0.1 Y20 Z0.3 F5000.0 ; Move to start position
G1 X0.1 Y200.0 Z0.3 F1500.0 E15 ; Draw the first line
G1 X0.4 Y200.0 Z0.3 F5000.0 ; Move to side a little
G1 X0.4 Y20 Z0.3 F1500.0 E30 ; Draw the second line
G92 E0 ; Reset Extruder
G1 Z2.0 F3000 ; Move Z Axis up little to prevent scratching of Heat Bed
G1 X5 Y20 Z0.3 F5000.0 ; Move over to prevent blob squish
G92 E0
G92 E0
G1 F1500 E-6.5
;LAYER_COUNT:114
;LAYER:0
M107
G0 F6000 X97.357 Y91.258 Z0.12
;TYPE:SKIRT
G1 F1500 E0
G1 F1200 X98.026 Y90.6 E0.01873
G1 X98.748 Y90.001 E0.03745
G1 X99.518 Y89.467 E0.05615
G1 X100.099 Y89.124 E0.06961
G1 X100.159 Y89.091 E0.07098
G1 X100.587 Y88.867 E0.08062
G1 X101.263 Y88.533 E0.09567
G1 X102.984 Y87.66 E0.13418
G1 X103.838 Y87.271 E0.1529
G1 X104.721 Y86.957 E0.17161
G1 X105.628 Y86.718 E0.19032
G1 X106.143 Y86.619 E0.20079
G1 X107.074 Y86.5 E0.21952
G1 X107.857 Y86.462 E0.23516
G1 X108.774 Y86.451 E0.25346
G1 X111.48 Y86.455 E0.30747
G1 X112.196 Y86.466 E0.32176
G1 X113.132 Y86.521 E0.34047
G1 X114.061 Y86.655 E0.3592
G1 X114.974 Y86.867 E0.3779
G1 X115.866 Y87.157 E0.39662
G1 X116.73 Y87.521 E0.41533
G1 X117.56 Y87.958 E0.43405
G1 X117.587 Y87.976 E0.4347
G1 X117.944 Y88.182 E0.44292
G1 X118.934 Y88.768 E0.46588
G1 X120.13 Y89.49 E0.49376
G1 X120.911 Y90.008 E0.51246
G1 X121.646 Y90.592 E0.5312
G1 X122.328 Y91.235 E0.5499
G1 X122.953 Y91.935 E0.56863
G1 X123.562 Y92.753 E0.58898
G1 X123.719 Y92.987 E0.5946
G1 X123.991 Y93.405 E0.60456
G1 X134.067 Y109.288 E0.97992
G1 X134.424 Y109.869 E0.99353
G1 X134.881 Y110.689 E1.01226
G1 X135.266 Y111.544 E1.03097
G1 X135.471 Y112.101 E1.04282
G1 X135.713 Y112.816 E1.05788
G1 X135.767 Y112.98 E1.06133
G1 X136.106 Y114.037 E1.08348
G1 X136.419 Y114.97 E1.10312
G1 X136.679 Y115.871 E1.12183
G1 X136.861 Y116.791 E1.14055
G1 X136.964 Y117.723 E1.15926
G1 X136.988 Y118.304 E1.17086
G1 X136.998 Y118.99 E1.18455
G1 X136.999 Y121.714 E1.23891
G1 X136.988 Y122.592 E1.25644
G1 X136.935 Y123.529 E1.27517
G1 X136.803 Y124.457 E1.29387
G1 X136.592 Y125.371 E1.31259
G1 X136.303 Y126.263 E1.3313
G1 X135.94 Y127.128 E1.35002
G1 X135.505 Y127.959 E1.36874
G1 X135 Y128.749 E1.38745
G1 X134.43 Y129.494 E1.40617
G1 X133.799 Y130.188 E1.42489
G1 X133.11 Y130.825 E1.44362
G1 X132.37 Y131.401 E1.46233
G1 X131.584 Y131.912 E1.48104
G1 X130.757 Y132.354 E1.49975
G1 X129.895 Y132.724 E1.51847
G1 X129.005 Y133.019 E1.53718
G1 X128.093 Y133.238 E1.5559
G1 X127.166 Y133.378 E1.57461
G1 X126.298 Y133.437 E1.59197
G1 X125.978 Y133.446 E1.59836
G1 X125.669 Y133.45 E1.60453
G1 X94.565 Y133.449 E2.22524
G1 X93.867 Y133.44 E2.23917
G1 X92.931 Y133.388 E2.25788
G1 X92.002 Y133.256 E2.2766
G1 X91.088 Y133.046 E2.29532
G1 X90.195 Y132.759 E2.31404
G1 X89.33 Y132.396 E2.33276
G1 X88.499 Y131.962 E2.35147
G1 X87.708 Y131.458 E2.37019
G1 X86.963 Y130.888 E2.3889
G1 X86.269 Y130.257 E2.40762
G1 X85.632 Y129.57 E2.42632
G1 X85.055 Y128.83 E2.44505
G1 X84.543 Y128.044 E2.46377
G1 X84.1 Y127.217 E2.48249
G1 X83.729 Y126.356 E2.5012
G1 X83.433 Y125.466 E2.51991
G1 X83.214 Y124.554 E2.53863
G1 X83.073 Y123.627 E2.55734
G1 X83.013 Y122.732 E2.57524
G1 X83.005 Y122.43 E2.58127
G1 X83.001 Y122.128 E2.5873
G1 X83.004 Y119.229 E2.64515
G1 X83.018 Y118.338 E2.66294
G1 X83.073 Y117.402 E2.68165
G1 X83.208 Y116.474 E2.70036
G1 X83.336 Y115.886 E2.71237
G1 X83.448 Y115.433 E2.72168
G1 X83.69 Y114.378 E2.74328
G1 X84.01 Y113.048 E2.77058
G1 X84.268 Y112.146 E2.7893
G1 X84.602 Y111.27 E2.80801
G1 X85.01 Y110.425 E2.82674
G1 X85.333 Y109.862 E2.83969
G1 X85.749 Y109.185 E2.85555
G1 X95.722 Y93.464 E3.22708
G1 X95.81 Y93.327 E3.23033
G1 X96.2 Y92.732 E3.24453
G1 X96.747 Y91.97 E3.26325
G1 X97.357 Y91.258 E3.28196
G0 F6000 X97.673 Y91.506
G1 F1200 X98.332 Y90.863 E3.30033
G1 X99.044 Y90.279 E3.31871
G1 X99.804 Y89.76 E3.33707
G1 X100.292 Y89.474 E3.34836
G1 X100.352 Y89.441 E3.34973
G1 X100.765 Y89.226 E3.35902
G1 X101.364 Y88.93 E3.37235
G1 X101.957 Y88.631 E3.38561
G1 X103.166 Y88.017 E3.41267
G1 X104.004 Y87.636 E3.43104
G1 X104.872 Y87.329 E3.44941
G1 X106.176 Y87.019 E3.47616
G1 X106.211 Y87.013 E3.47687
G1 X107.124 Y86.897 E3.49523
G1 X107.862 Y86.862 E3.50998
G1 X108.773 Y86.851 E3.52816
G1 X111.474 Y86.855 E3.58206
G1 X112.19 Y86.866 E3.59635
G1 X113.109 Y86.92 E3.61472
G1 X114.02 Y87.054 E3.6331
G1 X114.916 Y87.266 E3.65147
G1 X115.79 Y87.555 E3.66984
G1 X116.635 Y87.919 E3.6882
G1 X117.315 Y88.285 E3.70361
G1 X117.317 Y88.282 E3.70369
G1 X117.412 Y88.337 E3.70588
G1 X117.74 Y88.526 E3.71343
G1 X118.727 Y89.11 E3.73632
G1 X119.923 Y89.832 E3.7642
G1 X120.69 Y90.342 E3.78258
G1 X121.41 Y90.916 E3.80095
G1 X122.077 Y91.551 E3.81933
G1 X122.686 Y92.241 E3.8377
G1 X123.231 Y92.977 E3.85597
G1 X123.384 Y93.206 E3.86147
G1 X123.722 Y93.726 E3.87385
G1 X133.646 Y109.368 E4.24352
G1 X134.083 Y110.079 E4.26018
G1 X134.531 Y110.883 E4.27855
G1 X134.907 Y111.724 E4.29693
G1 X135.092 Y112.23 E4.30768
G1 X135.386 Y113.102 E4.32605
G1 X135.718 Y114.136 E4.34772
G1 X136.04 Y115.097 E4.36794
G1 X136.294 Y115.982 E4.38632
G1 X136.471 Y116.885 E4.40468
G1 X136.568 Y117.801 E4.42306
G1 X136.588 Y118.309 E4.43321
G1 X136.598 Y118.995 E4.4469
G1 X136.599 Y121.714 E4.50116
G1 X136.588 Y122.587 E4.51858
G1 X136.535 Y123.506 E4.53695
G1 X136.403 Y124.417 E4.55532
G1 X136.192 Y125.313 E4.57369
G1 X135.905 Y126.188 E4.59207
G1 X135.542 Y127.034 E4.61044
G1 X135.108 Y127.846 E4.62881
G1 X134.604 Y128.617 E4.6472
G1 X134.036 Y129.341 E4.66556
G1 X133.407 Y130.013 E4.68393
G1 X132.722 Y130.628 E4.7023
G1 X131.986 Y131.181 E4.72067
G1 X131.205 Y131.669 E4.73905
G1 X130.385 Y132.087 E4.75742
G1 X129.531 Y132.432 E4.7758
G1 X128.651 Y132.701 E4.79416
G1 X127.75 Y132.894 E4.81255
G1 X126.837 Y133.007 E4.83091
G1 X126.287 Y133.037 E4.8419
G1 X125.967 Y133.046 E4.84829
G1 X125.669 Y133.05 E4.85424
G1 X94.57 Y133.049 E5.47485
G1 X93.872 Y133.04 E5.48878
G1 X92.953 Y132.988 E5.50715
G1 X92.042 Y132.857 E5.52552
G1 X91.146 Y132.647 E5.54388
G1 X90.271 Y132.36 E5.56226
G1 X89.424 Y131.998 E5.58064
G1 X88.612 Y131.564 E5.59901
G1 X87.841 Y131.062 E5.61737
G1 X87.116 Y130.494 E5.63575
G1 X86.443 Y129.865 E5.65414
G1 X85.828 Y129.181 E5.67249
G1 X85.274 Y128.446 E5.69086
G1 X84.786 Y127.665 E5.70924
G1 X84.367 Y126.845 E5.72762
G1 X84.021 Y125.992 E5.74599
G1 X83.751 Y125.112 E5.76436
G1 X83.558 Y124.211 E5.78274
G1 X83.444 Y123.298 E5.8011
G1 X83.413 Y122.722 E5.81262
G1 X83.405 Y122.42 E5.81864
G1 X83.401 Y122.128 E5.82447
G1 X83.405 Y119.063 E5.88564
G1 X83.417 Y118.345 E5.89997
G1 X83.473 Y117.426 E5.91834
G1 X83.608 Y116.515 E5.93672
G1 X83.725 Y115.982 E5.94761
G1 X83.832 Y115.55 E5.95649
G1 X84.079 Y114.471 E5.97858
G1 X84.399 Y113.141 E6.00588
G1 X84.653 Y112.256 E6.02425
G1 X84.983 Y111.397 E6.04262
G1 X85.386 Y110.569 E6.061
G1 X85.674 Y110.072 E6.07246
G1 X86.17 Y109.265 E6.09136
G1 X96.059 Y93.678 E6.45974
G1 X96.535 Y92.951 E6.47708
G1 X97.072 Y92.204 E6.49544
G1 X97.673 Y91.506 E6.51382
G0 F6000 X97.988 Y91.755
G1 F1200 X98.637 Y91.127 E6.53184
G1 X99.339 Y90.558 E6.54987
G1 X100.088 Y90.054 E6.56789
G1 X100.484 Y89.825 E6.57702
G1 X100.544 Y89.792 E6.57839
G1 X100.942 Y89.584 E6.58735
G1 X101.587 Y89.265 E6.60171
G1 X102.137 Y88.988 E6.614
G1 X103.347 Y88.373 E6.64108
G1 X104.169 Y88 E6.6591
G1 X105.021 Y87.702 E6.67711
G1 X106.244 Y87.414 E6.70218
G1 X106.279 Y87.408 E6.70289
G1 X107.175 Y87.295 E6.72092
G1 X107.868 Y87.262 E6.73476
G1 X108.773 Y87.251 E6.75282
G1 X111.468 Y87.255 E6.8066
G1 X112.184 Y87.266 E6.82089
G1 X113.085 Y87.32 E6.83891
G1 X113.978 Y87.453 E6.85692
G1 X114.856 Y87.665 E6.87495
G1 X115.712 Y87.954 E6.89298
G1 X116.539 Y88.317 E6.911
G1 X117.115 Y88.634 E6.92412
G1 X117.118 Y88.628 E6.92426
G1 X117.537 Y88.87 E6.93391
G1 X118.443 Y89.406 E6.95492
G1 X119.716 Y90.175 E6.9846
G1 X120.468 Y90.675 E7.00262
G1 X121.173 Y91.24 E7.02065
G1 X121.824 Y91.865 E7.03866
G1 X122.418 Y92.546 E7.05669
G1 X122.899 Y93.2 E7.07289
G1 X123.048 Y93.424 E7.07826
G1 X123.384 Y93.941 E7.09057
G1 X133.386 Y109.707 E7.46317
G1 X133.743 Y110.288 E7.47678
G1 X134.181 Y111.078 E7.4948
G1 X134.547 Y111.903 E7.51281
G1 X134.714 Y112.358 E7.52249
G1 X135.006 Y113.224 E7.54072
G1 X135.354 Y114.306 E7.56341
G1 X135.661 Y115.224 E7.58272
G1 X135.909 Y116.092 E7.60074
G1 X136.08 Y116.979 E7.61877
G1 X136.188 Y118.315 E7.64551
G1 X136.199 Y119.15 E7.66218
G1 X136.198 Y121.854 E7.71614
G1 X136.188 Y122.581 E7.73065
G1 X136.136 Y123.483 E7.74868
G1 X136.004 Y124.376 E7.76669
G1 X135.793 Y125.255 E7.78473
G1 X135.506 Y126.111 E7.80275
G1 X135.144 Y126.938 E7.82077
G1 X134.71 Y127.73 E7.83879
G1 X134.208 Y128.481 E7.85682
G1 X133.642 Y129.184 E7.87483
G1 X133.015 Y129.835 E7.89286
G1 X132.334 Y130.427 E7.91087
G1 X131.603 Y130.957 E7.92889
G1 X130.827 Y131.42 E7.94692
G1 X130.014 Y131.813 E7.96494
G1 X129.169 Y132.133 E7.98297
G1 X128.3 Y132.376 E8.00098
G1 X127.412 Y132.541 E8.01901
G1 X126.276 Y132.637 E8.04176
G1 X125.956 Y132.646 E8.04815
G1 X125.669 Y132.65 E8.05387
G1 X94.575 Y132.649 E8.67439
G1 X93.877 Y132.64 E8.68832
G1 X92.976 Y132.589 E8.70633
G1 X92.082 Y132.457 E8.72436
G1 X91.204 Y132.248 E8.74237
G1 X90.347 Y131.961 E8.76041
G1 X89.52 Y131.6 E8.77842
G1 X88.727 Y131.167 E8.79645
G1 X87.976 Y130.666 E8.81446
G1 X87.272 Y130.1 E8.83249
G1 X86.621 Y129.474 E8.85051
G1 X86.028 Y128.793 E8.86853
G1 X85.498 Y128.062 E8.88655
G1 X85.034 Y127.287 E8.90458
G1 X84.64 Y126.474 E8.92261
G1 X84.32 Y125.63 E8.94062
G1 X84.076 Y124.76 E8.95865
G1 X83.91 Y123.872 E8.97668
G1 X83.813 Y122.711 E8.99993
G1 X83.805 Y122.409 E9.00596
G1 X83.801 Y122.128 E9.01157
G1 X83.805 Y119.07 E9.07259
G1 X83.817 Y118.352 E9.08692
G1 X83.872 Y117.45 E9.10496
G1 X84.007 Y116.557 E9.12298
G1 X84.113 Y116.078 E9.13277
G1 X84.225 Y115.624 E9.1421
G1 X84.468 Y114.565 E9.16378
G1 X84.788 Y113.235 E9.19108
G1 X85.038 Y112.367 E9.20911
G1 X85.364 Y111.525 E9.22713
G1 X85.763 Y110.715 E9.24515
G1 X86.015 Y110.281 E9.25516
G1 X86.508 Y109.48 E9.27393
G1 X96.479 Y93.765 E9.64534
G1 X96.869 Y93.17 E9.65954
G1 X97.397 Y92.438 E9.67755
G1 X97.988 Y91.755 E9.69557
G1 F1500 E3.19557
;MESH:harbor_top_-_31.stl
G0 F6000 X104.58 Y98.795
G0 X105.491 Y99.372
G0 X95.794 Y115.339
G0 X96.528 Y117.496
G0 X94.783 Y119.277
G0 X94.601 Y121.85
;TYPE:WALL-INNER
G1 F1500 E9.69557
G1 F1200 X94.601 Y121.651 E9.69954
G1 X94.604 Y119.126 E9.74993
G1 X94.694 Y119.118 E9.75174
G1 X95.068 Y119.007 E9.75952
G1 X95.142 Y118.975 E9.76113
G1 X95.466 Y118.801 E9.76847
G1 X95.785 Y118.539 E9.77671
G1 X96.046 Y118.221 E9.78492
G1 X96.242 Y117.857 E9.79317
G1 X96.36 Y117.462 E9.8014
G1 X96.401 Y117.048 E9.8097
G1 X96.36 Y116.642 E9.81784
G1 X96.241 Y116.247 E9.82607
G1 X96.046 Y115.884 E9.8343
G1 X95.785 Y115.565 E9.84252
G1 X95.557 Y115.378 E9.84841
G1 X105.555 Y99.617 E10.22088
G1 X105.694 Y99.692 E10.22403
G1 X106.09 Y99.81 E10.23228
G1 X106.499 Y99.851 E10.24048
G1 X106.896 Y99.812 E10.24844
G1 X107.269 Y99.703 E10.2562
G1 X107.344 Y99.67 E10.25783
G1 X107.669 Y99.496 E10.26519
G1 X107.986 Y99.235 E10.27338
G1 X108.248 Y98.917 E10.28161
G1 X108.443 Y98.553 E10.28985
G1 X108.563 Y98.157 E10.2981
G1 X108.573 Y98.051 E10.30023
G1 X111.427 Y98.054 E10.35718
G1 X111.436 Y98.147 E10.35905
G1 X111.547 Y98.521 E10.36683
G1 X111.579 Y98.594 E10.36842
G1 X111.752 Y98.916 E10.37572
G1 X112.014 Y99.235 E10.38396
G1 X112.331 Y99.496 E10.39215
G1 X112.695 Y99.692 E10.4004
G1 X113.091 Y99.81 E10.40865
G1 X113.5 Y99.851 E10.41685
G1 X113.898 Y99.812 E10.42483
G1 X114.253 Y99.707 E10.43222
G1 X124.21 Y115.405 E10.80319
G1 X124.015 Y115.565 E10.80822
G1 X123.754 Y115.884 E10.81645
G1 X123.559 Y116.247 E10.82467
G1 X123.439 Y116.643 E10.83293
G1 X123.4 Y117.068 E10.84145
G1 X123.44 Y117.462 E10.84935
G1 X123.558 Y117.857 E10.85758
G1 X123.754 Y118.221 E10.86583
G1 X124.015 Y118.539 E10.87404
G1 X124.334 Y118.801 E10.88228
G1 X124.697 Y118.995 E10.89049
G1 X125.093 Y119.115 E10.89875
G1 X125.399 Y119.144 E10.90488
G1 X125.399 Y121.85 E10.95888
G1 X94.8 Y121.85 E11.56952
G1 X94.601 Y121.85 E11.57209
G0 F6000 X94.2 Y122.25
;TYPE:WALL-OUTER
G1 F1200 X94.205 Y118.744 E11.64205
G1 X94.298 Y118.753 E11.64392
G1 X94.618 Y118.723 E11.65033
G1 X94.931 Y118.63 E11.65685
G1 X94.968 Y118.614 E11.65765
G1 X95.243 Y118.467 E11.66388
G1 X95.501 Y118.255 E11.67054
G1 X95.712 Y117.998 E11.67717
G1 X95.87 Y117.703 E11.68385
G1 X95.966 Y117.384 E11.6905
G1 X95.999 Y117.048 E11.69724
G1 X95.966 Y116.72 E11.70382
G1 X95.87 Y116.401 E11.71047
G1 X95.712 Y116.107 E11.71713
G1 X95.501 Y115.849 E11.72378
G1 X95.243 Y115.638 E11.73043
G1 X95.001 Y115.508 E11.73591
G1 X105.433 Y99.063 E12.12455
G1 X105.554 Y99.162 E12.12767
G1 X105.848 Y99.32 E12.13433
G1 X106.168 Y99.416 E12.141
G1 X106.5 Y99.449 E12.14766
G1 X106.82 Y99.418 E12.15407
G1 X107.133 Y99.326 E12.16058
G1 X107.17 Y99.31 E12.16139
G1 X107.445 Y99.162 E12.16762
G1 X107.702 Y98.951 E12.17425
G1 X107.914 Y98.693 E12.18092
G1 X108.072 Y98.399 E12.18758
G1 X108.168 Y98.08 E12.19423
G1 X108.2 Y97.734 E12.20116
G1 X108.191 Y97.65 E12.20285
G1 X111.808 Y97.655 E12.27503
G1 X111.799 Y97.748 E12.27689
G1 X111.83 Y98.07 E12.28335
G1 X111.923 Y98.382 E12.28985
G1 X111.939 Y98.418 E12.29063
G1 X112.086 Y98.693 E12.29685
G1 X112.298 Y98.951 E12.30352
G1 X112.555 Y99.162 E12.31015
G1 X112.849 Y99.32 E12.31681
G1 X113.169 Y99.416 E12.32348
G1 X113.501 Y99.449 E12.33014
G1 X113.821 Y99.418 E12.33656
G1 X114.152 Y99.32 E12.34344
G1 X114.397 Y99.188 E12.349
G1 X124.762 Y115.528 E12.73515
G1 X124.557 Y115.638 E12.73979
G1 X124.299 Y115.849 E12.74645
G1 X124.088 Y116.107 E12.7531
G1 X123.93 Y116.401 E12.75976
G1 X123.834 Y116.72 E12.76641
G1 X123.802 Y117.066 E12.77334
G1 X123.834 Y117.384 E12.77972
G1 X123.93 Y117.703 E12.78637
G1 X124.088 Y117.998 E12.79304
G1 X124.299 Y118.255 E12.79968
G1 X124.557 Y118.467 E12.80634
G1 X124.851 Y118.624 E12.813
G1 X125.171 Y118.721 E12.81967
G1 X125.478 Y118.75 E12.82582
G1 X125.515 Y118.751 E12.82656
G1 X125.799 Y118.724 E12.83225
G1 X125.799 Y122.25 E12.90262
G1 X94.2 Y122.25 E13.53321
G0 F6000 X94.47 Y121.98
G0 X94.712 Y121.459
G0 X94.991 Y121.46
;TYPE:SKIN
G1 F1200 X94.994 Y119.436 E13.5736
G1 X95.201 Y119.374 E13.57791
G1 X95.312 Y119.326 E13.58033
G1 X95.684 Y119.127 E13.58875
G1 X96.062 Y118.816 E13.59852
G1 X96.372 Y118.439 E13.60826
G1 X96.605 Y118.007 E13.61805
G1 X96.744 Y117.538 E13.62781
G1 X96.793 Y117.048 E13.63764
G1 X96.744 Y116.566 E13.64731
G1 X96.603 Y116.097 E13.65708
G1 X96.372 Y115.666 E13.66684
G1 X96.07 Y115.298 E13.67634
G1 X105.708 Y100.103 E14.03543
G1 X106.014 Y100.194 E14.0418
G1 X106.499 Y100.243 E14.05153
G1 X106.97 Y100.196 E14.06097
G1 X107.403 Y100.07 E14.06997
G1 X107.515 Y100.021 E14.07241
G1 X107.887 Y99.822 E14.08083
G1 X108.263 Y99.512 E14.09055
G1 X108.574 Y99.135 E14.10031
G1 X108.805 Y98.703 E14.11008
G1 X108.884 Y98.441 E14.11554
G1 X111.117 Y98.444 E14.16011
G1 X111.18 Y98.655 E14.1645
G1 X111.228 Y98.765 E14.1669
G1 X111.426 Y99.134 E14.17525
G1 X111.737 Y99.512 E14.18502
G1 X112.113 Y99.821 E14.19473
G1 X112.545 Y100.055 E14.20454
G1 X113.015 Y100.194 E14.21432
G1 X113.5 Y100.243 E14.22405
G1 X113.972 Y100.196 E14.23351
G1 X114.081 Y100.164 E14.23578
G1 X123.702 Y115.332 E14.59423
G1 X123.428 Y115.666 E14.60285
G1 X123.197 Y116.097 E14.61261
G1 X123.055 Y116.567 E14.62241
G1 X123.008 Y117.07 E14.63249
G1 X123.056 Y117.538 E14.64188
G1 X123.195 Y118.007 E14.65164
G1 X123.428 Y118.439 E14.66144
G1 X123.738 Y118.816 E14.67118
G1 X124.116 Y119.127 E14.68094
G1 X124.547 Y119.357 E14.69069
G1 X125.009 Y119.497 E14.70033
G1 X125.009 Y121.46 E14.7395
G1 X94.991 Y121.46 E15.33854
G0 F6000 X95.277 Y121.299
G1 F1200 X95.15 Y121.171 E15.34214
G0 F6000 X95.151 Y120.606
G1 F1200 X95.843 Y121.299 E15.36168
G0 F6000 X96.409 Y121.299
