;FLAVOR:Marlin
;TIME:1096
;Filament used: 0.225191m
;Layer height: 0.12
;MINX:92.345
;MINY:92.367
;MINZ:0.12
;MAXX:127.582
;MAXY:125.885
;MAXZ:17.52
;Generated with Cura_SteamEngine master
M140 S60
M105
M190 S60
M104 S200
M105
M109 S200
M82 ;absolute extrusion mode
; Ender 3 Custom Start G-code
G92 E0 ; Reset Extruder
G28 ; Home all axes
G1 Z2.0 F3000 ; Move Z Axis up little to prevent scratching of Heat Bed
G1 X0.1 Y20 Z0.3 F5000.0 ; Move to start position
G1 X0.1 Y200.0 Z0.3 F1500.0 E15 ; Draw the first line
G1 X0.4 Y200.0 Z0.3 F5000.0 ; Move to side a little
G1 X0.4 Y20 Z0.3 F1500.0 E30 ; Draw the second line
G92 E0 ; Reset Extruder
G1 Z2.0 F3000 ; Move Z Axis up little to prevent scratching of Heat Bed
G1 X5 Y20 Z0.3 F5000.0 ; Move over to prevent blob squish
G92 E0
G92 E0
G1 F1500 E-6.5
;LAYER_COUNT:146
;LAYER:0
M107
G0 F6000 X96.425 Y96.053 Z0.12
;TYPE:SKIRT
G1 F1500 E0
G1 F1200 X97.088 Y95.39 E0.01871
G1 X97.806 Y94.786 E0.03744
G1 X98.572 Y94.246 E0.05614
G1 X99.382 Y93.772 E0.07487
G1 X100.229 Y93.37 E0.09358
G1 X101.107 Y93.041 E0.11229
G1 X102.01 Y92.788 E0.131
G1 X102.936 Y92.612 E0.14981
G1 X103.574 Y92.519 E0.16268
G1 X104.009 Y92.464 E0.17143
G1 X104.37 Y92.426 E0.17867
G1 X104.868 Y92.385 E0.18864
G1 X105.823 Y92.367 E0.20771
G1 X106.395 Y92.381 E0.21912
G1 X106.664 Y92.391 E0.2245
G1 X108.073 Y92.46 E0.25265
G1 X108.386 Y92.48 E0.25891
G1 X108.618 Y92.498 E0.26355
G1 X109.009 Y92.535 E0.27139
G1 X109.273 Y92.565 E0.27669
G1 X109.641 Y92.613 E0.2841
G1 X109.81 Y92.638 E0.28751
G1 X110.731 Y92.815 E0.30622
G1 X111.633 Y93.07 E0.32493
G1 X112.511 Y93.4 E0.34365
G1 X113.358 Y93.804 E0.36237
G1 X113.88 Y94.1 E0.37435
G1 X114.409 Y94.419 E0.38668
G1 X114.592 Y94.532 E0.39097
G1 X115.476 Y95.089 E0.41182
G1 X116.292 Y95.592 E0.43095
G1 X116.581 Y95.772 E0.43774
G1 X118.116 Y96.739 E0.47395
G1 X118.903 Y97.223 E0.49239
G1 X119.138 Y97.371 E0.49793
G1 X120.946 Y98.496 E0.54042
G1 X121.128 Y98.62 E0.54482
G1 X121.59 Y98.904 E0.55564
G1 X121.79 Y99.03 E0.56036
G1 X122.2 Y99.294 E0.57009
G1 X122.966 Y99.835 E0.5888
G1 X123.684 Y100.44 E0.60754
G1 X124.347 Y101.103 E0.62625
G1 X124.951 Y101.82 E0.64496
G1 X125.707 Y102.933 E0.67181
G1 X125.863 Y103.198 E0.67795
G1 X125.975 Y103.394 E0.68245
G1 X126.132 Y103.679 E0.68895
G1 X126.294 Y103.983 E0.69582
G1 X126.699 Y104.829 E0.71454
G1 X127.031 Y105.706 E0.73325
G1 X127.287 Y106.608 E0.75196
G1 X127.513 Y107.888 E0.7779
G1 X127.582 Y108.823 E0.79661
G1 X127.572 Y109.761 E0.81533
G1 X127.482 Y110.694 E0.83404
G1 X127.364 Y111.382 E0.84797
G1 X127.167 Y112.343 E0.86754
G1 X126.263 Y116.402 E0.95053
G1 X126.094 Y117.114 E0.96513
G1 X125.838 Y118.017 E0.98386
G1 X125.507 Y118.894 E1.00257
G1 X125.102 Y119.74 E1.02129
G1 X124.627 Y120.549 E1.04001
G1 X124.084 Y121.314 E1.05873
G1 X123.479 Y122.03 E1.07744
G1 X122.814 Y122.692 E1.09616
G1 X122.096 Y123.294 E1.11486
G1 X121.329 Y123.834 E1.13358
G1 X120.518 Y124.306 E1.15231
G1 X119.671 Y124.707 E1.17101
G1 X118.519 Y125.12 E1.19543
G1 X118.165 Y125.225 E1.2028
G1 X117.735 Y125.343 E1.2117
G1 X116.98 Y125.534 E1.22724
G1 X116.062 Y125.725 E1.24595
G1 X115.13 Y125.837 E1.26468
G1 X114.473 Y125.868 E1.27781
G1 X114.064 Y125.874 E1.28597
G1 X113.198 Y125.875 E1.30325
G1 X112.106 Y125.885 E1.32505
G1 X111.168 Y125.853 E1.34378
G1 X110.237 Y125.742 E1.36249
G1 X109.156 Y125.51 E1.38455
G1 X108.261 Y125.23 E1.40327
G1 X107.393 Y124.874 E1.42199
G1 X106.411 Y124.361 E1.4441
G1 X106.168 Y124.218 E1.44972
G1 X105.816 Y124.002 E1.45797
G1 X105.577 Y123.849 E1.46363
G1 X104.094 Y122.92 E1.49855
G1 X103.082 Y122.296 E1.52228
G1 X101.472 Y121.282 E1.56025
G1 X100.561 Y120.721 E1.5816
G1 X98.862 Y119.651 E1.62167
G1 X98.484 Y119.418 E1.63053
G1 X98.283 Y119.292 E1.63526
G1 X97.984 Y119.099 E1.64236
G1 X97.219 Y118.557 E1.66107
G1 X96.502 Y117.952 E1.6798
G1 X95.84 Y117.288 E1.69851
G1 X95.236 Y116.57 E1.71723
G1 X94.822 Y115.995 E1.73137
G1 X94.705 Y115.821 E1.73556
G1 X94.405 Y115.35 E1.7467
G1 X94.295 Y115.167 E1.75096
G1 X94.174 Y114.96 E1.75574
G1 X93.951 Y114.57 E1.76471
G1 X93.782 Y114.263 E1.7717
G1 X93.624 Y113.965 E1.77843
G1 X93.22 Y113.118 E1.79716
G1 X92.89 Y112.24 E1.81588
G1 X92.636 Y111.337 E1.8346
G1 X92.46 Y110.416 E1.85331
G1 X92.363 Y109.483 E1.87203
G1 X92.345 Y108.546 E1.89073
G1 X92.408 Y107.61 E1.90945
G1 X92.537 Y106.749 E1.92683
G1 X92.6 Y106.419 E1.93353
G1 X92.668 Y106.093 E1.94018
G1 X93.663 Y101.625 E2.03153
G1 X93.817 Y100.972 E2.04492
G1 X94.071 Y100.069 E2.06364
G1 X94.401 Y99.191 E2.08235
G1 X94.804 Y98.345 E2.10105
G1 X95.278 Y97.536 E2.11977
G1 X95.82 Y96.77 E2.13849
G1 X96.425 Y96.053 E2.15721
G0 F6000 X96.788 Y96.249
G1 F1200 X97.446 Y95.605 E2.17559
G1 X98.158 Y95.021 E2.19396
G1 X98.917 Y94.501 E2.21232
G1 X99.719 Y94.048 E2.23071
G1 X100.557 Y93.667 E2.24908
G1 X101.425 Y93.36 E2.26745
G1 X102.316 Y93.129 E2.28582
G1 X102.994 Y93.008 E2.29956
G1 X103.632 Y92.915 E2.31243
G1 X104.051 Y92.862 E2.32086
G1 X104.412 Y92.824 E2.3281
G1 X104.893 Y92.785 E2.33773
G1 X105.813 Y92.767 E2.35609
G1 X106.385 Y92.781 E2.36751
G1 X106.644 Y92.791 E2.37269
G1 X108.053 Y92.86 E2.40084
G1 X108.355 Y92.879 E2.40688
G1 X108.587 Y92.897 E2.41152
G1 X108.964 Y92.933 E2.41908
G1 X109.228 Y92.963 E2.42438
G1 X109.582 Y93.009 E2.4315
G1 X109.751 Y93.034 E2.43491
G1 X110.655 Y93.208 E2.45328
G1 X111.541 Y93.46 E2.47167
G1 X112.401 Y93.788 E2.49003
G1 X113.23 Y94.189 E2.50841
G1 X113.674 Y94.443 E2.51862
G1 X114.203 Y94.762 E2.53095
G1 X114.379 Y94.87 E2.53507
G1 X115.35 Y95.482 E2.55797
G1 X116.08 Y95.931 E2.57508
G1 X116.368 Y96.111 E2.58185
G1 X117.857 Y97.049 E2.61697
G1 X118.694 Y97.564 E2.63658
G1 X118.865 Y97.672 E2.64062
G1 X120.734 Y98.835 E2.68455
G1 X120.925 Y98.966 E2.68917
G1 X121.38 Y99.245 E2.69982
G1 X121.574 Y99.367 E2.7044
G1 X121.984 Y99.631 E2.71413
G1 X122.735 Y100.162 E2.73248
G1 X123.438 Y100.757 E2.75086
G1 X124.087 Y101.411 E2.76925
G1 X124.676 Y102.118 E2.78761
G1 X125.363 Y103.137 E2.81214
G1 X125.515 Y103.397 E2.81815
G1 X125.627 Y103.593 E2.82265
G1 X125.779 Y103.867 E2.82891
G1 X125.941 Y104.171 E2.83578
G1 X126.338 Y105.001 E2.85414
G1 X126.662 Y105.863 E2.87252
G1 X126.909 Y106.75 E2.89089
G1 X127.115 Y107.934 E2.91488
G1 X127.183 Y108.853 E2.93327
G1 X127.171 Y109.773 E2.95163
G1 X127.079 Y110.689 E2.97
G1 X126.972 Y111.302 E2.98242
G1 X126.775 Y112.263 E3.00199
G1 X126.737 Y112.44 E3.00561
G1 X125.906 Y116.168 E3.08183
G1 X125.704 Y117.022 E3.09934
G1 X125.453 Y117.908 E3.11772
G1 X125.126 Y118.768 E3.13608
G1 X124.725 Y119.597 E3.15446
G1 X124.254 Y120.388 E3.17283
G1 X123.716 Y121.135 E3.1912
G1 X123.116 Y121.833 E3.20957
G1 X122.457 Y122.476 E3.22794
G1 X121.744 Y123.059 E3.24632
G1 X120.984 Y123.578 E3.26469
G1 X120.182 Y124.03 E3.28306
G1 X119.343 Y124.41 E3.30144
G1 X118.405 Y124.736 E3.32126
G1 X118.051 Y124.841 E3.32862
G1 X117.637 Y124.955 E3.33719
G1 X116.882 Y125.146 E3.35274
G1 X115.98 Y125.333 E3.37112
G1 X115.066 Y125.441 E3.38949
G1 X114.466 Y125.468 E3.40147
G1 X114.063 Y125.474 E3.40951
G1 X113.194 Y125.475 E3.42686
G1 X112.102 Y125.485 E3.44865
G1 X111.182 Y125.453 E3.46702
G1 X110.268 Y125.342 E3.48539
G1 X109.259 Y125.123 E3.506
G1 X108.38 Y124.847 E3.52438
G1 X107.529 Y124.497 E3.54275
G1 X106.614 Y124.017 E3.56337
G1 X106.371 Y123.874 E3.56899
G1 X106.032 Y123.665 E3.57694
G1 X105.847 Y123.547 E3.58132
G1 X104.27 Y122.558 E3.61847
G1 X103.295 Y121.958 E3.64131
G1 X101.619 Y120.903 E3.68083
G1 X100.774 Y120.383 E3.70063
G1 X99.065 Y119.306 E3.74095
G1 X98.694 Y119.078 E3.74964
G1 X98.5 Y118.956 E3.75421
G1 X98.201 Y118.763 E3.76131
G1 X97.45 Y118.23 E3.77969
G1 X96.748 Y117.635 E3.79805
G1 X96.101 Y116.981 E3.81641
G1 X95.512 Y116.273 E3.83479
G1 X95.154 Y115.772 E3.84708
G1 X95.037 Y115.598 E3.85126
G1 X94.748 Y115.144 E3.862
G1 X94.638 Y114.961 E3.86627
G1 X94.521 Y114.762 E3.87087
G1 X94.298 Y114.372 E3.87984
G1 X94.135 Y114.075 E3.8866
G1 X93.977 Y113.777 E3.89333
G1 X93.581 Y112.946 E3.9117
G1 X93.259 Y112.083 E3.93008
G1 X93.014 Y111.196 E3.94845
G1 X92.846 Y110.291 E3.96681
G1 X92.757 Y109.375 E3.98518
G1 X92.748 Y108.454 E4.00356
G1 X92.819 Y107.536 E4.02194
G1 X92.93 Y106.824 E4.03632
G1 X92.993 Y106.494 E4.04302
G1 X93.058 Y106.18 E4.04942
G1 X94.052 Y101.717 E4.14067
G1 X94.206 Y101.064 E4.15405
G1 X94.456 Y100.178 E4.17243
G1 X94.782 Y99.317 E4.1908
G1 X95.182 Y98.487 E4.20918
G1 X95.651 Y97.696 E4.22754
G1 X96.188 Y96.948 E4.24591
G1 X96.788 Y96.249 E4.2643
G0 F6000 X97.151 Y96.448
G1 F1200 X97.803 Y95.823 E4.28232
G1 X98.508 Y95.259 E4.30034
G1 X99.261 Y94.759 E4.31837
G1 X100.054 Y94.328 E4.33639
G1 X100.883 Y93.969 E4.35441
G1 X101.74 Y93.684 E4.37244
G1 X103.052 Y93.404 E4.39921
G1 X103.69 Y93.311 E4.41208
G1 X104.093 Y93.26 E4.42018
G1 X104.454 Y93.222 E4.42743
G1 X104.918 Y93.184 E4.43672
G1 X105.804 Y93.167 E4.4544
G1 X106.376 Y93.181 E4.46582
G1 X106.625 Y93.19 E4.47079
G1 X108.034 Y93.259 E4.49894
G1 X108.324 Y93.278 E4.50474
G1 X108.556 Y93.296 E4.50939
G1 X108.919 Y93.33 E4.51666
G1 X109.183 Y93.36 E4.52196
G1 X109.524 Y93.405 E4.52883
G1 X109.693 Y93.43 E4.53224
G1 X110.579 Y93.601 E4.55025
G1 X111.447 Y93.851 E4.56827
G1 X112.29 Y94.176 E4.5863
G1 X113.467 Y94.785 E4.61275
G1 X113.996 Y95.104 E4.62508
G1 X114.166 Y95.209 E4.62906
G1 X115.079 Y95.784 E4.65059
G1 X115.869 Y96.271 E4.66912
G1 X116.155 Y96.449 E4.67584
G1 X117.737 Y97.446 E4.71315
G1 X118.484 Y97.905 E4.73065
G1 X120.523 Y99.175 E4.77859
G1 X120.71 Y99.303 E4.78311
G1 X121.171 Y99.586 E4.79391
G1 X121.357 Y99.703 E4.79829
G1 X121.767 Y99.967 E4.80802
G1 X122.504 Y100.489 E4.82605
G1 X123.192 Y101.074 E4.84407
G1 X123.825 Y101.718 E4.86209
G1 X124.399 Y102.415 E4.88011
G1 X125.019 Y103.341 E4.90235
G1 X125.168 Y103.595 E4.90822
G1 X125.28 Y103.791 E4.91273
G1 X125.426 Y104.055 E4.91875
G1 X125.588 Y104.359 E4.92562
G1 X125.977 Y105.174 E4.94364
G1 X126.292 Y106.02 E4.96166
G1 X126.531 Y106.891 E4.97968
G1 X126.718 Y107.981 E5.00175
G1 X126.784 Y108.882 E5.01978
G1 X126.77 Y109.785 E5.0378
G1 X126.676 Y110.683 E5.05582
G1 X126.58 Y111.221 E5.06673
G1 X126.347 Y112.353 E5.08979
G1 X125.516 Y116.081 E5.16602
G1 X125.315 Y116.93 E5.18343
G1 X125.068 Y117.798 E5.20144
G1 X124.745 Y118.642 E5.21947
G1 X124.348 Y119.453 E5.23749
G1 X123.882 Y120.226 E5.2555
G1 X123.349 Y120.955 E5.27352
G1 X122.753 Y121.634 E5.29155
G1 X122.1 Y122.257 E5.30956
G1 X121.394 Y122.821 E5.3276
G1 X120.641 Y123.319 E5.34561
G1 X119.847 Y123.749 E5.36363
G1 X119.018 Y124.108 E5.38166
G1 X118.292 Y124.353 E5.39695
G1 X117.938 Y124.458 E5.40432
G1 X117.539 Y124.567 E5.41257
G1 X116.784 Y124.758 E5.42812
G1 X115.899 Y124.941 E5.44615
G1 X115.002 Y125.045 E5.46417
G1 X114.459 Y125.068 E5.47502
G1 X114.063 Y125.074 E5.48292
G1 X113.19 Y125.075 E5.50034
G1 X112.098 Y125.085 E5.52214
G1 X111.196 Y125.053 E5.54015
G1 X110.3 Y124.941 E5.55817
G1 X109.362 Y124.737 E5.57732
G1 X108.5 Y124.465 E5.59536
G1 X107.666 Y124.119 E5.61338
G1 X106.817 Y123.672 E5.63253
G1 X106.574 Y123.529 E5.63815
G1 X106.248 Y123.329 E5.64579
G1 X106.054 Y123.205 E5.65038
G1 X104.443 Y122.195 E5.68833
G1 X103.508 Y121.619 E5.71024
G1 X101.921 Y120.62 E5.74766
G1 X101.079 Y120.102 E5.76739
G1 X99.309 Y118.987 E5.80914
G1 X98.903 Y118.737 E5.81865
G1 X98.717 Y118.62 E5.82304
G1 X98.418 Y118.427 E5.83014
G1 X97.682 Y117.904 E5.84816
G1 X96.995 Y117.318 E5.86618
G1 X96.362 Y116.673 E5.88421
G1 X95.789 Y115.976 E5.90222
G1 X95.486 Y115.549 E5.91267
G1 X95.369 Y115.375 E5.91685
G1 X95.091 Y114.938 E5.92719
G1 X94.981 Y114.755 E5.93145
G1 X94.868 Y114.563 E5.9359
G1 X94.645 Y114.173 E5.94486
G1 X94.488 Y113.888 E5.95135
G1 X94.33 Y113.59 E5.95809
G1 X93.943 Y112.774 E5.97611
G1 X93.629 Y111.927 E5.99414
G1 X93.392 Y111.056 E6.01215
G1 X93.232 Y110.167 E6.03018
G1 X93.152 Y109.268 E6.04819
G1 X93.152 Y108.364 E6.06623
G1 X93.231 Y107.465 E6.08424
G1 X93.323 Y106.899 E6.09568
G1 X93.386 Y106.569 E6.10238
G1 X93.449 Y106.266 E6.10856
G1 X94.441 Y101.809 E6.19968
G1 X94.595 Y101.156 E6.21307
G1 X94.841 Y100.287 E6.23109
G1 X95.163 Y99.443 E6.24912
G1 X95.559 Y98.631 E6.26715
G1 X96.024 Y97.857 E6.28517
G1 X96.556 Y97.127 E6.30319
G1 X97.151 Y96.448 E6.32121
G1 F1500 E-0.17879
;MESH:harbor_base_-_3.stl
G0 F6000 X108.43 Y102.867
G0 X111.871 Y105.026
G0 X112.083 Y106.684
G0 X113.035 Y106.895
G0 X111.714 Y114.314
G0 X111.86 Y114.575
;TYPE:WALL-OUTER
G1 F1500 E6.32121
G1 F1200 X111.387 Y114.28 E6.33234
G1 X111.385 Y114.277 E6.33241
G1 X111.292 Y114.219 E6.33459
G1 X112.961 Y106.717 E6.48797
G1 X113.526 Y107.07 E6.50126
G1 X111.86 Y114.575 E6.65468
G0 F6000 X111.625 Y114.17
;TYPE:SKIN
G1 F1200 X111.676 Y113.939 E6.65815
G1 X112.962 Y108.153 E6.74527
G1 X113.167 Y107.228 E6.7592
G0 F6000 X113.008 Y107.102
G1 F1500 E0.2592
G0 F6000 X113.076 Y107.117
G0 X111.928 Y113.718
G0 X112.889 Y113.93
G0 X113.767 Y114.13
G0 X114.728 Y114.343
G0 X114.548 Y114.602
;TYPE:WALL-OUTER
G1 F1500 E6.7592
G1 F1200 X115.895 Y108.55 E6.88293
G1 X116.101 Y108.679 E6.88778
G1 X116.376 Y109.173 E6.89906
G1 X116.378 Y109.173 E6.8991
G1 X116.395 Y109.205 E6.89982
G1 X116.259 Y109.809 E6.91218
G1 X115.23 Y114.42 E7.00646
G1 X114.548 Y114.602 E7.02054
G0 F6000 X114.85 Y114.284
;TYPE:SKIN
G1 F1200 X114.974 Y114.125 E7.0233
G1 X116.056 Y109.268 E7.09122
G1 X116.048 Y108.977 E7.09519
G0 F6000 X116.112 Y109.08
G1 F1500 E0.59519
G0 F6000 X116.099 Y109.085
G0 X114.816 Y113.948
G0 X113.855 Y113.735
G0 X112.428 Y115.927
G0 X110.324 Y114.626
G0 X110.128 Y112.901
G0 X109.167 Y112.688
G0 X109.089 Y112.672
G0 X109.235 Y112.933
;TYPE:WALL-OUTER
G1 F1500 E7.09519
G1 F1200 X108.669 Y112.58 E7.1085
G1 X109.823 Y107.393 E7.21454
G1 X110.34 Y105.08 E7.26184
G1 X110.904 Y105.432 E7.27511
G1 X110.777 Y106.01 E7.28692
G1 X109.235 Y112.933 E7.42846
G0 F6000 X109.026 Y112.42
;TYPE:SKIN
G1 F1200 X109.077 Y112.189 E7.43193
G1 X110.365 Y106.405 E7.51898
G1 X110.571 Y105.48 E7.5329
G0 F6000 X110.545 Y105.798
G1 F1500 E1.0329
G0 F6000 X109.391 Y111.685
G0 X108.048 Y111.387
G0 X107.507 Y111.263
G0 X106.546 Y111.051
G0 X106.468 Y111.035
G0 X106.614 Y111.296
;TYPE:WALL-OUTER
G1 F1500 E7.5329
G1 F1200 X106.046 Y110.941 E7.54626
G1 X107.669 Y103.653 E7.69527
G1 X107.853 Y103.674 E7.69896
G1 X107.991 Y103.687 E7.70173
G1 X108.039 Y103.694 E7.7027
G1 X108.142 Y103.705 E7.70476
G1 X108.273 Y103.787 E7.70785
G1 X108.064 Y104.489 E7.72246
G1 X107.848 Y105.739 E7.74778
G1 X107.662 Y106.583 E7.76503
G1 X106.614 Y111.296 E7.86138
G0 F6000 X106.37 Y110.895
;TYPE:SKIN
G1 F1200 X106.429 Y110.672 E7.86464
G1 X107.56 Y105.58 E7.93853
G1 X107.908 Y103.948 E7.96217
G0 F6000 X107.747 Y103.802
G1 F1500 E1.46217
G0 F6000 X107.833 Y103.872
G0 X106.416 Y109.741
G0 X103.972 Y109.195
G0 X104.005 Y109.592
;TYPE:WALL-OUTER
G1 F1500 E7.96217
G1 F1200 X103.865 Y109.367 E7.96746
G1 X103.788 Y109.231 E7.97058
G1 X103.542 Y108.783 E7.98078
G1 X104.323 Y105.278 E8.05244
G1 X104.682 Y103.659 E8.08553
G1 X105.343 Y103.579 E8.09882
G1 X105.282 Y103.862 E8.1046
G1 X104.005 Y109.592 E8.22175
G0 F6000 X103.873 Y108.964
;TYPE:SKIN
G1 F1200 X103.883 Y108.691 E8.22559
G1 X104.913 Y104.064 E8.29225
G1 X105.008 Y103.877 E8.2952
G0 F6000 X105.127 Y103.96
G1 F1500 E1.7952
;MESH:NONMESH
G0 F300 X105.127 Y103.96 Z0.24
G0 F6000 X105.06 Y103.945
G0 X103.952 Y109.278
G0 X104.914 Y109.491
G0 X105.078 Y111.348
G0 X109.801 Y114.287
G0 X111.149 Y110.882
G0 X112.109 Y111.094
G0 X111.752 Y114.141
G0 X111.922 Y114.179
;TIME_ELAPSED:32.739155
;LAYER:1
M106 S85
;TYPE:WALL-INNER
;MESH:harbor_base_-_3.stl
G1 F1500 E8.2952
G1 F1262.3 X111.716 Y114.051 E8.30004
G1 X111.708 Y114.044 E8.30025
G1 X111.595 Y113.975 E8.30289
G1 X111.585 Y113.967 E8.30315
G1 X111.572 Y113.959 E8.30345
G1 X111.364 Y113.829 E8.30834
G1 X112.803 Y107.364 E8.44052
G1 X112.864 Y107.09 E8.44612
G1 X113.102 Y107.238 E8.44943
G1 X113.422 Y107.438 E8.45696
G1 X112.519 Y111.456 E8.53914
G1 X112.316 Y112.413 E8.55867
G1 X111.954 Y114.039 E8.59191
G1 X111.951 Y114.054
G1 X111.94 Y114.1
G1 X111.922 Y114.179
G0 F7500 X112.197 Y114.779
;TYPE:WALL-OUTER
G1 F1262.3 X112.112 Y114.769 E8.59362
G1 X111.48 Y114.375 E8.60848
G1 X111.474 Y114.37 E8.60864
G1 X111.363 Y114.302 E8.61123
