;FLAVOR:Marlin
;TIME:379
;Filament used: 0.121123m
;Layer height: 0.12
;MINX:86.007
;MINY:89.356
;MINZ:0.12
;MAXX:133.993
;MAXY:130.641
;MAXZ:1.92
;Generated with Cura_SteamEngine master
M140 S60
M105
M190 S60
M104 S200
M105
M109 S200
M82 ;absolute extrusion mode
; Ender 3 Custom Start G-code
G92 E0 ; Reset Extruder
G28 ; Home all axes
G1 Z2.0 F3000 ; Move Z Axis up little to prevent scratching of Heat Bed
G1 X0.1 Y20 Z0.3 F5000.0 ; Move to start position
G1 X0.1 Y200.0 Z0.3 F1500.0 E15 ; Draw the first line
G1 X0.4 Y200.0 Z0.3 F5000.0 ; Move to side a little
G1 X0.4 Y20 Z0.3 F1500.0 E30 ; Draw the second line
G92 E0 ; Reset Extruder
G1 Z2.0 F3000 ; Move Z Axis up little to prevent scratching of Heat Bed
G1 X5 Y20 Z0.3 F5000.0 ; Move over to prevent blob squish
G92 E0
G92 E0
G1 F1500 E-6.5
;LAYER_COUNT:17
;LAYER:0
M107
G0 F6000 X89.905 Y97.371 Z0.12
;TYPE:SKIRT
G1 F1500 E0
G1 F1200 X90.645 Y96.795 E0.01871
G1 X91.379 Y96.317 E0.03619
G1 X92.109 Y95.882 E0.05315
G1 X100.43 Y91.078 E0.24489
G1 X100.991 Y90.764 E0.25772
G1 X101.829 Y90.342 E0.27645
G1 X102.699 Y89.992 E0.29516
G1 X103.596 Y89.717 E0.31388
G1 X104.512 Y89.52 E0.33258
G1 X105.78 Y89.379 E0.35804
G1 X105.874 Y89.374 E0.35992
G1 X106.214 Y89.361 E0.36671
G1 X106.439 Y89.356 E0.3712
G1 X107.081 Y89.36 E0.38401
G1 X107.55 Y89.377 E0.39338
G1 X107.864 Y89.393 E0.39965
G1 X108.157 Y89.412 E0.40551
G1 X109.089 Y89.513 E0.42422
G1 X109.671 Y89.617 E0.43602
G1 X109.913 Y89.667 E0.44095
G1 X110.41 Y89.781 E0.45113
G1 X110.864 Y89.897 E0.46048
G1 X111.762 Y90.168 E0.4792
G1 X112.67 Y90.531 E0.49871
G1 X113.137 Y90.742 E0.50894
G1 X113.45 Y90.889 E0.51584
G1 X113.656 Y90.99 E0.52042
G1 X114.272 Y91.316 E0.53433
G1 X114.518 Y91.46 E0.54001
G1 X115.125 Y91.824 E0.55414
G1 X126.497 Y98.825 E0.82064
G1 X127.172 Y99.253 E0.83659
G1 X127.438 Y99.427 E0.84293
G1 X127.769 Y99.651 E0.85091
G1 X128.038 Y99.839 E0.85746
G1 X128.289 Y100.02 E0.86363
G1 X129.026 Y100.6 E0.88235
G1 X129.71 Y101.241 E0.90105
G1 X130.158 Y101.727 E0.91424
G1 X130.463 Y102.078 E0.92352
G1 X130.637 Y102.283 E0.92889
G1 X130.809 Y102.491 E0.93428
G1 X131.375 Y103.239 E0.953
G1 X131.756 Y103.828 E0.96699
G1 X131.877 Y104.029 E0.97168
G1 X132.104 Y104.424 E0.98077
G1 X132.314 Y104.808 E0.9895
G1 X132.729 Y105.649 E1.00822
G1 X133.174 Y106.844 E1.03366
G1 X133.339 Y107.379 E1.04484
G1 X133.439 Y107.722 E1.05197
G1 X133.489 Y107.905 E1.05575
G1 X133.754 Y109.158 E1.08131
G1 X133.82 Y109.594 E1.09011
G1 X133.862 Y109.897 E1.09622
G1 X133.901 Y110.214 E1.10259
G1 X133.983 Y111.486 E1.12803
G1 X133.988 Y112.328 E1.14483
G1 X133.993 Y118.944 E1.27686
G1 X133.992 Y119.111 E1.28019
G1 X133.982 Y119.802 E1.29398
G1 X133.928 Y120.739 E1.31271
G1 X133.795 Y121.667 E1.33142
G1 X133.584 Y122.581 E1.35014
G1 X133.295 Y123.473 E1.36885
G1 X132.931 Y124.337 E1.38756
G1 X132.495 Y125.168 E1.40629
G1 X131.99 Y125.958 E1.425
G1 X131.419 Y126.702 E1.44372
G1 X130.787 Y127.395 E1.46243
G1 X130.098 Y128.032 E1.48116
G1 X129.358 Y128.607 E1.49986
G1 X128.571 Y129.118 E1.51859
G1 X127.744 Y129.559 E1.53729
G1 X126.882 Y129.929 E1.55601
G1 X125.991 Y130.224 E1.57474
G1 X125.079 Y130.441 E1.59345
G1 X124.152 Y130.581 E1.61216
G1 X123.216 Y130.641 E1.63087
G1 X122.278 Y130.62 E1.6496
G1 X121.346 Y130.52 E1.6683
G1 X120.425 Y130.341 E1.68703
G1 X119.523 Y130.085 E1.70574
G1 X118.738 Y129.791 E1.72247
G1 X117.887 Y129.435 E1.74088
G1 X117.038 Y129.036 E1.7596
G1 X116.452 Y128.707 E1.77301
G1 X115.578 Y128.18 E1.79337
G1 X115.399 Y128.07 E1.79757
G1 X114.033 Y127.211 E1.82977
G1 X111.827 Y125.865 E1.88134
G1 X109.652 Y124.622 E1.93133
G1 X107.402 Y123.418 E1.98226
G1 X105.191 Y122.316 E2.03156
G1 X102.867 Y121.237 E2.08269
G1 X100.6 Y120.263 E2.13193
G1 X98.201 Y119.31 E2.18344
G1 X95.917 Y118.478 E2.23195
G1 X94.945 Y118.161 E2.25236
G1 X94.587 Y118.027 E2.25998
G1 X93.499 Y117.66 E2.2829
G1 X92.624 Y117.323 E2.30161
G1 X91.781 Y116.912 E2.32033
G1 X90.976 Y116.431 E2.33904
G1 X90.215 Y115.883 E2.35775
G1 X89.503 Y115.272 E2.37648
G1 X88.846 Y114.602 E2.3952
G1 X88.248 Y113.88 E2.41391
G1 X87.714 Y113.108 E2.43265
G1 X87.248 Y112.295 E2.45135
G1 X86.853 Y111.444 E2.47007
G1 X86.532 Y110.563 E2.48878
G1 X86.286 Y109.658 E2.5075
G1 X86.119 Y108.735 E2.52622
G1 X86.022 Y107.573 E2.54948
G1 X86.012 Y107.245 E2.55603
G1 X86.007 Y106.91 E2.56272
G1 X86.008 Y106.272 E2.57545
G1 X86.018 Y105.599 E2.58888
G1 X86.072 Y104.662 E2.60761
G1 X86.206 Y103.734 E2.62632
G1 X86.418 Y102.82 E2.64505
G1 X86.707 Y101.928 E2.66376
G1 X87.071 Y101.064 E2.68247
G1 X87.507 Y100.234 E2.70118
G1 X88.013 Y99.444 E2.7199
G1 X88.584 Y98.7 E2.73862
G1 X89.216 Y98.007 E2.75733
G1 X89.905 Y97.371 E2.77605
G0 F6000 X90.293 Y97.567
G1 F1200 X91.03 Y97.015 E2.79442
G1 X91.584 Y96.66 E2.80755
G1 X92.177 Y96.306 E2.82134
G1 X100.626 Y91.427 E3.01604
G1 X101.187 Y91.113 E3.02887
G1 X102.009 Y90.699 E3.04723
G1 X102.864 Y90.358 E3.0656
G1 X103.745 Y90.092 E3.08397
G1 X104.646 Y89.903 E3.10234
G1 X105.801 Y89.778 E3.12552
G1 X105.895 Y89.773 E3.1274
G1 X106.223 Y89.761 E3.13395
G1 X106.448 Y89.756 E3.13844
G1 X107.067 Y89.76 E3.1508
G1 X107.536 Y89.777 E3.16016
G1 X107.838 Y89.792 E3.1662
G1 X108.131 Y89.811 E3.17206
G1 X109.046 Y89.911 E3.19043
G1 X109.59 Y90.008 E3.20145
G1 X109.832 Y90.058 E3.20638
G1 X110.311 Y90.169 E3.2162
G1 X110.765 Y90.285 E3.22555
G1 X111.646 Y90.551 E3.24391
G1 X112.505 Y90.895 E3.26238
G1 X112.972 Y91.106 E3.2726
G1 X113.274 Y91.248 E3.27926
G1 X113.48 Y91.349 E3.28384
G1 X114.073 Y91.664 E3.29724
G1 X114.313 Y91.803 E3.30278
G1 X114.915 Y92.164 E3.31679
G1 X126.287 Y99.165 E3.58328
G1 X126.957 Y99.59 E3.59912
G1 X127.214 Y99.758 E3.60525
G1 X127.545 Y99.982 E3.61322
G1 X127.804 Y100.163 E3.61953
G1 X128.055 Y100.344 E3.6257
G1 X128.778 Y100.915 E3.64409
G1 X129.448 Y101.546 E3.66245
G1 X129.856 Y101.989 E3.67447
G1 X130.161 Y102.34 E3.68375
G1 X130.329 Y102.538 E3.68893
G1 X130.501 Y102.746 E3.69432
G1 X131.056 Y103.48 E3.71268
G1 X131.413 Y104.034 E3.72584
G1 X131.534 Y104.235 E3.73052
G1 X131.753 Y104.616 E3.73929
G1 X131.963 Y105 E3.74802
G1 X132.369 Y105.826 E3.76639
G1 X132.792 Y106.962 E3.79058
G1 X132.957 Y107.497 E3.80175
G1 X133.053 Y107.827 E3.80861
G1 X133.103 Y108.01 E3.8124
G1 X133.359 Y109.217 E3.83702
G1 X133.425 Y109.653 E3.84582
G1 X133.465 Y109.946 E3.85172
G1 X133.504 Y110.263 E3.8581
G1 X133.583 Y111.489 E3.88261
G1 X133.588 Y112.328 E3.89936
G1 X133.593 Y118.944 E4.03139
G1 X133.592 Y119.105 E4.0346
G1 X133.582 Y119.796 E4.04839
G1 X133.529 Y120.715 E4.06676
G1 X133.396 Y121.627 E4.08515
G1 X133.184 Y122.523 E4.10353
G1 X132.896 Y123.397 E4.12189
G1 X132.533 Y124.243 E4.14026
G1 X132.098 Y125.054 E4.15863
G1 X131.594 Y125.825 E4.17701
G1 X131.025 Y126.549 E4.19539
G1 X130.395 Y127.22 E4.21375
G1 X129.71 Y127.835 E4.23212
G1 X128.974 Y128.388 E4.2505
G1 X128.192 Y128.875 E4.26888
G1 X127.372 Y129.292 E4.28724
G1 X126.518 Y129.636 E4.30561
G1 X125.637 Y129.905 E4.32399
G1 X124.737 Y130.097 E4.34236
G1 X123.823 Y130.21 E4.36074
G1 X122.903 Y130.243 E4.37911
G1 X121.984 Y130.196 E4.39747
G1 X121.072 Y130.069 E4.41585
G1 X120.174 Y129.864 E4.43423
G1 X118.892 Y129.422 E4.46129
G1 X118.041 Y129.066 E4.4797
G1 X117.208 Y128.674 E4.49807
G1 X116.659 Y128.364 E4.51065
G1 X115.785 Y127.837 E4.53102
G1 X115.612 Y127.731 E4.53507
G1 X114.316 Y126.915 E4.56563
G1 X112.013 Y125.51 E4.61947
G1 X109.833 Y124.265 E4.66957
G1 X107.605 Y123.073 E4.71999
G1 X105.358 Y121.952 E4.77011
G1 X103.044 Y120.878 E4.82102
G1 X100.726 Y119.882 E4.87136
G1 X98.38 Y118.95 E4.92174
G1 X96.035 Y118.096 E4.97154
G1 X95.069 Y117.781 E4.99182
G1 X94.713 Y117.648 E4.9994
G1 X93.627 Y117.281 E5.02228
G1 X92.768 Y116.949 E5.04066
G1 X91.941 Y116.544 E5.05903
G1 X91.153 Y116.068 E5.07741
G1 X90.409 Y115.526 E5.09578
G1 X89.715 Y114.922 E5.11414
G1 X89.076 Y114.259 E5.13251
G1 X88.496 Y113.543 E5.1509
G1 X87.981 Y112.78 E5.16927
G1 X87.534 Y111.975 E5.18765
G1 X87.159 Y111.135 E5.206
G1 X86.858 Y110.264 E5.22439
G1 X86.634 Y109.372 E5.24275
G1 X86.488 Y108.463 E5.26112
G1 X86.422 Y107.561 E5.27917
G1 X86.412 Y107.233 E5.28572
G1 X86.407 Y106.91 E5.29216
G1 X86.408 Y106.278 E5.30478
G1 X86.418 Y105.605 E5.31821
G1 X86.472 Y104.685 E5.3366
G1 X86.605 Y103.774 E5.35497
G1 X86.817 Y102.878 E5.37335
G1 X87.105 Y102.004 E5.39171
G1 X87.469 Y101.158 E5.41009
G1 X87.904 Y100.347 E5.42845
G1 X88.409 Y99.577 E5.44683
G1 X88.978 Y98.853 E5.46521
G1 X89.608 Y98.182 E5.48357
G1 X90.293 Y97.567 E5.50195
G0 F6000 X90.681 Y97.769
G1 F1200 X91.789 Y97.004 E5.52882
G1 X92.509 Y96.575 E5.54554
G1 X100.821 Y91.776 E5.73708
G1 X101.382 Y91.462 E5.74991
G1 X102.189 Y91.057 E5.76793
G1 X103.029 Y90.724 E5.78596
G1 X103.894 Y90.467 E5.80397
G1 X104.779 Y90.287 E5.82199
G1 X105.822 Y90.177 E5.84292
G1 X105.916 Y90.172 E5.8448
G1 X106.231 Y90.161 E5.85109
G1 X106.456 Y90.156 E5.85558
G1 X107.052 Y90.16 E5.86747
G1 X107.521 Y90.177 E5.87684
G1 X107.812 Y90.191 E5.88265
G1 X108.105 Y90.21 E5.88851
G1 X109.003 Y90.309 E5.90654
G1 X109.509 Y90.4 E5.9168
G1 X109.751 Y90.45 E5.92173
G1 X110.212 Y90.556 E5.93117
G1 X110.666 Y90.672 E5.94052
G1 X111.53 Y90.935 E5.95855
G1 X112.341 Y91.26 E5.97598
G1 X112.808 Y91.471 E5.98621
G1 X113.098 Y91.608 E5.99261
G1 X113.304 Y91.709 E5.99719
G1 X113.875 Y92.011 E6.01008
G1 X114.107 Y92.146 E6.01543
G1 X114.705 Y92.505 E6.02935
G1 X126.077 Y99.506 E6.29585
G1 X126.743 Y99.928 E6.31159
G1 X126.99 Y100.09 E6.31748
G1 X127.321 Y100.314 E6.32546
G1 X127.57 Y100.488 E6.33152
G1 X127.821 Y100.669 E6.33769
G1 X128.529 Y101.229 E6.35571
G1 X129.185 Y101.849 E6.37372
G1 X129.554 Y102.252 E6.38463
G1 X129.859 Y102.603 E6.39391
G1 X130.021 Y102.793 E6.39889
G1 X130.193 Y103.001 E6.40427
G1 X130.737 Y103.722 E6.4223
G1 X131.071 Y104.24 E6.4346
G1 X131.192 Y104.441 E6.43928
G1 X131.402 Y104.808 E6.44772
G1 X131.612 Y105.192 E6.45645
G1 X132.01 Y106.003 E6.47448
G1 X132.41 Y107.08 E6.49741
G1 X132.575 Y107.615 E6.50858
G1 X132.667 Y107.933 E6.51519
G1 X132.717 Y108.116 E6.51897
G1 X132.963 Y109.277 E6.54266
G1 X133.029 Y109.713 E6.55146
G1 X133.068 Y109.995 E6.55714
G1 X133.107 Y110.312 E6.56351
G1 X133.183 Y111.492 E6.58711
G1 X133.188 Y112.328 E6.60379
G1 X133.193 Y118.944 E6.73582
G1 X133.192 Y119.1 E6.73893
G1 X133.182 Y119.791 E6.75273
G1 X133.129 Y120.692 E6.77074
G1 X132.996 Y121.585 E6.78875
G1 X132.785 Y122.464 E6.80679
G1 X132.497 Y123.32 E6.82482
G1 X132.135 Y124.147 E6.84283
G1 X131.701 Y124.939 E6.86086
G1 X131.198 Y125.689 E6.87888
G1 X130.631 Y126.392 E6.8969
G1 X130.004 Y127.042 E6.91492
G1 X129.322 Y127.634 E6.93295
G1 X128.59 Y128.163 E6.95097
G1 X127.815 Y128.626 E6.96898
G1 X127.001 Y129.018 E6.98701
G1 X126.156 Y129.337 E7.00504
G1 X125.286 Y129.58 E7.02307
G1 X124.399 Y129.744 E7.04107
G1 X123.499 Y129.83 E7.05911
G1 X122.596 Y129.836 E7.07713
G1 X121.696 Y129.762 E7.09515
G1 X120.806 Y129.608 E7.11318
G1 X119.933 Y129.376 E7.1312
G1 X119.047 Y129.053 E7.15002
G1 X118.196 Y128.697 E7.16843
G1 X117.379 Y128.312 E7.18645
G1 X116.865 Y128.022 E7.19823
G1 X115.991 Y127.495 E7.2186
G1 X115.825 Y127.392 E7.2225
G1 X114.485 Y126.548 E7.2541
G1 X112.255 Y125.188 E7.30622
G1 X110.026 Y123.915 E7.35745
G1 X107.766 Y122.706 E7.4086
G1 X105.518 Y121.585 E7.45873
G1 X103.205 Y120.511 E7.50962
G1 X100.884 Y119.514 E7.56003
G1 X98.539 Y118.582 E7.61039
G1 X96.142 Y117.709 E7.6613
G1 X95.193 Y117.4 E7.68121
G1 X94.854 Y117.273 E7.68844
G1 X93.755 Y116.902 E7.71159
G1 X92.913 Y116.576 E7.7296
G1 X92.103 Y116.176 E7.74763
G1 X91.331 Y115.706 E7.76567
G1 X90.605 Y115.17 E7.78368
G1 X89.928 Y114.572 E7.8017
G1 X89.307 Y113.916 E7.81973
G1 X88.747 Y113.208 E7.83774
G1 X88.251 Y112.453 E7.85577
G1 X87.824 Y111.657 E7.8738
G1 X87.469 Y110.827 E7.89181
G1 X87.189 Y109.968 E7.90984
G1 X86.986 Y109.088 E7.92787
G1 X86.862 Y108.194 E7.94588
G1 X86.822 Y107.549 E7.95877
G1 X86.812 Y107.221 E7.96532
G1 X86.807 Y106.91 E7.97153
G1 X86.808 Y106.283 E7.98404
G1 X86.818 Y105.61 E7.99747
G1 X86.872 Y104.709 E8.01549
G1 X87.004 Y103.816 E8.0335
G1 X87.216 Y102.938 E8.05153
G1 X87.504 Y102.082 E8.06955
G1 X87.867 Y101.255 E8.08757
G1 X88.301 Y100.463 E8.1056
G1 X88.804 Y99.713 E8.12362
G1 X89.372 Y99.01 E8.14165
G1 X89.999 Y98.36 E8.15968
G1 X90.681 Y97.769 E8.17769
G1 F1500 E1.67769
;MESH:harbor_base_-_2.stl
G0 F6000 X96.885 Y105.06
G0 X97.427 Y105.997
G0 X97.789 Y106.464
G0 X103.196 Y106.64
G0 X103.475 Y106.759
G0 X122.393 Y118.669
;TYPE:WALL-INNER
G1 F1500 E8.17769
G1 F1200 X122.215 Y118.652 E8.18125
G1 X122.045 Y118.545 E8.18526
G1 X104.364 Y107.426 E8.60208
G1 X104.223 Y107.16 E8.60808
G1 X104.023 Y106.917 E8.61437
G1 X103.78 Y106.718 E8.62063
G1 X103.503 Y106.569 E8.62691
G1 X103.294 Y106.507 E8.63126
G1 X103.238 Y106.482 E8.63248
G1 X102.993 Y106.459 E8.63739
G1 X102.93 Y106.445 E8.63868
G1 X102.59 Y106.476 E8.6455
G1 X102.312 Y106.559 E8.65129
G1 X102.241 Y106.589 E8.65282
G1 X102.136 Y106.646 E8.65521
G1 X97.607 Y106.646 E8.74559
G1 X97.607 Y106.102 E8.75645
G1 X106.523 Y100.953 E8.96191
G1 X106.738 Y100.953 E8.9662
G1 X106.78 Y100.946 E8.96705
G1 X107.371 Y100.976 E8.97886
G1 X107.972 Y101.121 E8.9912
G1 X108.52 Y101.381 E9.0033
G1 X121.001 Y109.064 E9.29578
G1 X121.464 Y109.388 E9.30706
G1 X121.85 Y109.846 E9.31901
G1 X122.132 Y110.347 E9.33049
G1 X122.305 Y110.946 E9.34293
G1 X122.39 Y111.571 E9.35552
G1 X122.388 Y111.595 E9.356
G1 X122.392 Y118.45 E9.4928
G1 X122.392 Y118.651 E9.49547
G1 X122.393 Y118.669
G0 F6000 X122.793 Y119.218
;TYPE:WALL-OUTER
G1 F1200 X122.653 Y119.143 E9.49864
G1 X122.427 Y119.074 E9.50335
G1 X122.193 Y119.052 E9.50804
G1 X122.111 Y119.06 E9.50969
G1 X104.029 Y107.688 E9.93596
G1 X104 Y107.592 E9.93796
G1 X103.889 Y107.384 E9.94267
G1 X103.739 Y107.202 E9.94738
G1 X103.556 Y107.052 E9.9521
G1 X103.35 Y106.941 E9.95677
G1 X103.161 Y106.885 E9.9607
G1 X103.136 Y106.874 E9.96125
G1 X102.931 Y106.855 E9.96535
G1 X102.904 Y106.849 E9.96591
G1 X102.666 Y106.871 E9.97068
G1 X102.448 Y106.936 E9.97522
G1 X102.415 Y106.95 E9.97593
G1 X102.254 Y107.037 E9.97958
G1 X102.228 Y107.046 E9.98013
G1 X97.207 Y107.046 E10.08033
G1 X97.207 Y105.871 E10.10378
G1 X106.417 Y100.553 E10.31601
G1 X106.702 Y100.553 E10.3217
G1 X106.752 Y100.544 E10.32272
G1 X107.432 Y100.579 E10.3363
G1 X108.103 Y100.741 E10.35008
G1 X108.719 Y101.033 E10.36368
G1 X121.211 Y108.723 E10.65642
G1 X121.737 Y109.091 E10.66923
G1 X122.177 Y109.613 E10.68286
G1 X122.504 Y110.193 E10.69615
G1 X122.697 Y110.863 E10.71006
G1 X122.792 Y111.562 E10.72414
G1 X122.788 Y111.611 E10.72512
G1 X122.793 Y119.218 E10.87693
G0 F6000 X122.534 Y118.835
G0 X121.854 Y118.293
G0 X122.003 Y118.058
;TYPE:SKIN
G1 F1200 X104.661 Y107.152 E11.28575
G1 X104.549 Y106.942 E11.2905
G1 X104.3 Y106.64 E11.29831
G1 X103.998 Y106.392 E11.30611
G1 X103.653 Y106.206 E11.31393
G1 X103.43 Y106.14 E11.31857
G1 X103.337 Y106.1 E11.32059
G1 X103.052 Y106.073 E11.32631
G1 X102.955 Y106.051 E11.32829
G1 X102.516 Y106.092 E11.33709
G1 X102.179 Y106.191 E11.3441
G1 X102.071 Y106.238 E11.34645
G1 X102.038 Y106.256 E11.3472
G1 X98.12 Y106.256 E11.42539
G1 X106.628 Y101.343 E11.62145
G1 X106.771 Y101.343 E11.6243
G1 X106.799 Y101.338 E11.62487
G1 X107.318 Y101.364 E11.63524
G1 X107.836 Y101.489 E11.64587
G1 X108.339 Y101.728 E11.65699
G1 X120.786 Y109.39 E11.94867
G1 X121.201 Y109.68 E11.95877
G1 X121.527 Y110.067 E11.96887
G1 X121.77 Y110.498 E11.97875
G1 X121.923 Y111.031 E11.98981
G1 X121.998 Y111.578 E12.00083
G1 X122.003 Y118.058 E12.13014
G0 F6000 X121.854 Y118.293
G0 X122.202 Y118.418
G0 X122.214 Y112.877
G0 X122.17 Y110.877
G0 X121.746 Y110.998
G1 F1200 X119.592 Y108.844 E12.19094
G0 F6000 X119.823 Y108.469
G0 X118.351 Y107.563
G0 X118.12 Y107.938
G1 F1200 X121.838 Y111.655 E12.29585
G0 F6000 X121.838 Y112.221
G1 F1200 X116.649 Y107.032 E12.4423
G0 F6000 X116.88 Y106.657
G0 X115.408 Y105.751
G0 X115.177 Y106.126
G1 F1200 X121.838 Y112.787 E12.63028
G0 F6000 X121.839 Y113.354
G1 F1200 X113.707 Y105.221 E12.8598
G0 F6000 X113.938 Y104.846
G0 X112.466 Y103.94
G0 X112.235 Y104.315
G1 F1200 X121.839 Y113.919 E13.13085
G0 F6000 X121.84 Y114.486
G1 F1200 X110.764 Y103.41 E13.44343
G0 F6000 X110.995 Y103.035
