;FLAVOR:Marlin
;TIME:2218
;Filament used: 1.2285m
;Layer height: 0.2
;MINX:67.914
;MINY:75.557
;MINZ:0.2
;MAXX:156.484
;MAXY:165.977
;MAXZ:1.8
;Generated with Cura_SteamEngine master
M140 S60
M105
M190 S60
M104 S200
M105
M109 S200
M82 ;absolute extrusion mode
; Ender 3 Custom Start G-code
G92 E0 ; Reset Extruder
G28 ; Home all axes
G1 Z2.0 F3000 ; Move Z Axis up little to prevent scratching of Heat Bed
G1 X0.1 Y20 Z0.3 F5000.0 ; Move to start position
G1 X0.1 Y200.0 Z0.3 F1500.0 E15 ; Draw the first line
G1 X0.4 Y200.0 Z0.3 F5000.0 ; Move to side a little
G1 X0.4 Y20 Z0.3 F1500.0 E30 ; Draw the second line
G92 E0 ; Reset Extruder
G1 Z2.0 F3000 ; Move Z Axis up little to prevent scratching of Heat Bed
G1 X5 Y20 Z0.3 F5000.0 ; Move over to prevent blob squish
G92 E0
G92 E0
G1 F1500 E-6.5
;LAYER_COUNT:10
;LAYER:0
M107
G0 F6000 X79.759 Y83.961 Z0.2
;TYPE:SKIRT
G1 F1500 E0
G1 F1200 X80.276 Y83.481 E0.02346
G1 X80.66 Y83.147 E0.04039
G1 X80.934 Y82.917 E0.05229
G1 X81.117 Y82.768 E0.06014
G1 X81.869 Y82.207 E0.09134
G1 X82.338 Y81.905 E0.1099
G1 X82.53 Y81.788 E0.11737
G1 X82.973 Y81.531 E0.13441
G1 X83.375 Y81.311 E0.14965
G1 X84.216 Y80.897 E0.18083
G1 X85.442 Y80.441 E0.22433
G1 X85.946 Y80.287 E0.24186
G1 X86.243 Y80.201 E0.25215
G1 X86.443 Y80.146 E0.25905
G1 X87.722 Y79.875 E0.30253
G1 X88.167 Y79.808 E0.3175
G1 X88.458 Y79.768 E0.32727
G1 X88.774 Y79.729 E0.33786
G1 X90.043 Y79.646 E0.38015
G1 X90.82 Y79.641 E0.406
G1 X95.796 Y79.639 E0.5715
G1 X98.409 Y79.6 E0.65842
G1 X100.918 Y79.493 E0.74194
G1 X103.417 Y79.314 E0.82527
G1 X105.95 Y79.061 E0.90994
G1 X108.427 Y78.742 E0.99301
G1 X110.928 Y78.348 E1.07722
G1 X113.385 Y77.89 E1.16034
G1 X115.824 Y77.363 E1.24334
G1 X118.283 Y76.76 E1.32755
G1 X120.857 Y76.049 E1.41637
G1 X121.035 Y75.998 E1.42252
G1 X121.946 Y75.777 E1.4537
G1 X122.874 Y75.635 E1.48493
G1 X123.527 Y75.583 E1.50671
G1 X123.787 Y75.57 E1.51537
G1 X124.479 Y75.557 E1.53839
G1 X124.917 Y75.566 E1.55296
G1 X125.252 Y75.579 E1.56412
G1 X125.57 Y75.596 E1.57471
G1 X125.909 Y75.619 E1.58601
G1 X126.841 Y75.723 E1.6172
G1 X127.43 Y75.83 E1.63711
G1 X127.677 Y75.882 E1.64551
G1 X128.136 Y75.989 E1.66118
G1 X128.578 Y76.102 E1.67635
G1 X129.476 Y76.373 E1.70755
G1 X130.374 Y76.731 E1.73971
G1 X130.842 Y76.942 E1.75678
G1 X131.163 Y77.093 E1.76858
G1 X131.369 Y77.194 E1.77621
G1 X132.15 Y77.617 E1.80575
G1 X132.794 Y78.001 E1.83069
G1 X144.215 Y85.031 E2.27675
G1 X144.91 Y85.472 E2.30412
G1 X145.176 Y85.646 E2.3147
G1 X145.498 Y85.864 E2.32763
G1 X145.725 Y86.022 E2.33683
G1 X145.956 Y86.187 E2.34627
G1 X146.695 Y86.764 E2.37745
G1 X147.382 Y87.402 E2.40864
G1 X147.866 Y87.924 E2.43231
G1 X148.197 Y88.305 E2.4491
G1 X148.411 Y88.558 E2.46012
G1 X148.563 Y88.744 E2.46811
G1 X149.125 Y89.495 E2.49931
G1 X149.438 Y89.981 E2.51854
G1 X149.555 Y90.173 E2.52601
G1 X149.812 Y90.616 E2.54305
G1 X150.032 Y91.018 E2.55829
G1 X150.446 Y91.859 E2.58947
G1 X150.902 Y93.085 E2.63297
G1 X151.056 Y93.589 E2.6505
G1 X151.142 Y93.886 E2.66079
G1 X151.197 Y94.086 E2.66769
G1 X151.468 Y95.365 E2.71117
G1 X151.535 Y95.81 E2.72614
G1 X151.573 Y96.084 E2.73534
G1 X151.612 Y96.396 E2.7458
G1 X151.652 Y96.764 E2.75811
G1 X151.685 Y97.14 E2.77066
G1 X151.851 Y99.36 E2.8447
G1 X152.107 Y101.844 E2.92776
G1 X152.434 Y104.332 E3.01122
G1 X152.841 Y106.861 E3.09642
G1 X153.298 Y109.27 E3.17797
G1 X153.846 Y111.772 E3.26316
G1 X154.444 Y114.175 E3.34552
G1 X155.131 Y116.636 E3.43051
G1 X155.803 Y118.815 E3.50635
G1 X155.948 Y119.264 E3.52204
G1 X156.197 Y120.168 E3.55323
G1 X156.369 Y121.09 E3.58442
G1 X156.474 Y122.295 E3.62465
G1 X156.484 Y122.613 E3.63524
G1 X156.482 Y123.364 E3.66021
G1 X156.465 Y123.825 E3.67556
G1 X156.445 Y124.186 E3.68758
G1 X156.424 Y124.487 E3.69762
G1 X156.319 Y125.419 E3.72881
G1 X156.215 Y125.987 E3.74802
G1 X156.163 Y126.234 E3.75641
G1 X156.056 Y126.693 E3.77209
G1 X155.943 Y127.135 E3.78726
G1 X155.672 Y128.033 E3.81846
G1 X155.314 Y128.931 E3.85062
G1 X155.103 Y129.399 E3.86769
G1 X154.952 Y129.72 E3.87949
G1 X154.851 Y129.926 E3.88712
G1 X154.428 Y130.707 E3.91666
G1 X154.043 Y131.351 E3.94162
G1 X146.941 Y142.888 E4.39222
G1 X146.578 Y143.46 E4.41475
G1 X146.399 Y143.733 E4.42561
G1 X146.181 Y144.055 E4.43854
G1 X146.01 Y144.3 E4.44848
G1 X145.845 Y144.53 E4.45789
G1 X145.266 Y145.268 E4.48909
G1 X144.627 Y145.954 E4.52027
G1 X144.134 Y146.411 E4.54263
G1 X143.753 Y146.743 E4.55944
G1 X143.487 Y146.968 E4.57103
G1 X143.301 Y147.12 E4.57902
G1 X142.55 Y147.682 E4.61021
G1 X142.064 Y147.995 E4.62944
G1 X141.872 Y148.112 E4.63692
G1 X141.437 Y148.364 E4.65364
G1 X141.023 Y148.591 E4.66934
G1 X140.126 Y149.031 E4.70257
G1 X140.032 Y149.072 E4.70598
G1 X137.68 Y150.145 E4.79197
G1 X135.428 Y151.25 E4.8754
G1 X133.179 Y152.433 E4.95992
G1 X130.994 Y153.664 E5.04333
G1 X128.843 Y154.956 E5.12679
G1 X126.754 Y156.292 E5.20926
G1 X123.695 Y158.402 E5.33286
G1 X123.561 Y158.498 E5.33835
G1 X122.775 Y159.014 E5.36962
G1 X122.029 Y159.458 E5.39849
G1 X113.872 Y164.167 E5.71176
G1 X113.153 Y164.569 E5.73916
G1 X112.315 Y164.991 E5.77036
G1 X111.445 Y165.34 E5.80154
G1 X110.548 Y165.614 E5.83274
G1 X109.631 Y165.81 E5.86392
G1 X108.354 Y165.951 E5.90666
G1 X108.101 Y165.964 E5.91508
G1 X107.4 Y165.977 E5.9384
G1 X106.95 Y165.968 E5.95337
G1 X106.615 Y165.955 E5.96452
G1 X106.297 Y165.938 E5.97511
G1 X105.958 Y165.915 E5.98641
G1 X105.026 Y165.811 E6.01761
G1 X104.437 Y165.704 E6.03752
G1 X104.19 Y165.652 E6.04591
G1 X103.731 Y165.545 E6.06159
G1 X103.289 Y165.432 E6.07676
G1 X102.391 Y165.161 E6.10796
G1 X101.493 Y164.803 E6.14011
G1 X101.025 Y164.592 E6.15719
G1 X100.703 Y164.44 E6.16903
G1 X100.495 Y164.338 E6.17674
G1 X99.712 Y163.914 E6.20635
G1 X99.073 Y163.533 E6.2311
G1 X87.51 Y156.414 E6.68273
G1 X86.941 Y156.052 E6.70516
G1 X86.677 Y155.878 E6.71567
G1 X86.367 Y155.668 E6.72813
G1 X86.142 Y155.512 E6.73723
G1 X85.911 Y155.347 E6.74668
G1 X85.172 Y154.77 E6.77786
G1 X84.485 Y154.132 E6.80904
G1 X84.001 Y153.61 E6.83272
G1 X83.67 Y153.229 E6.84951
G1 X83.456 Y152.976 E6.86053
G1 X83.304 Y152.79 E6.86852
G1 X82.742 Y152.039 E6.89972
G1 X82.429 Y151.553 E6.91894
G1 X82.312 Y151.361 E6.92642
G1 X82.044 Y150.898 E6.94421
G1 X81.824 Y150.494 E6.95951
G1 X81.411 Y149.652 E6.99071
G1 X80.966 Y148.449 E7.03337
G1 X80.811 Y147.942 E7.051
G1 X80.729 Y147.662 E7.0607
G1 X80.675 Y147.467 E7.06743
G1 X80.401 Y146.182 E7.11113
G1 X80.236 Y145.086 E7.148
G1 X80.021 Y143.504 E7.2011
G1 X79.609 Y141.002 E7.28544
G1 X79.136 Y138.565 E7.368
G1 X78.582 Y136.085 E7.45252
G1 X77.966 Y133.654 E7.53593
G1 X77.278 Y131.229 E7.61977
G1 X76.521 Y128.821 E7.70373
G1 X75.698 Y126.444 E7.78739
G1 X74.807 Y124.086 E7.87123
G1 X73.852 Y121.76 E7.95486
G1 X72.827 Y119.454 E8.03879
G1 X71.733 Y117.164 E8.12321
G1 X70.595 Y114.949 E8.20603
G1 X69.649 Y113.213 E8.27179
G1 X69.313 Y112.61 E8.29475
G1 X68.892 Y111.772 E8.32594
G1 X68.544 Y110.901 E8.35713
G1 X68.272 Y110.004 E8.38831
G1 X68.077 Y109.086 E8.41952
G1 X67.935 Y107.742 E8.46447
G1 X67.924 Y107.491 E8.47283
G1 X67.914 Y106.868 E8.49355
G1 X67.923 Y106.426 E8.50826
G1 X67.936 Y106.091 E8.51941
G1 X67.953 Y105.776 E8.5299
G1 X67.976 Y105.436 E8.54124
G1 X68.079 Y104.503 E8.57246
G1 X68.185 Y103.921 E8.59213
G1 X68.237 Y103.673 E8.60056
G1 X68.342 Y103.222 E8.61596
G1 X68.453 Y102.785 E8.63096
G1 X68.722 Y101.887 E8.66214
G1 X69.091 Y100.96 E8.69532
G1 X69.304 Y100.489 E8.71251
G1 X69.45 Y100.18 E8.72388
G1 X69.551 Y99.974 E8.73151
G1 X69.974 Y99.193 E8.76105
G1 X70.359 Y98.549 E8.78601
G1 X77.497 Y86.955 E9.23885
G1 X77.831 Y86.43 E9.25955
G1 X78.003 Y86.167 E9.27
G1 X78.221 Y85.845 E9.28293
G1 X78.379 Y85.618 E9.29213
G1 X78.544 Y85.387 E9.30157
G1 X79.121 Y84.648 E9.33276
G1 X79.759 Y83.961 E9.36394
G0 F6000 X80.065 Y84.221
G1 F1200 X80.538 Y83.783 E9.38538
G1 X80.922 Y83.449 E9.40231
G1 X81.186 Y83.227 E9.41378
G1 X81.369 Y83.078 E9.42163
G1 X82.108 Y82.528 E9.45227
G1 X82.546 Y82.246 E9.46959
G1 X82.738 Y82.129 E9.47707
G1 X83.165 Y81.882 E9.49348
G1 X83.567 Y81.662 E9.50872
G1 X84.393 Y81.256 E9.53933
G1 X85.558 Y80.824 E9.58066
G1 X86.062 Y80.67 E9.59819
G1 X86.349 Y80.586 E9.60813
G1 X86.549 Y80.531 E9.61503
G1 X87.782 Y80.27 E9.65695
G1 X88.227 Y80.203 E9.67192
G1 X88.507 Y80.165 E9.68132
G1 X88.823 Y80.126 E9.69191
G1 X90.046 Y80.046 E9.73267
G1 X90.82 Y80.041 E9.75842
G1 X95.802 Y80.039 E9.92412
G1 X98.432 Y80 E10.0116
G1 X100.93 Y79.893 E10.09476
G1 X103.45 Y79.713 E10.17879
G1 X106.004 Y79.457 E10.26416
G1 X108.469 Y79.14 E10.34682
G1 X110.992 Y78.743 E10.43177
G1 X113.471 Y78.28 E10.51565
G1 X115.906 Y77.754 E10.59851
G1 X118.413 Y77.139 E10.68436
G1 X120.909 Y76.45 E10.77048
G1 X121.146 Y76.382 E10.77868
G1 X122.041 Y76.166 E10.80931
G1 X122.951 Y76.029 E10.83991
G1 X123.547 Y75.982 E10.8598
G1 X123.807 Y75.969 E10.86846
G1 X124.474 Y75.957 E10.89064
G1 X124.901 Y75.966 E10.90485
G1 X125.236 Y75.979 E10.916
G1 X125.543 Y75.995 E10.92623
G1 X125.882 Y76.018 E10.93753
G1 X126.796 Y76.12 E10.96812
G1 X127.348 Y76.221 E10.98678
G1 X127.595 Y76.273 E10.99517
G1 X128.037 Y76.376 E11.01027
G1 X128.479 Y76.489 E11.02544
G1 X129.36 Y76.756 E11.05606
G1 X130.21 Y77.096 E11.08651
G1 X130.678 Y77.307 E11.10359
G1 X130.987 Y77.452 E11.11494
G1 X131.193 Y77.553 E11.12257
G1 X131.946 Y77.961 E11.15105
G1 X132.584 Y78.342 E11.17577
G1 X144.136 Y85.454 E11.62697
G1 X144.696 Y85.81 E11.64904
G1 X144.952 Y85.977 E11.6592
G1 X145.274 Y86.195 E11.67214
G1 X145.492 Y86.347 E11.68098
G1 X145.723 Y86.512 E11.69042
G1 X146.448 Y87.08 E11.72105
G1 X147.122 Y87.708 E11.75169
G1 X147.564 Y88.186 E11.77335
G1 X147.895 Y88.567 E11.79013
G1 X148.101 Y88.811 E11.80075
G1 X148.253 Y88.997 E11.80874
G1 X148.804 Y89.735 E11.83937
G1 X149.097 Y90.189 E11.85735
G1 X149.214 Y90.381 E11.86482
G1 X149.461 Y90.808 E11.88123
G1 X149.681 Y91.21 E11.89647
G1 X150.087 Y92.036 E11.92709
G1 X150.519 Y93.201 E11.96841
G1 X150.673 Y93.705 E11.98594
G1 X150.757 Y93.992 E11.99589
G1 X150.812 Y94.192 E12.00279
G1 X151.073 Y95.425 E12.0447
G1 X151.14 Y95.87 E12.05967
G1 X151.176 Y96.133 E12.0685
G1 X151.215 Y96.445 E12.07896
G1 X151.253 Y96.8 E12.09083
G1 X151.286 Y97.169 E12.10316
G1 X151.452 Y99.397 E12.17746
G1 X151.711 Y101.905 E12.26132
G1 X152.036 Y104.377 E12.34425
G1 X152.445 Y106.922 E12.42998
G1 X152.909 Y109.365 E12.51269
G1 X153.457 Y111.865 E12.59782
G1 X154.054 Y114.265 E12.68007
G1 X154.749 Y116.756 E12.76609
G1 X155.435 Y118.976 E12.84337
G1 X155.567 Y119.387 E12.85773
G1 X155.811 Y120.274 E12.88833
G1 X155.978 Y121.18 E12.91897
G1 X156.074 Y122.308 E12.95662
G1 X156.084 Y122.626 E12.9672
G1 X156.082 Y123.35 E12.99128
G1 X156.065 Y123.811 E13.00663
G1 X156.046 Y124.158 E13.01818
G1 X156.025 Y124.459 E13.02822
G1 X155.921 Y125.374 E13.05885
G1 X155.824 Y125.905 E13.0768
G1 X155.772 Y126.152 E13.0852
G1 X155.669 Y126.594 E13.10029
G1 X155.556 Y127.036 E13.11547
G1 X155.289 Y127.917 E13.14608
G1 X154.949 Y128.767 E13.17653
G1 X154.738 Y129.235 E13.19361
G1 X154.593 Y129.544 E13.20496
G1 X154.492 Y129.75 E13.21259
G1 X154.084 Y130.503 E13.24108
G1 X153.703 Y131.142 E13.26582
G1 X146.603 Y142.674 E13.71624
G1 X146.24 Y143.246 E13.73878
G1 X146.068 Y143.509 E13.74923
G1 X145.85 Y143.831 E13.76216
G1 X145.685 Y144.067 E13.77174
G1 X145.52 Y144.297 E13.78115
G1 X144.951 Y145.021 E13.81178
G1 X144.322 Y145.693 E13.84239
G1 X143.871 Y146.11 E13.86282
G1 X143.49 Y146.442 E13.87963
G1 X143.234 Y146.658 E13.89077
G1 X143.048 Y146.81 E13.89876
G1 X142.31 Y147.361 E13.92939
G1 X141.856 Y147.654 E13.94737
G1 X141.664 Y147.771 E13.95484
G1 X141.244 Y148.014 E13.97098
G1 X140.83 Y148.241 E13.98669
G1 X139.966 Y148.664 E14.01868
G1 X139.885 Y148.699 E14.02162
G1 X137.517 Y149.779 E14.10818
G1 X135.245 Y150.894 E14.19236
G1 X133.002 Y152.074 E14.27666
G1 X130.771 Y153.332 E14.36184
G1 X128.643 Y154.609 E14.44439
G1 X126.534 Y155.959 E14.52767
G1 X123.457 Y158.08 E14.65197
G1 X123.328 Y158.173 E14.65726
G1 X122.57 Y158.67 E14.68741
G1 X121.829 Y159.111 E14.71609
G1 X113.54 Y163.895 E15.0344
G1 X112.958 Y164.22 E15.05657
G1 X112.136 Y164.633 E15.08717
G1 X111.28 Y164.974 E15.11782
G1 X110.399 Y165.239 E15.14842
G1 X109.497 Y165.427 E15.17906
G1 X108.334 Y165.551 E15.21796
G1 X108.081 Y165.564 E15.22639
G1 X107.405 Y165.577 E15.24888
G1 X106.966 Y165.568 E15.26348
G1 X106.631 Y165.555 E15.27463
G1 X106.324 Y165.539 E15.28486
G1 X105.985 Y165.516 E15.29616
G1 X105.071 Y165.414 E15.32675
G1 X104.519 Y165.313 E15.34541
G1 X104.272 Y165.261 E15.35381
G1 X103.83 Y165.158 E15.3689
G1 X103.388 Y165.045 E15.38407
G1 X102.507 Y164.778 E15.41469
G1 X101.657 Y164.438 E15.44514
G1 X101.189 Y164.227 E15.46222
G1 X100.879 Y164.081 E15.47361
G1 X100.671 Y163.979 E15.48132
G1 X99.917 Y163.571 E15.50983
G1 X99.283 Y163.192 E15.5344
G1 X87.725 Y156.076 E15.98584
G1 X87.156 Y155.714 E16.00827
G1 X86.901 Y155.547 E16.01841
G1 X86.591 Y155.337 E16.03086
G1 X86.375 Y155.187 E16.03961
G1 X86.144 Y155.022 E16.04905
G1 X85.419 Y154.454 E16.07968
G1 X84.745 Y153.826 E16.11032
G1 X84.303 Y153.348 E16.13198
G1 X83.972 Y152.967 E16.14876
G1 X83.766 Y152.723 E16.15938
G1 X83.614 Y152.537 E16.16737
G1 X83.063 Y151.799 E16.198
G1 X82.77 Y151.345 E16.21598
G1 X82.653 Y151.153 E16.22345
G1 X82.396 Y150.706 E16.2406
G1 X82.176 Y150.302 E16.2559
G1 X81.771 Y149.475 E16.28653
G1 X81.348 Y148.332 E16.32707
G1 X81.193 Y147.825 E16.3447
G1 X81.114 Y147.555 E16.35406
G1 X81.06 Y147.36 E16.36079
G1 X80.796 Y146.122 E16.40289
G1 X80.632 Y145.032 E16.43955
G1 X80.413 Y143.421 E16.49363
G1 X80.009 Y140.966 E16.57638
G1 X79.517 Y138.432 E16.66223
G1 X78.976 Y136.013 E16.74468
G1 X78.353 Y133.552 E16.82911
G1 X77.659 Y131.105 E16.91371
G1 X76.905 Y128.707 E16.99732
G1 X76.075 Y126.308 E17.08175
G1 X75.18 Y123.94 E17.16595
G1 X74.212 Y121.582 E17.25073
G1 X73.202 Y119.312 E17.33336
G1 X72.106 Y117.016 E17.41798
G1 X70.935 Y114.738 E17.50317
G1 X70.045 Y113.104 E17.56506
G1 X69.662 Y112.416 E17.59125
G1 X69.25 Y111.593 E17.62186
G1 X68.91 Y110.737 E17.65249
G1 X68.647 Y109.855 E17.68311
G1 X68.46 Y108.953 E17.71374
G1 X68.334 Y107.724 E17.75484
G1 X68.323 Y107.473 E17.76319
G1 X68.314 Y106.873 E17.78315
G1 X68.323 Y106.442 E17.79749
G1 X68.336 Y106.107 E17.80864
G1 X68.352 Y105.803 E17.81876
G1 X68.375 Y105.463 E17.8301
G1 X68.477 Y104.548 E17.86072
G1 X68.577 Y104.003 E17.87915
G1 X68.629 Y103.755 E17.88758
G1 X68.729 Y103.32 E17.90242
G1 X68.84 Y102.883 E17.91742
G1 X69.105 Y102.002 E17.94802
G1 X69.456 Y101.125 E17.97944
G1 X69.669 Y100.654 E17.99663
G1 X69.809 Y100.356 E18.00758
G1 X69.91 Y100.15 E18.01521
G1 X70.318 Y99.397 E18.0437
G1 X70.699 Y98.758 E18.06844
G1 X77.834 Y87.169 E18.52109
G1 X78.168 Y86.644 E18.54178
G1 X78.334 Y86.391 E18.55185
G1 X78.552 Y86.069 E18.56478
G1 X78.704 Y85.851 E18.57362
G1 X78.869 Y85.62 E18.58306
G1 X79.437 Y84.895 E18.61369
G1 X80.065 Y84.221 E18.64433
G0 F6000 X80.369 Y84.483
G1 F1200 X80.801 Y84.085 E18.66387
G1 X81.185 Y83.751 E18.6808
G1 X81.439 Y83.537 E18.69185
G1 X81.622 Y83.388 E18.69969
G1 X82.347 Y82.85 E18.72972
G1 X82.754 Y82.588 E18.74582
G1 X82.946 Y82.471 E18.7533
G1 X83.357 Y82.233 E18.7691
G1 X83.759 Y82.013 E18.78434
G1 X84.57 Y81.615 E18.81438
G1 X85.675 Y81.206 E18.85357
G1 X86.179 Y81.052 E18.8711
G1 X86.455 Y80.972 E18.88066
G1 X86.655 Y80.917 E18.88756
G1 X87.841 Y80.666 E18.92788
G1 X88.286 Y80.599 E18.94285
G1 X88.556 Y80.562 E18.95191
G1 X88.872 Y80.523 E18.9625
G1 X90.048 Y80.446 E19.0017
G1 X90.82 Y80.441 E19.02738
G1 X95.808 Y80.439 E19.19328
G1 X98.421 Y80.4 E19.2802
G1 X100.973 Y80.291 E19.36515
G1 X103.481 Y80.111 E19.44878
G1 X106.027 Y79.857 E19.53388
G1 X108.551 Y79.532 E19.61853
G1 X111.056 Y79.138 E19.70287
G1 X113.558 Y78.671 E19.78752
G1 X116.007 Y78.142 E19.87085
G1 X118.509 Y77.528 E19.95654
G1 X121.028 Y76.833 E20.04345
G1 X121.256 Y76.767 E20.05135
G1 X122.134 Y76.556 E20.08138
G1 X123.028 Y76.423 E20.11144
G1 X123.567 Y76.382 E20.12942
G1 X123.827 Y76.369 E20.13808
G1 X124.468 Y76.357 E20.1594
G1 X124.886 Y76.366 E20.17331
G1 X125.221 Y76.379 E20.18446
G1 X125.515 Y76.394 E20.19425
G1 X125.854 Y76.417 E20.20555
G1 X126.752 Y76.518 E20.23561
G1 X127.265 Y76.613 E20.25296
